{"type":"map","orientation":"orthogonal","renderorder":"right-down","infinite":false,"tilewidth":1,"tileheight":1,"width":1198,"height":600,"nextlayerid":8,"nextobjectid":21,"layers":[{"id":1,"name":"layer_2_obj","type":"objectgroup","visible":true,"opacity":1,"objects":[{"id":1,"x":-590,"y":25,"visible":true,"properties":[{"name":"layer","type":"int","value":2},{"name":"resource_index","type":"int","value":0},{"name":"oS","type":"string","value":"Tdungeon3"},{"name":"l0","type":"string","value":"subway"},{"name":"l1","type":"string","value":"station"},{"name":"l2","type":"string","value":"5"},{"name":"z","type":"int","value":7},{"name":"zM","type":"int","value":1},{"name":"f","type":"int","value":0}],"gid":3,"width":1200,"height":451},{"id":2,"x":-531,"y":-109,"visible":true,"properties":[{"name":"layer","type":"int","value":2},{"name":"resource_index","type":"int","value":1},{"name":"oS","type":"string","value":"Tdungeon3"},{"name":"l0","type":"string","value":"subway"},{"name":"l1","type":"string","value":"station"},{"name":"l2","type":"string","value":"1"},{"name":"z","type":"int","value":19},{"name":"zM","type":"int","value":1},{"name":"f","type":"int","value":0}],"gid":4,"width":1141,"height":317},{"id":3,"x":137,"y":26,"visible":true,"properties":[{"name":"layer","type":"int","value":2},{"name":"resource_index","type":"int","value":2},{"name":"oS","type":"string","value":"Tdungeon3"},{"name":"l0","type":"string","value":"subway"},{"name":"l1","type":"string","value":"station"},{"name":"l2","type":"string","value":"4"},{"name":"z","type":"int","value":9},{"name":"zM","type":"int","value":0},{"name":"f","type":"int","value":0}],"gid":5,"width":474,"height":284},{"id":4,"x":348,"y":-166,"visible":true,"properties":[{"name":"layer","type":"int","value":2},{"name":"resource_index","type":"int","value":3},{"name":"oS","type":"string","value":"Tdungeon3"},{"name":"l0","type":"string","value":"subway"},{"name":"l1","type":"string","value":"station"},{"name":"l2","type":"string","value":"2"},{"name":"z","type":"int","value":11},{"name":"zM","type":"int","value":0},{"name":"f","type":"int","value":0}],"gid":6,"width":229,"height":91}]},{"id":2,"name":"layer_3_obj","type":"objectgroup","visible":true,"opacity":1,"objects":[{"id":5,"x":-590,"y":115,"visible":true,"properties":[{"name":"layer","type":"int","value":3},{"name":"resource_index","type":"int","value":0},{"name":"oS","type":"string","value":"Tdungeon3"},{"name":"l0","type":"string","value":"subway"},{"name":"l1","type":"string","value":"station"},{"name":"l2","type":"string","value":"0"},{"name":"z","type":"int","value":9},{"name":"zM","type":"int","value":0},{"name":"f","type":"int","value":0}],"gid":7,"width":1200,"height":91}]},{"id":3,"name":"background_back_0","type":"imagelayer","visible":true,"opacity":1,"image":"../../images/27148.png","imagewidth":850,"imageheight":369,"offsetx":-428,"offsety":-329,"repeatx":false,"repeaty":false,"parallaxx":1,"parallaxy":1,"properties":[{"name":"a","type":"int","value":255},{"name":"f","type":"int","value":0},{"name":"x","type":"int","value":-3},{"name":"y","type":"int","value":-145},{"name":"bS","type":"string","value":"department"},{"name":"cx","type":"int","value":0},{"name":"cy","type":"int","value":0},{"name":"no","type":"int","value":0},{"name":"rx","type":"int","value":0},{"name":"ry","type":"int","value":0},{"name":"ani","type":"int","value":0},{"name":"type","type":"int","value":0},{"name":"front","type":"int","value":0}]},{"id":4,"name":"portal","type":"objectgroup","visible":true,"opacity":1,"objects":[{"id":6,"x":362,"y":22,"visible":true,"properties":[{"name":"x","type":"int","value":362},{"name":"y","type":"int","value":22},{"name":"pn","type":"string","value":"sp"},{"name":"pt","type":"int","value":0},{"name":"tm","type":"int","value":999999999},{"name":"tn","type":"string","value":""},{"name":"horizontalImpact","type":"int","value":0}],"point":true},{"id":7,"x":-489,"y":-226,"visible":true,"properties":[{"name":"x","type":"int","value":-489},{"name":"y","type":"int","value":-226},{"name":"pn","type":"string","value":"enter00"},{"name":"pt","type":"int","value":2},{"name":"tm","type":"int","value":103040000},{"name":"tn","type":"string","value":"enter00"},{"name":"horizontalImpact","type":"int","value":0}],"point":true},{"id":8,"x":465,"y":26,"visible":true,"properties":[{"name":"x","type":"int","value":465},{"name":"y","type":"int","value":26},{"name":"pn","type":"string","value":"out00"},{"name":"pt","type":"int","value":7},{"name":"tm","type":"int","value":999999999},{"name":"tn","type":"string","value":""},{"name":"script","type":"string","value":"Depart_ToKerning"},{"name":"horizontalImpact","type":"int","value":0}],"point":true}]},{"id":5,"name":"life","type":"objectgroup","visible":true,"opacity":1,"objects":[{"id":9,"x":-529,"y":25,"visible":true,"properties":[{"name":"f","type":"int","value":0},{"name":"x","type":"int","value":-529},{"name":"y","type":"int","value":25},{"name":"cy","type":"int","value":26},{"name":"fh","type":"int","value":9},{"name":"id","type":"int","value":1052118},{"name":"rx0","type":"int","value":-570},{"name":"rx1","type":"int","value":-479},{"name":"hide","type":"int","value":0},{"name":"type","type":"string","value":"n"},{"name":"mobTime","type":"int","value":0}],"point":true},{"id":10,"x":157,"y":25,"visible":true,"properties":[{"name":"f","type":"int","value":0},{"name":"x","type":"int","value":157},{"name":"y","type":"int","value":25},{"name":"cy","type":"int","value":26},{"name":"fh","type":"int","value":9},{"name":"id","type":"int","value":1052117},{"name":"rx0","type":"int","value":107},{"name":"rx1","type":"int","value":207},{"name":"hide","type":"int","value":0},{"name":"type","type":"string","value":"n"},{"name":"mobTime","type":"int","value":0}],"point":true}]},{"id":6,"name":"foothold","type":"objectgroup","visible":true,"opacity":1,"objects":[{"id":11,"x":-374,"y":-8,"visible":true,"properties":[{"name":"layer","type":"int","value":2},{"name":"group","type":"int","value":1},{"name":"id","type":"int","value":1},{"name":"fh_layer","type":"int","value":2},{"name":"fh_group","type":"int","value":1},{"name":"fh_id","type":"int","value":1},{"name":"x1","type":"int","value":-374},{"name":"x2","type":"int","value":-245},{"name":"y1","type":"int","value":-8},{"name":"y2","type":"int","value":-8},{"name":"next","type":"int","value":0},{"name":"prev","type":"int","value":0}],"polyline":[{"x":0,"y":0},{"x":129,"y":0}]},{"id":12,"x":-389,"y":-38,"visible":true,"properties":[{"name":"layer","type":"int","value":2},{"name":"group","type":"int","value":1},{"name":"id","type":"int","value":2},{"name":"fh_layer","type":"int","value":2},{"name":"fh_group","type":"int","value":1},{"name":"fh_id","type":"int","value":2},{"name":"x1","type":"int","value":-389},{"name":"x2","type":"int","value":-269},{"name":"y1","type":"int","value":-38},{"name":"y2","type":"int","value":-38},{"name":"next","type":"int","value":0},{"name":"prev","type":"int","value":0}],"polyline":[{"x":0,"y":0},{"x":120,"y":0}]},{"id":13,"x":-410,"y":-69,"visible":true,"properties":[{"name":"layer","type":"int","value":2},{"name":"group","type":"int","value":1},{"name":"id","type":"int","value":3},{"name":"fh_layer","type":"int","value":2},{"name":"fh_group","type":"int","value":1},{"name":"fh_id","type":"int","value":3},{"name":"x1","type":"int","value":-410},{"name":"x2","type":"int","value":-293},{"name":"y1","type":"int","value":-69},{"name":"y2","type":"int","value":-69},{"name":"next","type":"int","value":0},{"name":"prev","type":"int","value":0}],"polyline":[{"x":0,"y":0},{"x":117,"y":0}]},{"id":14,"x":-431,"y":-100,"visible":true,"properties":[{"name":"layer","type":"int","value":2},{"name":"group","type":"int","value":1},{"name":"id","type":"int","value":4},{"name":"fh_layer","type":"int","value":2},{"name":"fh_group","type":"int","value":1},{"name":"fh_id","type":"int","value":4},{"name":"x1","type":"int","value":-431},{"name":"x2","type":"int","value":-317},{"name":"y1","type":"int","value":-100},{"name":"y2","type":"int","value":-100},{"name":"next","type":"int","value":0},{"name":"prev","type":"int","value":0}],"polyline":[{"x":0,"y":0},{"x":114,"y":0}]},{"id":15,"x":-455,"y":-132,"visible":true,"properties":[{"name":"layer","type":"int","value":2},{"name":"group","type":"int","value":1},{"name":"id","type":"int","value":5},{"name":"fh_layer","type":"int","value":2},{"name":"fh_group","type":"int","value":1},{"name":"fh_id","type":"int","value":5},{"name":"x1","type":"int","value":-455},{"name":"x2","type":"int","value":-340},{"name":"y1","type":"int","value":-132},{"name":"y2","type":"int","value":-132},{"name":"next","type":"int","value":0},{"name":"prev","type":"int","value":0}],"polyline":[{"x":0,"y":0},{"x":115,"y":0}]},{"id":16,"x":-478,"y":-162,"visible":true,"properties":[{"name":"layer","type":"int","value":2},{"name":"group","type":"int","value":1},{"name":"id","type":"int","value":6},{"name":"fh_layer","type":"int","value":2},{"name":"fh_group","type":"int","value":1},{"name":"fh_id","type":"int","value":6},{"name":"x1","type":"int","value":-478},{"name":"x2","type":"int","value":-363},{"name":"y1","type":"int","value":-162},{"name":"y2","type":"int","value":-162},{"name":"next","type":"int","value":0},{"name":"prev","type":"int","value":0}],"polyline":[{"x":0,"y":0},{"x":115,"y":0}]},{"id":17,"x":-503,"y":-194,"visible":true,"properties":[{"name":"layer","type":"int","value":2},{"name":"group","type":"int","value":1},{"name":"id","type":"int","value":7},{"name":"fh_layer","type":"int","value":2},{"name":"fh_group","type":"int","value":1},{"name":"fh_id","type":"int","value":7},{"name":"x1","type":"int","value":-503},{"name":"x2","type":"int","value":-388},{"name":"y1","type":"int","value":-194},{"name":"y2","type":"int","value":-194},{"name":"next","type":"int","value":0},{"name":"prev","type":"int","value":0}],"polyline":[{"x":0,"y":0},{"x":115,"y":0}]},{"id":18,"x":-527,"y":-225,"visible":true,"properties":[{"name":"layer","type":"int","value":2},{"name":"group","type":"int","value":1},{"name":"id","type":"int","value":8},{"name":"fh_layer","type":"int","value":2},{"name":"fh_group","type":"int","value":1},{"name":"fh_id","type":"int","value":8},{"name":"x1","type":"int","value":-527},{"name":"x2","type":"int","value":-412},{"name":"y1","type":"int","value":-225},{"name":"y2","type":"int","value":-225},{"name":"next","type":"int","value":0},{"name":"prev","type":"int","value":0}],"polyline":[{"x":0,"y":0},{"x":115,"y":0}]},{"id":19,"x":-590,"y":26,"visible":true,"properties":[{"name":"layer","type":"int","value":3},{"name":"group","type":"int","value":0},{"name":"id","type":"int","value":9},{"name":"fh_layer","type":"int","value":3},{"name":"fh_group","type":"int","value":0},{"name":"fh_id","type":"int","value":9},{"name":"x1","type":"int","value":-590},{"name":"x2","type":"int","value":610},{"name":"y1","type":"int","value":26},{"name":"y2","type":"int","value":26},{"name":"next","type":"int","value":0},{"name":"prev","type":"int","value":0}],"polyline":[{"x":0,"y":0},{"x":1200,"y":0}]}]},{"id":7,"name":"miniMap","type":"objectgroup","visible":true,"opacity":1,"objects":[{"id":20,"x":638,"y":576,"visible":true,"properties":[{"name":"mag","type":"int","value":4},{"name":"centerX","type":"int","value":638},{"name":"centerY","type":"int","value":576},{"name":"canvas_path","type":"string","value":"../../images/30726.png"},{"name":"canvas_width","type":"int","value":81},{"name":"canvas_height","type":"int","value":46},{"name":"canvas_origin_x","type":"int","value":0},{"name":"canvas_origin_y","type":"int","value":0}],"point":true}]}],"tilesets":[{"firstgid":1,"source":"../../tilesets/bg_department.tsj"},{"firstgid":3,"source":"../../tilesets/obj_Tdungeon3_subway_station.tsj"}],"properties":[{"name":"bgm","type":"string","value":"Bgm21/KerningSquare"},{"name":"fly","type":"int","value":0},{"name":"swim","type":"int","value":0},{"name":"town","type":"int","value":0},{"name":"VRTop","type":"int","value":-425},{"name":"cloud","type":"int","value":0},{"name":"VRLeft","type":"int","value":-590},{"name":"VRRight","type":"int","value":608},{"name":"mapMark","type":"string","value":"101Building"},{"name":"mobRate","type":"float","value":1},{"name":"version","type":"int","value":10},{"name":"VRBottom","type":"int","value":175},{"name":"noMapCmd","type":"int","value":0},{"name":"returnMap","type":"int","value":103040000},{"name":"fieldLimit","type":"int","value":0},{"name":"hideMinimap","type":"int","value":0},{"name":"onUserEnter","type":"string","value":""},{"name":"forcedReturn","type":"int","value":999999999},{"name":"onFirstUserEnter","type":"string","value":""}]}