{"type":"map","orientation":"orthogonal","renderorder":"right-down","infinite":false,"tilewidth":1,"tileheight":1,"width":4092,"height":2791,"parallaxoriginx":-400,"parallaxoriginy":80,"nextlayerid":39,"nextobjectid":1221,"layers":[{"id":1,"name":"background_back_0","type":"imagelayer","visible":true,"opacity":1,"image":"../images/27988.png","imagewidth":303,"imageheight":180,"offsetx":-213,"offsety":-67,"repeatx":true,"repeaty":true,"parallaxx":0.02,"parallaxy":0.1,"properties":[{"name":"a","type":"int","value":255},{"name":"f","type":"int","value":0},{"name":"x","type":"int","value":-13},{"name":"y","type":"int","value":3},{"name":"bS","type":"string","value":"shineWood"},{"name":"cx","type":"int","value":0},{"name":"cy","type":"int","value":0},{"name":"no","type":"int","value":0},{"name":"rx","type":"int","value":-2},{"name":"ry","type":"int","value":-10},{"name":"ani","type":"int","value":0},{"name":"type","type":"int","value":3},{"name":"front","type":"int","value":0}]},{"id":2,"name":"background_back_1","type":"imagelayer","visible":true,"opacity":1,"image":"../images/27989.png","imagewidth":469,"imageheight":647,"offsetx":29,"offsety":-494,"repeatx":false,"repeaty":true,"parallaxx":0.03,"parallaxy":0.15,"properties":[{"name":"a","type":"int","value":255},{"name":"f","type":"int","value":0},{"name":"x","type":"int","value":241},{"name":"y","type":"int","value":-79},{"name":"bS","type":"string","value":"shineWood"},{"name":"cx","type":"int","value":0},{"name":"cy","type":"int","value":0},{"name":"no","type":"int","value":1},{"name":"rx","type":"int","value":-3},{"name":"ry","type":"int","value":-15},{"name":"ani","type":"int","value":0},{"name":"type","type":"int","value":2},{"name":"front","type":"int","value":0}]},{"id":3,"name":"background_back_2","type":"imagelayer","visible":true,"opacity":1,"image":"../images/27991.png","imagewidth":283,"imageheight":914,"offsetx":233,"offsety":-37,"repeatx":false,"repeaty":true,"parallaxx":0.05,"parallaxy":0.2,"properties":[{"name":"a","type":"int","value":255},{"name":"f","type":"int","value":0},{"name":"x","type":"int","value":374},{"name":"y","type":"int","value":340},{"name":"bS","type":"string","value":"shineWood"},{"name":"cx","type":"int","value":0},{"name":"cy","type":"int","value":0},{"name":"no","type":"int","value":3},{"name":"rx","type":"int","value":-5},{"name":"ry","type":"int","value":-20},{"name":"ani","type":"int","value":0},{"name":"type","type":"int","value":2},{"name":"front","type":"int","value":0}]},{"id":4,"name":"background_back_3","type":"imagelayer","visible":true,"opacity":1,"image":"../images/27992.png","imagewidth":392,"imageheight":995,"offsetx":-529,"offsety":-455,"repeatx":false,"repeaty":true,"parallaxx":0.05,"parallaxy":0.2,"properties":[{"name":"a","type":"int","value":255},{"name":"f","type":"int","value":0},{"name":"x","type":"int","value":-333},{"name":"y","type":"int","value":-38},{"name":"bS","type":"string","value":"shineWood"},{"name":"cx","type":"int","value":0},{"name":"cy","type":"int","value":0},{"name":"no","type":"int","value":4},{"name":"rx","type":"int","value":-5},{"name":"ry","type":"int","value":-20},{"name":"ani","type":"int","value":0},{"name":"type","type":"int","value":2},{"name":"front","type":"int","value":0}]},{"id":5,"name":"background_back_4","type":"imagelayer","visible":true,"opacity":1,"image":"../images/27995.png","imagewidth":180,"imageheight":392,"offsetx":195,"offsety":1,"repeatx":true,"repeaty":true,"parallaxx":0.08,"parallaxy":0.23,"properties":[{"name":"a","type":"int","value":255},{"name":"f","type":"int","value":0},{"name":"x","type":"int","value":285},{"name":"y","type":"int","value":117},{"name":"bS","type":"string","value":"shineWood"},{"name":"cx","type":"int","value":400},{"name":"cy","type":"int","value":0},{"name":"no","type":"int","value":7},{"name":"rx","type":"int","value":-8},{"name":"ry","type":"int","value":-23},{"name":"ani","type":"int","value":0},{"name":"type","type":"int","value":3},{"name":"front","type":"int","value":0}]},{"id":6,"name":"background_back_5","type":"imagelayer","visible":true,"opacity":1,"image":"../images/27995.png","imagewidth":180,"imageheight":392,"offsetx":-430,"offsety":-120,"repeatx":true,"repeaty":true,"parallaxx":0.13,"parallaxy":0.23,"properties":[{"name":"a","type":"int","value":255},{"name":"f","type":"int","value":0},{"name":"x","type":"int","value":-340},{"name":"y","type":"int","value":-4},{"name":"bS","type":"string","value":"shineWood"},{"name":"cx","type":"int","value":300},{"name":"cy","type":"int","value":0},{"name":"no","type":"int","value":7},{"name":"rx","type":"int","value":-13},{"name":"ry","type":"int","value":-23},{"name":"ani","type":"int","value":0},{"name":"type","type":"int","value":3},{"name":"front","type":"int","value":0}]},{"id":7,"name":"background_back_6","type":"imagelayer","visible":true,"opacity":1,"image":"../images/27993.png","imagewidth":195,"imageheight":392,"offsetx":-400,"offsety":-122,"repeatx":true,"repeaty":true,"parallaxx":0.15,"parallaxy":0.25,"properties":[{"name":"a","type":"int","value":255},{"name":"f","type":"int","value":0},{"name":"x","type":"int","value":-303},{"name":"y","type":"int","value":-6},{"name":"bS","type":"string","value":"shineWood"},{"name":"cx","type":"int","value":300},{"name":"cy","type":"int","value":0},{"name":"no","type":"int","value":5},{"name":"rx","type":"int","value":-15},{"name":"ry","type":"int","value":-25},{"name":"ani","type":"int","value":0},{"name":"type","type":"int","value":3},{"name":"front","type":"int","value":0}]},{"id":8,"name":"background_back_7","type":"imagelayer","visible":true,"opacity":1,"image":"../images/27994.png","imagewidth":191,"imageheight":392,"offsetx":855,"offsety":122,"repeatx":true,"repeaty":true,"parallaxx":0.15,"parallaxy":0.25,"properties":[{"name":"a","type":"int","value":255},{"name":"f","type":"int","value":0},{"name":"x","type":"int","value":950},{"name":"y","type":"int","value":238},{"name":"bS","type":"string","value":"shineWood"},{"name":"cx","type":"int","value":400},{"name":"cy","type":"int","value":0},{"name":"no","type":"int","value":6},{"name":"rx","type":"int","value":-15},{"name":"ry","type":"int","value":-25},{"name":"ani","type":"int","value":0},{"name":"type","type":"int","value":3},{"name":"front","type":"int","value":0}]},{"id":9,"name":"background_back_8","type":"imagelayer","visible":true,"opacity":1,"image":"../images/28011.png","imagewidth":183,"imageheight":341,"offsetx":541,"offsety":-339,"repeatx":false,"repeaty":false,"parallaxx":0.22,"parallaxy":0.27,"properties":[{"name":"a","type":"int","value":255},{"name":"f","type":"int","value":0},{"name":"x","type":"int","value":632},{"name":"y","type":"int","value":-249},{"name":"bS","type":"string","value":"shineWood"},{"name":"cx","type":"int","value":0},{"name":"cy","type":"int","value":0},{"name":"no","type":"int","value":23},{"name":"rx","type":"int","value":-22},{"name":"ry","type":"int","value":-27},{"name":"ani","type":"int","value":0},{"name":"type","type":"int","value":0},{"name":"front","type":"int","value":0}]},{"id":10,"name":"background_back_9","type":"imagelayer","visible":true,"opacity":1,"image":"../images/28010.png","imagewidth":146,"imageheight":209,"offsetx":589,"offsety":-112,"repeatx":false,"repeaty":true,"parallaxx":0.22,"parallaxy":0.27,"properties":[{"name":"a","type":"int","value":255},{"name":"f","type":"int","value":0},{"name":"x","type":"int","value":661},{"name":"y","type":"int","value":14},{"name":"bS","type":"string","value":"shineWood"},{"name":"cx","type":"int","value":0},{"name":"cy","type":"int","value":0},{"name":"no","type":"int","value":22},{"name":"rx","type":"int","value":-22},{"name":"ry","type":"int","value":-27},{"name":"ani","type":"int","value":0},{"name":"type","type":"int","value":2},{"name":"front","type":"int","value":0}]},{"id":11,"name":"background_back_10","type":"imagelayer","visible":true,"opacity":1,"image":"../images/28014.png","imagewidth":165,"imageheight":337,"offsetx":599,"offsety":170,"repeatx":false,"repeaty":false,"parallaxx":0.22,"parallaxy":0.27,"properties":[{"name":"a","type":"int","value":255},{"name":"f","type":"int","value":0},{"name":"x","type":"int","value":681},{"name":"y","type":"int","value":258},{"name":"bS","type":"string","value":"shineWood"},{"name":"cx","type":"int","value":0},{"name":"cy","type":"int","value":0},{"name":"no","type":"int","value":26},{"name":"rx","type":"int","value":-22},{"name":"ry","type":"int","value":-27},{"name":"ani","type":"int","value":0},{"name":"type","type":"int","value":0},{"name":"front","type":"int","value":0}]},{"id":12,"name":"background_back_11","type":"imagelayer","visible":true,"opacity":1,"image":"../images/28012.png","imagewidth":182,"imageheight":273,"offsetx":505,"offsety":628,"repeatx":false,"repeaty":false,"parallaxx":0.22,"parallaxy":0.27,"properties":[{"name":"a","type":"int","value":255},{"name":"f","type":"int","value":0},{"name":"x","type":"int","value":596},{"name":"y","type":"int","value":684},{"name":"bS","type":"string","value":"shineWood"},{"name":"cx","type":"int","value":0},{"name":"cy","type":"int","value":0},{"name":"no","type":"int","value":24},{"name":"rx","type":"int","value":-22},{"name":"ry","type":"int","value":-27},{"name":"ani","type":"int","value":0},{"name":"type","type":"int","value":0},{"name":"front","type":"int","value":0}]},{"id":13,"name":"background_back_12","type":"imagelayer","visible":true,"opacity":1,"image":"../images/27998.png","imagewidth":205,"imageheight":602,"offsetx":-140,"offsety":-130,"repeatx":false,"repeaty":true,"parallaxx":0.25,"parallaxy":0.3,"properties":[{"name":"a","type":"int","value":255},{"name":"f","type":"int","value":0},{"name":"x","type":"int","value":-38},{"name":"y","type":"int","value":91},{"name":"bS","type":"string","value":"shineWood"},{"name":"cx","type":"int","value":0},{"name":"cy","type":"int","value":0},{"name":"no","type":"int","value":10},{"name":"rx","type":"int","value":-25},{"name":"ry","type":"int","value":-30},{"name":"ani","type":"int","value":0},{"name":"type","type":"int","value":2},{"name":"front","type":"int","value":0}]},{"id":14,"name":"background_back_13","type":"imagelayer","visible":true,"opacity":1,"image":"../images/27998.png","imagewidth":205,"imageheight":602,"offsetx":-455,"offsety":-433,"repeatx":false,"repeaty":true,"parallaxx":0.23,"parallaxy":0.28,"properties":[{"name":"a","type":"int","value":255},{"name":"f","type":"int","value":0},{"name":"x","type":"int","value":-353},{"name":"y","type":"int","value":-212},{"name":"bS","type":"string","value":"shineWood"},{"name":"cx","type":"int","value":0},{"name":"cy","type":"int","value":0},{"name":"no","type":"int","value":10},{"name":"rx","type":"int","value":-23},{"name":"ry","type":"int","value":-28},{"name":"ani","type":"int","value":0},{"name":"type","type":"int","value":2},{"name":"front","type":"int","value":0}]},{"id":15,"name":"background_back_14","type":"imagelayer","visible":true,"opacity":1,"image":"../images/27996.png","imagewidth":301,"imageheight":602,"offsetx":-380,"offsety":-900,"repeatx":false,"repeaty":true,"parallaxx":0.3,"parallaxy":0.3,"properties":[{"name":"a","type":"int","value":255},{"name":"f","type":"int","value":0},{"name":"x","type":"int","value":-230},{"name":"y","type":"int","value":-679},{"name":"bS","type":"string","value":"shineWood"},{"name":"cx","type":"int","value":0},{"name":"cy","type":"int","value":0},{"name":"no","type":"int","value":8},{"name":"rx","type":"int","value":-30},{"name":"ry","type":"int","value":-30},{"name":"ani","type":"int","value":0},{"name":"type","type":"int","value":2},{"name":"front","type":"int","value":0}]},{"id":16,"name":"background_back_15","type":"imagelayer","visible":true,"opacity":1,"image":"../images/28004.png","imagewidth":265,"imageheight":265,"offsetx":-134,"offsety":-54,"repeatx":true,"repeaty":true,"parallaxx":0.31,"parallaxy":0.31,"properties":[{"name":"a","type":"int","value":255},{"name":"f","type":"int","value":0},{"name":"x","type":"int","value":0},{"name":"y","type":"int","value":0},{"name":"bS","type":"string","value":"shineWood"},{"name":"cx","type":"int","value":548},{"name":"cy","type":"int","value":548},{"name":"no","type":"int","value":16},{"name":"rx","type":"int","value":-31},{"name":"ry","type":"int","value":-31},{"name":"ani","type":"int","value":0},{"name":"type","type":"int","value":3},{"name":"front","type":"int","value":0},{"name":"a0","type":"int","value":235}]},{"id":17,"name":"background_back_16","type":"imagelayer","visible":true,"opacity":1,"image":"../images/28004.png","imagewidth":265,"imageheight":265,"offsetx":3,"offsety":83,"repeatx":true,"repeaty":true,"parallaxx":0.31,"parallaxy":0.31,"properties":[{"name":"a","type":"int","value":255},{"name":"f","type":"int","value":0},{"name":"x","type":"int","value":137},{"name":"y","type":"int","value":137},{"name":"bS","type":"string","value":"shineWood"},{"name":"cx","type":"int","value":548},{"name":"cy","type":"int","value":548},{"name":"no","type":"int","value":16},{"name":"rx","type":"int","value":-31},{"name":"ry","type":"int","value":-31},{"name":"ani","type":"int","value":0},{"name":"type","type":"int","value":3},{"name":"front","type":"int","value":0},{"name":"a0","type":"int","value":235}]},{"id":18,"name":"background_back_17","type":"imagelayer","visible":true,"opacity":1,"image":"../images/28004.png","imagewidth":265,"imageheight":265,"offsetx":140,"offsety":220,"repeatx":true,"repeaty":true,"parallaxx":0.31,"parallaxy":0.31,"properties":[{"name":"a","type":"int","value":255},{"name":"f","type":"int","value":0},{"name":"x","type":"int","value":274},{"name":"y","type":"int","value":274},{"name":"bS","type":"string","value":"shineWood"},{"name":"cx","type":"int","value":548},{"name":"cy","type":"int","value":548},{"name":"no","type":"int","value":16},{"name":"rx","type":"int","value":-31},{"name":"ry","type":"int","value":-31},{"name":"ani","type":"int","value":0},{"name":"type","type":"int","value":3},{"name":"front","type":"int","value":0},{"name":"a0","type":"int","value":235}]},{"id":19,"name":"background_back_18","type":"imagelayer","visible":true,"opacity":1,"image":"../images/28004.png","imagewidth":265,"imageheight":265,"offsetx":-271,"offsety":-191,"repeatx":true,"repeaty":true,"parallaxx":0.31,"parallaxy":0.31,"properties":[{"name":"a","type":"int","value":255},{"name":"f","type":"int","value":0},{"name":"x","type":"int","value":-137},{"name":"y","type":"int","value":-137},{"name":"bS","type":"string","value":"shineWood"},{"name":"cx","type":"int","value":548},{"name":"cy","type":"int","value":548},{"name":"no","type":"int","value":16},{"name":"rx","type":"int","value":-31},{"name":"ry","type":"int","value":-31},{"name":"ani","type":"int","value":0},{"name":"type","type":"int","value":3},{"name":"front","type":"int","value":0},{"name":"a0","type":"int","value":235}]},{"id":20,"name":"background_back_19","type":"imagelayer","visible":true,"opacity":1,"image":"../images/28000.png","imagewidth":295,"imageheight":602,"offsetx":-391,"offsety":-613,"repeatx":false,"repeaty":true,"parallaxx":0.35,"parallaxy":0.35,"properties":[{"name":"a","type":"int","value":255},{"name":"f","type":"int","value":0},{"name":"x","type":"int","value":-244},{"name":"y","type":"int","value":-392},{"name":"bS","type":"string","value":"shineWood"},{"name":"cx","type":"int","value":0},{"name":"cy","type":"int","value":0},{"name":"no","type":"int","value":12},{"name":"rx","type":"int","value":-35},{"name":"ry","type":"int","value":-35},{"name":"ani","type":"int","value":0},{"name":"type","type":"int","value":2},{"name":"front","type":"int","value":0}]},{"id":21,"name":"background_back_20","type":"imagelayer","visible":true,"opacity":1,"image":"../images/28001.png","imagewidth":294,"imageheight":602,"offsetx":338,"offsety":-396,"repeatx":false,"repeaty":true,"parallaxx":0.33,"parallaxy":0.36,"properties":[{"name":"a","type":"int","value":255},{"name":"f","type":"int","value":0},{"name":"x","type":"int","value":485},{"name":"y","type":"int","value":-175},{"name":"bS","type":"string","value":"shineWood"},{"name":"cx","type":"int","value":0},{"name":"cy","type":"int","value":0},{"name":"no","type":"int","value":13},{"name":"rx","type":"int","value":-33},{"name":"ry","type":"int","value":-36},{"name":"ani","type":"int","value":0},{"name":"type","type":"int","value":2},{"name":"front","type":"int","value":0}]},{"id":22,"name":"background_back_21","type":"imagelayer","visible":true,"opacity":1,"image":"../images/27998.png","imagewidth":205,"imageheight":602,"offsetx":306,"offsety":-356,"repeatx":false,"repeaty":true,"parallaxx":0.35,"parallaxy":0.39,"properties":[{"name":"a","type":"int","value":255},{"name":"f","type":"int","value":0},{"name":"x","type":"int","value":408},{"name":"y","type":"int","value":-135},{"name":"bS","type":"string","value":"shineWood"},{"name":"cx","type":"int","value":0},{"name":"cy","type":"int","value":0},{"name":"no","type":"int","value":10},{"name":"rx","type":"int","value":-35},{"name":"ry","type":"int","value":-39},{"name":"ani","type":"int","value":0},{"name":"type","type":"int","value":2},{"name":"front","type":"int","value":0}]},{"id":23,"name":"background_back_22","type":"imagelayer","visible":true,"opacity":1,"image":"../images/27999.png","imagewidth":280,"imageheight":197,"offsetx":284,"offsety":154,"repeatx":false,"repeaty":true,"parallaxx":0.35,"parallaxy":0.39,"properties":[{"name":"a","type":"int","value":255},{"name":"f","type":"int","value":0},{"name":"x","type":"int","value":424},{"name":"y","type":"int","value":172},{"name":"bS","type":"string","value":"shineWood"},{"name":"cx","type":"int","value":0},{"name":"cy","type":"int","value":600},{"name":"no","type":"int","value":11},{"name":"rx","type":"int","value":-35},{"name":"ry","type":"int","value":-39},{"name":"ani","type":"int","value":0},{"name":"type","type":"int","value":2},{"name":"front","type":"int","value":0}]},{"id":24,"name":"background_back_23","type":"imagelayer","visible":true,"opacity":1,"image":"../images/28000.png","imagewidth":295,"imageheight":602,"offsetx":436,"offsety":-668,"repeatx":false,"repeaty":true,"parallaxx":0.42,"parallaxy":0.42,"properties":[{"name":"a","type":"int","value":255},{"name":"f","type":"int","value":0},{"name":"x","type":"int","value":583},{"name":"y","type":"int","value":-447},{"name":"bS","type":"string","value":"shineWood"},{"name":"cx","type":"int","value":0},{"name":"cy","type":"int","value":0},{"name":"no","type":"int","value":12},{"name":"rx","type":"int","value":-42},{"name":"ry","type":"int","value":-42},{"name":"ani","type":"int","value":0},{"name":"type","type":"int","value":2},{"name":"front","type":"int","value":0}]},{"id":25,"name":"background_back_24","type":"imagelayer","visible":true,"opacity":1,"image":"../images/28002.png","imagewidth":275,"imageheight":400,"offsetx":-1860,"offsety":-208,"repeatx":false,"repeaty":true,"parallaxx":1,"parallaxy":1,"properties":[{"name":"a","type":"int","value":255},{"name":"f","type":"int","value":0},{"name":"x","type":"int","value":-1723},{"name":"y","type":"int","value":-88},{"name":"bS","type":"string","value":"shineWood"},{"name":"cx","type":"int","value":0},{"name":"cy","type":"int","value":0},{"name":"no","type":"int","value":14},{"name":"rx","type":"int","value":-100},{"name":"ry","type":"int","value":-100},{"name":"ani","type":"int","value":0},{"name":"type","type":"int","value":2},{"name":"front","type":"int","value":0}]},{"id":26,"name":"background_back_25","type":"imagelayer","visible":true,"opacity":1,"image":"../images/28002.png","imagewidth":275,"imageheight":400,"offsetx":-1272,"offsety":-273,"repeatx":false,"repeaty":true,"parallaxx":1,"parallaxy":1,"properties":[{"name":"a","type":"int","value":255},{"name":"f","type":"int","value":0},{"name":"x","type":"int","value":-1135},{"name":"y","type":"int","value":-153},{"name":"bS","type":"string","value":"shineWood"},{"name":"cx","type":"int","value":0},{"name":"cy","type":"int","value":0},{"name":"no","type":"int","value":14},{"name":"rx","type":"int","value":-100},{"name":"ry","type":"int","value":-100},{"name":"ani","type":"int","value":0},{"name":"type","type":"int","value":2},{"name":"front","type":"int","value":0}]},{"id":27,"name":"background_back_26","type":"imagelayer","visible":true,"opacity":1,"image":"../images/28003.png","imagewidth":275,"imageheight":400,"offsetx":-807,"offsety":2,"repeatx":false,"repeaty":true,"parallaxx":1,"parallaxy":1,"properties":[{"name":"a","type":"int","value":255},{"name":"f","type":"int","value":0},{"name":"x","type":"int","value":-670},{"name":"y","type":"int","value":122},{"name":"bS","type":"string","value":"shineWood"},{"name":"cx","type":"int","value":0},{"name":"cy","type":"int","value":0},{"name":"no","type":"int","value":15},{"name":"rx","type":"int","value":-100},{"name":"ry","type":"int","value":-100},{"name":"ani","type":"int","value":0},{"name":"type","type":"int","value":2},{"name":"front","type":"int","value":0}]},{"id":28,"name":"background_back_27","type":"imagelayer","visible":true,"opacity":1,"image":"../images/28003.png","imagewidth":275,"imageheight":400,"offsetx":390,"offsety":-249,"repeatx":false,"repeaty":true,"parallaxx":1,"parallaxy":1,"properties":[{"name":"a","type":"int","value":255},{"name":"f","type":"int","value":0},{"name":"x","type":"int","value":527},{"name":"y","type":"int","value":-129},{"name":"bS","type":"string","value":"shineWood"},{"name":"cx","type":"int","value":0},{"name":"cy","type":"int","value":0},{"name":"no","type":"int","value":15},{"name":"rx","type":"int","value":-100},{"name":"ry","type":"int","value":-100},{"name":"ani","type":"int","value":0},{"name":"type","type":"int","value":2},{"name":"front","type":"int","value":0}]},{"id":29,"name":"background_back_28","type":"imagelayer","visible":true,"opacity":1,"image":"../images/28002.png","imagewidth":275,"imageheight":400,"offsetx":849,"offsety":-166,"repeatx":false,"repeaty":true,"parallaxx":1,"parallaxy":1,"properties":[{"name":"a","type":"int","value":255},{"name":"f","type":"int","value":0},{"name":"x","type":"int","value":986},{"name":"y","type":"int","value":-46},{"name":"bS","type":"string","value":"shineWood"},{"name":"cx","type":"int","value":0},{"name":"cy","type":"int","value":0},{"name":"no","type":"int","value":14},{"name":"rx","type":"int","value":-100},{"name":"ry","type":"int","value":-100},{"name":"ani","type":"int","value":0},{"name":"type","type":"int","value":2},{"name":"front","type":"int","value":0}]},{"id":30,"name":"layer_0_obj","type":"objectgroup","visible":true,"opacity":1,"draworder":"index","offsetx":0,"offsety":0,"parallaxx":1,"parallaxy":1,"objects":[{"id":1,"x":-272,"y":1090,"visible":true,"properties":[{"name":"layer","type":"int","value":0},{"name":"resource_index","type":"int","value":0},{"name":"oS","type":"string","value":"guide"},{"name":"l0","type":"string","value":"milepost"},{"name":"l1","type":"string","value":"common"},{"name":"l2","type":"string","value":"1"},{"name":"z","type":"int","value":8},{"name":"zM","type":"int","value":0},{"name":"f","type":"int","value":0}],"gid":54,"width":21,"height":60},{"id":2,"x":-272,"y":1048,"visible":true,"properties":[{"name":"layer","type":"int","value":0},{"name":"resource_index","type":"int","value":1},{"name":"oS","type":"string","value":"guide"},{"name":"l0","type":"string","value":"milepost"},{"name":"l1","type":"string","value":"common"},{"name":"l2","type":"string","value":"1"},{"name":"z","type":"int","value":8},{"name":"zM","type":"int","value":0},{"name":"f","type":"int","value":0}],"gid":54,"width":21,"height":60},{"id":3,"x":-296,"y":1075,"visible":true,"properties":[{"name":"layer","type":"int","value":0},{"name":"resource_index","type":"int","value":2},{"name":"oS","type":"string","value":"guide"},{"name":"l0","type":"string","value":"milepost"},{"name":"l1","type":"string","value":"backcho"},{"name":"l2","type":"string","value":"3"},{"name":"z","type":"int","value":9},{"name":"zM","type":"int","value":0},{"name":"f","type":"int","value":0}],"gid":58,"width":61,"height":51},{"id":4,"x":-292,"y":1021,"visible":true,"properties":[{"name":"layer","type":"int","value":0},{"name":"resource_index","type":"int","value":3},{"name":"oS","type":"string","value":"guide"},{"name":"l0","type":"string","value":"milepost"},{"name":"l1","type":"string","value":"backcho"},{"name":"l2","type":"string","value":"4"},{"name":"z","type":"int","value":9},{"name":"zM","type":"int","value":0},{"name":"f","type":"int","value":0}],"gid":57,"width":63,"height":51},{"id":5,"x":929,"y":-165,"visible":true,"properties":[{"name":"layer","type":"int","value":0},{"name":"resource_index","type":"int","value":4},{"name":"oS","type":"string","value":"guide"},{"name":"l0","type":"string","value":"milepost"},{"name":"l1","type":"string","value":"common"},{"name":"l2","type":"string","value":"1"},{"name":"z","type":"int","value":8},{"name":"zM","type":"int","value":0},{"name":"f","type":"int","value":0}],"gid":54,"width":21,"height":60},{"id":6,"x":929,"y":-208,"visible":true,"properties":[{"name":"layer","type":"int","value":0},{"name":"resource_index","type":"int","value":5},{"name":"oS","type":"string","value":"guide"},{"name":"l0","type":"string","value":"milepost"},{"name":"l1","type":"string","value":"common"},{"name":"l2","type":"string","value":"1"},{"name":"z","type":"int","value":8},{"name":"zM","type":"int","value":0},{"name":"f","type":"int","value":0}],"gid":54,"width":21,"height":60},{"id":7,"x":913,"y":-236,"visible":true,"properties":[{"name":"layer","type":"int","value":0},{"name":"resource_index","type":"int","value":6},{"name":"oS","type":"string","value":"guide"},{"name":"l0","type":"string","value":"milepost"},{"name":"l1","type":"string","value":"backcho"},{"name":"l2","type":"string","value":"5"},{"name":"z","type":"int","value":9},{"name":"zM","type":"int","value":0},{"name":"f","type":"int","value":0}],"gid":56,"width":64,"height":40},{"id":8,"x":903,"y":-181,"visible":true,"properties":[{"name":"layer","type":"int","value":0},{"name":"resource_index","type":"int","value":7},{"name":"oS","type":"string","value":"guide"},{"name":"l0","type":"string","value":"milepost"},{"name":"l1","type":"string","value":"backcho"},{"name":"l2","type":"string","value":"3"},{"name":"z","type":"int","value":9},{"name":"zM","type":"int","value":0},{"name":"f","type":"int","value":0}],"gid":58,"width":61,"height":51},{"id":9,"x":-1564,"y":2079,"visible":true,"properties":[{"name":"layer","type":"int","value":0},{"name":"resource_index","type":"int","value":8},{"name":"oS","type":"string","value":"guide"},{"name":"l0","type":"string","value":"milepost"},{"name":"l1","type":"string","value":"common"},{"name":"l2","type":"string","value":"1"},{"name":"z","type":"int","value":9},{"name":"zM","type":"int","value":0},{"name":"f","type":"int","value":0}],"gid":54,"width":21,"height":60},{"id":10,"x":-1564,"y":2029,"visible":true,"properties":[{"name":"layer","type":"int","value":0},{"name":"resource_index","type":"int","value":9},{"name":"oS","type":"string","value":"guide"},{"name":"l0","type":"string","value":"milepost"},{"name":"l1","type":"string","value":"common"},{"name":"l2","type":"string","value":"1"},{"name":"z","type":"int","value":9},{"name":"zM","type":"int","value":0},{"name":"f","type":"int","value":0}],"gid":54,"width":21,"height":60},{"id":11,"x":-1584,"y":2003,"visible":true,"properties":[{"name":"layer","type":"int","value":0},{"name":"resource_index","type":"int","value":10},{"name":"oS","type":"string","value":"guide"},{"name":"l0","type":"string","value":"milepost"},{"name":"l1","type":"string","value":"backcho"},{"name":"l2","type":"string","value":"4"},{"name":"z","type":"int","value":10},{"name":"zM","type":"int","value":0},{"name":"f","type":"int","value":0}],"gid":57,"width":63,"height":51},{"id":12,"x":-1593,"y":2054,"visible":true,"properties":[{"name":"layer","type":"int","value":0},{"name":"resource_index","type":"int","value":11},{"name":"oS","type":"string","value":"guide"},{"name":"l0","type":"string","value":"milepost"},{"name":"l1","type":"string","value":"backcho"},{"name":"l2","type":"string","value":"2"},{"name":"z","type":"int","value":10},{"name":"zM","type":"int","value":0},{"name":"f","type":"int","value":0}],"gid":55,"width":63,"height":40}],"properties":[]},{"id":31,"name":"layer_1_obj","type":"objectgroup","visible":true,"opacity":1,"draworder":"index","offsetx":0,"offsety":0,"parallaxx":1,"parallaxy":1,"objects":[{"id":13,"x":86,"y":2076,"visible":true,"properties":[{"name":"layer","type":"int","value":1},{"name":"resource_index","type":"int","value":0},{"name":"oS","type":"string","value":"acc2"},{"name":"l0","type":"string","value":"shineWood"},{"name":"l1","type":"string","value":"foot"},{"name":"l2","type":"string","value":"1"},{"name":"z","type":"int","value":3},{"name":"zM","type":"int","value":4},{"name":"f","type":"int","value":0}],"gid":29,"width":149,"height":86},{"id":14,"x":-843,"y":2099,"visible":true,"properties":[{"name":"layer","type":"int","value":1},{"name":"resource_index","type":"int","value":1},{"name":"oS","type":"string","value":"acc2"},{"name":"l0","type":"string","value":"shineWood"},{"name":"l1","type":"string","value":"foot"},{"name":"l2","type":"string","value":"2"},{"name":"z","type":"int","value":4},{"name":"zM","type":"int","value":1},{"name":"f","type":"int","value":0}],"gid":30,"width":149,"height":63},{"id":15,"x":-929,"y":2115,"visible":true,"properties":[{"name":"layer","type":"int","value":1},{"name":"resource_index","type":"int","value":2},{"name":"oS","type":"string","value":"acc2"},{"name":"l0","type":"string","value":"shineWood"},{"name":"l1","type":"string","value":"foot"},{"name":"l2","type":"string","value":"1"},{"name":"z","type":"int","value":3},{"name":"zM","type":"int","value":1},{"name":"f","type":"int","value":0}],"gid":29,"width":149,"height":86},{"id":16,"x":-1174,"y":2150,"visible":true,"properties":[{"name":"layer","type":"int","value":1},{"name":"resource_index","type":"int","value":3},{"name":"oS","type":"string","value":"acc2"},{"name":"l0","type":"string","value":"shineWood"},{"name":"l1","type":"string","value":"foot"},{"name":"l2","type":"string","value":"19"},{"name":"z","type":"int","value":5},{"name":"zM","type":"int","value":1},{"name":"f","type":"int","value":0}],"gid":31,"width":304,"height":110},{"id":17,"x":-1250,"y":2125,"visible":true,"properties":[{"name":"layer","type":"int","value":1},{"name":"resource_index","type":"int","value":4},{"name":"oS","type":"string","value":"acc2"},{"name":"l0","type":"string","value":"shineWood"},{"name":"l1","type":"string","value":"foot"},{"name":"l2","type":"string","value":"1"},{"name":"z","type":"int","value":4},{"name":"zM","type":"int","value":1},{"name":"f","type":"int","value":0}],"gid":29,"width":149,"height":86},{"id":18,"x":-453,"y":2077,"visible":true,"properties":[{"name":"layer","type":"int","value":1},{"name":"resource_index","type":"int","value":5},{"name":"oS","type":"string","value":"acc2"},{"name":"l0","type":"string","value":"shineWood"},{"name":"l1","type":"string","value":"foot"},{"name":"l2","type":"string","value":"2"},{"name":"z","type":"int","value":3},{"name":"zM","type":"int","value":5},{"name":"f","type":"int","value":0}],"gid":30,"width":149,"height":63},{"id":19,"x":-475,"y":2085,"visible":true,"properties":[{"name":"layer","type":"int","value":1},{"name":"resource_index","type":"int","value":6},{"name":"oS","type":"string","value":"acc2"},{"name":"l0","type":"string","value":"shineWood"},{"name":"l1","type":"string","value":"foot"},{"name":"l2","type":"string","value":"3"},{"name":"z","type":"int","value":4},{"name":"zM","type":"int","value":5},{"name":"f","type":"int","value":0}],"gid":32,"width":65,"height":52},{"id":20,"x":-747,"y":2137,"visible":true,"properties":[{"name":"layer","type":"int","value":1},{"name":"resource_index","type":"int","value":7},{"name":"oS","type":"string","value":"acc2"},{"name":"l0","type":"string","value":"shineWood"},{"name":"l1","type":"string","value":"foot"},{"name":"l2","type":"string","value":"19"},{"name":"z","type":"int","value":3},{"name":"zM","type":"int","value":1},{"name":"f","type":"int","value":0}],"gid":31,"width":304,"height":110},{"id":21,"x":-154,"y":2111,"visible":true,"properties":[{"name":"layer","type":"int","value":1},{"name":"resource_index","type":"int","value":8},{"name":"oS","type":"string","value":"acc2"},{"name":"l0","type":"string","value":"shineWood"},{"name":"l1","type":"string","value":"foot"},{"name":"l2","type":"string","value":"19"},{"name":"z","type":"int","value":4},{"name":"zM","type":"int","value":4},{"name":"f","type":"int","value":0}],"gid":31,"width":304,"height":110},{"id":22,"x":-248,"y":2070,"visible":true,"properties":[{"name":"layer","type":"int","value":1},{"name":"resource_index","type":"int","value":9},{"name":"oS","type":"string","value":"acc2"},{"name":"l0","type":"string","value":"shineWood"},{"name":"l1","type":"string","value":"foot"},{"name":"l2","type":"string","value":"2"},{"name":"z","type":"int","value":3},{"name":"zM","type":"int","value":4},{"name":"f","type":"int","value":0}],"gid":30,"width":149,"height":63},{"id":23,"x":316,"y":2106,"visible":true,"properties":[{"name":"layer","type":"int","value":1},{"name":"resource_index","type":"int","value":10},{"name":"oS","type":"string","value":"acc2"},{"name":"l0","type":"string","value":"shineWood"},{"name":"l1","type":"string","value":"foot"},{"name":"l2","type":"string","value":"19"},{"name":"z","type":"int","value":4},{"name":"zM","type":"int","value":3},{"name":"f","type":"int","value":0}],"gid":31,"width":304,"height":110},{"id":24,"x":289,"y":2067,"visible":true,"properties":[{"name":"layer","type":"int","value":1},{"name":"resource_index","type":"int","value":11},{"name":"oS","type":"string","value":"acc2"},{"name":"l0","type":"string","value":"shineWood"},{"name":"l1","type":"string","value":"foot"},{"name":"l2","type":"string","value":"3"},{"name":"z","type":"int","value":3},{"name":"zM","type":"int","value":3},{"name":"f","type":"int","value":0}],"gid":32,"width":65,"height":52},{"id":25,"x":172,"y":2062,"visible":true,"properties":[{"name":"layer","type":"int","value":1},{"name":"resource_index","type":"int","value":12},{"name":"oS","type":"string","value":"acc2"},{"name":"l0","type":"string","value":"shineWood"},{"name":"l1","type":"string","value":"foot"},{"name":"l2","type":"string","value":"2"},{"name":"z","type":"int","value":4},{"name":"zM","type":"int","value":4},{"name":"f","type":"int","value":0}],"gid":30,"width":149,"height":63},{"id":26,"x":-1342,"y":2110,"visible":true,"properties":[{"name":"layer","type":"int","value":1},{"name":"resource_index","type":"int","value":13},{"name":"oS","type":"string","value":"acc2"},{"name":"l0","type":"string","value":"shineWood"},{"name":"l1","type":"string","value":"foot"},{"name":"l2","type":"string","value":"2"},{"name":"z","type":"int","value":3},{"name":"zM","type":"int","value":1},{"name":"f","type":"int","value":0}],"gid":30,"width":149,"height":63},{"id":27,"x":570,"y":2094,"visible":true,"properties":[{"name":"layer","type":"int","value":1},{"name":"resource_index","type":"int","value":14},{"name":"oS","type":"string","value":"acc2"},{"name":"l0","type":"string","value":"shineWood"},{"name":"l1","type":"string","value":"foot"},{"name":"l2","type":"string","value":"5"},{"name":"z","type":"int","value":5},{"name":"zM","type":"int","value":3},{"name":"f","type":"int","value":0}],"gid":33,"width":125,"height":87},{"id":28,"x":-348,"y":2101,"visible":true,"properties":[{"name":"layer","type":"int","value":1},{"name":"resource_index","type":"int","value":15},{"name":"oS","type":"string","value":"acc2"},{"name":"l0","type":"string","value":"shineWood"},{"name":"l1","type":"string","value":"foot"},{"name":"l2","type":"string","value":"4"},{"name":"z","type":"int","value":4},{"name":"zM","type":"int","value":4},{"name":"f","type":"int","value":0}],"gid":34,"width":148,"height":76},{"id":29,"x":-2031,"y":2100,"visible":true,"properties":[{"name":"layer","type":"int","value":1},{"name":"resource_index","type":"int","value":16},{"name":"oS","type":"string","value":"acc2"},{"name":"l0","type":"string","value":"shineWood"},{"name":"l1","type":"string","value":"nature"},{"name":"l2","type":"string","value":"0"},{"name":"z","type":"int","value":1},{"name":"zM","type":"int","value":0},{"name":"f","type":"int","value":1}],"gid":53,"width":369,"height":488},{"id":30,"x":1204,"y":2148,"visible":true,"properties":[{"name":"layer","type":"int","value":1},{"name":"resource_index","type":"int","value":17},{"name":"oS","type":"string","value":"acc2"},{"name":"l0","type":"string","value":"shineWood"},{"name":"l1","type":"string","value":"foot"},{"name":"l2","type":"string","value":"22"},{"name":"z","type":"int","value":3},{"name":"zM","type":"int","value":2},{"name":"f","type":"int","value":0}],"gid":35,"width":127,"height":98},{"id":31,"x":475,"y":-98,"visible":true,"properties":[{"name":"layer","type":"int","value":1},{"name":"resource_index","type":"int","value":18},{"name":"oS","type":"string","value":"acc2"},{"name":"l0","type":"string","value":"shineWood"},{"name":"l1","type":"string","value":"artificiality"},{"name":"l2","type":"string","value":"1"},{"name":"z","type":"int","value":3},{"name":"zM","type":"int","value":66},{"name":"f","type":"int","value":0}],"gid":63,"width":75,"height":90},{"id":32,"x":850,"y":739,"visible":true,"properties":[{"name":"layer","type":"int","value":1},{"name":"resource_index","type":"int","value":19},{"name":"oS","type":"string","value":"acc2"},{"name":"l0","type":"string","value":"shineWood"},{"name":"l1","type":"string","value":"minidungeon"},{"name":"l2","type":"string","value":"3"},{"name":"z","type":"int","value":0},{"name":"zM","type":"int","value":49},{"name":"f","type":"int","value":0}],"gid":60,"width":274,"height":360},{"id":33,"x":981,"y":-1,"visible":true,"properties":[{"name":"layer","type":"int","value":1},{"name":"resource_index","type":"int","value":20},{"name":"oS","type":"string","value":"acc2"},{"name":"l0","type":"string","value":"shineWood"},{"name":"l1","type":"string","value":"artificiality"},{"name":"l2","type":"string","value":"1"},{"name":"z","type":"int","value":3},{"name":"zM","type":"int","value":71},{"name":"f","type":"int","value":1}],"gid":63,"width":75,"height":90},{"id":34,"x":-336,"y":1146,"visible":true,"properties":[{"name":"layer","type":"int","value":1},{"name":"resource_index","type":"int","value":21},{"name":"oS","type":"string","value":"acc2"},{"name":"l0","type":"string","value":"shineWood"},{"name":"l1","type":"string","value":"foot"},{"name":"l2","type":"string","value":"26"},{"name":"z","type":"int","value":4},{"name":"zM","type":"int","value":30},{"name":"f","type":"int","value":0}],"gid":36,"width":367,"height":127},{"id":35,"x":42,"y":268,"visible":true,"properties":[{"name":"layer","type":"int","value":1},{"name":"resource_index","type":"int","value":22},{"name":"oS","type":"string","value":"acc2"},{"name":"l0","type":"string","value":"shineWood"},{"name":"l1","type":"string","value":"foot"},{"name":"l2","type":"string","value":"22"},{"name":"z","type":"int","value":4},{"name":"zM","type":"int","value":61},{"name":"f","type":"int","value":0}],"gid":35,"width":127,"height":98},{"id":36,"x":13,"y":559,"visible":true,"properties":[{"name":"layer","type":"int","value":1},{"name":"resource_index","type":"int","value":23},{"name":"oS","type":"string","value":"acc2"},{"name":"l0","type":"string","value":"shineWood"},{"name":"l1","type":"string","value":"foot"},{"name":"l2","type":"string","value":"3"},{"name":"z","type":"int","value":4},{"name":"zM","type":"int","value":52},{"name":"f","type":"int","value":0}],"gid":32,"width":65,"height":52},{"id":37,"x":39,"y":562,"visible":true,"properties":[{"name":"layer","type":"int","value":1},{"name":"resource_index","type":"int","value":24},{"name":"oS","type":"string","value":"acc2"},{"name":"l0","type":"string","value":"shineWood"},{"name":"l1","type":"string","value":"foot"},{"name":"l2","type":"string","value":"1"},{"name":"z","type":"int","value":5},{"name":"zM","type":"int","value":52},{"name":"f","type":"int","value":0}],"gid":29,"width":149,"height":86},{"id":38,"x":-2021,"y":2165,"visible":true,"properties":[{"name":"layer","type":"int","value":1},{"name":"resource_index","type":"int","value":25},{"name":"oS","type":"string","value":"acc2"},{"name":"l0","type":"string","value":"shineWood"},{"name":"l1","type":"string","value":"foot"},{"name":"l2","type":"string","value":"19"},{"name":"z","type":"int","value":3},{"name":"zM","type":"int","value":0},{"name":"f","type":"int","value":0}],"gid":31,"width":304,"height":110},{"id":39,"x":-1771,"y":2161,"visible":true,"properties":[{"name":"layer","type":"int","value":1},{"name":"resource_index","type":"int","value":26},{"name":"oS","type":"string","value":"acc2"},{"name":"l0","type":"string","value":"shineWood"},{"name":"l1","type":"string","value":"foot"},{"name":"l2","type":"string","value":"22"},{"name":"z","type":"int","value":4},{"name":"zM","type":"int","value":0},{"name":"f","type":"int","value":0}],"gid":35,"width":127,"height":98},{"id":40,"x":-1687,"y":2148,"visible":true,"properties":[{"name":"layer","type":"int","value":1},{"name":"resource_index","type":"int","value":27},{"name":"oS","type":"string","value":"acc2"},{"name":"l0","type":"string","value":"shineWood"},{"name":"l1","type":"string","value":"foot"},{"name":"l2","type":"string","value":"4"},{"name":"z","type":"int","value":3},{"name":"zM","type":"int","value":0},{"name":"f","type":"int","value":0}],"gid":34,"width":148,"height":76},{"id":41,"x":-1593,"y":2160,"visible":true,"properties":[{"name":"layer","type":"int","value":1},{"name":"resource_index","type":"int","value":28},{"name":"oS","type":"string","value":"acc2"},{"name":"l0","type":"string","value":"shineWood"},{"name":"l1","type":"string","value":"foot"},{"name":"l2","type":"string","value":"19"},{"name":"z","type":"int","value":4},{"name":"zM","type":"int","value":1},{"name":"f","type":"int","value":0}],"gid":31,"width":304,"height":110},{"id":42,"x":628,"y":2098,"visible":true,"properties":[{"name":"layer","type":"int","value":1},{"name":"resource_index","type":"int","value":29},{"name":"oS","type":"string","value":"acc2"},{"name":"l0","type":"string","value":"shineWood"},{"name":"l1","type":"string","value":"foot"},{"name":"l2","type":"string","value":"0"},{"name":"z","type":"int","value":3},{"name":"zM","type":"int","value":3},{"name":"f","type":"int","value":0}],"gid":37,"width":206,"height":110},{"id":43,"x":784,"y":2098,"visible":true,"properties":[{"name":"layer","type":"int","value":1},{"name":"resource_index","type":"int","value":30},{"name":"oS","type":"string","value":"acc2"},{"name":"l0","type":"string","value":"shineWood"},{"name":"l1","type":"string","value":"foot"},{"name":"l2","type":"string","value":"22"},{"name":"z","type":"int","value":3},{"name":"zM","type":"int","value":3},{"name":"f","type":"int","value":0}],"gid":35,"width":127,"height":98},{"id":44,"x":853,"y":2084,"visible":true,"properties":[{"name":"layer","type":"int","value":1},{"name":"resource_index","type":"int","value":31},{"name":"oS","type":"string","value":"acc2"},{"name":"l0","type":"string","value":"shineWood"},{"name":"l1","type":"string","value":"foot"},{"name":"l2","type":"string","value":"21"},{"name":"z","type":"int","value":3},{"name":"zM","type":"int","value":3},{"name":"f","type":"int","value":0}],"gid":38,"width":142,"height":84},{"id":45,"x":931,"y":2085,"visible":true,"properties":[{"name":"layer","type":"int","value":1},{"name":"resource_index","type":"int","value":32},{"name":"oS","type":"string","value":"acc2"},{"name":"l0","type":"string","value":"shineWood"},{"name":"l1","type":"string","value":"foot"},{"name":"l2","type":"string","value":"2"},{"name":"z","type":"int","value":3},{"name":"zM","type":"int","value":3},{"name":"f","type":"int","value":0}],"gid":30,"width":149,"height":63},{"id":46,"x":1031,"y":2112,"visible":true,"properties":[{"name":"layer","type":"int","value":1},{"name":"resource_index","type":"int","value":33},{"name":"oS","type":"string","value":"acc2"},{"name":"l0","type":"string","value":"shineWood"},{"name":"l1","type":"string","value":"foot"},{"name":"l2","type":"string","value":"4"},{"name":"z","type":"int","value":3},{"name":"zM","type":"int","value":3},{"name":"f","type":"int","value":0}],"gid":34,"width":148,"height":76},{"id":47,"x":1122,"y":2103,"visible":true,"properties":[{"name":"layer","type":"int","value":1},{"name":"resource_index","type":"int","value":34},{"name":"oS","type":"string","value":"acc2"},{"name":"l0","type":"string","value":"shineWood"},{"name":"l1","type":"string","value":"foot"},{"name":"l2","type":"string","value":"21"},{"name":"z","type":"int","value":3},{"name":"zM","type":"int","value":3},{"name":"f","type":"int","value":0}],"gid":38,"width":142,"height":84},{"id":48,"x":258,"y":1833,"visible":true,"properties":[{"name":"layer","type":"int","value":1},{"name":"resource_index","type":"int","value":35},{"name":"oS","type":"string","value":"acc2"},{"name":"l0","type":"string","value":"shineWood"},{"name":"l1","type":"string","value":"foot"},{"name":"l2","type":"string","value":"19"},{"name":"z","type":"int","value":3},{"name":"zM","type":"int","value":7},{"name":"f","type":"int","value":0}],"gid":31,"width":304,"height":110},{"id":49,"x":72,"y":1883,"visible":true,"properties":[{"name":"layer","type":"int","value":1},{"name":"resource_index","type":"int","value":36},{"name":"oS","type":"string","value":"acc2"},{"name":"l0","type":"string","value":"shineWood"},{"name":"l1","type":"string","value":"foot"},{"name":"l2","type":"string","value":"17"},{"name":"z","type":"int","value":5},{"name":"zM","type":"int","value":7},{"name":"f","type":"int","value":0}],"gid":39,"width":233,"height":167},{"id":50,"x":-67,"y":1947,"visible":true,"properties":[{"name":"layer","type":"int","value":1},{"name":"resource_index","type":"int","value":37},{"name":"oS","type":"string","value":"acc2"},{"name":"l0","type":"string","value":"shineWood"},{"name":"l1","type":"string","value":"foot"},{"name":"l2","type":"string","value":"0"},{"name":"z","type":"int","value":4},{"name":"zM","type":"int","value":7},{"name":"f","type":"int","value":0}],"gid":37,"width":206,"height":110},{"id":51,"x":-203,"y":1935,"visible":true,"properties":[{"name":"layer","type":"int","value":1},{"name":"resource_index","type":"int","value":38},{"name":"oS","type":"string","value":"acc2"},{"name":"l0","type":"string","value":"shineWood"},{"name":"l1","type":"string","value":"foot"},{"name":"l2","type":"string","value":"6"},{"name":"z","type":"int","value":3},{"name":"zM","type":"int","value":7},{"name":"f","type":"int","value":0}],"gid":40,"width":170,"height":62},{"id":52,"x":-272,"y":2006,"visible":true,"properties":[{"name":"layer","type":"int","value":1},{"name":"resource_index","type":"int","value":39},{"name":"oS","type":"string","value":"acc2"},{"name":"l0","type":"string","value":"shineWood"},{"name":"l1","type":"string","value":"foot"},{"name":"l2","type":"string","value":"5"},{"name":"z","type":"int","value":5},{"name":"zM","type":"int","value":4},{"name":"f","type":"int","value":0}],"gid":33,"width":125,"height":87},{"id":53,"x":-402,"y":2043,"visible":true,"properties":[{"name":"layer","type":"int","value":1},{"name":"resource_index","type":"int","value":40},{"name":"oS","type":"string","value":"acc2"},{"name":"l0","type":"string","value":"shineWood"},{"name":"l1","type":"string","value":"foot"},{"name":"l2","type":"string","value":"1"},{"name":"z","type":"int","value":1},{"name":"zM","type":"int","value":4},{"name":"f","type":"int","value":0}],"gid":29,"width":149,"height":86},{"id":54,"x":574,"y":1789,"visible":true,"properties":[{"name":"layer","type":"int","value":1},{"name":"resource_index","type":"int","value":41},{"name":"oS","type":"string","value":"acc2"},{"name":"l0","type":"string","value":"shineWood"},{"name":"l1","type":"string","value":"foot"},{"name":"l2","type":"string","value":"5"},{"name":"z","type":"int","value":3},{"name":"zM","type":"int","value":12},{"name":"f","type":"int","value":0}],"gid":33,"width":125,"height":87},{"id":55,"x":629,"y":1716,"visible":true,"properties":[{"name":"layer","type":"int","value":1},{"name":"resource_index","type":"int","value":42},{"name":"oS","type":"string","value":"acc2"},{"name":"l0","type":"string","value":"shineWood"},{"name":"l1","type":"string","value":"foot"},{"name":"l2","type":"string","value":"7"},{"name":"z","type":"int","value":5},{"name":"zM","type":"int","value":12},{"name":"f","type":"int","value":0}],"gid":41,"width":233,"height":147},{"id":56,"x":829,"y":1671,"visible":true,"properties":[{"name":"layer","type":"int","value":1},{"name":"resource_index","type":"int","value":43},{"name":"oS","type":"string","value":"acc2"},{"name":"l0","type":"string","value":"shineWood"},{"name":"l1","type":"string","value":"foot"},{"name":"l2","type":"string","value":"4"},{"name":"z","type":"int","value":3},{"name":"zM","type":"int","value":12},{"name":"f","type":"int","value":0}],"gid":34,"width":148,"height":76},{"id":57,"x":911,"y":1681,"visible":true,"properties":[{"name":"layer","type":"int","value":1},{"name":"resource_index","type":"int","value":44},{"name":"oS","type":"string","value":"acc2"},{"name":"l0","type":"string","value":"shineWood"},{"name":"l1","type":"string","value":"foot"},{"name":"l2","type":"string","value":"0"},{"name":"z","type":"int","value":4},{"name":"zM","type":"int","value":12},{"name":"f","type":"int","value":0}],"gid":37,"width":206,"height":110},{"id":58,"x":606,"y":1671,"visible":true,"properties":[{"name":"layer","type":"int","value":1},{"name":"resource_index","type":"int","value":45},{"name":"oS","type":"string","value":"acc2"},{"name":"l0","type":"string","value":"shineWood"},{"name":"l1","type":"string","value":"foot"},{"name":"l2","type":"string","value":"0"},{"name":"z","type":"int","value":3},{"name":"zM","type":"int","value":12},{"name":"f","type":"int","value":0}],"gid":37,"width":206,"height":110},{"id":59,"x":517,"y":1626,"visible":true,"properties":[{"name":"layer","type":"int","value":1},{"name":"resource_index","type":"int","value":46},{"name":"oS","type":"string","value":"acc2"},{"name":"l0","type":"string","value":"shineWood"},{"name":"l1","type":"string","value":"foot"},{"name":"l2","type":"string","value":"21"},{"name":"z","type":"int","value":4},{"name":"zM","type":"int","value":12},{"name":"f","type":"int","value":0}],"gid":38,"width":142,"height":84},{"id":60,"x":401,"y":1575,"visible":true,"properties":[{"name":"layer","type":"int","value":1},{"name":"resource_index","type":"int","value":47},{"name":"oS","type":"string","value":"acc2"},{"name":"l0","type":"string","value":"shineWood"},{"name":"l1","type":"string","value":"foot"},{"name":"l2","type":"string","value":"20"},{"name":"z","type":"int","value":3},{"name":"zM","type":"int","value":12},{"name":"f","type":"int","value":0}],"gid":42,"width":170,"height":62},{"id":61,"x":308,"y":1588,"visible":true,"properties":[{"name":"layer","type":"int","value":1},{"name":"resource_index","type":"int","value":48},{"name":"oS","type":"string","value":"acc2"},{"name":"l0","type":"string","value":"shineWood"},{"name":"l1","type":"string","value":"foot"},{"name":"l2","type":"string","value":"22"},{"name":"z","type":"int","value":4},{"name":"zM","type":"int","value":12},{"name":"f","type":"int","value":0}],"gid":35,"width":127,"height":98},{"id":62,"x":185,"y":1509,"visible":true,"properties":[{"name":"layer","type":"int","value":1},{"name":"resource_index","type":"int","value":49},{"name":"oS","type":"string","value":"acc2"},{"name":"l0","type":"string","value":"shineWood"},{"name":"l1","type":"string","value":"foot"},{"name":"l2","type":"string","value":"20"},{"name":"z","type":"int","value":3},{"name":"zM","type":"int","value":12},{"name":"f","type":"int","value":0}],"gid":42,"width":170,"height":62},{"id":63,"x":-1355,"y":385,"visible":true,"properties":[{"name":"layer","type":"int","value":1},{"name":"resource_index","type":"int","value":50},{"name":"oS","type":"string","value":"acc2"},{"name":"l0","type":"string","value":"shineWood"},{"name":"l1","type":"string","value":"foot"},{"name":"l2","type":"string","value":"1"},{"name":"z","type":"int","value":2},{"name":"zM","type":"int","value":47},{"name":"f","type":"int","value":0}],"gid":29,"width":149,"height":86},{"id":64,"x":-178,"y":1520,"visible":true,"properties":[{"name":"layer","type":"int","value":1},{"name":"resource_index","type":"int","value":51},{"name":"oS","type":"string","value":"acc2"},{"name":"l0","type":"string","value":"shineWood"},{"name":"l1","type":"string","value":"foot"},{"name":"l2","type":"string","value":"19"},{"name":"z","type":"int","value":3},{"name":"zM","type":"int","value":20},{"name":"f","type":"int","value":0}],"gid":31,"width":304,"height":110},{"id":65,"x":-311,"y":1506,"visible":true,"properties":[{"name":"layer","type":"int","value":1},{"name":"resource_index","type":"int","value":52},{"name":"oS","type":"string","value":"acc2"},{"name":"l0","type":"string","value":"shineWood"},{"name":"l1","type":"string","value":"foot"},{"name":"l2","type":"string","value":"6"},{"name":"z","type":"int","value":2},{"name":"zM","type":"int","value":20},{"name":"f","type":"int","value":0}],"gid":40,"width":170,"height":62},{"id":66,"x":-381,"y":1572,"visible":true,"properties":[{"name":"layer","type":"int","value":1},{"name":"resource_index","type":"int","value":53},{"name":"oS","type":"string","value":"acc2"},{"name":"l0","type":"string","value":"shineWood"},{"name":"l1","type":"string","value":"foot"},{"name":"l2","type":"string","value":"5"},{"name":"z","type":"int","value":4},{"name":"zM","type":"int","value":20},{"name":"f","type":"int","value":0}],"gid":33,"width":125,"height":87},{"id":67,"x":-512,"y":1556,"visible":true,"properties":[{"name":"layer","type":"int","value":1},{"name":"resource_index","type":"int","value":54},{"name":"oS","type":"string","value":"acc2"},{"name":"l0","type":"string","value":"shineWood"},{"name":"l1","type":"string","value":"foot"},{"name":"l2","type":"string","value":"6"},{"name":"z","type":"int","value":3},{"name":"zM","type":"int","value":20},{"name":"f","type":"int","value":0}],"gid":40,"width":170,"height":62},{"id":68,"x":-1249,"y":287,"visible":true,"properties":[{"name":"layer","type":"int","value":1},{"name":"resource_index","type":"int","value":55},{"name":"oS","type":"string","value":"acc2"},{"name":"l0","type":"string","value":"shineWood"},{"name":"l1","type":"string","value":"artificiality"},{"name":"l2","type":"string","value":"1"},{"name":"z","type":"int","value":3},{"name":"zM","type":"int","value":60},{"name":"f","type":"int","value":0}],"gid":63,"width":75,"height":90},{"id":69,"x":81,"y":1518,"visible":true,"properties":[{"name":"layer","type":"int","value":1},{"name":"resource_index","type":"int","value":56},{"name":"oS","type":"string","value":"acc2"},{"name":"l0","type":"string","value":"shineWood"},{"name":"l1","type":"string","value":"foot"},{"name":"l2","type":"string","value":"22"},{"name":"z","type":"int","value":4},{"name":"zM","type":"int","value":12},{"name":"f","type":"int","value":0}],"gid":35,"width":127,"height":98},{"id":70,"x":-978,"y":1652,"visible":true,"properties":[{"name":"layer","type":"int","value":1},{"name":"resource_index","type":"int","value":57},{"name":"oS","type":"string","value":"acc2"},{"name":"l0","type":"string","value":"shineWood"},{"name":"l1","type":"string","value":"foot"},{"name":"l2","type":"string","value":"11"},{"name":"z","type":"int","value":5},{"name":"zM","type":"int","value":16},{"name":"f","type":"int","value":0}],"gid":43,"width":233,"height":167},{"id":71,"x":-1089,"y":1564,"visible":true,"properties":[{"name":"layer","type":"int","value":1},{"name":"resource_index","type":"int","value":58},{"name":"oS","type":"string","value":"acc2"},{"name":"l0","type":"string","value":"shineWood"},{"name":"l1","type":"string","value":"foot"},{"name":"l2","type":"string","value":"21"},{"name":"z","type":"int","value":3},{"name":"zM","type":"int","value":16},{"name":"f","type":"int","value":0}],"gid":38,"width":142,"height":84},{"id":72,"x":-1279,"y":1635,"visible":true,"properties":[{"name":"layer","type":"int","value":1},{"name":"resource_index","type":"int","value":59},{"name":"oS","type":"string","value":"acc2"},{"name":"l0","type":"string","value":"shineWood"},{"name":"l1","type":"string","value":"foot"},{"name":"l2","type":"string","value":"17"},{"name":"z","type":"int","value":5},{"name":"zM","type":"int","value":16},{"name":"f","type":"int","value":0}],"gid":39,"width":233,"height":167},{"id":73,"x":-1327,"y":1688,"visible":true,"properties":[{"name":"layer","type":"int","value":1},{"name":"resource_index","type":"int","value":60},{"name":"oS","type":"string","value":"acc2"},{"name":"l0","type":"string","value":"shineWood"},{"name":"l1","type":"string","value":"foot"},{"name":"l2","type":"string","value":"5"},{"name":"z","type":"int","value":3},{"name":"zM","type":"int","value":16},{"name":"f","type":"int","value":0}],"gid":33,"width":125,"height":87},{"id":74,"x":-1494,"y":1686,"visible":true,"properties":[{"name":"layer","type":"int","value":1},{"name":"resource_index","type":"int","value":61},{"name":"oS","type":"string","value":"acc2"},{"name":"l0","type":"string","value":"shineWood"},{"name":"l1","type":"string","value":"foot"},{"name":"l2","type":"string","value":"21"},{"name":"z","type":"int","value":4},{"name":"zM","type":"int","value":17},{"name":"f","type":"int","value":0}],"gid":38,"width":142,"height":84},{"id":75,"x":-1615,"y":1653,"visible":true,"properties":[{"name":"layer","type":"int","value":1},{"name":"resource_index","type":"int","value":62},{"name":"oS","type":"string","value":"acc2"},{"name":"l0","type":"string","value":"shineWood"},{"name":"l1","type":"string","value":"foot"},{"name":"l2","type":"string","value":"20"},{"name":"z","type":"int","value":3},{"name":"zM","type":"int","value":0},{"name":"f","type":"int","value":0}],"gid":42,"width":170,"height":62},{"id":76,"x":-1699,"y":1671,"visible":true,"properties":[{"name":"layer","type":"int","value":1},{"name":"resource_index","type":"int","value":63},{"name":"oS","type":"string","value":"acc2"},{"name":"l0","type":"string","value":"shineWood"},{"name":"l1","type":"string","value":"foot"},{"name":"l2","type":"string","value":"22"},{"name":"z","type":"int","value":4},{"name":"zM","type":"int","value":0},{"name":"f","type":"int","value":0}],"gid":35,"width":127,"height":98},{"id":77,"x":-1820,"y":1610,"visible":true,"properties":[{"name":"layer","type":"int","value":1},{"name":"resource_index","type":"int","value":64},{"name":"oS","type":"string","value":"acc2"},{"name":"l0","type":"string","value":"shineWood"},{"name":"l1","type":"string","value":"foot"},{"name":"l2","type":"string","value":"20"},{"name":"z","type":"int","value":3},{"name":"zM","type":"int","value":0},{"name":"f","type":"int","value":0}],"gid":42,"width":170,"height":62},{"id":78,"x":-1922,"y":1596,"visible":true,"properties":[{"name":"layer","type":"int","value":1},{"name":"resource_index","type":"int","value":65},{"name":"oS","type":"string","value":"acc2"},{"name":"l0","type":"string","value":"shineWood"},{"name":"l1","type":"string","value":"foot"},{"name":"l2","type":"string","value":"21"},{"name":"z","type":"int","value":4},{"name":"zM","type":"int","value":0},{"name":"f","type":"int","value":0}],"gid":38,"width":142,"height":84},{"id":79,"x":-830,"y":1233,"visible":true,"properties":[{"name":"layer","type":"int","value":1},{"name":"resource_index","type":"int","value":66},{"name":"oS","type":"string","value":"acc2"},{"name":"l0","type":"string","value":"shineWood"},{"name":"l1","type":"string","value":"foot"},{"name":"l2","type":"string","value":"2"},{"name":"z","type":"int","value":3},{"name":"zM","type":"int","value":28},{"name":"f","type":"int","value":0}],"gid":30,"width":149,"height":63},{"id":80,"x":-1355,"y":1020,"visible":true,"properties":[{"name":"layer","type":"int","value":1},{"name":"resource_index","type":"int","value":67},{"name":"oS","type":"string","value":"acc2"},{"name":"l0","type":"string","value":"shineWood"},{"name":"l1","type":"string","value":"foot"},{"name":"l2","type":"string","value":"2"},{"name":"z","type":"int","value":3},{"name":"zM","type":"int","value":37},{"name":"f","type":"int","value":0}],"gid":30,"width":149,"height":63},{"id":81,"x":520,"y":1546,"visible":true,"properties":[{"name":"layer","type":"int","value":1},{"name":"resource_index","type":"int","value":68},{"name":"oS","type":"string","value":"acc2"},{"name":"l0","type":"string","value":"shineWood"},{"name":"l1","type":"string","value":"foot"},{"name":"l2","type":"string","value":"2"},{"name":"z","type":"int","value":3},{"name":"zM","type":"int","value":12},{"name":"f","type":"int","value":0}],"gid":30,"width":149,"height":63},{"id":82,"x":601,"y":1533,"visible":true,"properties":[{"name":"layer","type":"int","value":1},{"name":"resource_index","type":"int","value":69},{"name":"oS","type":"string","value":"acc2"},{"name":"l0","type":"string","value":"shineWood"},{"name":"l1","type":"string","value":"foot"},{"name":"l2","type":"string","value":"17"},{"name":"z","type":"int","value":5},{"name":"zM","type":"int","value":12},{"name":"f","type":"int","value":0}],"gid":39,"width":233,"height":167},{"id":83,"x":793,"y":1437,"visible":true,"properties":[{"name":"layer","type":"int","value":1},{"name":"resource_index","type":"int","value":70},{"name":"oS","type":"string","value":"acc2"},{"name":"l0","type":"string","value":"shineWood"},{"name":"l1","type":"string","value":"foot"},{"name":"l2","type":"string","value":"2"},{"name":"z","type":"int","value":3},{"name":"zM","type":"int","value":12},{"name":"f","type":"int","value":0}],"gid":30,"width":149,"height":63},{"id":84,"x":864,"y":1405,"visible":true,"properties":[{"name":"layer","type":"int","value":1},{"name":"resource_index","type":"int","value":71},{"name":"oS","type":"string","value":"acc2"},{"name":"l0","type":"string","value":"shineWood"},{"name":"l1","type":"string","value":"foot"},{"name":"l2","type":"string","value":"9"},{"name":"z","type":"int","value":5},{"name":"zM","type":"int","value":12},{"name":"f","type":"int","value":0}],"gid":44,"width":148,"height":87},{"id":85,"x":971,"y":1420,"visible":true,"properties":[{"name":"layer","type":"int","value":1},{"name":"resource_index","type":"int","value":72},{"name":"oS","type":"string","value":"acc2"},{"name":"l0","type":"string","value":"shineWood"},{"name":"l1","type":"string","value":"foot"},{"name":"l2","type":"string","value":"5"},{"name":"z","type":"int","value":3},{"name":"zM","type":"int","value":12},{"name":"f","type":"int","value":0}],"gid":33,"width":125,"height":87},{"id":86,"x":959,"y":1225,"visible":true,"properties":[{"name":"layer","type":"int","value":1},{"name":"resource_index","type":"int","value":73},{"name":"oS","type":"string","value":"acc2"},{"name":"l0","type":"string","value":"shineWood"},{"name":"l1","type":"string","value":"foot"},{"name":"l2","type":"string","value":"22"},{"name":"z","type":"int","value":3},{"name":"zM","type":"int","value":29},{"name":"f","type":"int","value":0}],"gid":35,"width":127,"height":98},{"id":87,"x":-765,"y":1708,"visible":true,"properties":[{"name":"layer","type":"int","value":1},{"name":"resource_index","type":"int","value":74},{"name":"oS","type":"string","value":"acc2"},{"name":"l0","type":"string","value":"shineWood"},{"name":"l1","type":"string","value":"foot"},{"name":"l2","type":"string","value":"0"},{"name":"z","type":"int","value":4},{"name":"zM","type":"int","value":16},{"name":"f","type":"int","value":0}],"gid":37,"width":206,"height":110},{"id":88,"x":-1785,"y":970,"visible":true,"properties":[{"name":"layer","type":"int","value":1},{"name":"resource_index","type":"int","value":75},{"name":"oS","type":"string","value":"acc2"},{"name":"l0","type":"string","value":"shineWood"},{"name":"l1","type":"string","value":"artificiality"},{"name":"l2","type":"string","value":"1"},{"name":"z","type":"int","value":3},{"name":"zM","type":"int","value":31},{"name":"f","type":"int","value":0}],"gid":63,"width":75,"height":90},{"id":89,"x":-1839,"y":1550,"visible":true,"properties":[{"name":"layer","type":"int","value":1},{"name":"resource_index","type":"int","value":76},{"name":"oS","type":"string","value":"acc2"},{"name":"l0","type":"string","value":"shineWood"},{"name":"l1","type":"string","value":"artificiality"},{"name":"l2","type":"string","value":"1"},{"name":"z","type":"int","value":4},{"name":"zM","type":"int","value":0},{"name":"f","type":"int","value":0}],"gid":63,"width":75,"height":90},{"id":90,"x":-1199,"y":906,"visible":true,"properties":[{"name":"layer","type":"int","value":1},{"name":"resource_index","type":"int","value":77},{"name":"oS","type":"string","value":"acc2"},{"name":"l0","type":"string","value":"shineWood"},{"name":"l1","type":"string","value":"artificiality"},{"name":"l2","type":"string","value":"1"},{"name":"z","type":"int","value":3},{"name":"zM","type":"int","value":43},{"name":"f","type":"int","value":0}],"gid":63,"width":75,"height":90},{"id":91,"x":358,"y":1014,"visible":true,"properties":[{"name":"layer","type":"int","value":1},{"name":"resource_index","type":"int","value":78},{"name":"oS","type":"string","value":"acc2"},{"name":"l0","type":"string","value":"shineWood"},{"name":"l1","type":"string","value":"foot"},{"name":"l2","type":"string","value":"22"},{"name":"z","type":"int","value":4},{"name":"zM","type":"int","value":40},{"name":"f","type":"int","value":0}],"gid":35,"width":127,"height":98},{"id":92,"x":271,"y":964,"visible":true,"properties":[{"name":"layer","type":"int","value":1},{"name":"resource_index","type":"int","value":79},{"name":"oS","type":"string","value":"acc2"},{"name":"l0","type":"string","value":"shineWood"},{"name":"l1","type":"string","value":"foot"},{"name":"l2","type":"string","value":"20"},{"name":"z","type":"int","value":3},{"name":"zM","type":"int","value":40},{"name":"f","type":"int","value":0}],"gid":42,"width":170,"height":62},{"id":93,"x":173,"y":975,"visible":true,"properties":[{"name":"layer","type":"int","value":1},{"name":"resource_index","type":"int","value":80},{"name":"oS","type":"string","value":"acc2"},{"name":"l0","type":"string","value":"shineWood"},{"name":"l1","type":"string","value":"foot"},{"name":"l2","type":"string","value":"22"},{"name":"z","type":"int","value":4},{"name":"zM","type":"int","value":40},{"name":"f","type":"int","value":0}],"gid":35,"width":127,"height":98},{"id":94,"x":281,"y":933,"visible":true,"properties":[{"name":"layer","type":"int","value":1},{"name":"resource_index","type":"int","value":81},{"name":"oS","type":"string","value":"acc2"},{"name":"l0","type":"string","value":"shineWood"},{"name":"l1","type":"string","value":"foot"},{"name":"l2","type":"string","value":"0"},{"name":"z","type":"int","value":4},{"name":"zM","type":"int","value":40},{"name":"f","type":"int","value":0}],"gid":37,"width":206,"height":110},{"id":95,"x":508,"y":873,"visible":true,"properties":[{"name":"layer","type":"int","value":1},{"name":"resource_index","type":"int","value":82},{"name":"oS","type":"string","value":"acc2"},{"name":"l0","type":"string","value":"shineWood"},{"name":"l1","type":"string","value":"foot"},{"name":"l2","type":"string","value":"1"},{"name":"z","type":"int","value":3},{"name":"zM","type":"int","value":46},{"name":"f","type":"int","value":0}],"gid":29,"width":149,"height":86},{"id":96,"x":590,"y":822,"visible":true,"properties":[{"name":"layer","type":"int","value":1},{"name":"resource_index","type":"int","value":83},{"name":"oS","type":"string","value":"acc2"},{"name":"l0","type":"string","value":"shineWood"},{"name":"l1","type":"string","value":"foot"},{"name":"l2","type":"string","value":"7"},{"name":"z","type":"int","value":5},{"name":"zM","type":"int","value":46},{"name":"f","type":"int","value":0}],"gid":41,"width":233,"height":147},{"id":97,"x":782,"y":796,"visible":true,"properties":[{"name":"layer","type":"int","value":1},{"name":"resource_index","type":"int","value":84},{"name":"oS","type":"string","value":"acc2"},{"name":"l0","type":"string","value":"shineWood"},{"name":"l1","type":"string","value":"foot"},{"name":"l2","type":"string","value":"0"},{"name":"z","type":"int","value":3},{"name":"zM","type":"int","value":49},{"name":"f","type":"int","value":0}],"gid":37,"width":206,"height":110},{"id":98,"x":968,"y":725,"visible":true,"properties":[{"name":"layer","type":"int","value":1},{"name":"resource_index","type":"int","value":85},{"name":"oS","type":"string","value":"acc2"},{"name":"l0","type":"string","value":"shineWood"},{"name":"l1","type":"string","value":"foot"},{"name":"l2","type":"string","value":"1"},{"name":"z","type":"int","value":3},{"name":"zM","type":"int","value":49},{"name":"f","type":"int","value":0}],"gid":29,"width":149,"height":86},{"id":99,"x":-1092,"y":1510,"visible":true,"properties":[{"name":"layer","type":"int","value":1},{"name":"resource_index","type":"int","value":86},{"name":"oS","type":"string","value":"acc2"},{"name":"l0","type":"string","value":"shineWood"},{"name":"l1","type":"string","value":"foot"},{"name":"l2","type":"string","value":"21"},{"name":"z","type":"int","value":3},{"name":"zM","type":"int","value":16},{"name":"f","type":"int","value":0}],"gid":38,"width":142,"height":84},{"id":100,"x":-1248,"y":1478,"visible":true,"properties":[{"name":"layer","type":"int","value":1},{"name":"resource_index","type":"int","value":87},{"name":"oS","type":"string","value":"acc2"},{"name":"l0","type":"string","value":"shineWood"},{"name":"l1","type":"string","value":"foot"},{"name":"l2","type":"string","value":"11"},{"name":"z","type":"int","value":5},{"name":"zM","type":"int","value":16},{"name":"f","type":"int","value":0}],"gid":43,"width":233,"height":167},{"id":101,"x":-1013,"y":1492,"visible":true,"properties":[{"name":"layer","type":"int","value":1},{"name":"resource_index","type":"int","value":88},{"name":"oS","type":"string","value":"acc2"},{"name":"l0","type":"string","value":"shineWood"},{"name":"l1","type":"string","value":"foot"},{"name":"l2","type":"string","value":"17"},{"name":"z","type":"int","value":5},{"name":"zM","type":"int","value":16},{"name":"f","type":"int","value":0}],"gid":39,"width":233,"height":167},{"id":102,"x":-835,"y":1417,"visible":true,"properties":[{"name":"layer","type":"int","value":1},{"name":"resource_index","type":"int","value":89},{"name":"oS","type":"string","value":"acc2"},{"name":"l0","type":"string","value":"shineWood"},{"name":"l1","type":"string","value":"foot"},{"name":"l2","type":"string","value":"1"},{"name":"z","type":"int","value":3},{"name":"zM","type":"int","value":16},{"name":"f","type":"int","value":0}],"gid":29,"width":149,"height":86},{"id":103,"x":-1362,"y":1387,"visible":true,"properties":[{"name":"layer","type":"int","value":1},{"name":"resource_index","type":"int","value":90},{"name":"oS","type":"string","value":"acc2"},{"name":"l0","type":"string","value":"shineWood"},{"name":"l1","type":"string","value":"foot"},{"name":"l2","type":"string","value":"2"},{"name":"z","type":"int","value":3},{"name":"zM","type":"int","value":16},{"name":"f","type":"int","value":0}],"gid":30,"width":149,"height":63},{"id":104,"x":-743,"y":1423,"visible":true,"properties":[{"name":"layer","type":"int","value":1},{"name":"resource_index","type":"int","value":91},{"name":"oS","type":"string","value":"acc2"},{"name":"l0","type":"string","value":"shineWood"},{"name":"l1","type":"string","value":"foot"},{"name":"l2","type":"string","value":"4"},{"name":"z","type":"int","value":2},{"name":"zM","type":"int","value":16},{"name":"f","type":"int","value":0}],"gid":34,"width":148,"height":76},{"id":105,"x":-1431,"y":1412,"visible":true,"properties":[{"name":"layer","type":"int","value":1},{"name":"resource_index","type":"int","value":92},{"name":"oS","type":"string","value":"acc2"},{"name":"l0","type":"string","value":"shineWood"},{"name":"l1","type":"string","value":"foot"},{"name":"l2","type":"string","value":"22"},{"name":"z","type":"int","value":2},{"name":"zM","type":"int","value":16},{"name":"f","type":"int","value":0}],"gid":35,"width":127,"height":98},{"id":106,"x":-30,"y":922,"visible":true,"properties":[{"name":"layer","type":"int","value":1},{"name":"resource_index","type":"int","value":93},{"name":"oS","type":"string","value":"acc2"},{"name":"l0","type":"string","value":"shineWood"},{"name":"l1","type":"string","value":"foot"},{"name":"l2","type":"string","value":"21"},{"name":"z","type":"int","value":4},{"name":"zM","type":"int","value":42},{"name":"f","type":"int","value":0}],"gid":38,"width":142,"height":84},{"id":107,"x":-151,"y":878,"visible":true,"properties":[{"name":"layer","type":"int","value":1},{"name":"resource_index","type":"int","value":94},{"name":"oS","type":"string","value":"acc2"},{"name":"l0","type":"string","value":"shineWood"},{"name":"l1","type":"string","value":"foot"},{"name":"l2","type":"string","value":"20"},{"name":"z","type":"int","value":3},{"name":"zM","type":"int","value":42},{"name":"f","type":"int","value":0}],"gid":42,"width":170,"height":62},{"id":108,"x":-225,"y":870,"visible":true,"properties":[{"name":"layer","type":"int","value":1},{"name":"resource_index","type":"int","value":95},{"name":"oS","type":"string","value":"acc2"},{"name":"l0","type":"string","value":"shineWood"},{"name":"l1","type":"string","value":"foot"},{"name":"l2","type":"string","value":"21"},{"name":"z","type":"int","value":4},{"name":"zM","type":"int","value":42},{"name":"f","type":"int","value":0}],"gid":38,"width":142,"height":84},{"id":109,"x":-353,"y":825,"visible":true,"properties":[{"name":"layer","type":"int","value":1},{"name":"resource_index","type":"int","value":96},{"name":"oS","type":"string","value":"acc2"},{"name":"l0","type":"string","value":"shineWood"},{"name":"l1","type":"string","value":"foot"},{"name":"l2","type":"string","value":"20"},{"name":"z","type":"int","value":3},{"name":"zM","type":"int","value":42},{"name":"f","type":"int","value":0}],"gid":42,"width":170,"height":62},{"id":110,"x":-442,"y":841,"visible":true,"properties":[{"name":"layer","type":"int","value":1},{"name":"resource_index","type":"int","value":97},{"name":"oS","type":"string","value":"acc2"},{"name":"l0","type":"string","value":"shineWood"},{"name":"l1","type":"string","value":"foot"},{"name":"l2","type":"string","value":"22"},{"name":"z","type":"int","value":4},{"name":"zM","type":"int","value":42},{"name":"f","type":"int","value":0}],"gid":35,"width":127,"height":98},{"id":111,"x":-604,"y":847,"visible":true,"properties":[{"name":"layer","type":"int","value":1},{"name":"resource_index","type":"int","value":98},{"name":"oS","type":"string","value":"acc2"},{"name":"l0","type":"string","value":"shineWood"},{"name":"l1","type":"string","value":"foot"},{"name":"l2","type":"string","value":"0"},{"name":"z","type":"int","value":3},{"name":"zM","type":"int","value":42},{"name":"f","type":"int","value":0}],"gid":37,"width":206,"height":110},{"id":112,"x":-794,"y":895,"visible":true,"properties":[{"name":"layer","type":"int","value":1},{"name":"resource_index","type":"int","value":99},{"name":"oS","type":"string","value":"acc2"},{"name":"l0","type":"string","value":"shineWood"},{"name":"l1","type":"string","value":"foot"},{"name":"l2","type":"string","value":"17"},{"name":"z","type":"int","value":5},{"name":"zM","type":"int","value":42},{"name":"f","type":"int","value":0}],"gid":39,"width":233,"height":167},{"id":113,"x":-933,"y":959,"visible":true,"properties":[{"name":"layer","type":"int","value":1},{"name":"resource_index","type":"int","value":100},{"name":"oS","type":"string","value":"acc2"},{"name":"l0","type":"string","value":"shineWood"},{"name":"l1","type":"string","value":"foot"},{"name":"l2","type":"string","value":"0"},{"name":"z","type":"int","value":3},{"name":"zM","type":"int","value":42},{"name":"f","type":"int","value":0}],"gid":37,"width":206,"height":110},{"id":114,"x":-1115,"y":981,"visible":true,"properties":[{"name":"layer","type":"int","value":1},{"name":"resource_index","type":"int","value":101},{"name":"oS","type":"string","value":"acc2"},{"name":"l0","type":"string","value":"shineWood"},{"name":"l1","type":"string","value":"foot"},{"name":"l2","type":"string","value":"4"},{"name":"z","type":"int","value":3},{"name":"zM","type":"int","value":41},{"name":"f","type":"int","value":0}],"gid":34,"width":148,"height":76},{"id":115,"x":-1222,"y":962,"visible":true,"properties":[{"name":"layer","type":"int","value":1},{"name":"resource_index","type":"int","value":102},{"name":"oS","type":"string","value":"acc2"},{"name":"l0","type":"string","value":"shineWood"},{"name":"l1","type":"string","value":"foot"},{"name":"l2","type":"string","value":"2"},{"name":"z","type":"int","value":4},{"name":"zM","type":"int","value":37},{"name":"f","type":"int","value":0}],"gid":30,"width":149,"height":63},{"id":116,"x":-1306,"y":984,"visible":true,"properties":[{"name":"layer","type":"int","value":1},{"name":"resource_index","type":"int","value":103},{"name":"oS","type":"string","value":"acc2"},{"name":"l0","type":"string","value":"shineWood"},{"name":"l1","type":"string","value":"foot"},{"name":"l2","type":"string","value":"1"},{"name":"z","type":"int","value":3},{"name":"zM","type":"int","value":37},{"name":"f","type":"int","value":0}],"gid":29,"width":149,"height":86},{"id":117,"x":-1860,"y":1680,"visible":true,"properties":[{"name":"layer","type":"int","value":1},{"name":"resource_index","type":"int","value":104},{"name":"oS","type":"string","value":"acc2"},{"name":"l0","type":"string","value":"shineWood"},{"name":"l1","type":"string","value":"minidungeon"},{"name":"l2","type":"string","value":"1"},{"name":"z","type":"int","value":0},{"name":"zM","type":"int","value":0},{"name":"f","type":"int","value":0}],"gid":61,"width":275,"height":316},{"id":118,"x":-1859,"y":1097,"visible":true,"properties":[{"name":"layer","type":"int","value":1},{"name":"resource_index","type":"int","value":105},{"name":"oS","type":"string","value":"acc2"},{"name":"l0","type":"string","value":"shineWood"},{"name":"l1","type":"string","value":"minidungeon"},{"name":"l2","type":"string","value":"3"},{"name":"z","type":"int","value":0},{"name":"zM","type":"int","value":31},{"name":"f","type":"int","value":0}],"gid":60,"width":274,"height":360},{"id":119,"x":-1864,"y":1055,"visible":true,"properties":[{"name":"layer","type":"int","value":1},{"name":"resource_index","type":"int","value":106},{"name":"oS","type":"string","value":"acc2"},{"name":"l0","type":"string","value":"shineWood"},{"name":"l1","type":"string","value":"foot"},{"name":"l2","type":"string","value":"22"},{"name":"z","type":"int","value":4},{"name":"zM","type":"int","value":31},{"name":"f","type":"int","value":0}],"gid":35,"width":127,"height":98},{"id":120,"x":-1778,"y":1039,"visible":true,"properties":[{"name":"layer","type":"int","value":1},{"name":"resource_index","type":"int","value":107},{"name":"oS","type":"string","value":"acc2"},{"name":"l0","type":"string","value":"shineWood"},{"name":"l1","type":"string","value":"foot"},{"name":"l2","type":"string","value":"20"},{"name":"z","type":"int","value":3},{"name":"zM","type":"int","value":31},{"name":"f","type":"int","value":0}],"gid":42,"width":170,"height":62},{"id":121,"x":-1664,"y":1088,"visible":true,"properties":[{"name":"layer","type":"int","value":1},{"name":"resource_index","type":"int","value":108},{"name":"oS","type":"string","value":"acc2"},{"name":"l0","type":"string","value":"shineWood"},{"name":"l1","type":"string","value":"foot"},{"name":"l2","type":"string","value":"21"},{"name":"z","type":"int","value":4},{"name":"zM","type":"int","value":31},{"name":"f","type":"int","value":0}],"gid":38,"width":142,"height":84},{"id":122,"x":-1560,"y":1102,"visible":true,"properties":[{"name":"layer","type":"int","value":1},{"name":"resource_index","type":"int","value":109},{"name":"oS","type":"string","value":"acc2"},{"name":"l0","type":"string","value":"shineWood"},{"name":"l1","type":"string","value":"foot"},{"name":"l2","type":"string","value":"20"},{"name":"z","type":"int","value":3},{"name":"zM","type":"int","value":31},{"name":"f","type":"int","value":0}],"gid":42,"width":170,"height":62},{"id":123,"x":-1437,"y":1176,"visible":true,"properties":[{"name":"layer","type":"int","value":1},{"name":"resource_index","type":"int","value":110},{"name":"oS","type":"string","value":"acc2"},{"name":"l0","type":"string","value":"shineWood"},{"name":"l1","type":"string","value":"foot"},{"name":"l2","type":"string","value":"22"},{"name":"z","type":"int","value":4},{"name":"zM","type":"int","value":31},{"name":"f","type":"int","value":0}],"gid":35,"width":127,"height":98},{"id":124,"x":-1271,"y":1033,"visible":true,"properties":[{"name":"layer","type":"int","value":1},{"name":"resource_index","type":"int","value":111},{"name":"oS","type":"string","value":"acc2"},{"name":"l0","type":"string","value":"shineWood"},{"name":"l1","type":"string","value":"minidungeon"},{"name":"l2","type":"string","value":"3"},{"name":"z","type":"int","value":0},{"name":"zM","type":"int","value":37},{"name":"f","type":"int","value":0}],"gid":60,"width":274,"height":360},{"id":125,"x":390,"y":47,"visible":true,"properties":[{"name":"layer","type":"int","value":1},{"name":"resource_index","type":"int","value":112},{"name":"oS","type":"string","value":"acc2"},{"name":"l0","type":"string","value":"shineWood"},{"name":"l1","type":"string","value":"minidungeon"},{"name":"l2","type":"string","value":"2"},{"name":"z","type":"int","value":0},{"name":"zM","type":"int","value":66},{"name":"f","type":"int","value":0}],"gid":62,"width":275,"height":345},{"id":126,"x":-656,"y":1204,"visible":true,"properties":[{"name":"layer","type":"int","value":1},{"name":"resource_index","type":"int","value":113},{"name":"oS","type":"string","value":"acc2"},{"name":"l0","type":"string","value":"shineWood"},{"name":"l1","type":"string","value":"foot"},{"name":"l2","type":"string","value":"26"},{"name":"z","type":"int","value":3},{"name":"zM","type":"int","value":30},{"name":"f","type":"int","value":0}],"gid":36,"width":367,"height":127},{"id":127,"x":153,"y":-5,"visible":true,"properties":[{"name":"layer","type":"int","value":1},{"name":"resource_index","type":"int","value":114},{"name":"oS","type":"string","value":"acc2"},{"name":"l0","type":"string","value":"shineWood"},{"name":"l1","type":"string","value":"foot"},{"name":"l2","type":"string","value":"19"},{"name":"z","type":"int","value":3},{"name":"zM","type":"int","value":66},{"name":"f","type":"int","value":0}],"gid":31,"width":304,"height":110},{"id":128,"x":565,"y":-37,"visible":true,"properties":[{"name":"layer","type":"int","value":1},{"name":"resource_index","type":"int","value":115},{"name":"oS","type":"string","value":"acc2"},{"name":"l0","type":"string","value":"shineWood"},{"name":"l1","type":"string","value":"foot"},{"name":"l2","type":"string","value":"21"},{"name":"z","type":"int","value":3},{"name":"zM","type":"int","value":66},{"name":"f","type":"int","value":0}],"gid":38,"width":142,"height":84},{"id":129,"x":677,"y":47,"visible":true,"properties":[{"name":"layer","type":"int","value":1},{"name":"resource_index","type":"int","value":116},{"name":"oS","type":"string","value":"acc2"},{"name":"l0","type":"string","value":"shineWood"},{"name":"l1","type":"string","value":"foot"},{"name":"l2","type":"string","value":"11"},{"name":"z","type":"int","value":4},{"name":"zM","type":"int","value":66},{"name":"f","type":"int","value":0}],"gid":43,"width":233,"height":167},{"id":130,"x":839,"y":108,"visible":true,"properties":[{"name":"layer","type":"int","value":1},{"name":"resource_index","type":"int","value":117},{"name":"oS","type":"string","value":"acc2"},{"name":"l0","type":"string","value":"shineWood"},{"name":"l1","type":"string","value":"foot"},{"name":"l2","type":"string","value":"22"},{"name":"z","type":"int","value":3},{"name":"zM","type":"int","value":66},{"name":"f","type":"int","value":0}],"gid":35,"width":127,"height":98},{"id":131,"x":894,"y":98,"visible":true,"properties":[{"name":"layer","type":"int","value":1},{"name":"resource_index","type":"int","value":118},{"name":"oS","type":"string","value":"acc2"},{"name":"l0","type":"string","value":"shineWood"},{"name":"l1","type":"string","value":"foot"},{"name":"l2","type":"string","value":"21"},{"name":"z","type":"int","value":5},{"name":"zM","type":"int","value":66},{"name":"f","type":"int","value":0}],"gid":38,"width":142,"height":84},{"id":132,"x":975,"y":99,"visible":true,"properties":[{"name":"layer","type":"int","value":1},{"name":"resource_index","type":"int","value":119},{"name":"oS","type":"string","value":"acc2"},{"name":"l0","type":"string","value":"shineWood"},{"name":"l1","type":"string","value":"foot"},{"name":"l2","type":"string","value":"2"},{"name":"z","type":"int","value":4},{"name":"zM","type":"int","value":66},{"name":"f","type":"int","value":0}],"gid":30,"width":149,"height":63},{"id":133,"x":-26,"y":19,"visible":true,"properties":[{"name":"layer","type":"int","value":1},{"name":"resource_index","type":"int","value":120},{"name":"oS","type":"string","value":"acc2"},{"name":"l0","type":"string","value":"shineWood"},{"name":"l1","type":"string","value":"foot"},{"name":"l2","type":"string","value":"1"},{"name":"z","type":"int","value":4},{"name":"zM","type":"int","value":70},{"name":"f","type":"int","value":0}],"gid":29,"width":149,"height":86},{"id":134,"x":-256,"y":101,"visible":true,"properties":[{"name":"layer","type":"int","value":1},{"name":"resource_index","type":"int","value":121},{"name":"oS","type":"string","value":"acc2"},{"name":"l0","type":"string","value":"shineWood"},{"name":"l1","type":"string","value":"foot"},{"name":"l2","type":"string","value":"0"},{"name":"z","type":"int","value":4},{"name":"zM","type":"int","value":64},{"name":"f","type":"int","value":0}],"gid":37,"width":206,"height":110},{"id":135,"x":-414,"y":139,"visible":true,"properties":[{"name":"layer","type":"int","value":1},{"name":"resource_index","type":"int","value":122},{"name":"oS","type":"string","value":"acc2"},{"name":"l0","type":"string","value":"shineWood"},{"name":"l1","type":"string","value":"foot"},{"name":"l2","type":"string","value":"22"},{"name":"z","type":"int","value":5},{"name":"zM","type":"int","value":62},{"name":"f","type":"int","value":0}],"gid":35,"width":127,"height":98},{"id":136,"x":-527,"y":71,"visible":true,"properties":[{"name":"layer","type":"int","value":1},{"name":"resource_index","type":"int","value":123},{"name":"oS","type":"string","value":"acc2"},{"name":"l0","type":"string","value":"shineWood"},{"name":"l1","type":"string","value":"foot"},{"name":"l2","type":"string","value":"20"},{"name":"z","type":"int","value":3},{"name":"zM","type":"int","value":62},{"name":"f","type":"int","value":0}],"gid":42,"width":170,"height":62},{"id":137,"x":-633,"y":55,"visible":true,"properties":[{"name":"layer","type":"int","value":1},{"name":"resource_index","type":"int","value":124},{"name":"oS","type":"string","value":"acc2"},{"name":"l0","type":"string","value":"shineWood"},{"name":"l1","type":"string","value":"foot"},{"name":"l2","type":"string","value":"21"},{"name":"z","type":"int","value":4},{"name":"zM","type":"int","value":62},{"name":"f","type":"int","value":0}],"gid":38,"width":142,"height":84},{"id":138,"x":-712,"y":69,"visible":true,"properties":[{"name":"layer","type":"int","value":1},{"name":"resource_index","type":"int","value":125},{"name":"oS","type":"string","value":"acc2"},{"name":"l0","type":"string","value":"shineWood"},{"name":"l1","type":"string","value":"foot"},{"name":"l2","type":"string","value":"22"},{"name":"z","type":"int","value":5},{"name":"zM","type":"int","value":62},{"name":"f","type":"int","value":0}],"gid":35,"width":127,"height":98},{"id":139,"x":-796,"y":60,"visible":true,"properties":[{"name":"layer","type":"int","value":1},{"name":"resource_index","type":"int","value":126},{"name":"oS","type":"string","value":"acc2"},{"name":"l0","type":"string","value":"shineWood"},{"name":"l1","type":"string","value":"foot"},{"name":"l2","type":"string","value":"5"},{"name":"z","type":"int","value":4},{"name":"zM","type":"int","value":62},{"name":"f","type":"int","value":0}],"gid":33,"width":125,"height":87},{"id":140,"x":-906,"y":54,"visible":true,"properties":[{"name":"layer","type":"int","value":1},{"name":"resource_index","type":"int","value":127},{"name":"oS","type":"string","value":"acc2"},{"name":"l0","type":"string","value":"shineWood"},{"name":"l1","type":"string","value":"foot"},{"name":"l2","type":"string","value":"4"},{"name":"z","type":"int","value":3},{"name":"zM","type":"int","value":62},{"name":"f","type":"int","value":0}],"gid":34,"width":148,"height":76},{"id":141,"x":-629,"y":247,"visible":true,"properties":[{"name":"layer","type":"int","value":1},{"name":"resource_index","type":"int","value":128},{"name":"oS","type":"string","value":"acc2"},{"name":"l0","type":"string","value":"shineWood"},{"name":"l1","type":"string","value":"foot"},{"name":"l2","type":"string","value":"0"},{"name":"z","type":"int","value":3},{"name":"zM","type":"int","value":62},{"name":"f","type":"int","value":0}],"gid":37,"width":206,"height":110},{"id":142,"x":-405,"y":175,"visible":true,"properties":[{"name":"layer","type":"int","value":1},{"name":"resource_index","type":"int","value":129},{"name":"oS","type":"string","value":"acc2"},{"name":"l0","type":"string","value":"shineWood"},{"name":"l1","type":"string","value":"foot"},{"name":"l2","type":"string","value":"3"},{"name":"z","type":"int","value":3},{"name":"zM","type":"int","value":62},{"name":"f","type":"int","value":0}],"gid":32,"width":65,"height":52},{"id":143,"x":-138,"y":23,"visible":true,"properties":[{"name":"layer","type":"int","value":1},{"name":"resource_index","type":"int","value":130},{"name":"oS","type":"string","value":"acc2"},{"name":"l0","type":"string","value":"shineWood"},{"name":"l1","type":"string","value":"foot"},{"name":"l2","type":"string","value":"6"},{"name":"z","type":"int","value":3},{"name":"zM","type":"int","value":70},{"name":"f","type":"int","value":0}],"gid":40,"width":170,"height":62},{"id":144,"x":849,"y":120,"visible":true,"properties":[{"name":"layer","type":"int","value":1},{"name":"resource_index","type":"int","value":131},{"name":"oS","type":"string","value":"acc2"},{"name":"l0","type":"string","value":"shineWood"},{"name":"l1","type":"string","value":"minidungeon"},{"name":"l2","type":"string","value":"1"},{"name":"z","type":"int","value":0},{"name":"zM","type":"int","value":66},{"name":"f","type":"int","value":0}],"gid":61,"width":275,"height":316},{"id":145,"x":-580,"y":1626,"visible":true,"properties":[{"name":"layer","type":"int","value":1},{"name":"resource_index","type":"int","value":132},{"name":"oS","type":"string","value":"acc2"},{"name":"l0","type":"string","value":"shineWood"},{"name":"l1","type":"string","value":"foot"},{"name":"l2","type":"string","value":"5"},{"name":"z","type":"int","value":4},{"name":"zM","type":"int","value":20},{"name":"f","type":"int","value":0}],"gid":33,"width":125,"height":87},{"id":146,"x":-616,"y":1602,"visible":true,"properties":[{"name":"layer","type":"int","value":1},{"name":"resource_index","type":"int","value":133},{"name":"oS","type":"string","value":"acc2"},{"name":"l0","type":"string","value":"shineWood"},{"name":"l1","type":"string","value":"foot"},{"name":"l2","type":"string","value":"3"},{"name":"z","type":"int","value":3},{"name":"zM","type":"int","value":20},{"name":"f","type":"int","value":0}],"gid":32,"width":65,"height":52},{"id":147,"x":-303,"y":152,"visible":true,"properties":[{"name":"layer","type":"int","value":1},{"name":"resource_index","type":"int","value":134},{"name":"oS","type":"string","value":"acc2"},{"name":"l0","type":"string","value":"shineWood"},{"name":"l1","type":"string","value":"foot"},{"name":"l2","type":"string","value":"3"},{"name":"z","type":"int","value":3},{"name":"zM","type":"int","value":64},{"name":"f","type":"int","value":0}],"gid":32,"width":65,"height":52},{"id":148,"x":858,"y":694,"visible":true,"properties":[{"name":"layer","type":"int","value":1},{"name":"resource_index","type":"int","value":135},{"name":"oS","type":"string","value":"acc2"},{"name":"l0","type":"string","value":"shineWood"},{"name":"l1","type":"string","value":"foot"},{"name":"l2","type":"string","value":"22"},{"name":"z","type":"int","value":3},{"name":"zM","type":"int","value":49},{"name":"f","type":"int","value":0}],"gid":35,"width":127,"height":98},{"id":149,"x":784,"y":614,"visible":true,"properties":[{"name":"layer","type":"int","value":1},{"name":"resource_index","type":"int","value":136},{"name":"oS","type":"string","value":"acc2"},{"name":"l0","type":"string","value":"shineWood"},{"name":"l1","type":"string","value":"foot"},{"name":"l2","type":"string","value":"15"},{"name":"z","type":"int","value":5},{"name":"zM","type":"int","value":49},{"name":"f","type":"int","value":0}],"gid":45,"width":148,"height":87},{"id":150,"x":-961,"y":1198,"visible":true,"properties":[{"name":"layer","type":"int","value":1},{"name":"resource_index","type":"int","value":137},{"name":"oS","type":"string","value":"acc2"},{"name":"l0","type":"string","value":"shineWood"},{"name":"l1","type":"string","value":"foot"},{"name":"l2","type":"string","value":"2"},{"name":"z","type":"int","value":3},{"name":"zM","type":"int","value":28},{"name":"f","type":"int","value":0}],"gid":30,"width":149,"height":63},{"id":151,"x":579,"y":572,"visible":true,"properties":[{"name":"layer","type":"int","value":1},{"name":"resource_index","type":"int","value":138},{"name":"oS","type":"string","value":"acc2"},{"name":"l0","type":"string","value":"shineWood"},{"name":"l1","type":"string","value":"foot"},{"name":"l2","type":"string","value":"11"},{"name":"z","type":"int","value":5},{"name":"zM","type":"int","value":49},{"name":"f","type":"int","value":0}],"gid":43,"width":233,"height":167},{"id":152,"x":500,"y":523,"visible":true,"properties":[{"name":"layer","type":"int","value":1},{"name":"resource_index","type":"int","value":139},{"name":"oS","type":"string","value":"acc2"},{"name":"l0","type":"string","value":"shineWood"},{"name":"l1","type":"string","value":"foot"},{"name":"l2","type":"string","value":"22"},{"name":"z","type":"int","value":3},{"name":"zM","type":"int","value":49},{"name":"f","type":"int","value":0}],"gid":35,"width":127,"height":98},{"id":153,"x":-1472,"y":1072,"visible":true,"properties":[{"name":"layer","type":"int","value":1},{"name":"resource_index","type":"int","value":140},{"name":"oS","type":"string","value":"acc2"},{"name":"l0","type":"string","value":"shineWood"},{"name":"l1","type":"string","value":"foot"},{"name":"l2","type":"string","value":"1"},{"name":"z","type":"int","value":3},{"name":"zM","type":"int","value":37},{"name":"f","type":"int","value":0}],"gid":29,"width":149,"height":86},{"id":154,"x":593,"y":469,"visible":true,"properties":[{"name":"layer","type":"int","value":1},{"name":"resource_index","type":"int","value":141},{"name":"oS","type":"string","value":"acc2"},{"name":"l0","type":"string","value":"shineWood"},{"name":"l1","type":"string","value":"foot"},{"name":"l2","type":"string","value":"5"},{"name":"z","type":"int","value":3},{"name":"zM","type":"int","value":49},{"name":"f","type":"int","value":0}],"gid":33,"width":125,"height":87},{"id":155,"x":648,"y":397,"visible":true,"properties":[{"name":"layer","type":"int","value":1},{"name":"resource_index","type":"int","value":142},{"name":"oS","type":"string","value":"acc2"},{"name":"l0","type":"string","value":"shineWood"},{"name":"l1","type":"string","value":"foot"},{"name":"l2","type":"string","value":"7"},{"name":"z","type":"int","value":5},{"name":"zM","type":"int","value":49},{"name":"f","type":"int","value":0}],"gid":41,"width":233,"height":147},{"id":156,"x":815,"y":333,"visible":true,"properties":[{"name":"layer","type":"int","value":1},{"name":"resource_index","type":"int","value":143},{"name":"oS","type":"string","value":"acc2"},{"name":"l0","type":"string","value":"shineWood"},{"name":"l1","type":"string","value":"foot"},{"name":"l2","type":"string","value":"2"},{"name":"z","type":"int","value":3},{"name":"zM","type":"int","value":49},{"name":"f","type":"int","value":0}],"gid":30,"width":149,"height":63},{"id":157,"x":855,"y":299,"visible":true,"properties":[{"name":"layer","type":"int","value":1},{"name":"resource_index","type":"int","value":144},{"name":"oS","type":"string","value":"acc2"},{"name":"l0","type":"string","value":"shineWood"},{"name":"l1","type":"string","value":"foot"},{"name":"l2","type":"string","value":"9"},{"name":"z","type":"int","value":5},{"name":"zM","type":"int","value":49},{"name":"f","type":"int","value":0}],"gid":44,"width":148,"height":87},{"id":158,"x":968,"y":302,"visible":true,"properties":[{"name":"layer","type":"int","value":1},{"name":"resource_index","type":"int","value":145},{"name":"oS","type":"string","value":"acc2"},{"name":"l0","type":"string","value":"shineWood"},{"name":"l1","type":"string","value":"foot"},{"name":"l2","type":"string","value":"4"},{"name":"z","type":"int","value":3},{"name":"zM","type":"int","value":49},{"name":"f","type":"int","value":0}],"gid":34,"width":148,"height":76},{"id":159,"x":-1272,"y":414,"visible":true,"properties":[{"name":"layer","type":"int","value":1},{"name":"resource_index","type":"int","value":146},{"name":"oS","type":"string","value":"acc2"},{"name":"l0","type":"string","value":"shineWood"},{"name":"l1","type":"string","value":"minidungeon"},{"name":"l2","type":"string","value":"1"},{"name":"z","type":"int","value":0},{"name":"zM","type":"int","value":47},{"name":"f","type":"int","value":0}],"gid":61,"width":275,"height":316},{"id":160,"x":695,"y":-80,"visible":true,"properties":[{"name":"layer","type":"int","value":1},{"name":"resource_index","type":"int","value":147},{"name":"oS","type":"string","value":"acc2"},{"name":"l0","type":"string","value":"shineWood"},{"name":"l1","type":"string","value":"foot"},{"name":"l2","type":"string","value":"2"},{"name":"z","type":"int","value":4},{"name":"zM","type":"int","value":66},{"name":"f","type":"int","value":0}],"gid":30,"width":149,"height":63},{"id":161,"x":-1433,"y":1397,"visible":true,"properties":[{"name":"layer","type":"int","value":1},{"name":"resource_index","type":"int","value":148},{"name":"oS","type":"string","value":"acc2"},{"name":"l0","type":"string","value":"shineWood"},{"name":"l1","type":"string","value":"artificiality"},{"name":"l2","type":"string","value":"0"},{"name":"z","type":"int","value":4},{"name":"zM","type":"int","value":16},{"name":"f","type":"int","value":1}],"gid":64,"width":64,"height":118},{"id":162,"x":-1158,"y":330,"visible":true,"properties":[{"name":"layer","type":"int","value":1},{"name":"resource_index","type":"int","value":149},{"name":"oS","type":"string","value":"acc2"},{"name":"l0","type":"string","value":"shineWood"},{"name":"l1","type":"string","value":"foot"},{"name":"l2","type":"string","value":"2"},{"name":"z","type":"int","value":4},{"name":"zM","type":"int","value":47},{"name":"f","type":"int","value":0}],"gid":30,"width":149,"height":63},{"id":163,"x":-1268,"y":387,"visible":true,"properties":[{"name":"layer","type":"int","value":1},{"name":"resource_index","type":"int","value":150},{"name":"oS","type":"string","value":"acc2"},{"name":"l0","type":"string","value":"shineWood"},{"name":"l1","type":"string","value":"foot"},{"name":"l2","type":"string","value":"21"},{"name":"z","type":"int","value":3},{"name":"zM","type":"int","value":47},{"name":"f","type":"int","value":0}],"gid":38,"width":142,"height":84},{"id":164,"x":-1177,"y":439,"visible":true,"properties":[{"name":"layer","type":"int","value":1},{"name":"resource_index","type":"int","value":151},{"name":"oS","type":"string","value":"acc2"},{"name":"l0","type":"string","value":"shineWood"},{"name":"l1","type":"string","value":"foot"},{"name":"l2","type":"string","value":"22"},{"name":"z","type":"int","value":4},{"name":"zM","type":"int","value":47},{"name":"f","type":"int","value":0}],"gid":35,"width":127,"height":98},{"id":165,"x":-1097,"y":420,"visible":true,"properties":[{"name":"layer","type":"int","value":1},{"name":"resource_index","type":"int","value":152},{"name":"oS","type":"string","value":"acc2"},{"name":"l0","type":"string","value":"shineWood"},{"name":"l1","type":"string","value":"foot"},{"name":"l2","type":"string","value":"20"},{"name":"z","type":"int","value":3},{"name":"zM","type":"int","value":47},{"name":"f","type":"int","value":0}],"gid":42,"width":170,"height":62},{"id":166,"x":-981,"y":501,"visible":true,"properties":[{"name":"layer","type":"int","value":1},{"name":"resource_index","type":"int","value":153},{"name":"oS","type":"string","value":"acc2"},{"name":"l0","type":"string","value":"shineWood"},{"name":"l1","type":"string","value":"foot"},{"name":"l2","type":"string","value":"22"},{"name":"z","type":"int","value":4},{"name":"zM","type":"int","value":47},{"name":"f","type":"int","value":0}],"gid":35,"width":127,"height":98},{"id":167,"x":-899,"y":484,"visible":true,"properties":[{"name":"layer","type":"int","value":1},{"name":"resource_index","type":"int","value":154},{"name":"oS","type":"string","value":"acc2"},{"name":"l0","type":"string","value":"shineWood"},{"name":"l1","type":"string","value":"foot"},{"name":"l2","type":"string","value":"20"},{"name":"z","type":"int","value":3},{"name":"zM","type":"int","value":47},{"name":"f","type":"int","value":0}],"gid":42,"width":170,"height":62},{"id":168,"x":-803,"y":528,"visible":true,"properties":[{"name":"layer","type":"int","value":1},{"name":"resource_index","type":"int","value":155},{"name":"oS","type":"string","value":"acc2"},{"name":"l0","type":"string","value":"shineWood"},{"name":"l1","type":"string","value":"foot"},{"name":"l2","type":"string","value":"21"},{"name":"z","type":"int","value":4},{"name":"zM","type":"int","value":47},{"name":"f","type":"int","value":0}],"gid":38,"width":142,"height":84},{"id":169,"x":-712,"y":579,"visible":true,"properties":[{"name":"layer","type":"int","value":1},{"name":"resource_index","type":"int","value":156},{"name":"oS","type":"string","value":"acc2"},{"name":"l0","type":"string","value":"shineWood"},{"name":"l1","type":"string","value":"foot"},{"name":"l2","type":"string","value":"22"},{"name":"z","type":"int","value":3},{"name":"zM","type":"int","value":47},{"name":"f","type":"int","value":0}],"gid":35,"width":127,"height":98},{"id":170,"x":-643,"y":569,"visible":true,"properties":[{"name":"layer","type":"int","value":1},{"name":"resource_index","type":"int","value":157},{"name":"oS","type":"string","value":"acc2"},{"name":"l0","type":"string","value":"shineWood"},{"name":"l1","type":"string","value":"foot"},{"name":"l2","type":"string","value":"21"},{"name":"z","type":"int","value":2},{"name":"zM","type":"int","value":47},{"name":"f","type":"int","value":0}],"gid":38,"width":142,"height":84},{"id":171,"x":-164,"y":615,"visible":true,"properties":[{"name":"layer","type":"int","value":1},{"name":"resource_index","type":"int","value":158},{"name":"oS","type":"string","value":"acc2"},{"name":"l0","type":"string","value":"shineWood"},{"name":"l1","type":"string","value":"foot"},{"name":"l2","type":"string","value":"1"},{"name":"z","type":"int","value":6},{"name":"zM","type":"int","value":50},{"name":"f","type":"int","value":0}],"gid":29,"width":149,"height":86},{"id":172,"x":337,"y":529,"visible":true,"properties":[{"name":"layer","type":"int","value":1},{"name":"resource_index","type":"int","value":159},{"name":"oS","type":"string","value":"acc2"},{"name":"l0","type":"string","value":"shineWood"},{"name":"l1","type":"string","value":"foot"},{"name":"l2","type":"string","value":"0"},{"name":"z","type":"int","value":4},{"name":"zM","type":"int","value":49},{"name":"f","type":"int","value":0}],"gid":37,"width":206,"height":110},{"id":173,"x":271,"y":535,"visible":true,"properties":[{"name":"layer","type":"int","value":1},{"name":"resource_index","type":"int","value":160},{"name":"oS","type":"string","value":"acc2"},{"name":"l0","type":"string","value":"shineWood"},{"name":"l1","type":"string","value":"foot"},{"name":"l2","type":"string","value":"5"},{"name":"z","type":"int","value":5},{"name":"zM","type":"int","value":49},{"name":"f","type":"int","value":0}],"gid":33,"width":125,"height":87},{"id":174,"x":134,"y":522,"visible":true,"properties":[{"name":"layer","type":"int","value":1},{"name":"resource_index","type":"int","value":161},{"name":"oS","type":"string","value":"acc2"},{"name":"l0","type":"string","value":"shineWood"},{"name":"l1","type":"string","value":"foot"},{"name":"l2","type":"string","value":"6"},{"name":"z","type":"int","value":3},{"name":"zM","type":"int","value":49},{"name":"f","type":"int","value":0}],"gid":40,"width":170,"height":62},{"id":175,"x":695,"y":625,"visible":true,"properties":[{"name":"layer","type":"int","value":1},{"name":"resource_index","type":"int","value":162},{"name":"oS","type":"string","value":"acc2"},{"name":"l0","type":"string","value":"shineWood"},{"name":"l1","type":"string","value":"foot"},{"name":"l2","type":"string","value":"22"},{"name":"z","type":"int","value":2},{"name":"zM","type":"int","value":49},{"name":"f","type":"int","value":0}],"gid":35,"width":127,"height":98},{"id":176,"x":-69,"y":565,"visible":true,"properties":[{"name":"layer","type":"int","value":1},{"name":"resource_index","type":"int","value":163},{"name":"oS","type":"string","value":"acc2"},{"name":"l0","type":"string","value":"shineWood"},{"name":"l1","type":"string","value":"foot"},{"name":"l2","type":"string","value":"6"},{"name":"z","type":"int","value":3},{"name":"zM","type":"int","value":52},{"name":"f","type":"int","value":0}],"gid":40,"width":170,"height":62},{"id":177,"x":-547,"y":581,"visible":true,"properties":[{"name":"layer","type":"int","value":1},{"name":"resource_index","type":"int","value":164},{"name":"oS","type":"string","value":"acc2"},{"name":"l0","type":"string","value":"shineWood"},{"name":"l1","type":"string","value":"foot"},{"name":"l2","type":"string","value":"20"},{"name":"z","type":"int","value":1},{"name":"zM","type":"int","value":47},{"name":"f","type":"int","value":0}],"gid":42,"width":170,"height":62},{"id":178,"x":-426,"y":662,"visible":true,"properties":[{"name":"layer","type":"int","value":1},{"name":"resource_index","type":"int","value":165},{"name":"oS","type":"string","value":"acc2"},{"name":"l0","type":"string","value":"shineWood"},{"name":"l1","type":"string","value":"foot"},{"name":"l2","type":"string","value":"22"},{"name":"z","type":"int","value":4},{"name":"zM","type":"int","value":47},{"name":"f","type":"int","value":0}],"gid":35,"width":127,"height":98},{"id":179,"x":-344,"y":643,"visible":true,"properties":[{"name":"layer","type":"int","value":1},{"name":"resource_index","type":"int","value":166},{"name":"oS","type":"string","value":"acc2"},{"name":"l0","type":"string","value":"shineWood"},{"name":"l1","type":"string","value":"foot"},{"name":"l2","type":"string","value":"20"},{"name":"z","type":"int","value":3},{"name":"zM","type":"int","value":47},{"name":"f","type":"int","value":0}],"gid":42,"width":170,"height":62},{"id":180,"x":-247,"y":693,"visible":true,"properties":[{"name":"layer","type":"int","value":1},{"name":"resource_index","type":"int","value":167},{"name":"oS","type":"string","value":"acc2"},{"name":"l0","type":"string","value":"shineWood"},{"name":"l1","type":"string","value":"foot"},{"name":"l2","type":"string","value":"21"},{"name":"z","type":"int","value":4},{"name":"zM","type":"int","value":47},{"name":"f","type":"int","value":0}],"gid":38,"width":142,"height":84},{"id":181,"x":-154,"y":773,"visible":true,"properties":[{"name":"layer","type":"int","value":1},{"name":"resource_index","type":"int","value":168},{"name":"oS","type":"string","value":"acc2"},{"name":"l0","type":"string","value":"shineWood"},{"name":"l1","type":"string","value":"foot"},{"name":"l2","type":"string","value":"21"},{"name":"z","type":"int","value":3},{"name":"zM","type":"int","value":47},{"name":"f","type":"int","value":0}],"gid":38,"width":142,"height":84},{"id":182,"x":-17,"y":844,"visible":true,"properties":[{"name":"layer","type":"int","value":1},{"name":"resource_index","type":"int","value":169},{"name":"oS","type":"string","value":"acc2"},{"name":"l0","type":"string","value":"shineWood"},{"name":"l1","type":"string","value":"foot"},{"name":"l2","type":"string","value":"1"},{"name":"z","type":"int","value":3},{"name":"zM","type":"int","value":47},{"name":"f","type":"int","value":0}],"gid":29,"width":149,"height":86},{"id":183,"x":-677,"y":1859,"visible":true,"properties":[{"name":"layer","type":"int","value":1},{"name":"resource_index","type":"int","value":170},{"name":"oS","type":"string","value":"acc2"},{"name":"l0","type":"string","value":"shineWood"},{"name":"l1","type":"string","value":"foot"},{"name":"l2","type":"string","value":"2"},{"name":"z","type":"int","value":3},{"name":"zM","type":"int","value":6},{"name":"f","type":"int","value":0}],"gid":30,"width":149,"height":63},{"id":184,"x":-756,"y":1898,"visible":true,"properties":[{"name":"layer","type":"int","value":1},{"name":"resource_index","type":"int","value":171},{"name":"oS","type":"string","value":"acc2"},{"name":"l0","type":"string","value":"shineWood"},{"name":"l1","type":"string","value":"foot"},{"name":"l2","type":"string","value":"5"},{"name":"z","type":"int","value":4},{"name":"zM","type":"int","value":6},{"name":"f","type":"int","value":0}],"gid":33,"width":125,"height":87},{"id":185,"x":-945,"y":1950,"visible":true,"properties":[{"name":"layer","type":"int","value":1},{"name":"resource_index","type":"int","value":172},{"name":"oS","type":"string","value":"acc2"},{"name":"l0","type":"string","value":"shineWood"},{"name":"l1","type":"string","value":"foot"},{"name":"l2","type":"string","value":"17"},{"name":"z","type":"int","value":5},{"name":"zM","type":"int","value":6},{"name":"f","type":"int","value":0}],"gid":39,"width":233,"height":167},{"id":186,"x":-1040,"y":1991,"visible":true,"properties":[{"name":"layer","type":"int","value":1},{"name":"resource_index","type":"int","value":173},{"name":"oS","type":"string","value":"acc2"},{"name":"l0","type":"string","value":"shineWood"},{"name":"l1","type":"string","value":"foot"},{"name":"l2","type":"string","value":"4"},{"name":"z","type":"int","value":3},{"name":"zM","type":"int","value":6},{"name":"f","type":"int","value":0}],"gid":34,"width":148,"height":76},{"id":187,"x":-1154,"y":2056,"visible":true,"properties":[{"name":"layer","type":"int","value":1},{"name":"resource_index","type":"int","value":174},{"name":"oS","type":"string","value":"acc2"},{"name":"l0","type":"string","value":"shineWood"},{"name":"l1","type":"string","value":"foot"},{"name":"l2","type":"string","value":"5"},{"name":"z","type":"int","value":3},{"name":"zM","type":"int","value":1},{"name":"f","type":"int","value":0}],"gid":33,"width":125,"height":87},{"id":188,"x":-1303,"y":2065,"visible":true,"properties":[{"name":"layer","type":"int","value":1},{"name":"resource_index","type":"int","value":175},{"name":"oS","type":"string","value":"acc2"},{"name":"l0","type":"string","value":"shineWood"},{"name":"l1","type":"string","value":"foot"},{"name":"l2","type":"string","value":"2"},{"name":"z","type":"int","value":3},{"name":"zM","type":"int","value":1},{"name":"f","type":"int","value":0}],"gid":30,"width":149,"height":63},{"id":189,"x":-632,"y":1351,"visible":true,"properties":[{"name":"layer","type":"int","value":1},{"name":"resource_index","type":"int","value":176},{"name":"oS","type":"string","value":"acc2"},{"name":"l0","type":"string","value":"shineWood"},{"name":"l1","type":"string","value":"foot"},{"name":"l2","type":"string","value":"1"},{"name":"z","type":"int","value":4},{"name":"zM","type":"int","value":16},{"name":"f","type":"int","value":0}],"gid":29,"width":149,"height":86},{"id":190,"x":-755,"y":1297,"visible":true,"properties":[{"name":"layer","type":"int","value":1},{"name":"resource_index","type":"int","value":177},{"name":"oS","type":"string","value":"acc2"},{"name":"l0","type":"string","value":"shineWood"},{"name":"l1","type":"string","value":"foot"},{"name":"l2","type":"string","value":"1"},{"name":"z","type":"int","value":3},{"name":"zM","type":"int","value":16},{"name":"f","type":"int","value":0}],"gid":29,"width":149,"height":86},{"id":191,"x":-17,"y":1088,"visible":true,"properties":[{"name":"layer","type":"int","value":1},{"name":"resource_index","type":"int","value":178},{"name":"oS","type":"string","value":"acc2"},{"name":"l0","type":"string","value":"shineWood"},{"name":"l1","type":"string","value":"foot"},{"name":"l2","type":"string","value":"26"},{"name":"z","type":"int","value":3},{"name":"zM","type":"int","value":30},{"name":"f","type":"int","value":0}],"gid":36,"width":367,"height":127},{"id":192,"x":333,"y":1100,"visible":true,"properties":[{"name":"layer","type":"int","value":1},{"name":"resource_index","type":"int","value":179},{"name":"oS","type":"string","value":"acc2"},{"name":"l0","type":"string","value":"shineWood"},{"name":"l1","type":"string","value":"foot"},{"name":"l2","type":"string","value":"25"},{"name":"z","type":"int","value":6},{"name":"zM","type":"int","value":30},{"name":"f","type":"int","value":0}],"gid":46,"width":351,"height":152},{"id":193,"x":615,"y":1210,"visible":true,"properties":[{"name":"layer","type":"int","value":1},{"name":"resource_index","type":"int","value":180},{"name":"oS","type":"string","value":"acc2"},{"name":"l0","type":"string","value":"shineWood"},{"name":"l1","type":"string","value":"foot"},{"name":"l2","type":"string","value":"23"},{"name":"z","type":"int","value":3},{"name":"zM","type":"int","value":30},{"name":"f","type":"int","value":0}],"gid":47,"width":403,"height":227},{"id":194,"x":-1328,"y":435,"visible":true,"properties":[{"name":"layer","type":"int","value":1},{"name":"resource_index","type":"int","value":181},{"name":"oS","type":"string","value":"acc2"},{"name":"l0","type":"string","value":"shineWood"},{"name":"l1","type":"string","value":"artificiality"},{"name":"l2","type":"string","value":"0"},{"name":"z","type":"int","value":3},{"name":"zM","type":"int","value":47},{"name":"f","type":"int","value":1}],"gid":64,"width":64,"height":118},{"id":195,"x":-815,"y":1713,"visible":true,"properties":[{"name":"layer","type":"int","value":1},{"name":"resource_index","type":"int","value":182},{"name":"oS","type":"string","value":"acc2"},{"name":"l0","type":"string","value":"shineWood"},{"name":"l1","type":"string","value":"foot"},{"name":"l2","type":"string","value":"22"},{"name":"z","type":"int","value":3},{"name":"zM","type":"int","value":16},{"name":"f","type":"int","value":0}],"gid":35,"width":127,"height":98},{"id":196,"x":1102,"y":-142,"visible":true,"properties":[{"name":"layer","type":"int","value":1},{"name":"resource_index","type":"int","value":183},{"name":"oS","type":"string","value":"acc2"},{"name":"l0","type":"string","value":"shineWood"},{"name":"l1","type":"string","value":"foot"},{"name":"l2","type":"string","value":"2"},{"name":"z","type":"int","value":3},{"name":"zM","type":"int","value":66},{"name":"f","type":"int","value":0}],"gid":30,"width":149,"height":63},{"id":197,"x":1019,"y":-121,"visible":true,"properties":[{"name":"layer","type":"int","value":1},{"name":"resource_index","type":"int","value":184},{"name":"oS","type":"string","value":"acc2"},{"name":"l0","type":"string","value":"shineWood"},{"name":"l1","type":"string","value":"foot"},{"name":"l2","type":"string","value":"1"},{"name":"z","type":"int","value":2},{"name":"zM","type":"int","value":66},{"name":"f","type":"int","value":0}],"gid":29,"width":149,"height":86},{"id":198,"x":1006,"y":-127,"visible":true,"properties":[{"name":"layer","type":"int","value":1},{"name":"resource_index","type":"int","value":185},{"name":"oS","type":"string","value":"acc2"},{"name":"l0","type":"string","value":"shineWood"},{"name":"l1","type":"string","value":"foot"},{"name":"l2","type":"string","value":"3"},{"name":"z","type":"int","value":3},{"name":"zM","type":"int","value":66},{"name":"f","type":"int","value":0}],"gid":32,"width":65,"height":52},{"id":199,"x":891,"y":-126,"visible":true,"properties":[{"name":"layer","type":"int","value":1},{"name":"resource_index","type":"int","value":186},{"name":"oS","type":"string","value":"acc2"},{"name":"l0","type":"string","value":"shineWood"},{"name":"l1","type":"string","value":"foot"},{"name":"l2","type":"string","value":"2"},{"name":"z","type":"int","value":4},{"name":"zM","type":"int","value":66},{"name":"f","type":"int","value":0}],"gid":30,"width":149,"height":63},{"id":200,"x":-189,"y":181,"visible":true,"properties":[{"name":"layer","type":"int","value":1},{"name":"resource_index","type":"int","value":187},{"name":"oS","type":"string","value":"acc2"},{"name":"l0","type":"string","value":"shineWood"},{"name":"l1","type":"string","value":"foot"},{"name":"l2","type":"string","value":"21"},{"name":"z","type":"int","value":4},{"name":"zM","type":"int","value":47},{"name":"f","type":"int","value":0}],"gid":38,"width":142,"height":84},{"id":201,"x":-89,"y":194,"visible":true,"properties":[{"name":"layer","type":"int","value":1},{"name":"resource_index","type":"int","value":188},{"name":"oS","type":"string","value":"acc2"},{"name":"l0","type":"string","value":"shineWood"},{"name":"l1","type":"string","value":"foot"},{"name":"l2","type":"string","value":"20"},{"name":"z","type":"int","value":3},{"name":"zM","type":"int","value":61},{"name":"f","type":"int","value":0}],"gid":42,"width":170,"height":62},{"id":202,"x":783,"y":-108,"visible":true,"properties":[{"name":"layer","type":"int","value":1},{"name":"resource_index","type":"int","value":189},{"name":"oS","type":"string","value":"acc2"},{"name":"l0","type":"string","value":"shineWood"},{"name":"l1","type":"string","value":"foot"},{"name":"l2","type":"string","value":"6"},{"name":"z","type":"int","value":3},{"name":"zM","type":"int","value":66},{"name":"f","type":"int","value":0}],"gid":40,"width":170,"height":62},{"id":203,"x":127,"y":251,"visible":true,"properties":[{"name":"layer","type":"int","value":1},{"name":"resource_index","type":"int","value":190},{"name":"oS","type":"string","value":"acc2"},{"name":"l0","type":"string","value":"shineWood"},{"name":"l1","type":"string","value":"foot"},{"name":"l2","type":"string","value":"20"},{"name":"z","type":"int","value":3},{"name":"zM","type":"int","value":49},{"name":"f","type":"int","value":0}],"gid":42,"width":170,"height":62},{"id":204,"x":252,"y":303,"visible":true,"properties":[{"name":"layer","type":"int","value":1},{"name":"resource_index","type":"int","value":191},{"name":"oS","type":"string","value":"acc2"},{"name":"l0","type":"string","value":"shineWood"},{"name":"l1","type":"string","value":"foot"},{"name":"l2","type":"string","value":"21"},{"name":"z","type":"int","value":4},{"name":"zM","type":"int","value":49},{"name":"f","type":"int","value":0}],"gid":38,"width":142,"height":84},{"id":205,"x":338,"y":314,"visible":true,"properties":[{"name":"layer","type":"int","value":1},{"name":"resource_index","type":"int","value":192},{"name":"oS","type":"string","value":"acc2"},{"name":"l0","type":"string","value":"shineWood"},{"name":"l1","type":"string","value":"foot"},{"name":"l2","type":"string","value":"21"},{"name":"z","type":"int","value":4},{"name":"zM","type":"int","value":49},{"name":"f","type":"int","value":0}],"gid":38,"width":142,"height":84},{"id":206,"x":404,"y":304,"visible":true,"properties":[{"name":"layer","type":"int","value":1},{"name":"resource_index","type":"int","value":193},{"name":"oS","type":"string","value":"acc2"},{"name":"l0","type":"string","value":"shineWood"},{"name":"l1","type":"string","value":"foot"},{"name":"l2","type":"string","value":"2"},{"name":"z","type":"int","value":3},{"name":"zM","type":"int","value":49},{"name":"f","type":"int","value":0}],"gid":30,"width":149,"height":63},{"id":207,"x":513,"y":304,"visible":true,"properties":[{"name":"layer","type":"int","value":1},{"name":"resource_index","type":"int","value":194},{"name":"oS","type":"string","value":"acc2"},{"name":"l0","type":"string","value":"shineWood"},{"name":"l1","type":"string","value":"foot"},{"name":"l2","type":"string","value":"3"},{"name":"z","type":"int","value":4},{"name":"zM","type":"int","value":49},{"name":"f","type":"int","value":0}],"gid":32,"width":65,"height":52},{"id":208,"x":-1320,"y":1687,"visible":true,"properties":[{"name":"layer","type":"int","value":1},{"name":"resource_index","type":"int","value":195},{"name":"oS","type":"string","value":"acc2"},{"name":"l0","type":"string","value":"shineWood"},{"name":"l1","type":"string","value":"artificiality"},{"name":"l2","type":"string","value":"0"},{"name":"z","type":"int","value":4},{"name":"zM","type":"int","value":16},{"name":"f","type":"int","value":1}],"gid":64,"width":64,"height":118},{"id":209,"x":-1062,"y":339,"visible":true,"properties":[{"name":"layer","type":"int","value":1},{"name":"resource_index","type":"int","value":196},{"name":"oS","type":"string","value":"acc2"},{"name":"l0","type":"string","value":"shineWood"},{"name":"l1","type":"string","value":"foot"},{"name":"l2","type":"string","value":"24"},{"name":"z","type":"int","value":3},{"name":"zM","type":"int","value":47},{"name":"f","type":"int","value":0}],"gid":48,"width":392,"height":199},{"id":210,"x":-726,"y":212,"visible":true,"properties":[{"name":"layer","type":"int","value":1},{"name":"resource_index","type":"int","value":197},{"name":"oS","type":"string","value":"acc2"},{"name":"l0","type":"string","value":"shineWood"},{"name":"l1","type":"string","value":"foot"},{"name":"l2","type":"string","value":"2"},{"name":"z","type":"int","value":4},{"name":"zM","type":"int","value":47},{"name":"f","type":"int","value":0}],"gid":30,"width":149,"height":63},{"id":211,"x":323,"y":1026,"visible":true,"properties":[{"name":"layer","type":"int","value":1},{"name":"resource_index","type":"int","value":198},{"name":"oS","type":"string","value":"acc2"},{"name":"l0","type":"string","value":"shineWood"},{"name":"l1","type":"string","value":"foot"},{"name":"l2","type":"string","value":"3"},{"name":"z","type":"int","value":7},{"name":"zM","type":"int","value":30},{"name":"f","type":"int","value":0}],"gid":32,"width":65,"height":52}],"properties":[]},{"id":32,"name":"layer_2_obj","type":"objectgroup","visible":true,"opacity":1,"draworder":"index","offsetx":0,"offsety":0,"parallaxx":1,"parallaxy":1,"objects":[{"id":212,"x":-700,"y":1676,"visible":true,"properties":[{"name":"layer","type":"int","value":2},{"name":"resource_index","type":"int","value":0},{"name":"oS","type":"string","value":"connect"},{"name":"l0","type":"string","value":"ladder"},{"name":"l1","type":"string","value":"0"},{"name":"l2","type":"string","value":"1"},{"name":"z","type":"int","value":3},{"name":"zM","type":"int","value":13},{"name":"f","type":"int","value":0}],"gid":25,"width":54,"height":48},{"id":213,"x":-701,"y":1731,"visible":true,"properties":[{"name":"layer","type":"int","value":2},{"name":"resource_index","type":"int","value":1},{"name":"oS","type":"string","value":"connect"},{"name":"l0","type":"string","value":"ladder"},{"name":"l1","type":"string","value":"0"},{"name":"l2","type":"string","value":"2"},{"name":"z","type":"int","value":3},{"name":"zM","type":"int","value":13},{"name":"f","type":"int","value":0}],"gid":26,"width":53,"height":56},{"id":214,"x":-700,"y":1777,"visible":true,"properties":[{"name":"layer","type":"int","value":2},{"name":"resource_index","type":"int","value":2},{"name":"oS","type":"string","value":"connect"},{"name":"l0","type":"string","value":"ladder"},{"name":"l1","type":"string","value":"0"},{"name":"l2","type":"string","value":"1"},{"name":"z","type":"int","value":3},{"name":"zM","type":"int","value":13},{"name":"f","type":"int","value":0}],"gid":25,"width":54,"height":48},{"id":215,"x":-697,"y":1791,"visible":true,"properties":[{"name":"layer","type":"int","value":2},{"name":"resource_index","type":"int","value":3},{"name":"oS","type":"string","value":"connect"},{"name":"l0","type":"string","value":"ladder"},{"name":"l1","type":"string","value":"0"},{"name":"l2","type":"string","value":"3"},{"name":"z","type":"int","value":3},{"name":"zM","type":"int","value":11},{"name":"f","type":"int","value":0}],"gid":27,"width":47,"height":14},{"id":216,"x":-699,"y":1629,"visible":true,"properties":[{"name":"layer","type":"int","value":2},{"name":"resource_index","type":"int","value":4},{"name":"oS","type":"string","value":"connect"},{"name":"l0","type":"string","value":"ladder"},{"name":"l1","type":"string","value":"0"},{"name":"l2","type":"string","value":"0"},{"name":"z","type":"int","value":2},{"name":"zM","type":"int","value":13},{"name":"f","type":"int","value":0}],"gid":24,"width":48,"height":23},{"id":217,"x":1022,"y":1164,"visible":true,"properties":[{"name":"layer","type":"int","value":2},{"name":"resource_index","type":"int","value":5},{"name":"oS","type":"string","value":"connect"},{"name":"l0","type":"string","value":"rope"},{"name":"l1","type":"string","value":"0"},{"name":"l2","type":"string","value":"0"},{"name":"z","type":"int","value":3},{"name":"zM","type":"int","value":32},{"name":"f","type":"int","value":0}],"gid":20,"width":19,"height":49},{"id":218,"x":1025,"y":1284,"visible":true,"properties":[{"name":"layer","type":"int","value":2},{"name":"resource_index","type":"int","value":6},{"name":"oS","type":"string","value":"connect"},{"name":"l0","type":"string","value":"rope"},{"name":"l1","type":"string","value":"0"},{"name":"l2","type":"string","value":"3"},{"name":"z","type":"int","value":3},{"name":"zM","type":"int","value":26},{"name":"f","type":"int","value":0}],"gid":21,"width":5,"height":120},{"id":219,"x":1023,"y":1314,"visible":true,"properties":[{"name":"layer","type":"int","value":2},{"name":"resource_index","type":"int","value":7},{"name":"oS","type":"string","value":"connect"},{"name":"l0","type":"string","value":"rope"},{"name":"l1","type":"string","value":"0"},{"name":"l2","type":"string","value":"2"},{"name":"z","type":"int","value":3},{"name":"zM","type":"int","value":25},{"name":"f","type":"int","value":0}],"gid":22,"width":11,"height":30},{"id":220,"x":1067,"y":87,"visible":true,"properties":[{"name":"layer","type":"int","value":2},{"name":"resource_index","type":"int","value":8},{"name":"oS","type":"string","value":"connect"},{"name":"l0","type":"string","value":"rope"},{"name":"l1","type":"string","value":"0"},{"name":"l2","type":"string","value":"0"},{"name":"z","type":"int","value":3},{"name":"zM","type":"int","value":68},{"name":"f","type":"int","value":0}],"gid":20,"width":19,"height":49},{"id":221,"x":1070,"y":117,"visible":true,"properties":[{"name":"layer","type":"int","value":2},{"name":"resource_index","type":"int","value":9},{"name":"oS","type":"string","value":"connect"},{"name":"l0","type":"string","value":"rope"},{"name":"l1","type":"string","value":"0"},{"name":"l2","type":"string","value":"1"},{"name":"z","type":"int","value":3},{"name":"zM","type":"int","value":67},{"name":"f","type":"int","value":0}],"gid":23,"width":5,"height":30},{"id":222,"x":1070,"y":147,"visible":true,"properties":[{"name":"layer","type":"int","value":2},{"name":"resource_index","type":"int","value":10},{"name":"oS","type":"string","value":"connect"},{"name":"l0","type":"string","value":"rope"},{"name":"l1","type":"string","value":"0"},{"name":"l2","type":"string","value":"1"},{"name":"z","type":"int","value":3},{"name":"zM","type":"int","value":65},{"name":"f","type":"int","value":0}],"gid":23,"width":5,"height":30},{"id":223,"x":1068,"y":177,"visible":true,"properties":[{"name":"layer","type":"int","value":2},{"name":"resource_index","type":"int","value":11},{"name":"oS","type":"string","value":"connect"},{"name":"l0","type":"string","value":"rope"},{"name":"l1","type":"string","value":"0"},{"name":"l2","type":"string","value":"2"},{"name":"z","type":"int","value":3},{"name":"zM","type":"int","value":63},{"name":"f","type":"int","value":0}],"gid":22,"width":11,"height":30},{"id":224,"x":-1388,"y":1114,"visible":true,"properties":[{"name":"layer","type":"int","value":2},{"name":"resource_index","type":"int","value":12},{"name":"oS","type":"string","value":"connect"},{"name":"l0","type":"string","value":"rope"},{"name":"l1","type":"string","value":"0"},{"name":"l2","type":"string","value":"0"},{"name":"z","type":"int","value":3},{"name":"zM","type":"int","value":35},{"name":"f","type":"int","value":0}],"gid":20,"width":19,"height":49},{"id":225,"x":-1385,"y":1234,"visible":true,"properties":[{"name":"layer","type":"int","value":2},{"name":"resource_index","type":"int","value":13},{"name":"oS","type":"string","value":"connect"},{"name":"l0","type":"string","value":"rope"},{"name":"l1","type":"string","value":"0"},{"name":"l2","type":"string","value":"3"},{"name":"z","type":"int","value":3},{"name":"zM","type":"int","value":27},{"name":"f","type":"int","value":0}],"gid":21,"width":5,"height":120},{"id":226,"x":-1387,"y":1263,"visible":true,"properties":[{"name":"layer","type":"int","value":2},{"name":"resource_index","type":"int","value":14},{"name":"oS","type":"string","value":"connect"},{"name":"l0","type":"string","value":"rope"},{"name":"l1","type":"string","value":"0"},{"name":"l2","type":"string","value":"2"},{"name":"z","type":"int","value":3},{"name":"zM","type":"int","value":27},{"name":"f","type":"int","value":0}],"gid":22,"width":11,"height":30},{"id":227,"x":498,"y":292,"visible":true,"properties":[{"name":"layer","type":"int","value":2},{"name":"resource_index","type":"int","value":15},{"name":"oS","type":"string","value":"connect"},{"name":"l0","type":"string","value":"rope"},{"name":"l1","type":"string","value":"0"},{"name":"l2","type":"string","value":"0"},{"name":"z","type":"int","value":3},{"name":"zM","type":"int","value":59},{"name":"f","type":"int","value":0}],"gid":20,"width":19,"height":49},{"id":228,"x":501,"y":322,"visible":true,"properties":[{"name":"layer","type":"int","value":2},{"name":"resource_index","type":"int","value":16},{"name":"oS","type":"string","value":"connect"},{"name":"l0","type":"string","value":"rope"},{"name":"l1","type":"string","value":"0"},{"name":"l2","type":"string","value":"1"},{"name":"z","type":"int","value":3},{"name":"zM","type":"int","value":57},{"name":"f","type":"int","value":0}],"gid":23,"width":5,"height":30},{"id":229,"x":501,"y":352,"visible":true,"properties":[{"name":"layer","type":"int","value":2},{"name":"resource_index","type":"int","value":17},{"name":"oS","type":"string","value":"connect"},{"name":"l0","type":"string","value":"rope"},{"name":"l1","type":"string","value":"0"},{"name":"l2","type":"string","value":"1"},{"name":"z","type":"int","value":3},{"name":"zM","type":"int","value":56},{"name":"f","type":"int","value":0}],"gid":23,"width":5,"height":30},{"id":230,"x":499,"y":382,"visible":true,"properties":[{"name":"layer","type":"int","value":2},{"name":"resource_index","type":"int","value":18},{"name":"oS","type":"string","value":"connect"},{"name":"l0","type":"string","value":"rope"},{"name":"l1","type":"string","value":"0"},{"name":"l2","type":"string","value":"2"},{"name":"z","type":"int","value":3},{"name":"zM","type":"int","value":55},{"name":"f","type":"int","value":0}],"gid":22,"width":11,"height":30},{"id":231,"x":-629,"y":1649,"visible":true,"properties":[{"name":"layer","type":"int","value":2},{"name":"resource_index","type":"int","value":19},{"name":"oS","type":"string","value":"connect"},{"name":"l0","type":"string","value":"rope"},{"name":"l1","type":"string","value":"0"},{"name":"l2","type":"string","value":"0"},{"name":"z","type":"int","value":3},{"name":"zM","type":"int","value":18},{"name":"f","type":"int","value":0}],"gid":20,"width":19,"height":49},{"id":232,"x":-626,"y":1769,"visible":true,"properties":[{"name":"layer","type":"int","value":2},{"name":"resource_index","type":"int","value":20},{"name":"oS","type":"string","value":"connect"},{"name":"l0","type":"string","value":"rope"},{"name":"l1","type":"string","value":"0"},{"name":"l2","type":"string","value":"3"},{"name":"z","type":"int","value":3},{"name":"zM","type":"int","value":14},{"name":"f","type":"int","value":0}],"gid":21,"width":5,"height":120},{"id":233,"x":-628,"y":1800,"visible":true,"properties":[{"name":"layer","type":"int","value":2},{"name":"resource_index","type":"int","value":21},{"name":"oS","type":"string","value":"connect"},{"name":"l0","type":"string","value":"rope"},{"name":"l1","type":"string","value":"0"},{"name":"l2","type":"string","value":"2"},{"name":"z","type":"int","value":3},{"name":"zM","type":"int","value":10},{"name":"f","type":"int","value":0}],"gid":22,"width":11,"height":30},{"id":234,"x":-889,"y":904,"visible":true,"properties":[{"name":"layer","type":"int","value":2},{"name":"resource_index","type":"int","value":22},{"name":"oS","type":"string","value":"connect"},{"name":"l0","type":"string","value":"rope"},{"name":"l1","type":"string","value":"0"},{"name":"l2","type":"string","value":"0"},{"name":"z","type":"int","value":3},{"name":"zM","type":"int","value":44},{"name":"f","type":"int","value":0}],"gid":20,"width":19,"height":49},{"id":235,"x":-886,"y":1024,"visible":true,"properties":[{"name":"layer","type":"int","value":2},{"name":"resource_index","type":"int","value":23},{"name":"oS","type":"string","value":"connect"},{"name":"l0","type":"string","value":"rope"},{"name":"l1","type":"string","value":"0"},{"name":"l2","type":"string","value":"3"},{"name":"z","type":"int","value":3},{"name":"zM","type":"int","value":39},{"name":"f","type":"int","value":0}],"gid":21,"width":5,"height":120},{"id":236,"x":-886,"y":1054,"visible":true,"properties":[{"name":"layer","type":"int","value":2},{"name":"resource_index","type":"int","value":24},{"name":"oS","type":"string","value":"connect"},{"name":"l0","type":"string","value":"rope"},{"name":"l1","type":"string","value":"0"},{"name":"l2","type":"string","value":"1"},{"name":"z","type":"int","value":3},{"name":"zM","type":"int","value":38},{"name":"f","type":"int","value":0}],"gid":23,"width":5,"height":30},{"id":237,"x":-886,"y":1084,"visible":true,"properties":[{"name":"layer","type":"int","value":2},{"name":"resource_index","type":"int","value":25},{"name":"oS","type":"string","value":"connect"},{"name":"l0","type":"string","value":"rope"},{"name":"l1","type":"string","value":"0"},{"name":"l2","type":"string","value":"1"},{"name":"z","type":"int","value":3},{"name":"zM","type":"int","value":36},{"name":"f","type":"int","value":0}],"gid":23,"width":5,"height":30},{"id":238,"x":-888,"y":1114,"visible":true,"properties":[{"name":"layer","type":"int","value":2},{"name":"resource_index","type":"int","value":26},{"name":"oS","type":"string","value":"connect"},{"name":"l0","type":"string","value":"rope"},{"name":"l1","type":"string","value":"0"},{"name":"l2","type":"string","value":"2"},{"name":"z","type":"int","value":3},{"name":"zM","type":"int","value":34},{"name":"f","type":"int","value":0}],"gid":22,"width":11,"height":30}],"properties":[]},{"id":33,"name":"layer_3_obj","type":"objectgroup","visible":true,"opacity":1,"draworder":"index","offsetx":0,"offsety":0,"parallaxx":1,"parallaxy":1,"objects":[{"id":239,"x":-979,"y":1474,"visible":true,"properties":[{"name":"layer","type":"int","value":3},{"name":"resource_index","type":"int","value":0},{"name":"oS","type":"string","value":"acc2"},{"name":"l0","type":"string","value":"shineWood"},{"name":"l1","type":"string","value":"foot"},{"name":"l2","type":"string","value":"8"},{"name":"z","type":"int","value":3},{"name":"zM","type":"int","value":22},{"name":"f","type":"int","value":0}],"gid":49,"width":202,"height":146},{"id":240,"x":-977,"y":1633,"visible":true,"properties":[{"name":"layer","type":"int","value":3},{"name":"resource_index","type":"int","value":1},{"name":"oS","type":"string","value":"acc2"},{"name":"l0","type":"string","value":"shineWood"},{"name":"l1","type":"string","value":"foot"},{"name":"l2","type":"string","value":"12"},{"name":"z","type":"int","value":3},{"name":"zM","type":"int","value":19},{"name":"f","type":"int","value":0}],"gid":50,"width":202,"height":146},{"id":241,"x":-912,"y":1931,"visible":true,"properties":[{"name":"layer","type":"int","value":3},{"name":"resource_index","type":"int","value":2},{"name":"oS","type":"string","value":"acc2"},{"name":"l0","type":"string","value":"shineWood"},{"name":"l1","type":"string","value":"foot"},{"name":"l2","type":"string","value":"8"},{"name":"z","type":"int","value":3},{"name":"zM","type":"int","value":8},{"name":"f","type":"int","value":0}],"gid":49,"width":202,"height":146},{"id":242,"x":104,"y":1863,"visible":true,"properties":[{"name":"layer","type":"int","value":3},{"name":"resource_index","type":"int","value":3},{"name":"oS","type":"string","value":"acc2"},{"name":"l0","type":"string","value":"shineWood"},{"name":"l1","type":"string","value":"foot"},{"name":"l2","type":"string","value":"8"},{"name":"z","type":"int","value":3},{"name":"zM","type":"int","value":9},{"name":"f","type":"int","value":0}],"gid":49,"width":202,"height":146},{"id":243,"x":660,"y":1716,"visible":true,"properties":[{"name":"layer","type":"int","value":3},{"name":"resource_index","type":"int","value":4},{"name":"oS","type":"string","value":"acc2"},{"name":"l0","type":"string","value":"shineWood"},{"name":"l1","type":"string","value":"foot"},{"name":"l2","type":"string","value":"8"},{"name":"z","type":"int","value":3},{"name":"zM","type":"int","value":15},{"name":"f","type":"int","value":0}],"gid":49,"width":202,"height":146},{"id":244,"x":631,"y":1514,"visible":true,"properties":[{"name":"layer","type":"int","value":3},{"name":"resource_index","type":"int","value":5},{"name":"oS","type":"string","value":"acc2"},{"name":"l0","type":"string","value":"shineWood"},{"name":"l1","type":"string","value":"foot"},{"name":"l2","type":"string","value":"8"},{"name":"z","type":"int","value":3},{"name":"zM","type":"int","value":21},{"name":"f","type":"int","value":0}],"gid":49,"width":202,"height":146},{"id":245,"x":906,"y":1403,"visible":true,"properties":[{"name":"layer","type":"int","value":3},{"name":"resource_index","type":"int","value":6},{"name":"oS","type":"string","value":"acc2"},{"name":"l0","type":"string","value":"shineWood"},{"name":"l1","type":"string","value":"foot"},{"name":"l2","type":"string","value":"10"},{"name":"z","type":"int","value":3},{"name":"zM","type":"int","value":24},{"name":"f","type":"int","value":0}],"gid":51,"width":110,"height":85},{"id":246,"x":717,"y":1129,"visible":true,"properties":[{"name":"layer","type":"int","value":3},{"name":"resource_index","type":"int","value":7},{"name":"oS","type":"string","value":"acc2"},{"name":"l0","type":"string","value":"shineWood"},{"name":"l1","type":"string","value":"foot"},{"name":"l2","type":"string","value":"12"},{"name":"z","type":"int","value":3},{"name":"zM","type":"int","value":33},{"name":"f","type":"int","value":0}],"gid":50,"width":202,"height":146},{"id":247,"x":621,"y":823,"visible":true,"properties":[{"name":"layer","type":"int","value":3},{"name":"resource_index","type":"int","value":8},{"name":"oS","type":"string","value":"acc2"},{"name":"l0","type":"string","value":"shineWood"},{"name":"l1","type":"string","value":"foot"},{"name":"l2","type":"string","value":"8"},{"name":"z","type":"int","value":3},{"name":"zM","type":"int","value":48},{"name":"f","type":"int","value":0}],"gid":49,"width":202,"height":146},{"id":248,"x":778,"y":613,"visible":true,"properties":[{"name":"layer","type":"int","value":3},{"name":"resource_index","type":"int","value":9},{"name":"oS","type":"string","value":"acc2"},{"name":"l0","type":"string","value":"shineWood"},{"name":"l1","type":"string","value":"foot"},{"name":"l2","type":"string","value":"14"},{"name":"z","type":"int","value":3},{"name":"zM","type":"int","value":51},{"name":"f","type":"int","value":0}],"gid":52,"width":110,"height":85},{"id":249,"x":575,"y":555,"visible":true,"properties":[{"name":"layer","type":"int","value":3},{"name":"resource_index","type":"int","value":10},{"name":"oS","type":"string","value":"acc2"},{"name":"l0","type":"string","value":"shineWood"},{"name":"l1","type":"string","value":"foot"},{"name":"l2","type":"string","value":"12"},{"name":"z","type":"int","value":3},{"name":"zM","type":"int","value":53},{"name":"f","type":"int","value":0}],"gid":50,"width":202,"height":146},{"id":250,"x":685,"y":400,"visible":true,"properties":[{"name":"layer","type":"int","value":3},{"name":"resource_index","type":"int","value":11},{"name":"oS","type":"string","value":"acc2"},{"name":"l0","type":"string","value":"shineWood"},{"name":"l1","type":"string","value":"foot"},{"name":"l2","type":"string","value":"8"},{"name":"z","type":"int","value":3},{"name":"zM","type":"int","value":54},{"name":"f","type":"int","value":0}],"gid":49,"width":202,"height":146},{"id":251,"x":894,"y":297,"visible":true,"properties":[{"name":"layer","type":"int","value":3},{"name":"resource_index","type":"int","value":12},{"name":"oS","type":"string","value":"acc2"},{"name":"l0","type":"string","value":"shineWood"},{"name":"l1","type":"string","value":"foot"},{"name":"l2","type":"string","value":"10"},{"name":"z","type":"int","value":3},{"name":"zM","type":"int","value":58},{"name":"f","type":"int","value":0}],"gid":51,"width":110,"height":85},{"id":252,"x":674,"y":36,"visible":true,"properties":[{"name":"layer","type":"int","value":3},{"name":"resource_index","type":"int","value":13},{"name":"oS","type":"string","value":"acc2"},{"name":"l0","type":"string","value":"shineWood"},{"name":"l1","type":"string","value":"artificiality"},{"name":"l2","type":"string","value":"0"},{"name":"z","type":"int","value":3},{"name":"zM","type":"int","value":69},{"name":"f","type":"int","value":1}],"gid":64,"width":64,"height":118},{"id":253,"x":-1247,"y":1459,"visible":true,"properties":[{"name":"layer","type":"int","value":3},{"name":"resource_index","type":"int","value":14},{"name":"oS","type":"string","value":"acc2"},{"name":"l0","type":"string","value":"shineWood"},{"name":"l1","type":"string","value":"foot"},{"name":"l2","type":"string","value":"12"},{"name":"z","type":"int","value":3},{"name":"zM","type":"int","value":23},{"name":"f","type":"int","value":0}],"gid":50,"width":202,"height":146},{"id":254,"x":-763,"y":876,"visible":true,"properties":[{"name":"layer","type":"int","value":3},{"name":"resource_index","type":"int","value":15},{"name":"oS","type":"string","value":"acc2"},{"name":"l0","type":"string","value":"shineWood"},{"name":"l1","type":"string","value":"foot"},{"name":"l2","type":"string","value":"8"},{"name":"z","type":"int","value":3},{"name":"zM","type":"int","value":45},{"name":"f","type":"int","value":0}],"gid":49,"width":202,"height":146}],"properties":[]},{"id":34,"name":"portal","type":"objectgroup","visible":true,"opacity":1,"draworder":"index","offsetx":0,"offsety":0,"parallaxx":1,"parallaxy":1,"objects":[{"id":255,"x":-1711,"y":1914,"visible":true,"properties":[{"name":"x","type":"int","value":-1711},{"name":"y","type":"int","value":1914},{"name":"pn","type":"string","value":"sp"},{"name":"pt","type":"int","value":0},{"name":"tm","type":"int","value":999999999},{"name":"tn","type":"string","value":""},{"name":"portal_id","type":"int","value":0}],"point":true},{"id":256,"x":-1847,"y":1919,"visible":true,"properties":[{"name":"x","type":"int","value":-1847},{"name":"y","type":"int","value":1919},{"name":"pn","type":"string","value":"sp"},{"name":"pt","type":"int","value":0},{"name":"tm","type":"int","value":999999999},{"name":"tn","type":"string","value":""},{"name":"portal_id","type":"int","value":1}],"point":true},{"id":257,"x":-1587,"y":1914,"visible":true,"properties":[{"name":"x","type":"int","value":-1587},{"name":"y","type":"int","value":1914},{"name":"pn","type":"string","value":"sp"},{"name":"pt","type":"int","value":0},{"name":"tm","type":"int","value":999999999},{"name":"tn","type":"string","value":""},{"name":"portal_id","type":"int","value":2}],"point":true},{"id":258,"x":-1367,"y":1898,"visible":true,"properties":[{"name":"x","type":"int","value":-1367},{"name":"y","type":"int","value":1898},{"name":"pn","type":"string","value":"sp"},{"name":"pt","type":"int","value":0},{"name":"tm","type":"int","value":999999999},{"name":"tn","type":"string","value":""},{"name":"portal_id","type":"int","value":3}],"point":true},{"id":259,"x":-1905,"y":2086,"visible":true,"properties":[{"name":"x","type":"int","value":-1861},{"name":"y","type":"int","value":2077},{"name":"pn","type":"string","value":"west00"},{"name":"pt","type":"int","value":2},{"name":"tm","type":"int","value":100030000},{"name":"tn","type":"string","value":"east00"},{"name":"portal_id","type":"int","value":4}],"gid":65,"width":89,"height":257},{"id":260,"x":-1799,"y":1564,"visible":false,"properties":[{"name":"x","type":"int","value":-1737},{"name":"y","type":"int","value":1561},{"name":"pn","type":"string","value":"in01"},{"name":"pt","type":"int","value":10},{"name":"tm","type":"int","value":100040001},{"name":"tn","type":"string","value":"out00"},{"name":"portal_id","type":"int","value":5}],"gid":73,"width":128,"height":122},{"id":261,"x":-1752,"y":967,"visible":false,"properties":[{"name":"x","type":"int","value":-1690},{"name":"y","type":"int","value":964},{"name":"pn","type":"string","value":"in01_1"},{"name":"pt","type":"int","value":10},{"name":"tm","type":"int","value":100040001},{"name":"tn","type":"string","value":"out01"},{"name":"portal_id","type":"int","value":6}],"gid":73,"width":128,"height":122},{"id":262,"x":-1150,"y":905,"visible":false,"properties":[{"name":"x","type":"int","value":-1088},{"name":"y","type":"int","value":902},{"name":"pn","type":"string","value":"in02"},{"name":"pt","type":"int","value":10},{"name":"tm","type":"int","value":100040002},{"name":"tn","type":"string","value":"out00"},{"name":"portal_id","type":"int","value":7}],"gid":73,"width":128,"height":122},{"id":263,"x":-1215,"y":298,"visible":false,"properties":[{"name":"x","type":"int","value":-1153},{"name":"y","type":"int","value":295},{"name":"pn","type":"string","value":"in02_1"},{"name":"pt","type":"int","value":10},{"name":"tm","type":"int","value":100040002},{"name":"tn","type":"string","value":"out01"},{"name":"portal_id","type":"int","value":8}],"gid":73,"width":128,"height":122},{"id":264,"x":507,"y":-87,"visible":false,"properties":[{"name":"x","type":"int","value":569},{"name":"y","type":"int","value":-90},{"name":"pn","type":"string","value":"in03"},{"name":"pt","type":"int","value":10},{"name":"tm","type":"int","value":100040003},{"name":"tn","type":"string","value":"out00"},{"name":"portal_id","type":"int","value":9}],"gid":73,"width":128,"height":122},{"id":265,"x":969,"y":611,"visible":false,"properties":[{"name":"x","type":"int","value":1031},{"name":"y","type":"int","value":608},{"name":"pn","type":"string","value":"in04"},{"name":"pt","type":"int","value":10},{"name":"tm","type":"int","value":100040004},{"name":"tn","type":"string","value":"out00"},{"name":"portal_id","type":"int","value":10}],"gid":73,"width":128,"height":122},{"id":266,"x":907,"y":4,"visible":false,"properties":[{"name":"x","type":"int","value":969},{"name":"y","type":"int","value":1},{"name":"pn","type":"string","value":"in04_1"},{"name":"pt","type":"int","value":10},{"name":"tm","type":"int","value":100040004},{"name":"tn","type":"string","value":"out01"},{"name":"portal_id","type":"int","value":11}],"gid":73,"width":128,"height":122},{"id":267,"x":1076,"y":-165,"visible":true,"properties":[{"name":"x","type":"int","value":1120},{"name":"y","type":"int","value":-174},{"name":"pn","type":"string","value":"east00"},{"name":"pt","type":"int","value":2},{"name":"tm","type":"int","value":100040100},{"name":"tn","type":"string","value":"west00"},{"name":"portal_id","type":"int","value":12}],"gid":65,"width":89,"height":257}],"properties":[]},{"id":35,"name":"life","type":"objectgroup","visible":true,"opacity":1,"draworder":"index","offsetx":0,"offsety":0,"parallaxx":1,"parallaxy":1,"objects":[{"id":268,"x":-1193,"y":1541,"visible":true,"properties":[{"name":"f","type":"int","value":0},{"name":"x","type":"int","value":-1193},{"name":"y","type":"int","value":1541},{"name":"cy","type":"int","value":1597},{"name":"fh","type":"int","value":561},{"name":"id","type":"int","value":210100},{"name":"rx0","type":"int","value":-1410},{"name":"rx1","type":"int","value":-504},{"name":"hide","type":"int","value":0},{"name":"type","type":"string","value":"m"},{"name":"mobTime","type":"int","value":0}],"point":true},{"id":269,"x":-641,"y":1764,"visible":true,"properties":[{"name":"f","type":"int","value":0},{"name":"x","type":"int","value":-641},{"name":"y","type":"int","value":1764},{"name":"cy","type":"int","value":1822},{"name":"fh","type":"int","value":869},{"name":"id","type":"int","value":210100},{"name":"rx0","type":"int","value":-1019},{"name":"rx1","type":"int","value":-548},{"name":"hide","type":"int","value":0},{"name":"type","type":"string","value":"m"},{"name":"mobTime","type":"int","value":0}],"point":true},{"id":270,"x":-867,"y":1832,"visible":true,"properties":[{"name":"f","type":"int","value":0},{"name":"x","type":"int","value":-867},{"name":"y","type":"int","value":1832},{"name":"cy","type":"int","value":1914},{"name":"fh","type":"int","value":871},{"name":"id","type":"int","value":210100},{"name":"rx0","type":"int","value":-1019},{"name":"rx1","type":"int","value":-548},{"name":"hide","type":"int","value":0},{"name":"type","type":"string","value":"m"},{"name":"mobTime","type":"int","value":0}],"point":true},{"id":271,"x":-12,"y":1410,"visible":true,"properties":[{"name":"f","type":"int","value":0},{"name":"x","type":"int","value":-12},{"name":"y","type":"int","value":1410},{"name":"cy","type":"int","value":1433},{"name":"fh","type":"int","value":525},{"name":"id","type":"int","value":210100},{"name":"rx0","type":"int","value":-596},{"name":"rx1","type":"int","value":83},{"name":"hide","type":"int","value":0},{"name":"type","type":"string","value":"m"},{"name":"mobTime","type":"int","value":0}],"point":true},{"id":272,"x":-323,"y":1471,"visible":true,"properties":[{"name":"f","type":"int","value":0},{"name":"x","type":"int","value":-323},{"name":"y","type":"int","value":1471},{"name":"cy","type":"int","value":1494},{"name":"fh","type":"int","value":536},{"name":"id","type":"int","value":210100},{"name":"rx0","type":"int","value":-596},{"name":"rx1","type":"int","value":83},{"name":"hide","type":"int","value":0},{"name":"type","type":"string","value":"m"},{"name":"mobTime","type":"int","value":0}],"point":true},{"id":273,"x":147,"y":1754,"visible":true,"properties":[{"name":"f","type":"int","value":0},{"name":"x","type":"int","value":147},{"name":"y","type":"int","value":1754},{"name":"cy","type":"int","value":1848},{"name":"fh","type":"int","value":352},{"name":"id","type":"int","value":210100},{"name":"rx0","type":"int","value":-176},{"name":"rx1","type":"int","value":542},{"name":"hide","type":"int","value":0},{"name":"type","type":"string","value":"m"},{"name":"mobTime","type":"int","value":0}],"point":true},{"id":274,"x":-174,"y":1858,"visible":true,"properties":[{"name":"f","type":"int","value":0},{"name":"x","type":"int","value":-174},{"name":"y","type":"int","value":1858},{"name":"cy","type":"int","value":1913},{"name":"fh","type":"int","value":366},{"name":"id","type":"int","value":210100},{"name":"rx0","type":"int","value":-176},{"name":"rx1","type":"int","value":542},{"name":"hide","type":"int","value":0},{"name":"type","type":"string","value":"m"},{"name":"mobTime","type":"int","value":0}],"point":true},{"id":275,"x":471,"y":1728,"visible":true,"properties":[{"name":"f","type":"int","value":0},{"name":"x","type":"int","value":471},{"name":"y","type":"int","value":1728},{"name":"cy","type":"int","value":1740},{"name":"fh","type":"int","value":350},{"name":"id","type":"int","value":210100},{"name":"rx0","type":"int","value":-176},{"name":"rx1","type":"int","value":542},{"name":"hide","type":"int","value":0},{"name":"type","type":"string","value":"m"},{"name":"mobTime","type":"int","value":0}],"point":true},{"id":276,"x":956,"y":1580,"visible":true,"properties":[{"name":"f","type":"int","value":0},{"name":"x","type":"int","value":956},{"name":"y","type":"int","value":1580},{"name":"cy","type":"int","value":1600},{"name":"fh","type":"int","value":392},{"name":"id","type":"int","value":210100},{"name":"rx0","type":"int","value":123},{"name":"rx1","type":"int","value":1090},{"name":"hide","type":"int","value":0},{"name":"type","type":"string","value":"m"},{"name":"mobTime","type":"int","value":0}],"point":true},{"id":277,"x":-806,"y":1534,"visible":true,"properties":[{"name":"f","type":"int","value":0},{"name":"x","type":"int","value":-806},{"name":"y","type":"int","value":1534},{"name":"cy","type":"int","value":1619},{"name":"fh","type":"int","value":555},{"name":"id","type":"int","value":210100},{"name":"rx0","type":"int","value":-1410},{"name":"rx1","type":"int","value":-504},{"name":"hide","type":"int","value":0},{"name":"type","type":"string","value":"m"},{"name":"mobTime","type":"int","value":0}],"point":true},{"id":278,"x":-465,"y":1080,"visible":true,"properties":[{"name":"f","type":"int","value":0},{"name":"x","type":"int","value":-465},{"name":"y","type":"int","value":1080},{"name":"cy","type":"int","value":1131},{"name":"fh","type":"int","value":243},{"name":"id","type":"int","value":210100},{"name":"rx0","type":"int","value":-619},{"name":"rx1","type":"int","value":970},{"name":"hide","type":"int","value":0},{"name":"type","type":"string","value":"m"},{"name":"mobTime","type":"int","value":0}],"point":true},{"id":279,"x":-28,"y":988,"visible":true,"properties":[{"name":"f","type":"int","value":0},{"name":"x","type":"int","value":-28},{"name":"y","type":"int","value":988},{"name":"cy","type":"int","value":1054},{"name":"fh","type":"int","value":236},{"name":"id","type":"int","value":210100},{"name":"rx0","type":"int","value":-619},{"name":"rx1","type":"int","value":970},{"name":"hide","type":"int","value":0},{"name":"type","type":"string","value":"m"},{"name":"mobTime","type":"int","value":0}],"point":true},{"id":280,"x":582,"y":992,"visible":true,"properties":[{"name":"f","type":"int","value":0},{"name":"x","type":"int","value":582},{"name":"y","type":"int","value":992},{"name":"cy","type":"int","value":1028},{"name":"fh","type":"int","value":264},{"name":"id","type":"int","value":210100},{"name":"rx0","type":"int","value":-619},{"name":"rx1","type":"int","value":970},{"name":"hide","type":"int","value":0},{"name":"type","type":"string","value":"m"},{"name":"mobTime","type":"int","value":0}],"point":true},{"id":281,"x":668,"y":748,"visible":true,"properties":[{"name":"f","type":"int","value":0},{"name":"x","type":"int","value":668},{"name":"y","type":"int","value":748},{"name":"cy","type":"int","value":806},{"name":"fh","type":"int","value":676},{"name":"id","type":"int","value":210100},{"name":"rx0","type":"int","value":547},{"name":"rx1","type":"int","value":783},{"name":"hide","type":"int","value":0},{"name":"type","type":"string","value":"m"},{"name":"mobTime","type":"int","value":0}],"point":true},{"id":282,"x":-720,"y":782,"visible":true,"properties":[{"name":"f","type":"int","value":0},{"name":"x","type":"int","value":-720},{"name":"y","type":"int","value":782},{"name":"cy","type":"int","value":860},{"name":"fh","type":"int","value":707},{"name":"id","type":"int","value":210100},{"name":"rx0","type":"int","value":-907},{"name":"rx1","type":"int","value":93},{"name":"hide","type":"int","value":0},{"name":"type","type":"string","value":"m"},{"name":"mobTime","type":"int","value":0}],"point":true},{"id":283,"x":-188,"y":777,"visible":true,"properties":[{"name":"f","type":"int","value":0},{"name":"x","type":"int","value":-188},{"name":"y","type":"int","value":777},{"name":"cy","type":"int","value":811},{"name":"fh","type":"int","value":697},{"name":"id","type":"int","value":210100},{"name":"rx0","type":"int","value":-907},{"name":"rx1","type":"int","value":93},{"name":"hide","type":"int","value":0},{"name":"type","type":"string","value":"m"},{"name":"mobTime","type":"int","value":0}],"point":true},{"id":284,"x":780,"y":479,"visible":true,"properties":[{"name":"f","type":"int","value":0},{"name":"x","type":"int","value":780},{"name":"y","type":"int","value":479},{"name":"cy","type":"int","value":542},{"name":"fh","type":"int","value":208},{"name":"id","type":"int","value":210100},{"name":"rx0","type":"int","value":171},{"name":"rx1","type":"int","value":1096},{"name":"hide","type":"int","value":0},{"name":"type","type":"string","value":"m"},{"name":"mobTime","type":"int","value":0}],"point":true},{"id":285,"x":267,"y":446,"visible":true,"properties":[{"name":"f","type":"int","value":0},{"name":"x","type":"int","value":267},{"name":"y","type":"int","value":446},{"name":"cy","type":"int","value":472},{"name":"fh","type":"int","value":205},{"name":"id","type":"int","value":210100},{"name":"rx0","type":"int","value":171},{"name":"rx1","type":"int","value":1096},{"name":"hide","type":"int","value":0},{"name":"type","type":"string","value":"m"},{"name":"mobTime","type":"int","value":0}],"point":true},{"id":286,"x":-355,"y":547,"visible":true,"properties":[{"name":"f","type":"int","value":0},{"name":"x","type":"int","value":-355},{"name":"y","type":"int","value":547},{"name":"cy","type":"int","value":576},{"name":"fh","type":"int","value":489},{"name":"id","type":"int","value":210100},{"name":"rx0","type":"int","value":-1316},{"name":"rx1","type":"int","value":111},{"name":"hide","type":"int","value":0},{"name":"type","type":"string","value":"m"},{"name":"mobTime","type":"int","value":0}],"point":true},{"id":287,"x":-908,"y":384,"visible":true,"properties":[{"name":"f","type":"int","value":0},{"name":"x","type":"int","value":-908},{"name":"y","type":"int","value":384},{"name":"cy","type":"int","value":415},{"name":"fh","type":"int","value":468},{"name":"id","type":"int","value":210100},{"name":"rx0","type":"int","value":-1316},{"name":"rx1","type":"int","value":111},{"name":"hide","type":"int","value":0},{"name":"type","type":"string","value":"m"},{"name":"mobTime","type":"int","value":0}],"point":true},{"id":288,"x":-896,"y":202,"visible":true,"properties":[{"name":"f","type":"int","value":0},{"name":"x","type":"int","value":-896},{"name":"y","type":"int","value":202},{"name":"cy","type":"int","value":273},{"name":"fh","type":"int","value":511},{"name":"id","type":"int","value":210100},{"name":"rx0","type":"int","value":-1316},{"name":"rx1","type":"int","value":111},{"name":"hide","type":"int","value":0},{"name":"type","type":"string","value":"m"},{"name":"mobTime","type":"int","value":0}],"point":true},{"id":289,"x":-612,"y":-35,"visible":true,"properties":[{"name":"f","type":"int","value":0},{"name":"x","type":"int","value":-612},{"name":"y","type":"int","value":-35},{"name":"cy","type":"int","value":-7},{"name":"fh","type":"int","value":837},{"name":"id","type":"int","value":210100},{"name":"rx0","type":"int","value":-885},{"name":"rx1","type":"int","value":-308},{"name":"hide","type":"int","value":0},{"name":"type","type":"string","value":"m"},{"name":"mobTime","type":"int","value":0}],"point":true},{"id":290,"x":-546,"y":118,"visible":true,"properties":[{"name":"f","type":"int","value":0},{"name":"x","type":"int","value":-546},{"name":"y","type":"int","value":118},{"name":"cy","type":"int","value":166},{"name":"fh","type":"int","value":851},{"name":"id","type":"int","value":210100},{"name":"rx0","type":"int","value":-885},{"name":"rx1","type":"int","value":-308},{"name":"hide","type":"int","value":0},{"name":"type","type":"string","value":"m"},{"name":"mobTime","type":"int","value":0}],"point":true},{"id":291,"x":-48,"y":-34,"visible":true,"properties":[{"name":"f","type":"int","value":0},{"name":"x","type":"int","value":-48},{"name":"y","type":"int","value":-34},{"name":"cy","type":"int","value":-20},{"name":"fh","type":"int","value":814},{"name":"id","type":"int","value":210100},{"name":"rx0","type":"int","value":-112},{"name":"rx1","type":"int","value":102},{"name":"hide","type":"int","value":0},{"name":"type","type":"string","value":"m"},{"name":"mobTime","type":"int","value":0}],"point":true},{"id":292,"x":81,"y":121,"visible":true,"properties":[{"name":"f","type":"int","value":0},{"name":"x","type":"int","value":81},{"name":"y","type":"int","value":121},{"name":"cy","type":"int","value":179},{"name":"fh","type":"int","value":280},{"name":"id","type":"int","value":210100},{"name":"rx0","type":"int","value":-50},{"name":"rx1","type":"int","value":131},{"name":"hide","type":"int","value":0},{"name":"type","type":"string","value":"m"},{"name":"mobTime","type":"int","value":0}],"point":true},{"id":293,"x":410,"y":197,"visible":true,"properties":[{"name":"f","type":"int","value":0},{"name":"x","type":"int","value":410},{"name":"y","type":"int","value":197},{"name":"cy","type":"int","value":258},{"name":"fh","type":"int","value":220},{"name":"id","type":"int","value":210100},{"name":"rx0","type":"int","value":171},{"name":"rx1","type":"int","value":1096},{"name":"hide","type":"int","value":0},{"name":"type","type":"string","value":"m"},{"name":"mobTime","type":"int","value":0}],"point":true},{"id":294,"x":-2,"y":1835,"visible":true,"properties":[{"name":"f","type":"int","value":0},{"name":"x","type":"int","value":-2},{"name":"y","type":"int","value":1835},{"name":"cy","type":"int","value":1866},{"name":"fh","type":"int","value":360},{"name":"id","type":"int","value":1110101},{"name":"rx0","type":"int","value":-176},{"name":"rx1","type":"int","value":542},{"name":"hide","type":"int","value":0},{"name":"type","type":"string","value":"m"},{"name":"mobTime","type":"int","value":0}],"point":true},{"id":295,"x":974,"y":200,"visible":true,"properties":[{"name":"f","type":"int","value":0},{"name":"x","type":"int","value":974},{"name":"y","type":"int","value":200},{"name":"cy","type":"int","value":245},{"name":"fh","type":"int","value":182},{"name":"id","type":"int","value":210100},{"name":"rx0","type":"int","value":171},{"name":"rx1","type":"int","value":1096},{"name":"hide","type":"int","value":0},{"name":"type","type":"string","value":"m"},{"name":"mobTime","type":"int","value":0}],"point":true},{"id":296,"x":-754,"y":-46,"visible":true,"properties":[{"name":"f","type":"int","value":0},{"name":"x","type":"int","value":-754},{"name":"y","type":"int","value":-46},{"name":"cy","type":"int","value":-18},{"name":"fh","type":"int","value":839},{"name":"id","type":"int","value":1110101},{"name":"rx0","type":"int","value":-885},{"name":"rx1","type":"int","value":-308},{"name":"hide","type":"int","value":0},{"name":"type","type":"string","value":"m"},{"name":"mobTime","type":"int","value":0}],"point":true},{"id":297,"x":-403,"y":-6,"visible":true,"properties":[{"name":"f","type":"int","value":0},{"name":"x","type":"int","value":-403},{"name":"y","type":"int","value":-6},{"name":"cy","type":"int","value":46},{"name":"fh","type":"int","value":830},{"name":"id","type":"int","value":1110101},{"name":"rx0","type":"int","value":-885},{"name":"rx1","type":"int","value":-308},{"name":"hide","type":"int","value":0},{"name":"type","type":"string","value":"m"},{"name":"mobTime","type":"int","value":0}],"point":true},{"id":298,"x":-665,"y":159,"visible":true,"properties":[{"name":"f","type":"int","value":0},{"name":"x","type":"int","value":-665},{"name":"y","type":"int","value":159},{"name":"cy","type":"int","value":171},{"name":"fh","type":"int","value":518},{"name":"id","type":"int","value":1110101},{"name":"rx0","type":"int","value":-1316},{"name":"rx1","type":"int","value":111},{"name":"hide","type":"int","value":0},{"name":"type","type":"string","value":"m"},{"name":"mobTime","type":"int","value":0}],"point":true},{"id":299,"x":-1022,"y":352,"visible":true,"properties":[{"name":"f","type":"int","value":0},{"name":"x","type":"int","value":-1022},{"name":"y","type":"int","value":352},{"name":"cy","type":"int","value":375},{"name":"fh","type":"int","value":464},{"name":"id","type":"int","value":1110101},{"name":"rx0","type":"int","value":-1316},{"name":"rx1","type":"int","value":111},{"name":"hide","type":"int","value":0},{"name":"type","type":"string","value":"m"},{"name":"mobTime","type":"int","value":0}],"point":true},{"id":300,"x":-627,"y":469,"visible":true,"properties":[{"name":"f","type":"int","value":0},{"name":"x","type":"int","value":-627},{"name":"y","type":"int","value":469},{"name":"cy","type":"int","value":496},{"name":"fh","type":"int","value":479},{"name":"id","type":"int","value":1110101},{"name":"rx0","type":"int","value":-1316},{"name":"rx1","type":"int","value":111},{"name":"hide","type":"int","value":0},{"name":"type","type":"string","value":"m"},{"name":"mobTime","type":"int","value":0}],"point":true},{"id":301,"x":27,"y":493,"visible":true,"properties":[{"name":"f","type":"int","value":0},{"name":"x","type":"int","value":27},{"name":"y","type":"int","value":493},{"name":"cy","type":"int","value":519},{"name":"fh","type":"int","value":298},{"name":"id","type":"int","value":1110101},{"name":"rx0","type":"int","value":-42},{"name":"rx1","type":"int","value":134},{"name":"hide","type":"int","value":0},{"name":"type","type":"string","value":"m"},{"name":"mobTime","type":"int","value":0}],"point":true},{"id":302,"x":444,"y":424,"visible":true,"properties":[{"name":"f","type":"int","value":0},{"name":"x","type":"int","value":444},{"name":"y","type":"int","value":424},{"name":"cy","type":"int","value":444},{"name":"fh","type":"int","value":193},{"name":"id","type":"int","value":1110101},{"name":"rx0","type":"int","value":171},{"name":"rx1","type":"int","value":1096},{"name":"hide","type":"int","value":0},{"name":"type","type":"string","value":"m"},{"name":"mobTime","type":"int","value":0}],"point":true},{"id":303,"x":742,"y":341,"visible":true,"properties":[{"name":"f","type":"int","value":0},{"name":"x","type":"int","value":742},{"name":"y","type":"int","value":341},{"name":"cy","type":"int","value":376},{"name":"fh","type":"int","value":165},{"name":"id","type":"int","value":1110101},{"name":"rx0","type":"int","value":171},{"name":"rx1","type":"int","value":1096},{"name":"hide","type":"int","value":0},{"name":"type","type":"string","value":"m"},{"name":"mobTime","type":"int","value":0}],"point":true},{"id":304,"x":875,"y":531,"visible":true,"properties":[{"name":"f","type":"int","value":0},{"name":"x","type":"int","value":875},{"name":"y","type":"int","value":531},{"name":"cy","type":"int","value":599},{"name":"fh","type":"int","value":148},{"name":"id","type":"int","value":1110101},{"name":"rx0","type":"int","value":171},{"name":"rx1","type":"int","value":1096},{"name":"hide","type":"int","value":0},{"name":"type","type":"string","value":"m"},{"name":"mobTime","type":"int","value":0}],"point":true},{"id":305,"x":757,"y":711,"visible":true,"properties":[{"name":"f","type":"int","value":0},{"name":"x","type":"int","value":757},{"name":"y","type":"int","value":711},{"name":"cy","type":"int","value":765},{"name":"fh","type":"int","value":679},{"name":"id","type":"int","value":1110101},{"name":"rx0","type":"int","value":547},{"name":"rx1","type":"int","value":783},{"name":"hide","type":"int","value":0},{"name":"type","type":"string","value":"m"},{"name":"mobTime","type":"int","value":0}],"point":true},{"id":306,"x":373,"y":900,"visible":true,"properties":[{"name":"f","type":"int","value":0},{"name":"x","type":"int","value":373},{"name":"y","type":"int","value":900},{"name":"cy","type":"int","value":925},{"name":"fh","type":"int","value":658},{"name":"id","type":"int","value":1110101},{"name":"rx0","type":"int","value":194},{"name":"rx1","type":"int","value":464},{"name":"hide","type":"int","value":0},{"name":"type","type":"string","value":"m"},{"name":"mobTime","type":"int","value":0}],"point":true},{"id":307,"x":879,"y":1076,"visible":true,"properties":[{"name":"f","type":"int","value":0},{"name":"x","type":"int","value":879},{"name":"y","type":"int","value":1076},{"name":"cy","type":"int","value":1112},{"name":"fh","type":"int","value":273},{"name":"id","type":"int","value":1110101},{"name":"rx0","type":"int","value":-619},{"name":"rx1","type":"int","value":970},{"name":"hide","type":"int","value":0},{"name":"type","type":"string","value":"m"},{"name":"mobTime","type":"int","value":0}],"point":true},{"id":308,"x":167,"y":990,"visible":true,"properties":[{"name":"f","type":"int","value":0},{"name":"x","type":"int","value":167},{"name":"y","type":"int","value":990},{"name":"cy","type":"int","value":1016},{"name":"fh","type":"int","value":254},{"name":"id","type":"int","value":1110101},{"name":"rx0","type":"int","value":-619},{"name":"rx1","type":"int","value":970},{"name":"hide","type":"int","value":0},{"name":"type","type":"string","value":"m"},{"name":"mobTime","type":"int","value":0}],"point":true},{"id":309,"x":-214,"y":1076,"visible":true,"properties":[{"name":"f","type":"int","value":0},{"name":"x","type":"int","value":-214},{"name":"y","type":"int","value":1076},{"name":"cy","type":"int","value":1095},{"name":"fh","type":"int","value":230},{"name":"id","type":"int","value":1110101},{"name":"rx0","type":"int","value":-619},{"name":"rx1","type":"int","value":970},{"name":"hide","type":"int","value":0},{"name":"type","type":"string","value":"m"},{"name":"mobTime","type":"int","value":0}],"point":true},{"id":310,"x":-567,"y":1139,"visible":true,"properties":[{"name":"f","type":"int","value":0},{"name":"x","type":"int","value":-567},{"name":"y","type":"int","value":1139},{"name":"cy","type":"int","value":1152},{"name":"fh","type":"int","value":240},{"name":"id","type":"int","value":1110101},{"name":"rx0","type":"int","value":-619},{"name":"rx1","type":"int","value":970},{"name":"hide","type":"int","value":0},{"name":"type","type":"string","value":"m"},{"name":"mobTime","type":"int","value":0}],"point":true},{"id":311,"x":-508,"y":748,"visible":true,"properties":[{"name":"f","type":"int","value":0},{"name":"x","type":"int","value":-508},{"name":"y","type":"int","value":748},{"name":"cy","type":"int","value":764},{"name":"fh","type":"int","value":702},{"name":"id","type":"int","value":1110101},{"name":"rx0","type":"int","value":-907},{"name":"rx1","type":"int","value":93},{"name":"hide","type":"int","value":0},{"name":"type","type":"string","value":"m"},{"name":"mobTime","type":"int","value":0}],"point":true},{"id":312,"x":-359,"y":734,"visible":true,"properties":[{"name":"f","type":"int","value":0},{"name":"x","type":"int","value":-359},{"name":"y","type":"int","value":734},{"name":"cy","type":"int","value":757},{"name":"fh","type":"int","value":699},{"name":"id","type":"int","value":1110101},{"name":"rx0","type":"int","value":-907},{"name":"rx1","type":"int","value":93},{"name":"hide","type":"int","value":0},{"name":"type","type":"string","value":"m"},{"name":"mobTime","type":"int","value":0}],"point":true},{"id":313,"x":910,"y":1359,"visible":true,"properties":[{"name":"f","type":"int","value":0},{"name":"x","type":"int","value":910},{"name":"y","type":"int","value":1359},{"name":"cy","type":"int","value":1396},{"name":"fh","type":"int","value":439},{"name":"id","type":"int","value":1110101},{"name":"rx0","type":"int","value":123},{"name":"rx1","type":"int","value":1090},{"name":"hide","type":"int","value":0},{"name":"type","type":"string","value":"m"},{"name":"mobTime","type":"int","value":0}],"point":true},{"id":314,"x":674,"y":1462,"visible":true,"properties":[{"name":"f","type":"int","value":0},{"name":"x","type":"int","value":674},{"name":"y","type":"int","value":1462},{"name":"cy","type":"int","value":1499},{"name":"fh","type":"int","value":429},{"name":"id","type":"int","value":1110101},{"name":"rx0","type":"int","value":123},{"name":"rx1","type":"int","value":1090},{"name":"hide","type":"int","value":0},{"name":"type","type":"string","value":"m"},{"name":"mobTime","type":"int","value":0}],"point":true},{"id":315,"x":698,"y":1568,"visible":true,"properties":[{"name":"f","type":"int","value":0},{"name":"x","type":"int","value":698},{"name":"y","type":"int","value":1568},{"name":"cy","type":"int","value":1589},{"name":"fh","type":"int","value":398},{"name":"id","type":"int","value":1110101},{"name":"rx0","type":"int","value":123},{"name":"rx1","type":"int","value":1090},{"name":"hide","type":"int","value":0},{"name":"type","type":"string","value":"m"},{"name":"mobTime","type":"int","value":0}],"point":true},{"id":316,"x":325,"y":1459,"visible":true,"properties":[{"name":"f","type":"int","value":0},{"name":"x","type":"int","value":325},{"name":"y","type":"int","value":1459},{"name":"cy","type":"int","value":1486},{"name":"fh","type":"int","value":416},{"name":"id","type":"int","value":1110101},{"name":"rx0","type":"int","value":123},{"name":"rx1","type":"int","value":1090},{"name":"hide","type":"int","value":0},{"name":"type","type":"string","value":"m"},{"name":"mobTime","type":"int","value":0}],"point":true},{"id":317,"x":-167,"y":1414,"visible":true,"properties":[{"name":"f","type":"int","value":0},{"name":"x","type":"int","value":-167},{"name":"y","type":"int","value":1414},{"name":"cy","type":"int","value":1453},{"name":"fh","type":"int","value":534},{"name":"id","type":"int","value":1110101},{"name":"rx0","type":"int","value":-596},{"name":"rx1","type":"int","value":83},{"name":"hide","type":"int","value":0},{"name":"type","type":"string","value":"m"},{"name":"mobTime","type":"int","value":0}],"point":true},{"id":318,"x":-534,"y":1533,"visible":true,"properties":[{"name":"f","type":"int","value":0},{"name":"x","type":"int","value":-534},{"name":"y","type":"int","value":1533},{"name":"cy","type":"int","value":1548},{"name":"fh","type":"int","value":545},{"name":"id","type":"int","value":1110101},{"name":"rx0","type":"int","value":-596},{"name":"rx1","type":"int","value":83},{"name":"hide","type":"int","value":0},{"name":"type","type":"string","value":"m"},{"name":"mobTime","type":"int","value":0}],"point":true},{"id":319,"x":-1242,"y":1321,"visible":true,"properties":[{"name":"f","type":"int","value":0},{"name":"x","type":"int","value":-1242},{"name":"y","type":"int","value":1321},{"name":"cy","type":"int","value":1347},{"name":"fh","type":"int","value":601},{"name":"id","type":"int","value":1110101},{"name":"rx0","type":"int","value":-1410},{"name":"rx1","type":"int","value":-504},{"name":"hide","type":"int","value":0},{"name":"type","type":"string","value":"m"},{"name":"mobTime","type":"int","value":0}],"point":true},{"id":320,"x":-835,"y":1384,"visible":true,"properties":[{"name":"f","type":"int","value":0},{"name":"x","type":"int","value":-835},{"name":"y","type":"int","value":1384},{"name":"cy","type":"int","value":1407},{"name":"fh","type":"int","value":594},{"name":"id","type":"int","value":1110101},{"name":"rx0","type":"int","value":-1410},{"name":"rx1","type":"int","value":-504},{"name":"hide","type":"int","value":0},{"name":"type","type":"string","value":"m"},{"name":"mobTime","type":"int","value":0}],"point":true},{"id":321,"x":-877,"y":1557,"visible":true,"properties":[{"name":"f","type":"int","value":0},{"name":"x","type":"int","value":-877},{"name":"y","type":"int","value":1557},{"name":"cy","type":"int","value":1596},{"name":"fh","type":"int","value":552},{"name":"id","type":"int","value":1110101},{"name":"rx0","type":"int","value":-1410},{"name":"rx1","type":"int","value":-504},{"name":"hide","type":"int","value":0},{"name":"type","type":"string","value":"m"},{"name":"mobTime","type":"int","value":0}],"point":true},{"id":322,"x":-1251,"y":1586,"visible":true,"properties":[{"name":"f","type":"int","value":0},{"name":"x","type":"int","value":-1251},{"name":"y","type":"int","value":1586},{"name":"cy","type":"int","value":1610},{"name":"fh","type":"int","value":569},{"name":"id","type":"int","value":1110101},{"name":"rx0","type":"int","value":-1410},{"name":"rx1","type":"int","value":-504},{"name":"hide","type":"int","value":0},{"name":"type","type":"string","value":"m"},{"name":"mobTime","type":"int","value":0}],"point":true},{"id":323,"x":-799,"y":1820,"visible":true,"properties":[{"name":"f","type":"int","value":0},{"name":"x","type":"int","value":-799},{"name":"y","type":"int","value":1820},{"name":"cy","type":"int","value":1887},{"name":"fh","type":"int","value":873},{"name":"id","type":"int","value":1110101},{"name":"rx0","type":"int","value":-1019},{"name":"rx1","type":"int","value":-548},{"name":"hide","type":"int","value":0},{"name":"type","type":"string","value":"m"},{"name":"mobTime","type":"int","value":0}],"point":true},{"id":324,"x":732,"y":1665,"visible":true,"properties":[{"name":"f","type":"int","value":0},{"name":"x","type":"int","value":732},{"name":"y","type":"int","value":1665},{"name":"cy","type":"int","value":1692},{"name":"fh","type":"int","value":378},{"name":"id","type":"int","value":1110101},{"name":"rx0","type":"int","value":123},{"name":"rx1","type":"int","value":1090},{"name":"hide","type":"int","value":0},{"name":"type","type":"string","value":"m"},{"name":"mobTime","type":"int","value":0}],"point":true},{"id":325,"x":295,"y":1734,"visible":true,"properties":[{"name":"f","type":"int","value":0},{"name":"x","type":"int","value":295},{"name":"y","type":"int","value":1734},{"name":"cy","type":"int","value":1752},{"name":"fh","type":"int","value":359},{"name":"id","type":"int","value":1110101},{"name":"rx0","type":"int","value":-176},{"name":"rx1","type":"int","value":542},{"name":"hide","type":"int","value":0},{"name":"type","type":"string","value":"m"},{"name":"mobTime","type":"int","value":0}],"point":true},{"id":326,"x":399,"y":-100,"visible":true,"properties":[{"name":"f","type":"int","value":1},{"name":"x","type":"int","value":399},{"name":"y","type":"int","value":-100},{"name":"cy","type":"int","value":-96},{"name":"fh","type":"int","value":760},{"name":"id","type":"int","value":1032112},{"name":"rx0","type":"int","value":349},{"name":"rx1","type":"int","value":449},{"name":"hide","type":"int","value":0},{"name":"type","type":"string","value":"n"},{"name":"mobTime","type":"int","value":0}],"point":true}],"properties":[]},{"id":36,"name":"foothold","type":"objectgroup","visible":true,"opacity":1,"draworder":"index","offsetx":0,"offsety":0,"parallaxx":1,"parallaxy":1,"objects":[{"id":327,"x":-2013,"y":2100,"visible":true,"properties":[{"name":"layer","type":"int","value":1},{"name":"group","type":"int","value":0},{"name":"id","type":"int","value":306},{"name":"fh_layer","type":"int","value":1},{"name":"fh_group","type":"int","value":0},{"name":"fh_id","type":"int","value":306},{"name":"x1","type":"int","value":-2013},{"name":"x2","type":"int","value":-1988},{"name":"y1","type":"int","value":2100},{"name":"y2","type":"int","value":2084},{"name":"next","type":"int","value":307},{"name":"prev","type":"int","value":0}],"polyline":[{"x":0,"y":0},{"x":25,"y":-16}]},{"id":328,"x":-1988,"y":2084,"visible":true,"properties":[{"name":"layer","type":"int","value":1},{"name":"group","type":"int","value":0},{"name":"id","type":"int","value":307},{"name":"fh_layer","type":"int","value":1},{"name":"fh_group","type":"int","value":0},{"name":"fh_id","type":"int","value":307},{"name":"x1","type":"int","value":-1988},{"name":"x2","type":"int","value":-1935},{"name":"y1","type":"int","value":2084},{"name":"y2","type":"int","value":2085},{"name":"next","type":"int","value":308},{"name":"prev","type":"int","value":306}],"polyline":[{"x":0,"y":0},{"x":53,"y":1}]},{"id":329,"x":-1935,"y":2085,"visible":true,"properties":[{"name":"layer","type":"int","value":1},{"name":"group","type":"int","value":0},{"name":"id","type":"int","value":308},{"name":"fh_layer","type":"int","value":1},{"name":"fh_group","type":"int","value":0},{"name":"fh_id","type":"int","value":308},{"name":"x1","type":"int","value":-1935},{"name":"x2","type":"int","value":-1898},{"name":"y1","type":"int","value":2085},{"name":"y2","type":"int","value":2078},{"name":"next","type":"int","value":309},{"name":"prev","type":"int","value":307}],"polyline":[{"x":0,"y":0},{"x":37,"y":-7}]},{"id":330,"x":-1898,"y":2078,"visible":true,"properties":[{"name":"layer","type":"int","value":1},{"name":"group","type":"int","value":0},{"name":"id","type":"int","value":309},{"name":"fh_layer","type":"int","value":1},{"name":"fh_group","type":"int","value":0},{"name":"fh_id","type":"int","value":309},{"name":"x1","type":"int","value":-1898},{"name":"x2","type":"int","value":-1865},{"name":"y1","type":"int","value":2078},{"name":"y2","type":"int","value":2080},{"name":"next","type":"int","value":310},{"name":"prev","type":"int","value":308}],"polyline":[{"x":0,"y":0},{"x":33,"y":2}]},{"id":331,"x":-1865,"y":2080,"visible":true,"properties":[{"name":"layer","type":"int","value":1},{"name":"group","type":"int","value":0},{"name":"id","type":"int","value":310},{"name":"fh_layer","type":"int","value":1},{"name":"fh_group","type":"int","value":0},{"name":"fh_id","type":"int","value":310},{"name":"x1","type":"int","value":-1865},{"name":"x2","type":"int","value":-1853},{"name":"y1","type":"int","value":2080},{"name":"y2","type":"int","value":2077},{"name":"next","type":"int","value":311},{"name":"prev","type":"int","value":309}],"polyline":[{"x":0,"y":0},{"x":12,"y":-3}]},{"id":332,"x":-1853,"y":2077,"visible":true,"properties":[{"name":"layer","type":"int","value":1},{"name":"group","type":"int","value":0},{"name":"id","type":"int","value":311},{"name":"fh_layer","type":"int","value":1},{"name":"fh_group","type":"int","value":0},{"name":"fh_id","type":"int","value":311},{"name":"x1","type":"int","value":-1853},{"name":"x2","type":"int","value":-1838},{"name":"y1","type":"int","value":2077},{"name":"y2","type":"int","value":2077},{"name":"next","type":"int","value":312},{"name":"prev","type":"int","value":310}],"polyline":[{"x":0,"y":0},{"x":15,"y":0}]},{"id":333,"x":-1838,"y":2077,"visible":true,"properties":[{"name":"layer","type":"int","value":1},{"name":"group","type":"int","value":0},{"name":"id","type":"int","value":312},{"name":"fh_layer","type":"int","value":1},{"name":"fh_group","type":"int","value":0},{"name":"fh_id","type":"int","value":312},{"name":"x1","type":"int","value":-1838},{"name":"x2","type":"int","value":-1817},{"name":"y1","type":"int","value":2077},{"name":"y2","type":"int","value":2072},{"name":"next","type":"int","value":313},{"name":"prev","type":"int","value":311}],"polyline":[{"x":0,"y":0},{"x":21,"y":-5}]},{"id":334,"x":-1817,"y":2072,"visible":true,"properties":[{"name":"layer","type":"int","value":1},{"name":"group","type":"int","value":0},{"name":"id","type":"int","value":313},{"name":"fh_layer","type":"int","value":1},{"name":"fh_group","type":"int","value":0},{"name":"fh_id","type":"int","value":313},{"name":"x1","type":"int","value":-1817},{"name":"x2","type":"int","value":-1759},{"name":"y1","type":"int","value":2072},{"name":"y2","type":"int","value":2076},{"name":"next","type":"int","value":314},{"name":"prev","type":"int","value":312}],"polyline":[{"x":0,"y":0},{"x":58,"y":4}]},{"id":335,"x":-1759,"y":2076,"visible":true,"properties":[{"name":"layer","type":"int","value":1},{"name":"group","type":"int","value":0},{"name":"id","type":"int","value":314},{"name":"fh_layer","type":"int","value":1},{"name":"fh_group","type":"int","value":0},{"name":"fh_id","type":"int","value":314},{"name":"x1","type":"int","value":-1759},{"name":"x2","type":"int","value":-1753},{"name":"y1","type":"int","value":2076},{"name":"y2","type":"int","value":2076},{"name":"next","type":"int","value":315},{"name":"prev","type":"int","value":313}],"polyline":[{"x":0,"y":0},{"x":6,"y":0}]},{"id":336,"x":-1753,"y":2076,"visible":true,"properties":[{"name":"layer","type":"int","value":1},{"name":"group","type":"int","value":0},{"name":"id","type":"int","value":315},{"name":"fh_layer","type":"int","value":1},{"name":"fh_group","type":"int","value":0},{"name":"fh_id","type":"int","value":315},{"name":"x1","type":"int","value":-1753},{"name":"x2","type":"int","value":-1744},{"name":"y1","type":"int","value":2076},{"name":"y2","type":"int","value":2072},{"name":"next","type":"int","value":316},{"name":"prev","type":"int","value":314}],"polyline":[{"x":0,"y":0},{"x":9,"y":-4}]},{"id":337,"x":-1744,"y":2072,"visible":true,"properties":[{"name":"layer","type":"int","value":1},{"name":"group","type":"int","value":0},{"name":"id","type":"int","value":316},{"name":"fh_layer","type":"int","value":1},{"name":"fh_group","type":"int","value":0},{"name":"fh_id","type":"int","value":316},{"name":"x1","type":"int","value":-1744},{"name":"x2","type":"int","value":-1691},{"name":"y1","type":"int","value":2072},{"name":"y2","type":"int","value":2076},{"name":"next","type":"int","value":317},{"name":"prev","type":"int","value":315}],"polyline":[{"x":0,"y":0},{"x":53,"y":4}]},{"id":338,"x":-1691,"y":2076,"visible":true,"properties":[{"name":"layer","type":"int","value":1},{"name":"group","type":"int","value":0},{"name":"id","type":"int","value":317},{"name":"fh_layer","type":"int","value":1},{"name":"fh_group","type":"int","value":0},{"name":"fh_id","type":"int","value":317},{"name":"x1","type":"int","value":-1691},{"name":"x2","type":"int","value":-1670},{"name":"y1","type":"int","value":2076},{"name":"y2","type":"int","value":2086},{"name":"next","type":"int","value":318},{"name":"prev","type":"int","value":316}],"polyline":[{"x":0,"y":0},{"x":21,"y":10}]},{"id":339,"x":-1670,"y":2086,"visible":true,"properties":[{"name":"layer","type":"int","value":1},{"name":"group","type":"int","value":0},{"name":"id","type":"int","value":318},{"name":"fh_layer","type":"int","value":1},{"name":"fh_group","type":"int","value":0},{"name":"fh_id","type":"int","value":318},{"name":"x1","type":"int","value":-1670},{"name":"x2","type":"int","value":-1657},{"name":"y1","type":"int","value":2086},{"name":"y2","type":"int","value":2086},{"name":"next","type":"int","value":319},{"name":"prev","type":"int","value":317}],"polyline":[{"x":0,"y":0},{"x":13,"y":0}]},{"id":340,"x":-1657,"y":2086,"visible":true,"properties":[{"name":"layer","type":"int","value":1},{"name":"group","type":"int","value":0},{"name":"id","type":"int","value":319},{"name":"fh_layer","type":"int","value":1},{"name":"fh_group","type":"int","value":0},{"name":"fh_id","type":"int","value":319},{"name":"x1","type":"int","value":-1657},{"name":"x2","type":"int","value":-1650},{"name":"y1","type":"int","value":2086},{"name":"y2","type":"int","value":2081},{"name":"next","type":"int","value":320},{"name":"prev","type":"int","value":318}],"polyline":[{"x":0,"y":0},{"x":7,"y":-5}]},{"id":341,"x":-1650,"y":2081,"visible":true,"properties":[{"name":"layer","type":"int","value":1},{"name":"group","type":"int","value":0},{"name":"id","type":"int","value":320},{"name":"fh_layer","type":"int","value":1},{"name":"fh_group","type":"int","value":0},{"name":"fh_id","type":"int","value":320},{"name":"x1","type":"int","value":-1650},{"name":"x2","type":"int","value":-1627},{"name":"y1","type":"int","value":2081},{"name":"y2","type":"int","value":2082},{"name":"next","type":"int","value":321},{"name":"prev","type":"int","value":319}],"polyline":[{"x":0,"y":0},{"x":23,"y":1}]},{"id":342,"x":-1627,"y":2082,"visible":true,"properties":[{"name":"layer","type":"int","value":1},{"name":"group","type":"int","value":0},{"name":"id","type":"int","value":321},{"name":"fh_layer","type":"int","value":1},{"name":"fh_group","type":"int","value":0},{"name":"fh_id","type":"int","value":321},{"name":"x1","type":"int","value":-1627},{"name":"x2","type":"int","value":-1618},{"name":"y1","type":"int","value":2082},{"name":"y2","type":"int","value":2079},{"name":"next","type":"int","value":322},{"name":"prev","type":"int","value":320}],"polyline":[{"x":0,"y":0},{"x":9,"y":-3}]},{"id":343,"x":-1618,"y":2079,"visible":true,"properties":[{"name":"layer","type":"int","value":1},{"name":"group","type":"int","value":0},{"name":"id","type":"int","value":322},{"name":"fh_layer","type":"int","value":1},{"name":"fh_group","type":"int","value":0},{"name":"fh_id","type":"int","value":322},{"name":"x1","type":"int","value":-1618},{"name":"x2","type":"int","value":-1576},{"name":"y1","type":"int","value":2079},{"name":"y2","type":"int","value":2081},{"name":"next","type":"int","value":323},{"name":"prev","type":"int","value":321}],"polyline":[{"x":0,"y":0},{"x":42,"y":2}]},{"id":344,"x":-1576,"y":2081,"visible":true,"properties":[{"name":"layer","type":"int","value":1},{"name":"group","type":"int","value":0},{"name":"id","type":"int","value":323},{"name":"fh_layer","type":"int","value":1},{"name":"fh_group","type":"int","value":0},{"name":"fh_id","type":"int","value":323},{"name":"x1","type":"int","value":-1576},{"name":"x2","type":"int","value":-1568},{"name":"y1","type":"int","value":2081},{"name":"y2","type":"int","value":2078},{"name":"next","type":"int","value":324},{"name":"prev","type":"int","value":322}],"polyline":[{"x":0,"y":0},{"x":8,"y":-3}]},{"id":345,"x":-1568,"y":2078,"visible":true,"properties":[{"name":"layer","type":"int","value":1},{"name":"group","type":"int","value":0},{"name":"id","type":"int","value":324},{"name":"fh_layer","type":"int","value":1},{"name":"fh_group","type":"int","value":0},{"name":"fh_id","type":"int","value":324},{"name":"x1","type":"int","value":-1568},{"name":"x2","type":"int","value":-1560},{"name":"y1","type":"int","value":2078},{"name":"y2","type":"int","value":2079},{"name":"next","type":"int","value":67},{"name":"prev","type":"int","value":323}],"polyline":[{"x":0,"y":0},{"x":8,"y":1}]},{"id":346,"x":-1565,"y":1608,"visible":true,"properties":[{"name":"layer","type":"int","value":1},{"name":"group","type":"int","value":0},{"name":"id","type":"int","value":325},{"name":"fh_layer","type":"int","value":1},{"name":"fh_group","type":"int","value":0},{"name":"fh_id","type":"int","value":325},{"name":"x1","type":"int","value":-1565},{"name":"x2","type":"int","value":-1546},{"name":"y1","type":"int","value":1608},{"name":"y2","type":"int","value":1607},{"name":"next","type":"int","value":326},{"name":"prev","type":"int","value":331}],"polyline":[{"x":0,"y":0},{"x":19,"y":-1}]},{"id":347,"x":-1546,"y":1607,"visible":true,"properties":[{"name":"layer","type":"int","value":1},{"name":"group","type":"int","value":0},{"name":"id","type":"int","value":326},{"name":"fh_layer","type":"int","value":1},{"name":"fh_group","type":"int","value":0},{"name":"fh_id","type":"int","value":326},{"name":"x1","type":"int","value":-1546},{"name":"x2","type":"int","value":-1514},{"name":"y1","type":"int","value":1607},{"name":"y2","type":"int","value":1613},{"name":"next","type":"int","value":327},{"name":"prev","type":"int","value":325}],"polyline":[{"x":0,"y":0},{"x":32,"y":6}]},{"id":348,"x":-1514,"y":1613,"visible":true,"properties":[{"name":"layer","type":"int","value":1},{"name":"group","type":"int","value":0},{"name":"id","type":"int","value":327},{"name":"fh_layer","type":"int","value":1},{"name":"fh_group","type":"int","value":0},{"name":"fh_id","type":"int","value":327},{"name":"x1","type":"int","value":-1514},{"name":"x2","type":"int","value":-1493},{"name":"y1","type":"int","value":1613},{"name":"y2","type":"int","value":1628},{"name":"next","type":"int","value":328},{"name":"prev","type":"int","value":326}],"polyline":[{"x":0,"y":0},{"x":21,"y":15}]},{"id":349,"x":-1493,"y":1628,"visible":true,"properties":[{"name":"layer","type":"int","value":1},{"name":"group","type":"int","value":0},{"name":"id","type":"int","value":328},{"name":"fh_layer","type":"int","value":1},{"name":"fh_group","type":"int","value":0},{"name":"fh_id","type":"int","value":328},{"name":"x1","type":"int","value":-1493},{"name":"x2","type":"int","value":-1473},{"name":"y1","type":"int","value":1628},{"name":"y2","type":"int","value":1631},{"name":"next","type":"int","value":624},{"name":"prev","type":"int","value":327}],"polyline":[{"x":0,"y":0},{"x":20,"y":3}]},{"id":350,"x":-1672,"y":1582,"visible":true,"properties":[{"name":"layer","type":"int","value":1},{"name":"group","type":"int","value":0},{"name":"id","type":"int","value":329},{"name":"fh_layer","type":"int","value":1},{"name":"fh_group","type":"int","value":0},{"name":"fh_id","type":"int","value":329},{"name":"x1","type":"int","value":-1672},{"name":"x2","type":"int","value":-1619},{"name":"y1","type":"int","value":1582},{"name":"y2","type":"int","value":1586},{"name":"next","type":"int","value":330},{"name":"prev","type":"int","value":336}],"polyline":[{"x":0,"y":0},{"x":53,"y":4}]},{"id":351,"x":-1619,"y":1586,"visible":true,"properties":[{"name":"layer","type":"int","value":1},{"name":"group","type":"int","value":0},{"name":"id","type":"int","value":330},{"name":"fh_layer","type":"int","value":1},{"name":"fh_group","type":"int","value":0},{"name":"fh_id","type":"int","value":330},{"name":"x1","type":"int","value":-1619},{"name":"x2","type":"int","value":-1594},{"name":"y1","type":"int","value":1586},{"name":"y2","type":"int","value":1597},{"name":"next","type":"int","value":331},{"name":"prev","type":"int","value":329}],"polyline":[{"x":0,"y":0},{"x":25,"y":11}]},{"id":352,"x":-1594,"y":1597,"visible":true,"properties":[{"name":"layer","type":"int","value":1},{"name":"group","type":"int","value":0},{"name":"id","type":"int","value":331},{"name":"fh_layer","type":"int","value":1},{"name":"fh_group","type":"int","value":0},{"name":"fh_id","type":"int","value":331},{"name":"x1","type":"int","value":-1594},{"name":"x2","type":"int","value":-1565},{"name":"y1","type":"int","value":1597},{"name":"y2","type":"int","value":1608},{"name":"next","type":"int","value":325},{"name":"prev","type":"int","value":330}],"polyline":[{"x":0,"y":0},{"x":29,"y":11}]},{"id":353,"x":-1770,"y":1565,"visible":true,"properties":[{"name":"layer","type":"int","value":1},{"name":"group","type":"int","value":0},{"name":"id","type":"int","value":332},{"name":"fh_layer","type":"int","value":1},{"name":"fh_group","type":"int","value":0},{"name":"fh_id","type":"int","value":332},{"name":"x1","type":"int","value":-1770},{"name":"x2","type":"int","value":-1751},{"name":"y1","type":"int","value":1565},{"name":"y2","type":"int","value":1564},{"name":"next","type":"int","value":333},{"name":"prev","type":"int","value":340}],"polyline":[{"x":0,"y":0},{"x":19,"y":-1}]},{"id":354,"x":-1751,"y":1564,"visible":true,"properties":[{"name":"layer","type":"int","value":1},{"name":"group","type":"int","value":0},{"name":"id","type":"int","value":333},{"name":"fh_layer","type":"int","value":1},{"name":"fh_group","type":"int","value":0},{"name":"fh_id","type":"int","value":333},{"name":"x1","type":"int","value":-1751},{"name":"x2","type":"int","value":-1719},{"name":"y1","type":"int","value":1564},{"name":"y2","type":"int","value":1570},{"name":"next","type":"int","value":334},{"name":"prev","type":"int","value":332}],"polyline":[{"x":0,"y":0},{"x":32,"y":6}]},{"id":355,"x":-1719,"y":1570,"visible":true,"properties":[{"name":"layer","type":"int","value":1},{"name":"group","type":"int","value":0},{"name":"id","type":"int","value":334},{"name":"fh_layer","type":"int","value":1},{"name":"fh_group","type":"int","value":0},{"name":"fh_id","type":"int","value":334},{"name":"x1","type":"int","value":-1719},{"name":"x2","type":"int","value":-1698},{"name":"y1","type":"int","value":1570},{"name":"y2","type":"int","value":1585},{"name":"next","type":"int","value":335},{"name":"prev","type":"int","value":333}],"polyline":[{"x":0,"y":0},{"x":21,"y":15}]},{"id":356,"x":-1698,"y":1585,"visible":true,"properties":[{"name":"layer","type":"int","value":1},{"name":"group","type":"int","value":0},{"name":"id","type":"int","value":335},{"name":"fh_layer","type":"int","value":1},{"name":"fh_group","type":"int","value":0},{"name":"fh_id","type":"int","value":335},{"name":"x1","type":"int","value":-1698},{"name":"x2","type":"int","value":-1684},{"name":"y1","type":"int","value":1585},{"name":"y2","type":"int","value":1588},{"name":"next","type":"int","value":336},{"name":"prev","type":"int","value":334}],"polyline":[{"x":0,"y":0},{"x":14,"y":3}]},{"id":357,"x":-1684,"y":1588,"visible":true,"properties":[{"name":"layer","type":"int","value":1},{"name":"group","type":"int","value":0},{"name":"id","type":"int","value":336},{"name":"fh_layer","type":"int","value":1},{"name":"fh_group","type":"int","value":0},{"name":"fh_id","type":"int","value":336},{"name":"x1","type":"int","value":-1684},{"name":"x2","type":"int","value":-1672},{"name":"y1","type":"int","value":1588},{"name":"y2","type":"int","value":1582},{"name":"next","type":"int","value":329},{"name":"prev","type":"int","value":335}],"polyline":[{"x":0,"y":0},{"x":12,"y":-6}]},{"id":358,"x":-1913,"y":1544,"visible":true,"properties":[{"name":"layer","type":"int","value":1},{"name":"group","type":"int","value":0},{"name":"id","type":"int","value":337},{"name":"fh_layer","type":"int","value":1},{"name":"fh_group","type":"int","value":0},{"name":"fh_id","type":"int","value":337},{"name":"x1","type":"int","value":-1913},{"name":"x2","type":"int","value":-1880},{"name":"y1","type":"int","value":1544},{"name":"y2","type":"int","value":1535},{"name":"next","type":"int","value":338},{"name":"prev","type":"int","value":0}],"polyline":[{"x":0,"y":0},{"x":33,"y":-9}]},{"id":359,"x":-1880,"y":1535,"visible":true,"properties":[{"name":"layer","type":"int","value":1},{"name":"group","type":"int","value":0},{"name":"id","type":"int","value":338},{"name":"fh_layer","type":"int","value":1},{"name":"fh_group","type":"int","value":0},{"name":"fh_id","type":"int","value":338},{"name":"x1","type":"int","value":-1880},{"name":"x2","type":"int","value":-1826},{"name":"y1","type":"int","value":1535},{"name":"y2","type":"int","value":1544},{"name":"next","type":"int","value":339},{"name":"prev","type":"int","value":337}],"polyline":[{"x":0,"y":0},{"x":54,"y":9}]},{"id":360,"x":-1826,"y":1544,"visible":true,"properties":[{"name":"layer","type":"int","value":1},{"name":"group","type":"int","value":0},{"name":"id","type":"int","value":339},{"name":"fh_layer","type":"int","value":1},{"name":"fh_group","type":"int","value":0},{"name":"fh_id","type":"int","value":339},{"name":"x1","type":"int","value":-1826},{"name":"x2","type":"int","value":-1798},{"name":"y1","type":"int","value":1544},{"name":"y2","type":"int","value":1555},{"name":"next","type":"int","value":340},{"name":"prev","type":"int","value":338}],"polyline":[{"x":0,"y":0},{"x":28,"y":11}]},{"id":361,"x":-1798,"y":1555,"visible":true,"properties":[{"name":"layer","type":"int","value":1},{"name":"group","type":"int","value":0},{"name":"id","type":"int","value":340},{"name":"fh_layer","type":"int","value":1},{"name":"fh_group","type":"int","value":0},{"name":"fh_id","type":"int","value":340},{"name":"x1","type":"int","value":-1798},{"name":"x2","type":"int","value":-1770},{"name":"y1","type":"int","value":1555},{"name":"y2","type":"int","value":1565},{"name":"next","type":"int","value":332},{"name":"prev","type":"int","value":339}],"polyline":[{"x":0,"y":0},{"x":28,"y":10}]},{"id":362,"x":-1807,"y":1551,"visible":true,"properties":[{"name":"layer","type":"int","value":1},{"name":"group","type":"int","value":0},{"name":"id","type":"int","value":341},{"name":"fh_layer","type":"int","value":1},{"name":"fh_group","type":"int","value":0},{"name":"fh_id","type":"int","value":341},{"name":"x1","type":"int","value":-1807},{"name":"x2","type":"int","value":-1762},{"name":"y1","type":"int","value":1551},{"name":"y2","type":"int","value":1561},{"name":"next","type":"int","value":342},{"name":"prev","type":"int","value":0}],"polyline":[{"x":0,"y":0},{"x":45,"y":10}]},{"id":363,"x":-1762,"y":1561,"visible":true,"properties":[{"name":"layer","type":"int","value":1},{"name":"group","type":"int","value":0},{"name":"id","type":"int","value":342},{"name":"fh_layer","type":"int","value":1},{"name":"fh_group","type":"int","value":0},{"name":"fh_id","type":"int","value":342},{"name":"x1","type":"int","value":-1762},{"name":"x2","type":"int","value":-1683},{"name":"y1","type":"int","value":1561},{"name":"y2","type":"int","value":1554},{"name":"next","type":"int","value":0},{"name":"prev","type":"int","value":341}],"polyline":[{"x":0,"y":0},{"x":79,"y":-7}]},{"id":364,"x":-796,"y":2057,"visible":true,"properties":[{"name":"layer","type":"int","value":1},{"name":"group","type":"int","value":1},{"name":"id","type":"int","value":35},{"name":"fh_layer","type":"int","value":1},{"name":"fh_group","type":"int","value":1},{"name":"fh_id","type":"int","value":35},{"name":"x1","type":"int","value":-796},{"name":"x2","type":"int","value":-767},{"name":"y1","type":"int","value":2057},{"name":"y2","type":"int","value":2061},{"name":"next","type":"int","value":36},{"name":"prev","type":"int","value":41}],"polyline":[{"x":0,"y":0},{"x":29,"y":4}]},{"id":365,"x":-767,"y":2061,"visible":true,"properties":[{"name":"layer","type":"int","value":1},{"name":"group","type":"int","value":1},{"name":"id","type":"int","value":36},{"name":"fh_layer","type":"int","value":1},{"name":"fh_group","type":"int","value":1},{"name":"fh_id","type":"int","value":36},{"name":"x1","type":"int","value":-767},{"name":"x2","type":"int","value":-737},{"name":"y1","type":"int","value":2061},{"name":"y2","type":"int","value":2061},{"name":"next","type":"int","value":37},{"name":"prev","type":"int","value":35}],"polyline":[{"x":0,"y":0},{"x":30,"y":0}]},{"id":366,"x":-737,"y":2061,"visible":true,"properties":[{"name":"layer","type":"int","value":1},{"name":"group","type":"int","value":1},{"name":"id","type":"int","value":37},{"name":"fh_layer","type":"int","value":1},{"name":"fh_group","type":"int","value":1},{"name":"fh_id","type":"int","value":37},{"name":"x1","type":"int","value":-737},{"name":"x2","type":"int","value":-726},{"name":"y1","type":"int","value":2061},{"name":"y2","type":"int","value":2059},{"name":"next","type":"int","value":38},{"name":"prev","type":"int","value":36}],"polyline":[{"x":0,"y":0},{"x":11,"y":-2}]},{"id":367,"x":-726,"y":2059,"visible":true,"properties":[{"name":"layer","type":"int","value":1},{"name":"group","type":"int","value":1},{"name":"id","type":"int","value":38},{"name":"fh_layer","type":"int","value":1},{"name":"fh_group","type":"int","value":1},{"name":"fh_id","type":"int","value":38},{"name":"x1","type":"int","value":-726},{"name":"x2","type":"int","value":-720},{"name":"y1","type":"int","value":2059},{"name":"y2","type":"int","value":2060},{"name":"next","type":"int","value":53},{"name":"prev","type":"int","value":37}],"polyline":[{"x":0,"y":0},{"x":6,"y":1}]},{"id":368,"x":-885,"y":2060,"visible":true,"properties":[{"name":"layer","type":"int","value":1},{"name":"group","type":"int","value":1},{"name":"id","type":"int","value":39},{"name":"fh_layer","type":"int","value":1},{"name":"fh_group","type":"int","value":1},{"name":"fh_id","type":"int","value":39},{"name":"x1","type":"int","value":-885},{"name":"x2","type":"int","value":-819},{"name":"y1","type":"int","value":2060},{"name":"y2","type":"int","value":2057},{"name":"next","type":"int","value":40},{"name":"prev","type":"int","value":49}],"polyline":[{"x":0,"y":0},{"x":66,"y":-3}]},{"id":369,"x":-819,"y":2057,"visible":true,"properties":[{"name":"layer","type":"int","value":1},{"name":"group","type":"int","value":1},{"name":"id","type":"int","value":40},{"name":"fh_layer","type":"int","value":1},{"name":"fh_group","type":"int","value":1},{"name":"fh_id","type":"int","value":40},{"name":"x1","type":"int","value":-819},{"name":"x2","type":"int","value":-803},{"name":"y1","type":"int","value":2057},{"name":"y2","type":"int","value":2060},{"name":"next","type":"int","value":41},{"name":"prev","type":"int","value":39}],"polyline":[{"x":0,"y":0},{"x":16,"y":3}]},{"id":370,"x":-803,"y":2060,"visible":true,"properties":[{"name":"layer","type":"int","value":1},{"name":"group","type":"int","value":1},{"name":"id","type":"int","value":41},{"name":"fh_layer","type":"int","value":1},{"name":"fh_group","type":"int","value":1},{"name":"fh_id","type":"int","value":41},{"name":"x1","type":"int","value":-803},{"name":"x2","type":"int","value":-796},{"name":"y1","type":"int","value":2060},{"name":"y2","type":"int","value":2057},{"name":"next","type":"int","value":35},{"name":"prev","type":"int","value":40}],"polyline":[{"x":0,"y":0},{"x":7,"y":-3}]},{"id":371,"x":-1088,"y":2070,"visible":true,"properties":[{"name":"layer","type":"int","value":1},{"name":"group","type":"int","value":1},{"name":"id","type":"int","value":42},{"name":"fh_layer","type":"int","value":1},{"name":"fh_group","type":"int","value":1},{"name":"fh_id","type":"int","value":42},{"name":"x1","type":"int","value":-1088},{"name":"x2","type":"int","value":-1051},{"name":"y1","type":"int","value":2070},{"name":"y2","type":"int","value":2063},{"name":"next","type":"int","value":43},{"name":"prev","type":"int","value":52}],"polyline":[{"x":0,"y":0},{"x":37,"y":-7}]},{"id":372,"x":-1051,"y":2063,"visible":true,"properties":[{"name":"layer","type":"int","value":1},{"name":"group","type":"int","value":1},{"name":"id","type":"int","value":43},{"name":"fh_layer","type":"int","value":1},{"name":"fh_group","type":"int","value":1},{"name":"fh_id","type":"int","value":43},{"name":"x1","type":"int","value":-1051},{"name":"x2","type":"int","value":-1018},{"name":"y1","type":"int","value":2063},{"name":"y2","type":"int","value":2065},{"name":"next","type":"int","value":44},{"name":"prev","type":"int","value":42}],"polyline":[{"x":0,"y":0},{"x":33,"y":2}]},{"id":373,"x":-1018,"y":2065,"visible":true,"properties":[{"name":"layer","type":"int","value":1},{"name":"group","type":"int","value":1},{"name":"id","type":"int","value":44},{"name":"fh_layer","type":"int","value":1},{"name":"fh_group","type":"int","value":1},{"name":"fh_id","type":"int","value":44},{"name":"x1","type":"int","value":-1018},{"name":"x2","type":"int","value":-1006},{"name":"y1","type":"int","value":2065},{"name":"y2","type":"int","value":2062},{"name":"next","type":"int","value":45},{"name":"prev","type":"int","value":43}],"polyline":[{"x":0,"y":0},{"x":12,"y":-3}]},{"id":374,"x":-1006,"y":2062,"visible":true,"properties":[{"name":"layer","type":"int","value":1},{"name":"group","type":"int","value":1},{"name":"id","type":"int","value":45},{"name":"fh_layer","type":"int","value":1},{"name":"fh_group","type":"int","value":1},{"name":"fh_id","type":"int","value":45},{"name":"x1","type":"int","value":-1006},{"name":"x2","type":"int","value":-991},{"name":"y1","type":"int","value":2062},{"name":"y2","type":"int","value":2062},{"name":"next","type":"int","value":46},{"name":"prev","type":"int","value":44}],"polyline":[{"x":0,"y":0},{"x":15,"y":0}]},{"id":375,"x":-991,"y":2062,"visible":true,"properties":[{"name":"layer","type":"int","value":1},{"name":"group","type":"int","value":1},{"name":"id","type":"int","value":46},{"name":"fh_layer","type":"int","value":1},{"name":"fh_group","type":"int","value":1},{"name":"fh_id","type":"int","value":46},{"name":"x1","type":"int","value":-991},{"name":"x2","type":"int","value":-970},{"name":"y1","type":"int","value":2062},{"name":"y2","type":"int","value":2057},{"name":"next","type":"int","value":47},{"name":"prev","type":"int","value":45}],"polyline":[{"x":0,"y":0},{"x":21,"y":-5}]},{"id":376,"x":-970,"y":2057,"visible":true,"properties":[{"name":"layer","type":"int","value":1},{"name":"group","type":"int","value":1},{"name":"id","type":"int","value":47},{"name":"fh_layer","type":"int","value":1},{"name":"fh_group","type":"int","value":1},{"name":"fh_id","type":"int","value":47},{"name":"x1","type":"int","value":-970},{"name":"x2","type":"int","value":-912},{"name":"y1","type":"int","value":2057},{"name":"y2","type":"int","value":2061},{"name":"next","type":"int","value":48},{"name":"prev","type":"int","value":46}],"polyline":[{"x":0,"y":0},{"x":58,"y":4}]},{"id":377,"x":-912,"y":2061,"visible":true,"properties":[{"name":"layer","type":"int","value":1},{"name":"group","type":"int","value":1},{"name":"id","type":"int","value":48},{"name":"fh_layer","type":"int","value":1},{"name":"fh_group","type":"int","value":1},{"name":"fh_id","type":"int","value":48},{"name":"x1","type":"int","value":-912},{"name":"x2","type":"int","value":-887},{"name":"y1","type":"int","value":2061},{"name":"y2","type":"int","value":2061},{"name":"next","type":"int","value":49},{"name":"prev","type":"int","value":47}],"polyline":[{"x":0,"y":0},{"x":25,"y":0}]},{"id":378,"x":-887,"y":2061,"visible":true,"properties":[{"name":"layer","type":"int","value":1},{"name":"group","type":"int","value":1},{"name":"id","type":"int","value":49},{"name":"fh_layer","type":"int","value":1},{"name":"fh_group","type":"int","value":1},{"name":"fh_id","type":"int","value":49},{"name":"x1","type":"int","value":-887},{"name":"x2","type":"int","value":-885},{"name":"y1","type":"int","value":2061},{"name":"y2","type":"int","value":2060},{"name":"next","type":"int","value":39},{"name":"prev","type":"int","value":48}],"polyline":[{"x":0,"y":0},{"x":2,"y":-1}]},{"id":379,"x":-1206,"y":2070,"visible":true,"properties":[{"name":"layer","type":"int","value":1},{"name":"group","type":"int","value":1},{"name":"id","type":"int","value":50},{"name":"fh_layer","type":"int","value":1},{"name":"fh_group","type":"int","value":1},{"name":"fh_id","type":"int","value":50},{"name":"x1","type":"int","value":-1206},{"name":"x2","type":"int","value":-1140},{"name":"y1","type":"int","value":2070},{"name":"y2","type":"int","value":2067},{"name":"next","type":"int","value":51},{"name":"prev","type":"int","value":66}],"polyline":[{"x":0,"y":0},{"x":66,"y":-3}]},{"id":380,"x":-1140,"y":2067,"visible":true,"properties":[{"name":"layer","type":"int","value":1},{"name":"group","type":"int","value":1},{"name":"id","type":"int","value":51},{"name":"fh_layer","type":"int","value":1},{"name":"fh_group","type":"int","value":1},{"name":"fh_id","type":"int","value":51},{"name":"x1","type":"int","value":-1140},{"name":"x2","type":"int","value":-1127},{"name":"y1","type":"int","value":2067},{"name":"y2","type":"int","value":2069},{"name":"next","type":"int","value":52},{"name":"prev","type":"int","value":50}],"polyline":[{"x":0,"y":0},{"x":13,"y":2}]},{"id":381,"x":-1127,"y":2069,"visible":true,"properties":[{"name":"layer","type":"int","value":1},{"name":"group","type":"int","value":1},{"name":"id","type":"int","value":52},{"name":"fh_layer","type":"int","value":1},{"name":"fh_group","type":"int","value":1},{"name":"fh_id","type":"int","value":52},{"name":"x1","type":"int","value":-1127},{"name":"x2","type":"int","value":-1088},{"name":"y1","type":"int","value":2069},{"name":"y2","type":"int","value":2070},{"name":"next","type":"int","value":42},{"name":"prev","type":"int","value":51}],"polyline":[{"x":0,"y":0},{"x":39,"y":1}]},{"id":382,"x":-720,"y":2060,"visible":true,"properties":[{"name":"layer","type":"int","value":1},{"name":"group","type":"int","value":1},{"name":"id","type":"int","value":53},{"name":"fh_layer","type":"int","value":1},{"name":"fh_group","type":"int","value":1},{"name":"fh_id","type":"int","value":53},{"name":"x1","type":"int","value":-720},{"name":"x2","type":"int","value":-714},{"name":"y1","type":"int","value":2060},{"name":"y2","type":"int","value":2056},{"name":"next","type":"int","value":54},{"name":"prev","type":"int","value":38}],"polyline":[{"x":0,"y":0},{"x":6,"y":-4}]},{"id":383,"x":-714,"y":2056,"visible":true,"properties":[{"name":"layer","type":"int","value":1},{"name":"group","type":"int","value":1},{"name":"id","type":"int","value":54},{"name":"fh_layer","type":"int","value":1},{"name":"fh_group","type":"int","value":1},{"name":"fh_id","type":"int","value":54},{"name":"x1","type":"int","value":-714},{"name":"x2","type":"int","value":-661},{"name":"y1","type":"int","value":2056},{"name":"y2","type":"int","value":2057},{"name":"next","type":"int","value":55},{"name":"prev","type":"int","value":53}],"polyline":[{"x":0,"y":0},{"x":53,"y":1}]},{"id":384,"x":-661,"y":2057,"visible":true,"properties":[{"name":"layer","type":"int","value":1},{"name":"group","type":"int","value":1},{"name":"id","type":"int","value":55},{"name":"fh_layer","type":"int","value":1},{"name":"fh_group","type":"int","value":1},{"name":"fh_id","type":"int","value":55},{"name":"x1","type":"int","value":-661},{"name":"x2","type":"int","value":-624},{"name":"y1","type":"int","value":2057},{"name":"y2","type":"int","value":2050},{"name":"next","type":"int","value":56},{"name":"prev","type":"int","value":54}],"polyline":[{"x":0,"y":0},{"x":37,"y":-7}]},{"id":385,"x":-624,"y":2050,"visible":true,"properties":[{"name":"layer","type":"int","value":1},{"name":"group","type":"int","value":1},{"name":"id","type":"int","value":56},{"name":"fh_layer","type":"int","value":1},{"name":"fh_group","type":"int","value":1},{"name":"fh_id","type":"int","value":56},{"name":"x1","type":"int","value":-624},{"name":"x2","type":"int","value":-591},{"name":"y1","type":"int","value":2050},{"name":"y2","type":"int","value":2052},{"name":"next","type":"int","value":57},{"name":"prev","type":"int","value":55}],"polyline":[{"x":0,"y":0},{"x":33,"y":2}]},{"id":386,"x":-591,"y":2052,"visible":true,"properties":[{"name":"layer","type":"int","value":1},{"name":"group","type":"int","value":1},{"name":"id","type":"int","value":57},{"name":"fh_layer","type":"int","value":1},{"name":"fh_group","type":"int","value":1},{"name":"fh_id","type":"int","value":57},{"name":"x1","type":"int","value":-591},{"name":"x2","type":"int","value":-579},{"name":"y1","type":"int","value":2052},{"name":"y2","type":"int","value":2049},{"name":"next","type":"int","value":58},{"name":"prev","type":"int","value":56}],"polyline":[{"x":0,"y":0},{"x":12,"y":-3}]},{"id":387,"x":-579,"y":2049,"visible":true,"properties":[{"name":"layer","type":"int","value":1},{"name":"group","type":"int","value":1},{"name":"id","type":"int","value":58},{"name":"fh_layer","type":"int","value":1},{"name":"fh_group","type":"int","value":1},{"name":"fh_id","type":"int","value":58},{"name":"x1","type":"int","value":-579},{"name":"x2","type":"int","value":-564},{"name":"y1","type":"int","value":2049},{"name":"y2","type":"int","value":2049},{"name":"next","type":"int","value":59},{"name":"prev","type":"int","value":57}],"polyline":[{"x":0,"y":0},{"x":15,"y":0}]},{"id":388,"x":-564,"y":2049,"visible":true,"properties":[{"name":"layer","type":"int","value":1},{"name":"group","type":"int","value":1},{"name":"id","type":"int","value":59},{"name":"fh_layer","type":"int","value":1},{"name":"fh_group","type":"int","value":1},{"name":"fh_id","type":"int","value":59},{"name":"x1","type":"int","value":-564},{"name":"x2","type":"int","value":-543},{"name":"y1","type":"int","value":2049},{"name":"y2","type":"int","value":2044},{"name":"next","type":"int","value":60},{"name":"prev","type":"int","value":58}],"polyline":[{"x":0,"y":0},{"x":21,"y":-5}]},{"id":389,"x":-543,"y":2044,"visible":true,"properties":[{"name":"layer","type":"int","value":1},{"name":"group","type":"int","value":1},{"name":"id","type":"int","value":60},{"name":"fh_layer","type":"int","value":1},{"name":"fh_group","type":"int","value":1},{"name":"fh_id","type":"int","value":60},{"name":"x1","type":"int","value":-543},{"name":"x2","type":"int","value":-485},{"name":"y1","type":"int","value":2044},{"name":"y2","type":"int","value":2048},{"name":"next","type":"int","value":61},{"name":"prev","type":"int","value":59}],"polyline":[{"x":0,"y":0},{"x":58,"y":4}]},{"id":390,"x":-485,"y":2048,"visible":true,"properties":[{"name":"layer","type":"int","value":1},{"name":"group","type":"int","value":1},{"name":"id","type":"int","value":61},{"name":"fh_layer","type":"int","value":1},{"name":"fh_group","type":"int","value":1},{"name":"fh_id","type":"int","value":61},{"name":"x1","type":"int","value":-485},{"name":"x2","type":"int","value":-469},{"name":"y1","type":"int","value":2048},{"name":"y2","type":"int","value":2048},{"name":"next","type":"int","value":91},{"name":"prev","type":"int","value":60}],"polyline":[{"x":0,"y":0},{"x":16,"y":0}]},{"id":391,"x":-1295,"y":2068,"visible":true,"properties":[{"name":"layer","type":"int","value":1},{"name":"group","type":"int","value":1},{"name":"id","type":"int","value":62},{"name":"fh_layer","type":"int","value":1},{"name":"fh_group","type":"int","value":1},{"name":"fh_id","type":"int","value":62},{"name":"x1","type":"int","value":-1295},{"name":"x2","type":"int","value":-1266},{"name":"y1","type":"int","value":2068},{"name":"y2","type":"int","value":2072},{"name":"next","type":"int","value":63},{"name":"prev","type":"int","value":75}],"polyline":[{"x":0,"y":0},{"x":29,"y":4}]},{"id":392,"x":-1266,"y":2072,"visible":true,"properties":[{"name":"layer","type":"int","value":1},{"name":"group","type":"int","value":1},{"name":"id","type":"int","value":63},{"name":"fh_layer","type":"int","value":1},{"name":"fh_group","type":"int","value":1},{"name":"fh_id","type":"int","value":63},{"name":"x1","type":"int","value":-1266},{"name":"x2","type":"int","value":-1236},{"name":"y1","type":"int","value":2072},{"name":"y2","type":"int","value":2072},{"name":"next","type":"int","value":64},{"name":"prev","type":"int","value":62}],"polyline":[{"x":0,"y":0},{"x":30,"y":0}]},{"id":393,"x":-1236,"y":2072,"visible":true,"properties":[{"name":"layer","type":"int","value":1},{"name":"group","type":"int","value":1},{"name":"id","type":"int","value":64},{"name":"fh_layer","type":"int","value":1},{"name":"fh_group","type":"int","value":1},{"name":"fh_id","type":"int","value":64},{"name":"x1","type":"int","value":-1236},{"name":"x2","type":"int","value":-1225},{"name":"y1","type":"int","value":2072},{"name":"y2","type":"int","value":2070},{"name":"next","type":"int","value":65},{"name":"prev","type":"int","value":63}],"polyline":[{"x":0,"y":0},{"x":11,"y":-2}]},{"id":394,"x":-1225,"y":2070,"visible":true,"properties":[{"name":"layer","type":"int","value":1},{"name":"group","type":"int","value":1},{"name":"id","type":"int","value":65},{"name":"fh_layer","type":"int","value":1},{"name":"fh_group","type":"int","value":1},{"name":"fh_id","type":"int","value":65},{"name":"x1","type":"int","value":-1225},{"name":"x2","type":"int","value":-1212},{"name":"y1","type":"int","value":2070},{"name":"y2","type":"int","value":2073},{"name":"next","type":"int","value":66},{"name":"prev","type":"int","value":64}],"polyline":[{"x":0,"y":0},{"x":13,"y":3}]},{"id":395,"x":-1212,"y":2073,"visible":true,"properties":[{"name":"layer","type":"int","value":1},{"name":"group","type":"int","value":1},{"name":"id","type":"int","value":66},{"name":"fh_layer","type":"int","value":1},{"name":"fh_group","type":"int","value":1},{"name":"fh_id","type":"int","value":66},{"name":"x1","type":"int","value":-1212},{"name":"x2","type":"int","value":-1206},{"name":"y1","type":"int","value":2073},{"name":"y2","type":"int","value":2070},{"name":"next","type":"int","value":50},{"name":"prev","type":"int","value":65}],"polyline":[{"x":0,"y":0},{"x":6,"y":-3}]},{"id":396,"x":-1560,"y":2079,"visible":true,"properties":[{"name":"layer","type":"int","value":1},{"name":"group","type":"int","value":1},{"name":"id","type":"int","value":67},{"name":"fh_layer","type":"int","value":1},{"name":"fh_group","type":"int","value":1},{"name":"fh_id","type":"int","value":67},{"name":"x1","type":"int","value":-1560},{"name":"x2","type":"int","value":-1507},{"name":"y1","type":"int","value":2079},{"name":"y2","type":"int","value":2080},{"name":"next","type":"int","value":68},{"name":"prev","type":"int","value":324}],"polyline":[{"x":0,"y":0},{"x":53,"y":1}]},{"id":397,"x":-1507,"y":2080,"visible":true,"properties":[{"name":"layer","type":"int","value":1},{"name":"group","type":"int","value":1},{"name":"id","type":"int","value":68},{"name":"fh_layer","type":"int","value":1},{"name":"fh_group","type":"int","value":1},{"name":"fh_id","type":"int","value":68},{"name":"x1","type":"int","value":-1507},{"name":"x2","type":"int","value":-1470},{"name":"y1","type":"int","value":2080},{"name":"y2","type":"int","value":2073},{"name":"next","type":"int","value":69},{"name":"prev","type":"int","value":67}],"polyline":[{"x":0,"y":0},{"x":37,"y":-7}]},{"id":398,"x":-1470,"y":2073,"visible":true,"properties":[{"name":"layer","type":"int","value":1},{"name":"group","type":"int","value":1},{"name":"id","type":"int","value":69},{"name":"fh_layer","type":"int","value":1},{"name":"fh_group","type":"int","value":1},{"name":"fh_id","type":"int","value":69},{"name":"x1","type":"int","value":-1470},{"name":"x2","type":"int","value":-1437},{"name":"y1","type":"int","value":2073},{"name":"y2","type":"int","value":2075},{"name":"next","type":"int","value":70},{"name":"prev","type":"int","value":68}],"polyline":[{"x":0,"y":0},{"x":33,"y":2}]},{"id":399,"x":-1437,"y":2075,"visible":true,"properties":[{"name":"layer","type":"int","value":1},{"name":"group","type":"int","value":1},{"name":"id","type":"int","value":70},{"name":"fh_layer","type":"int","value":1},{"name":"fh_group","type":"int","value":1},{"name":"fh_id","type":"int","value":70},{"name":"x1","type":"int","value":-1437},{"name":"x2","type":"int","value":-1425},{"name":"y1","type":"int","value":2075},{"name":"y2","type":"int","value":2072},{"name":"next","type":"int","value":71},{"name":"prev","type":"int","value":69}],"polyline":[{"x":0,"y":0},{"x":12,"y":-3}]},{"id":400,"x":-1425,"y":2072,"visible":true,"properties":[{"name":"layer","type":"int","value":1},{"name":"group","type":"int","value":1},{"name":"id","type":"int","value":71},{"name":"fh_layer","type":"int","value":1},{"name":"fh_group","type":"int","value":1},{"name":"fh_id","type":"int","value":71},{"name":"x1","type":"int","value":-1425},{"name":"x2","type":"int","value":-1410},{"name":"y1","type":"int","value":2072},{"name":"y2","type":"int","value":2072},{"name":"next","type":"int","value":72},{"name":"prev","type":"int","value":70}],"polyline":[{"x":0,"y":0},{"x":15,"y":0}]},{"id":401,"x":-1410,"y":2072,"visible":true,"properties":[{"name":"layer","type":"int","value":1},{"name":"group","type":"int","value":1},{"name":"id","type":"int","value":72},{"name":"fh_layer","type":"int","value":1},{"name":"fh_group","type":"int","value":1},{"name":"fh_id","type":"int","value":72},{"name":"x1","type":"int","value":-1410},{"name":"x2","type":"int","value":-1389},{"name":"y1","type":"int","value":2072},{"name":"y2","type":"int","value":2067},{"name":"next","type":"int","value":73},{"name":"prev","type":"int","value":71}],"polyline":[{"x":0,"y":0},{"x":21,"y":-5}]},{"id":402,"x":-1389,"y":2067,"visible":true,"properties":[{"name":"layer","type":"int","value":1},{"name":"group","type":"int","value":1},{"name":"id","type":"int","value":73},{"name":"fh_layer","type":"int","value":1},{"name":"fh_group","type":"int","value":1},{"name":"fh_id","type":"int","value":73},{"name":"x1","type":"int","value":-1389},{"name":"x2","type":"int","value":-1331},{"name":"y1","type":"int","value":2067},{"name":"y2","type":"int","value":2071},{"name":"next","type":"int","value":74},{"name":"prev","type":"int","value":72}],"polyline":[{"x":0,"y":0},{"x":58,"y":4}]},{"id":403,"x":-1331,"y":2071,"visible":true,"properties":[{"name":"layer","type":"int","value":1},{"name":"group","type":"int","value":1},{"name":"id","type":"int","value":74},{"name":"fh_layer","type":"int","value":1},{"name":"fh_group","type":"int","value":1},{"name":"fh_id","type":"int","value":74},{"name":"x1","type":"int","value":-1331},{"name":"x2","type":"int","value":-1303},{"name":"y1","type":"int","value":2071},{"name":"y2","type":"int","value":2071},{"name":"next","type":"int","value":75},{"name":"prev","type":"int","value":73}],"polyline":[{"x":0,"y":0},{"x":28,"y":0}]},{"id":404,"x":-1303,"y":2071,"visible":true,"properties":[{"name":"layer","type":"int","value":1},{"name":"group","type":"int","value":1},{"name":"id","type":"int","value":75},{"name":"fh_layer","type":"int","value":1},{"name":"fh_group","type":"int","value":1},{"name":"fh_id","type":"int","value":75},{"name":"x1","type":"int","value":-1303},{"name":"x2","type":"int","value":-1295},{"name":"y1","type":"int","value":2071},{"name":"y2","type":"int","value":2068},{"name":"next","type":"int","value":62},{"name":"prev","type":"int","value":74}],"polyline":[{"x":0,"y":0},{"x":8,"y":-3}]},{"id":405,"x":-1153,"y":1991,"visible":true,"properties":[{"name":"layer","type":"int","value":1},{"name":"group","type":"int","value":1},{"name":"id","type":"int","value":76},{"name":"fh_layer","type":"int","value":1},{"name":"fh_group","type":"int","value":1},{"name":"fh_id","type":"int","value":76},{"name":"x1","type":"int","value":-1153},{"name":"x2","type":"int","value":-1117},{"name":"y1","type":"int","value":1991},{"name":"y2","type":"int","value":1978},{"name":"next","type":"int","value":77},{"name":"prev","type":"int","value":0}],"polyline":[{"x":0,"y":0},{"x":36,"y":-13}]},{"id":406,"x":-1117,"y":1978,"visible":true,"properties":[{"name":"layer","type":"int","value":1},{"name":"group","type":"int","value":1},{"name":"id","type":"int","value":77},{"name":"fh_layer","type":"int","value":1},{"name":"fh_group","type":"int","value":1},{"name":"fh_id","type":"int","value":77},{"name":"x1","type":"int","value":-1117},{"name":"x2","type":"int","value":-1073},{"name":"y1","type":"int","value":1978},{"name":"y2","type":"int","value":1977},{"name":"next","type":"int","value":78},{"name":"prev","type":"int","value":76}],"polyline":[{"x":0,"y":0},{"x":44,"y":-1}]},{"id":407,"x":-1073,"y":1977,"visible":true,"properties":[{"name":"layer","type":"int","value":1},{"name":"group","type":"int","value":1},{"name":"id","type":"int","value":78},{"name":"fh_layer","type":"int","value":1},{"name":"fh_group","type":"int","value":1},{"name":"fh_id","type":"int","value":78},{"name":"x1","type":"int","value":-1073},{"name":"x2","type":"int","value":-1028},{"name":"y1","type":"int","value":1977},{"name":"y2","type":"int","value":1987},{"name":"next","type":"int","value":0},{"name":"prev","type":"int","value":77}],"polyline":[{"x":0,"y":0},{"x":45,"y":10}]},{"id":408,"x":-1292,"y":2036,"visible":true,"properties":[{"name":"layer","type":"int","value":1},{"name":"group","type":"int","value":1},{"name":"id","type":"int","value":79},{"name":"fh_layer","type":"int","value":1},{"name":"fh_group","type":"int","value":1},{"name":"fh_id","type":"int","value":79},{"name":"x1","type":"int","value":-1292},{"name":"x2","type":"int","value":-1256},{"name":"y1","type":"int","value":2036},{"name":"y2","type":"int","value":2023},{"name":"next","type":"int","value":80},{"name":"prev","type":"int","value":0}],"polyline":[{"x":0,"y":0},{"x":36,"y":-13}]},{"id":409,"x":-1256,"y":2023,"visible":true,"properties":[{"name":"layer","type":"int","value":1},{"name":"group","type":"int","value":1},{"name":"id","type":"int","value":80},{"name":"fh_layer","type":"int","value":1},{"name":"fh_group","type":"int","value":1},{"name":"fh_id","type":"int","value":80},{"name":"x1","type":"int","value":-1256},{"name":"x2","type":"int","value":-1227},{"name":"y1","type":"int","value":2023},{"name":"y2","type":"int","value":2027},{"name":"next","type":"int","value":81},{"name":"prev","type":"int","value":79}],"polyline":[{"x":0,"y":0},{"x":29,"y":4}]},{"id":410,"x":-1227,"y":2027,"visible":true,"properties":[{"name":"layer","type":"int","value":1},{"name":"group","type":"int","value":1},{"name":"id","type":"int","value":81},{"name":"fh_layer","type":"int","value":1},{"name":"fh_group","type":"int","value":1},{"name":"fh_id","type":"int","value":81},{"name":"x1","type":"int","value":-1227},{"name":"x2","type":"int","value":-1197},{"name":"y1","type":"int","value":2027},{"name":"y2","type":"int","value":2027},{"name":"next","type":"int","value":82},{"name":"prev","type":"int","value":80}],"polyline":[{"x":0,"y":0},{"x":30,"y":0}]},{"id":411,"x":-1197,"y":2027,"visible":true,"properties":[{"name":"layer","type":"int","value":1},{"name":"group","type":"int","value":1},{"name":"id","type":"int","value":82},{"name":"fh_layer","type":"int","value":1},{"name":"fh_group","type":"int","value":1},{"name":"fh_id","type":"int","value":82},{"name":"x1","type":"int","value":-1197},{"name":"x2","type":"int","value":-1186},{"name":"y1","type":"int","value":2027},{"name":"y2","type":"int","value":2025},{"name":"next","type":"int","value":83},{"name":"prev","type":"int","value":81}],"polyline":[{"x":0,"y":0},{"x":11,"y":-2}]},{"id":412,"x":-1186,"y":2025,"visible":true,"properties":[{"name":"layer","type":"int","value":1},{"name":"group","type":"int","value":1},{"name":"id","type":"int","value":83},{"name":"fh_layer","type":"int","value":1},{"name":"fh_group","type":"int","value":1},{"name":"fh_id","type":"int","value":83},{"name":"x1","type":"int","value":-1186},{"name":"x2","type":"int","value":-1154},{"name":"y1","type":"int","value":2025},{"name":"y2","type":"int","value":2032},{"name":"next","type":"int","value":0},{"name":"prev","type":"int","value":82}],"polyline":[{"x":0,"y":0},{"x":32,"y":7}]},{"id":413,"x":1284,"y":2063,"visible":true,"properties":[{"name":"layer","type":"int","value":1},{"name":"group","type":"int","value":2},{"name":"id","type":"int","value":132},{"name":"fh_layer","type":"int","value":1},{"name":"fh_group","type":"int","value":2},{"name":"fh_id","type":"int","value":132},{"name":"x1","type":"int","value":1284},{"name":"x2","type":"int","value":1330},{"name":"y1","type":"int","value":2063},{"name":"y2","type":"int","value":2085},{"name":"next","type":"int","value":0},{"name":"prev","type":"int","value":133}],"polyline":[{"x":0,"y":0},{"x":46,"y":22}]},{"id":414,"x":1239,"y":2059,"visible":true,"properties":[{"name":"layer","type":"int","value":1},{"name":"group","type":"int","value":2},{"name":"id","type":"int","value":133},{"name":"fh_layer","type":"int","value":1},{"name":"fh_group","type":"int","value":2},{"name":"fh_id","type":"int","value":133},{"name":"x1","type":"int","value":1239},{"name":"x2","type":"int","value":1284},{"name":"y1","type":"int","value":2059},{"name":"y2","type":"int","value":2063},{"name":"next","type":"int","value":132},{"name":"prev","type":"int","value":131}],"polyline":[{"x":0,"y":0},{"x":45,"y":4}]},{"id":415,"x":349,"y":2025,"visible":true,"properties":[{"name":"layer","type":"int","value":1},{"name":"group","type":"int","value":3},{"name":"id","type":"int","value":92},{"name":"fh_layer","type":"int","value":1},{"name":"fh_group","type":"int","value":3},{"name":"fh_id","type":"int","value":92},{"name":"x1","type":"int","value":349},{"name":"x2","type":"int","value":402},{"name":"y1","type":"int","value":2025},{"name":"y2","type":"int","value":2026},{"name":"next","type":"int","value":93},{"name":"prev","type":"int","value":102}],"polyline":[{"x":0,"y":0},{"x":53,"y":1}]},{"id":416,"x":402,"y":2026,"visible":true,"properties":[{"name":"layer","type":"int","value":1},{"name":"group","type":"int","value":3},{"name":"id","type":"int","value":93},{"name":"fh_layer","type":"int","value":1},{"name":"fh_group","type":"int","value":3},{"name":"fh_id","type":"int","value":93},{"name":"x1","type":"int","value":402},{"name":"x2","type":"int","value":439},{"name":"y1","type":"int","value":2026},{"name":"y2","type":"int","value":2019},{"name":"next","type":"int","value":94},{"name":"prev","type":"int","value":92}],"polyline":[{"x":0,"y":0},{"x":37,"y":-7}]},{"id":417,"x":439,"y":2019,"visible":true,"properties":[{"name":"layer","type":"int","value":1},{"name":"group","type":"int","value":3},{"name":"id","type":"int","value":94},{"name":"fh_layer","type":"int","value":1},{"name":"fh_group","type":"int","value":3},{"name":"fh_id","type":"int","value":94},{"name":"x1","type":"int","value":439},{"name":"x2","type":"int","value":472},{"name":"y1","type":"int","value":2019},{"name":"y2","type":"int","value":2021},{"name":"next","type":"int","value":95},{"name":"prev","type":"int","value":93}],"polyline":[{"x":0,"y":0},{"x":33,"y":2}]},{"id":418,"x":472,"y":2021,"visible":true,"properties":[{"name":"layer","type":"int","value":1},{"name":"group","type":"int","value":3},{"name":"id","type":"int","value":95},{"name":"fh_layer","type":"int","value":1},{"name":"fh_group","type":"int","value":3},{"name":"fh_id","type":"int","value":95},{"name":"x1","type":"int","value":472},{"name":"x2","type":"int","value":484},{"name":"y1","type":"int","value":2021},{"name":"y2","type":"int","value":2018},{"name":"next","type":"int","value":96},{"name":"prev","type":"int","value":94}],"polyline":[{"x":0,"y":0},{"x":12,"y":-3}]},{"id":419,"x":484,"y":2018,"visible":true,"properties":[{"name":"layer","type":"int","value":1},{"name":"group","type":"int","value":3},{"name":"id","type":"int","value":96},{"name":"fh_layer","type":"int","value":1},{"name":"fh_group","type":"int","value":3},{"name":"fh_id","type":"int","value":96},{"name":"x1","type":"int","value":484},{"name":"x2","type":"int","value":499},{"name":"y1","type":"int","value":2018},{"name":"y2","type":"int","value":2018},{"name":"next","type":"int","value":97},{"name":"prev","type":"int","value":95}],"polyline":[{"x":0,"y":0},{"x":15,"y":0}]},{"id":420,"x":499,"y":2018,"visible":true,"properties":[{"name":"layer","type":"int","value":1},{"name":"group","type":"int","value":3},{"name":"id","type":"int","value":97},{"name":"fh_layer","type":"int","value":1},{"name":"fh_group","type":"int","value":3},{"name":"fh_id","type":"int","value":97},{"name":"x1","type":"int","value":499},{"name":"x2","type":"int","value":520},{"name":"y1","type":"int","value":2018},{"name":"y2","type":"int","value":2013},{"name":"next","type":"int","value":98},{"name":"prev","type":"int","value":96}],"polyline":[{"x":0,"y":0},{"x":21,"y":-5}]},{"id":421,"x":520,"y":2013,"visible":true,"properties":[{"name":"layer","type":"int","value":1},{"name":"group","type":"int","value":3},{"name":"id","type":"int","value":98},{"name":"fh_layer","type":"int","value":1},{"name":"fh_group","type":"int","value":3},{"name":"fh_id","type":"int","value":98},{"name":"x1","type":"int","value":520},{"name":"x2","type":"int","value":578},{"name":"y1","type":"int","value":2013},{"name":"y2","type":"int","value":2017},{"name":"next","type":"int","value":99},{"name":"prev","type":"int","value":97}],"polyline":[{"x":0,"y":0},{"x":58,"y":4}]},{"id":422,"x":578,"y":2017,"visible":true,"properties":[{"name":"layer","type":"int","value":1},{"name":"group","type":"int","value":3},{"name":"id","type":"int","value":99},{"name":"fh_layer","type":"int","value":1},{"name":"fh_group","type":"int","value":3},{"name":"fh_id","type":"int","value":99},{"name":"x1","type":"int","value":578},{"name":"x2","type":"int","value":604},{"name":"y1","type":"int","value":2017},{"name":"y2","type":"int","value":2017},{"name":"next","type":"int","value":104},{"name":"prev","type":"int","value":98}],"polyline":[{"x":0,"y":0},{"x":26,"y":0}]},{"id":423,"x":307,"y":2025,"visible":true,"properties":[{"name":"layer","type":"int","value":1},{"name":"group","type":"int","value":3},{"name":"id","type":"int","value":100},{"name":"fh_layer","type":"int","value":1},{"name":"fh_group","type":"int","value":3},{"name":"fh_id","type":"int","value":100},{"name":"x1","type":"int","value":307},{"name":"x2","type":"int","value":337},{"name":"y1","type":"int","value":2025},{"name":"y2","type":"int","value":2023},{"name":"next","type":"int","value":101},{"name":"prev","type":"int","value":103}],"polyline":[{"x":0,"y":0},{"x":30,"y":-2}]},{"id":424,"x":337,"y":2023,"visible":true,"properties":[{"name":"layer","type":"int","value":1},{"name":"group","type":"int","value":3},{"name":"id","type":"int","value":101},{"name":"fh_layer","type":"int","value":1},{"name":"fh_group","type":"int","value":3},{"name":"fh_id","type":"int","value":101},{"name":"x1","type":"int","value":337},{"name":"x2","type":"int","value":348},{"name":"y1","type":"int","value":2023},{"name":"y2","type":"int","value":2026},{"name":"next","type":"int","value":102},{"name":"prev","type":"int","value":100}],"polyline":[{"x":0,"y":0},{"x":11,"y":3}]},{"id":425,"x":348,"y":2026,"visible":true,"properties":[{"name":"layer","type":"int","value":1},{"name":"group","type":"int","value":3},{"name":"id","type":"int","value":102},{"name":"fh_layer","type":"int","value":1},{"name":"fh_group","type":"int","value":3},{"name":"fh_id","type":"int","value":102},{"name":"x1","type":"int","value":348},{"name":"x2","type":"int","value":349},{"name":"y1","type":"int","value":2026},{"name":"y2","type":"int","value":2025},{"name":"next","type":"int","value":92},{"name":"prev","type":"int","value":101}],"polyline":[{"x":0,"y":0},{"x":1,"y":-1}]},{"id":426,"x":305,"y":2026,"visible":true,"properties":[{"name":"layer","type":"int","value":1},{"name":"group","type":"int","value":3},{"name":"id","type":"int","value":103},{"name":"fh_layer","type":"int","value":1},{"name":"fh_group","type":"int","value":3},{"name":"fh_id","type":"int","value":103},{"name":"x1","type":"int","value":305},{"name":"x2","type":"int","value":307},{"name":"y1","type":"int","value":2026},{"name":"y2","type":"int","value":2025},{"name":"next","type":"int","value":100},{"name":"prev","type":"int","value":21}],"polyline":[{"x":0,"y":0},{"x":2,"y":-1}]},{"id":427,"x":604,"y":2017,"visible":true,"properties":[{"name":"layer","type":"int","value":1},{"name":"group","type":"int","value":3},{"name":"id","type":"int","value":104},{"name":"fh_layer","type":"int","value":1},{"name":"fh_group","type":"int","value":3},{"name":"fh_id","type":"int","value":104},{"name":"x1","type":"int","value":604},{"name":"x2","type":"int","value":607},{"name":"y1","type":"int","value":2017},{"name":"y2","type":"int","value":2016},{"name":"next","type":"int","value":105},{"name":"prev","type":"int","value":99}],"polyline":[{"x":0,"y":0},{"x":3,"y":-1}]},{"id":428,"x":607,"y":2016,"visible":true,"properties":[{"name":"layer","type":"int","value":1},{"name":"group","type":"int","value":3},{"name":"id","type":"int","value":105},{"name":"fh_layer","type":"int","value":1},{"name":"fh_group","type":"int","value":3},{"name":"fh_id","type":"int","value":105},{"name":"x1","type":"int","value":607},{"name":"x2","type":"int","value":651},{"name":"y1","type":"int","value":2016},{"name":"y2","type":"int","value":2015},{"name":"next","type":"int","value":106},{"name":"prev","type":"int","value":104}],"polyline":[{"x":0,"y":0},{"x":44,"y":-1}]},{"id":429,"x":651,"y":2015,"visible":true,"properties":[{"name":"layer","type":"int","value":1},{"name":"group","type":"int","value":3},{"name":"id","type":"int","value":106},{"name":"fh_layer","type":"int","value":1},{"name":"fh_group","type":"int","value":3},{"name":"fh_id","type":"int","value":106},{"name":"x1","type":"int","value":651},{"name":"x2","type":"int","value":660},{"name":"y1","type":"int","value":2015},{"name":"y2","type":"int","value":2017},{"name":"next","type":"int","value":107},{"name":"prev","type":"int","value":105}],"polyline":[{"x":0,"y":0},{"x":9,"y":2}]},{"id":430,"x":660,"y":2017,"visible":true,"properties":[{"name":"layer","type":"int","value":1},{"name":"group","type":"int","value":3},{"name":"id","type":"int","value":107},{"name":"fh_layer","type":"int","value":1},{"name":"fh_group","type":"int","value":3},{"name":"fh_id","type":"int","value":107},{"name":"x1","type":"int","value":660},{"name":"x2","type":"int","value":714},{"name":"y1","type":"int","value":2017},{"name":"y2","type":"int","value":2017},{"name":"next","type":"int","value":108},{"name":"prev","type":"int","value":106}],"polyline":[{"x":0,"y":0},{"x":54,"y":0}]},{"id":431,"x":714,"y":2017,"visible":true,"properties":[{"name":"layer","type":"int","value":1},{"name":"group","type":"int","value":3},{"name":"id","type":"int","value":108},{"name":"fh_layer","type":"int","value":1},{"name":"fh_group","type":"int","value":3},{"name":"fh_id","type":"int","value":108},{"name":"x1","type":"int","value":714},{"name":"x2","type":"int","value":730},{"name":"y1","type":"int","value":2017},{"name":"y2","type":"int","value":2013},{"name":"next","type":"int","value":109},{"name":"prev","type":"int","value":107}],"polyline":[{"x":0,"y":0},{"x":16,"y":-4}]},{"id":432,"x":730,"y":2013,"visible":true,"properties":[{"name":"layer","type":"int","value":1},{"name":"group","type":"int","value":3},{"name":"id","type":"int","value":109},{"name":"fh_layer","type":"int","value":1},{"name":"fh_group","type":"int","value":3},{"name":"fh_id","type":"int","value":109},{"name":"x1","type":"int","value":730},{"name":"x2","type":"int","value":782},{"name":"y1","type":"int","value":2013},{"name":"y2","type":"int","value":2013},{"name":"next","type":"int","value":110},{"name":"prev","type":"int","value":108}],"polyline":[{"x":0,"y":0},{"x":52,"y":0}]},{"id":433,"x":782,"y":2013,"visible":true,"properties":[{"name":"layer","type":"int","value":1},{"name":"group","type":"int","value":3},{"name":"id","type":"int","value":110},{"name":"fh_layer","type":"int","value":1},{"name":"fh_group","type":"int","value":3},{"name":"fh_id","type":"int","value":110},{"name":"x1","type":"int","value":782},{"name":"x2","type":"int","value":792},{"name":"y1","type":"int","value":2013},{"name":"y2","type":"int","value":2008},{"name":"next","type":"int","value":111},{"name":"prev","type":"int","value":109}],"polyline":[{"x":0,"y":0},{"x":10,"y":-5}]},{"id":434,"x":792,"y":2008,"visible":true,"properties":[{"name":"layer","type":"int","value":1},{"name":"group","type":"int","value":3},{"name":"id","type":"int","value":111},{"name":"fh_layer","type":"int","value":1},{"name":"fh_group","type":"int","value":3},{"name":"fh_id","type":"int","value":111},{"name":"x1","type":"int","value":792},{"name":"x2","type":"int","value":809},{"name":"y1","type":"int","value":2008},{"name":"y2","type":"int","value":2009},{"name":"next","type":"int","value":112},{"name":"prev","type":"int","value":110}],"polyline":[{"x":0,"y":0},{"x":17,"y":1}]},{"id":435,"x":809,"y":2009,"visible":true,"properties":[{"name":"layer","type":"int","value":1},{"name":"group","type":"int","value":3},{"name":"id","type":"int","value":112},{"name":"fh_layer","type":"int","value":1},{"name":"fh_group","type":"int","value":3},{"name":"fh_id","type":"int","value":112},{"name":"x1","type":"int","value":809},{"name":"x2","type":"int","value":811},{"name":"y1","type":"int","value":2009},{"name":"y2","type":"int","value":2009},{"name":"next","type":"int","value":113},{"name":"prev","type":"int","value":111}],"polyline":[{"x":0,"y":0},{"x":2,"y":0}]},{"id":436,"x":811,"y":2009,"visible":true,"properties":[{"name":"layer","type":"int","value":1},{"name":"group","type":"int","value":3},{"name":"id","type":"int","value":113},{"name":"fh_layer","type":"int","value":1},{"name":"fh_group","type":"int","value":3},{"name":"fh_id","type":"int","value":113},{"name":"x1","type":"int","value":811},{"name":"x2","type":"int","value":864},{"name":"y1","type":"int","value":2009},{"name":"y2","type":"int","value":2013},{"name":"next","type":"int","value":114},{"name":"prev","type":"int","value":112}],"polyline":[{"x":0,"y":0},{"x":53,"y":4}]},{"id":437,"x":864,"y":2013,"visible":true,"properties":[{"name":"layer","type":"int","value":1},{"name":"group","type":"int","value":3},{"name":"id","type":"int","value":114},{"name":"fh_layer","type":"int","value":1},{"name":"fh_group","type":"int","value":3},{"name":"fh_id","type":"int","value":114},{"name":"x1","type":"int","value":864},{"name":"x2","type":"int","value":888},{"name":"y1","type":"int","value":2013},{"name":"y2","type":"int","value":2024},{"name":"next","type":"int","value":115},{"name":"prev","type":"int","value":113}],"polyline":[{"x":0,"y":0},{"x":24,"y":11}]},{"id":438,"x":888,"y":2024,"visible":true,"properties":[{"name":"layer","type":"int","value":1},{"name":"group","type":"int","value":3},{"name":"id","type":"int","value":115},{"name":"fh_layer","type":"int","value":1},{"name":"fh_group","type":"int","value":3},{"name":"fh_id","type":"int","value":115},{"name":"x1","type":"int","value":888},{"name":"x2","type":"int","value":895},{"name":"y1","type":"int","value":2024},{"name":"y2","type":"int","value":2023},{"name":"next","type":"int","value":116},{"name":"prev","type":"int","value":114}],"polyline":[{"x":0,"y":0},{"x":7,"y":-1}]},{"id":439,"x":895,"y":2023,"visible":true,"properties":[{"name":"layer","type":"int","value":1},{"name":"group","type":"int","value":3},{"name":"id","type":"int","value":116},{"name":"fh_layer","type":"int","value":1},{"name":"fh_group","type":"int","value":3},{"name":"fh_id","type":"int","value":116},{"name":"x1","type":"int","value":895},{"name":"x2","type":"int","value":949},{"name":"y1","type":"int","value":2023},{"name":"y2","type":"int","value":2032},{"name":"next","type":"int","value":117},{"name":"prev","type":"int","value":115}],"polyline":[{"x":0,"y":0},{"x":54,"y":9}]},{"id":440,"x":949,"y":2032,"visible":true,"properties":[{"name":"layer","type":"int","value":1},{"name":"group","type":"int","value":3},{"name":"id","type":"int","value":117},{"name":"fh_layer","type":"int","value":1},{"name":"fh_group","type":"int","value":3},{"name":"fh_id","type":"int","value":117},{"name":"x1","type":"int","value":949},{"name":"x2","type":"int","value":977},{"name":"y1","type":"int","value":2032},{"name":"y2","type":"int","value":2043},{"name":"next","type":"int","value":118},{"name":"prev","type":"int","value":116}],"polyline":[{"x":0,"y":0},{"x":28,"y":11}]},{"id":441,"x":977,"y":2043,"visible":true,"properties":[{"name":"layer","type":"int","value":1},{"name":"group","type":"int","value":3},{"name":"id","type":"int","value":118},{"name":"fh_layer","type":"int","value":1},{"name":"fh_group","type":"int","value":3},{"name":"fh_id","type":"int","value":118},{"name":"x1","type":"int","value":977},{"name":"x2","type":"int","value":978},{"name":"y1","type":"int","value":2043},{"name":"y2","type":"int","value":2043},{"name":"next","type":"int","value":119},{"name":"prev","type":"int","value":117}],"polyline":[{"x":0,"y":0},{"x":1,"y":0}]},{"id":442,"x":978,"y":2043,"visible":true,"properties":[{"name":"layer","type":"int","value":1},{"name":"group","type":"int","value":3},{"name":"id","type":"int","value":119},{"name":"fh_layer","type":"int","value":1},{"name":"fh_group","type":"int","value":3},{"name":"fh_id","type":"int","value":119},{"name":"x1","type":"int","value":978},{"name":"x2","type":"int","value":1007},{"name":"y1","type":"int","value":2043},{"name":"y2","type":"int","value":2047},{"name":"next","type":"int","value":120},{"name":"prev","type":"int","value":118}],"polyline":[{"x":0,"y":0},{"x":29,"y":4}]},{"id":443,"x":1007,"y":2047,"visible":true,"properties":[{"name":"layer","type":"int","value":1},{"name":"group","type":"int","value":3},{"name":"id","type":"int","value":120},{"name":"fh_layer","type":"int","value":1},{"name":"fh_group","type":"int","value":3},{"name":"fh_id","type":"int","value":120},{"name":"x1","type":"int","value":1007},{"name":"x2","type":"int","value":1037},{"name":"y1","type":"int","value":2047},{"name":"y2","type":"int","value":2047},{"name":"next","type":"int","value":121},{"name":"prev","type":"int","value":119}],"polyline":[{"x":0,"y":0},{"x":30,"y":0}]},{"id":444,"x":1037,"y":2047,"visible":true,"properties":[{"name":"layer","type":"int","value":1},{"name":"group","type":"int","value":3},{"name":"id","type":"int","value":121},{"name":"fh_layer","type":"int","value":1},{"name":"fh_group","type":"int","value":3},{"name":"fh_id","type":"int","value":121},{"name":"x1","type":"int","value":1037},{"name":"x2","type":"int","value":1048},{"name":"y1","type":"int","value":2047},{"name":"y2","type":"int","value":2045},{"name":"next","type":"int","value":122},{"name":"prev","type":"int","value":120}],"polyline":[{"x":0,"y":0},{"x":11,"y":-2}]},{"id":445,"x":1048,"y":2045,"visible":true,"properties":[{"name":"layer","type":"int","value":1},{"name":"group","type":"int","value":3},{"name":"id","type":"int","value":122},{"name":"fh_layer","type":"int","value":1},{"name":"fh_group","type":"int","value":3},{"name":"fh_id","type":"int","value":122},{"name":"x1","type":"int","value":1048},{"name":"x2","type":"int","value":1063},{"name":"y1","type":"int","value":2045},{"name":"y2","type":"int","value":2048},{"name":"next","type":"int","value":123},{"name":"prev","type":"int","value":121}],"polyline":[{"x":0,"y":0},{"x":15,"y":3}]},{"id":446,"x":1063,"y":2048,"visible":true,"properties":[{"name":"layer","type":"int","value":1},{"name":"group","type":"int","value":3},{"name":"id","type":"int","value":123},{"name":"fh_layer","type":"int","value":1},{"name":"fh_group","type":"int","value":3},{"name":"fh_id","type":"int","value":123},{"name":"x1","type":"int","value":1063},{"name":"x2","type":"int","value":1068},{"name":"y1","type":"int","value":2048},{"name":"y2","type":"int","value":2045},{"name":"next","type":"int","value":124},{"name":"prev","type":"int","value":122}],"polyline":[{"x":0,"y":0},{"x":5,"y":-3}]},{"id":447,"x":1068,"y":2045,"visible":true,"properties":[{"name":"layer","type":"int","value":1},{"name":"group","type":"int","value":3},{"name":"id","type":"int","value":124},{"name":"fh_layer","type":"int","value":1},{"name":"fh_group","type":"int","value":3},{"name":"fh_id","type":"int","value":124},{"name":"x1","type":"int","value":1068},{"name":"x2","type":"int","value":1091},{"name":"y1","type":"int","value":2045},{"name":"y2","type":"int","value":2046},{"name":"next","type":"int","value":125},{"name":"prev","type":"int","value":123}],"polyline":[{"x":0,"y":0},{"x":23,"y":1}]},{"id":448,"x":1091,"y":2046,"visible":true,"properties":[{"name":"layer","type":"int","value":1},{"name":"group","type":"int","value":3},{"name":"id","type":"int","value":125},{"name":"fh_layer","type":"int","value":1},{"name":"fh_group","type":"int","value":3},{"name":"fh_id","type":"int","value":125},{"name":"x1","type":"int","value":1091},{"name":"x2","type":"int","value":1100},{"name":"y1","type":"int","value":2046},{"name":"y2","type":"int","value":2043},{"name":"next","type":"int","value":126},{"name":"prev","type":"int","value":124}],"polyline":[{"x":0,"y":0},{"x":9,"y":-3}]},{"id":449,"x":1100,"y":2043,"visible":true,"properties":[{"name":"layer","type":"int","value":1},{"name":"group","type":"int","value":3},{"name":"id","type":"int","value":126},{"name":"fh_layer","type":"int","value":1},{"name":"fh_group","type":"int","value":3},{"name":"fh_id","type":"int","value":126},{"name":"x1","type":"int","value":1100},{"name":"x2","type":"int","value":1142},{"name":"y1","type":"int","value":2043},{"name":"y2","type":"int","value":2045},{"name":"next","type":"int","value":127},{"name":"prev","type":"int","value":125}],"polyline":[{"x":0,"y":0},{"x":42,"y":2}]},{"id":450,"x":1142,"y":2045,"visible":true,"properties":[{"name":"layer","type":"int","value":1},{"name":"group","type":"int","value":3},{"name":"id","type":"int","value":127},{"name":"fh_layer","type":"int","value":1},{"name":"fh_group","type":"int","value":3},{"name":"fh_id","type":"int","value":127},{"name":"x1","type":"int","value":1142},{"name":"x2","type":"int","value":1150},{"name":"y1","type":"int","value":2045},{"name":"y2","type":"int","value":2042},{"name":"next","type":"int","value":128},{"name":"prev","type":"int","value":126}],"polyline":[{"x":0,"y":0},{"x":8,"y":-3}]},{"id":451,"x":1150,"y":2042,"visible":true,"properties":[{"name":"layer","type":"int","value":1},{"name":"group","type":"int","value":3},{"name":"id","type":"int","value":128},{"name":"fh_layer","type":"int","value":1},{"name":"fh_group","type":"int","value":3},{"name":"fh_id","type":"int","value":128},{"name":"x1","type":"int","value":1150},{"name":"x2","type":"int","value":1158},{"name":"y1","type":"int","value":2042},{"name":"y2","type":"int","value":2043},{"name":"next","type":"int","value":129},{"name":"prev","type":"int","value":127}],"polyline":[{"x":0,"y":0},{"x":8,"y":1}]},{"id":452,"x":1158,"y":2043,"visible":true,"properties":[{"name":"layer","type":"int","value":1},{"name":"group","type":"int","value":3},{"name":"id","type":"int","value":129},{"name":"fh_layer","type":"int","value":1},{"name":"fh_group","type":"int","value":3},{"name":"fh_id","type":"int","value":129},{"name":"x1","type":"int","value":1158},{"name":"x2","type":"int","value":1164},{"name":"y1","type":"int","value":2043},{"name":"y2","type":"int","value":2042},{"name":"next","type":"int","value":130},{"name":"prev","type":"int","value":128}],"polyline":[{"x":0,"y":0},{"x":6,"y":-1}]},{"id":453,"x":1164,"y":2042,"visible":true,"properties":[{"name":"layer","type":"int","value":1},{"name":"group","type":"int","value":3},{"name":"id","type":"int","value":130},{"name":"fh_layer","type":"int","value":1},{"name":"fh_group","type":"int","value":3},{"name":"fh_id","type":"int","value":130},{"name":"x1","type":"int","value":1164},{"name":"x2","type":"int","value":1218},{"name":"y1","type":"int","value":2042},{"name":"y2","type":"int","value":2051},{"name":"next","type":"int","value":131},{"name":"prev","type":"int","value":129}],"polyline":[{"x":0,"y":0},{"x":54,"y":9}]},{"id":454,"x":1218,"y":2051,"visible":true,"properties":[{"name":"layer","type":"int","value":1},{"name":"group","type":"int","value":3},{"name":"id","type":"int","value":131},{"name":"fh_layer","type":"int","value":1},{"name":"fh_group","type":"int","value":3},{"name":"fh_id","type":"int","value":131},{"name":"x1","type":"int","value":1218},{"name":"x2","type":"int","value":1239},{"name":"y1","type":"int","value":2051},{"name":"y2","type":"int","value":2059},{"name":"next","type":"int","value":133},{"name":"prev","type":"int","value":130}],"polyline":[{"x":0,"y":0},{"x":21,"y":8}]},{"id":455,"x":130,"y":2021,"visible":true,"properties":[{"name":"layer","type":"int","value":1},{"name":"group","type":"int","value":4},{"name":"id","type":"int","value":1},{"name":"fh_layer","type":"int","value":1},{"name":"fh_group","type":"int","value":4},{"name":"fh_id","type":"int","value":1},{"name":"x1","type":"int","value":130},{"name":"x2","type":"int","value":196},{"name":"y1","type":"int","value":2021},{"name":"y2","type":"int","value":2018},{"name":"next","type":"int","value":2},{"name":"prev","type":"int","value":11}],"polyline":[{"x":0,"y":0},{"x":66,"y":-3}]},{"id":456,"x":196,"y":2018,"visible":true,"properties":[{"name":"layer","type":"int","value":1},{"name":"group","type":"int","value":4},{"name":"id","type":"int","value":2},{"name":"fh_layer","type":"int","value":1},{"name":"fh_group","type":"int","value":4},{"name":"fh_id","type":"int","value":2},{"name":"x1","type":"int","value":196},{"name":"x2","type":"int","value":214},{"name":"y1","type":"int","value":2018},{"name":"y2","type":"int","value":2021},{"name":"next","type":"int","value":17},{"name":"prev","type":"int","value":1}],"polyline":[{"x":0,"y":0},{"x":18,"y":3}]},{"id":457,"x":-121,"y":2030,"visible":true,"properties":[{"name":"layer","type":"int","value":1},{"name":"group","type":"int","value":4},{"name":"id","type":"int","value":3},{"name":"fh_layer","type":"int","value":1},{"name":"fh_group","type":"int","value":4},{"name":"fh_id","type":"int","value":3},{"name":"x1","type":"int","value":-121},{"name":"x2","type":"int","value":-68},{"name":"y1","type":"int","value":2030},{"name":"y2","type":"int","value":2031},{"name":"next","type":"int","value":4},{"name":"prev","type":"int","value":16}],"polyline":[{"x":0,"y":0},{"x":53,"y":1}]},{"id":458,"x":-68,"y":2031,"visible":true,"properties":[{"name":"layer","type":"int","value":1},{"name":"group","type":"int","value":4},{"name":"id","type":"int","value":4},{"name":"fh_layer","type":"int","value":1},{"name":"fh_group","type":"int","value":4},{"name":"fh_id","type":"int","value":4},{"name":"x1","type":"int","value":-68},{"name":"x2","type":"int","value":-31},{"name":"y1","type":"int","value":2031},{"name":"y2","type":"int","value":2024},{"name":"next","type":"int","value":5},{"name":"prev","type":"int","value":3}],"polyline":[{"x":0,"y":0},{"x":37,"y":-7}]},{"id":459,"x":-31,"y":2024,"visible":true,"properties":[{"name":"layer","type":"int","value":1},{"name":"group","type":"int","value":4},{"name":"id","type":"int","value":5},{"name":"fh_layer","type":"int","value":1},{"name":"fh_group","type":"int","value":4},{"name":"fh_id","type":"int","value":5},{"name":"x1","type":"int","value":-31},{"name":"x2","type":"int","value":2},{"name":"y1","type":"int","value":2024},{"name":"y2","type":"int","value":2026},{"name":"next","type":"int","value":6},{"name":"prev","type":"int","value":4}],"polyline":[{"x":0,"y":0},{"x":33,"y":2}]},{"id":460,"x":2,"y":2026,"visible":true,"properties":[{"name":"layer","type":"int","value":1},{"name":"group","type":"int","value":4},{"name":"id","type":"int","value":6},{"name":"fh_layer","type":"int","value":1},{"name":"fh_group","type":"int","value":4},{"name":"fh_id","type":"int","value":6},{"name":"x1","type":"int","value":2},{"name":"x2","type":"int","value":14},{"name":"y1","type":"int","value":2026},{"name":"y2","type":"int","value":2023},{"name":"next","type":"int","value":7},{"name":"prev","type":"int","value":5}],"polyline":[{"x":0,"y":0},{"x":12,"y":-3}]},{"id":461,"x":14,"y":2023,"visible":true,"properties":[{"name":"layer","type":"int","value":1},{"name":"group","type":"int","value":4},{"name":"id","type":"int","value":7},{"name":"fh_layer","type":"int","value":1},{"name":"fh_group","type":"int","value":4},{"name":"fh_id","type":"int","value":7},{"name":"x1","type":"int","value":14},{"name":"x2","type":"int","value":29},{"name":"y1","type":"int","value":2023},{"name":"y2","type":"int","value":2023},{"name":"next","type":"int","value":8},{"name":"prev","type":"int","value":6}],"polyline":[{"x":0,"y":0},{"x":15,"y":0}]},{"id":462,"x":29,"y":2023,"visible":true,"properties":[{"name":"layer","type":"int","value":1},{"name":"group","type":"int","value":4},{"name":"id","type":"int","value":8},{"name":"fh_layer","type":"int","value":1},{"name":"fh_group","type":"int","value":4},{"name":"fh_id","type":"int","value":8},{"name":"x1","type":"int","value":29},{"name":"x2","type":"int","value":50},{"name":"y1","type":"int","value":2023},{"name":"y2","type":"int","value":2018},{"name":"next","type":"int","value":9},{"name":"prev","type":"int","value":7}],"polyline":[{"x":0,"y":0},{"x":21,"y":-5}]},{"id":463,"x":50,"y":2018,"visible":true,"properties":[{"name":"layer","type":"int","value":1},{"name":"group","type":"int","value":4},{"name":"id","type":"int","value":9},{"name":"fh_layer","type":"int","value":1},{"name":"fh_group","type":"int","value":4},{"name":"fh_id","type":"int","value":9},{"name":"x1","type":"int","value":50},{"name":"x2","type":"int","value":108},{"name":"y1","type":"int","value":2018},{"name":"y2","type":"int","value":2022},{"name":"next","type":"int","value":10},{"name":"prev","type":"int","value":8}],"polyline":[{"x":0,"y":0},{"x":58,"y":4}]},{"id":464,"x":108,"y":2022,"visible":true,"properties":[{"name":"layer","type":"int","value":1},{"name":"group","type":"int","value":4},{"name":"id","type":"int","value":10},{"name":"fh_layer","type":"int","value":1},{"name":"fh_group","type":"int","value":4},{"name":"fh_id","type":"int","value":10},{"name":"x1","type":"int","value":108},{"name":"x2","type":"int","value":127},{"name":"y1","type":"int","value":2022},{"name":"y2","type":"int","value":2023},{"name":"next","type":"int","value":11},{"name":"prev","type":"int","value":9}],"polyline":[{"x":0,"y":0},{"x":19,"y":1}]},{"id":465,"x":127,"y":2023,"visible":true,"properties":[{"name":"layer","type":"int","value":1},{"name":"group","type":"int","value":4},{"name":"id","type":"int","value":11},{"name":"fh_layer","type":"int","value":1},{"name":"fh_group","type":"int","value":4},{"name":"fh_id","type":"int","value":11},{"name":"x1","type":"int","value":127},{"name":"x2","type":"int","value":130},{"name":"y1","type":"int","value":2023},{"name":"y2","type":"int","value":2021},{"name":"next","type":"int","value":1},{"name":"prev","type":"int","value":10}],"polyline":[{"x":0,"y":0},{"x":3,"y":-2}]},{"id":466,"x":-201,"y":2028,"visible":true,"properties":[{"name":"layer","type":"int","value":1},{"name":"group","type":"int","value":4},{"name":"id","type":"int","value":12},{"name":"fh_layer","type":"int","value":1},{"name":"fh_group","type":"int","value":4},{"name":"fh_id","type":"int","value":12},{"name":"x1","type":"int","value":-201},{"name":"x2","type":"int","value":-172},{"name":"y1","type":"int","value":2028},{"name":"y2","type":"int","value":2032},{"name":"next","type":"int","value":13},{"name":"prev","type":"int","value":29}],"polyline":[{"x":0,"y":0},{"x":29,"y":4}]},{"id":467,"x":-172,"y":2032,"visible":true,"properties":[{"name":"layer","type":"int","value":1},{"name":"group","type":"int","value":4},{"name":"id","type":"int","value":13},{"name":"fh_layer","type":"int","value":1},{"name":"fh_group","type":"int","value":4},{"name":"fh_id","type":"int","value":13},{"name":"x1","type":"int","value":-172},{"name":"x2","type":"int","value":-142},{"name":"y1","type":"int","value":2032},{"name":"y2","type":"int","value":2032},{"name":"next","type":"int","value":14},{"name":"prev","type":"int","value":12}],"polyline":[{"x":0,"y":0},{"x":30,"y":0}]},{"id":468,"x":-142,"y":2032,"visible":true,"properties":[{"name":"layer","type":"int","value":1},{"name":"group","type":"int","value":4},{"name":"id","type":"int","value":14},{"name":"fh_layer","type":"int","value":1},{"name":"fh_group","type":"int","value":4},{"name":"fh_id","type":"int","value":14},{"name":"x1","type":"int","value":-142},{"name":"x2","type":"int","value":-131},{"name":"y1","type":"int","value":2032},{"name":"y2","type":"int","value":2030},{"name":"next","type":"int","value":15},{"name":"prev","type":"int","value":13}],"polyline":[{"x":0,"y":0},{"x":11,"y":-2}]},{"id":469,"x":-131,"y":2030,"visible":true,"properties":[{"name":"layer","type":"int","value":1},{"name":"group","type":"int","value":4},{"name":"id","type":"int","value":15},{"name":"fh_layer","type":"int","value":1},{"name":"fh_group","type":"int","value":4},{"name":"fh_id","type":"int","value":15},{"name":"x1","type":"int","value":-131},{"name":"x2","type":"int","value":-123},{"name":"y1","type":"int","value":2030},{"name":"y2","type":"int","value":2032},{"name":"next","type":"int","value":16},{"name":"prev","type":"int","value":14}],"polyline":[{"x":0,"y":0},{"x":8,"y":2}]},{"id":470,"x":-123,"y":2032,"visible":true,"properties":[{"name":"layer","type":"int","value":1},{"name":"group","type":"int","value":4},{"name":"id","type":"int","value":16},{"name":"fh_layer","type":"int","value":1},{"name":"fh_group","type":"int","value":4},{"name":"fh_id","type":"int","value":16},{"name":"x1","type":"int","value":-123},{"name":"x2","type":"int","value":-121},{"name":"y1","type":"int","value":2032},{"name":"y2","type":"int","value":2030},{"name":"next","type":"int","value":3},{"name":"prev","type":"int","value":15}],"polyline":[{"x":0,"y":0},{"x":2,"y":-2}]},{"id":471,"x":214,"y":2021,"visible":true,"properties":[{"name":"layer","type":"int","value":1},{"name":"group","type":"int","value":4},{"name":"id","type":"int","value":17},{"name":"fh_layer","type":"int","value":1},{"name":"fh_group","type":"int","value":4},{"name":"fh_id","type":"int","value":17},{"name":"x1","type":"int","value":214},{"name":"x2","type":"int","value":219},{"name":"y1","type":"int","value":2021},{"name":"y2","type":"int","value":2020},{"name":"next","type":"int","value":18},{"name":"prev","type":"int","value":2}],"polyline":[{"x":0,"y":0},{"x":5,"y":-1}]},{"id":472,"x":219,"y":2020,"visible":true,"properties":[{"name":"layer","type":"int","value":1},{"name":"group","type":"int","value":4},{"name":"id","type":"int","value":18},{"name":"fh_layer","type":"int","value":1},{"name":"fh_group","type":"int","value":4},{"name":"fh_id","type":"int","value":18},{"name":"x1","type":"int","value":219},{"name":"x2","type":"int","value":248},{"name":"y1","type":"int","value":2020},{"name":"y2","type":"int","value":2024},{"name":"next","type":"int","value":19},{"name":"prev","type":"int","value":17}],"polyline":[{"x":0,"y":0},{"x":29,"y":4}]},{"id":473,"x":248,"y":2024,"visible":true,"properties":[{"name":"layer","type":"int","value":1},{"name":"group","type":"int","value":4},{"name":"id","type":"int","value":19},{"name":"fh_layer","type":"int","value":1},{"name":"fh_group","type":"int","value":4},{"name":"fh_id","type":"int","value":19},{"name":"x1","type":"int","value":248},{"name":"x2","type":"int","value":278},{"name":"y1","type":"int","value":2024},{"name":"y2","type":"int","value":2024},{"name":"next","type":"int","value":20},{"name":"prev","type":"int","value":18}],"polyline":[{"x":0,"y":0},{"x":30,"y":0}]},{"id":474,"x":278,"y":2024,"visible":true,"properties":[{"name":"layer","type":"int","value":1},{"name":"group","type":"int","value":4},{"name":"id","type":"int","value":20},{"name":"fh_layer","type":"int","value":1},{"name":"fh_group","type":"int","value":4},{"name":"fh_id","type":"int","value":20},{"name":"x1","type":"int","value":278},{"name":"x2","type":"int","value":289},{"name":"y1","type":"int","value":2024},{"name":"y2","type":"int","value":2022},{"name":"next","type":"int","value":21},{"name":"prev","type":"int","value":19}],"polyline":[{"x":0,"y":0},{"x":11,"y":-2}]},{"id":475,"x":289,"y":2022,"visible":true,"properties":[{"name":"layer","type":"int","value":1},{"name":"group","type":"int","value":4},{"name":"id","type":"int","value":21},{"name":"fh_layer","type":"int","value":1},{"name":"fh_group","type":"int","value":4},{"name":"fh_id","type":"int","value":21},{"name":"x1","type":"int","value":289},{"name":"x2","type":"int","value":305},{"name":"y1","type":"int","value":2022},{"name":"y2","type":"int","value":2026},{"name":"next","type":"int","value":103},{"name":"prev","type":"int","value":20}],"polyline":[{"x":0,"y":0},{"x":16,"y":4}]},{"id":476,"x":-326,"y":2039,"visible":true,"properties":[{"name":"layer","type":"int","value":1},{"name":"group","type":"int","value":4},{"name":"id","type":"int","value":22},{"name":"fh_layer","type":"int","value":1},{"name":"fh_group","type":"int","value":4},{"name":"fh_id","type":"int","value":22},{"name":"x1","type":"int","value":-326},{"name":"x2","type":"int","value":-318},{"name":"y1","type":"int","value":2039},{"name":"y2","type":"int","value":2039},{"name":"next","type":"int","value":23},{"name":"prev","type":"int","value":87}],"polyline":[{"x":0,"y":0},{"x":8,"y":0}]},{"id":477,"x":-318,"y":2039,"visible":true,"properties":[{"name":"layer","type":"int","value":1},{"name":"group","type":"int","value":4},{"name":"id","type":"int","value":23},{"name":"fh_layer","type":"int","value":1},{"name":"fh_group","type":"int","value":4},{"name":"fh_id","type":"int","value":23},{"name":"x1","type":"int","value":-318},{"name":"x2","type":"int","value":-311},{"name":"y1","type":"int","value":2039},{"name":"y2","type":"int","value":2034},{"name":"next","type":"int","value":24},{"name":"prev","type":"int","value":22}],"polyline":[{"x":0,"y":0},{"x":7,"y":-5}]},{"id":478,"x":-311,"y":2034,"visible":true,"properties":[{"name":"layer","type":"int","value":1},{"name":"group","type":"int","value":4},{"name":"id","type":"int","value":24},{"name":"fh_layer","type":"int","value":1},{"name":"fh_group","type":"int","value":4},{"name":"fh_id","type":"int","value":24},{"name":"x1","type":"int","value":-311},{"name":"x2","type":"int","value":-288},{"name":"y1","type":"int","value":2034},{"name":"y2","type":"int","value":2035},{"name":"next","type":"int","value":25},{"name":"prev","type":"int","value":23}],"polyline":[{"x":0,"y":0},{"x":23,"y":1}]},{"id":479,"x":-288,"y":2035,"visible":true,"properties":[{"name":"layer","type":"int","value":1},{"name":"group","type":"int","value":4},{"name":"id","type":"int","value":25},{"name":"fh_layer","type":"int","value":1},{"name":"fh_group","type":"int","value":4},{"name":"fh_id","type":"int","value":25},{"name":"x1","type":"int","value":-288},{"name":"x2","type":"int","value":-279},{"name":"y1","type":"int","value":2035},{"name":"y2","type":"int","value":2032},{"name":"next","type":"int","value":26},{"name":"prev","type":"int","value":24}],"polyline":[{"x":0,"y":0},{"x":9,"y":-3}]},{"id":480,"x":-279,"y":2032,"visible":true,"properties":[{"name":"layer","type":"int","value":1},{"name":"group","type":"int","value":4},{"name":"id","type":"int","value":26},{"name":"fh_layer","type":"int","value":1},{"name":"fh_group","type":"int","value":4},{"name":"fh_id","type":"int","value":26},{"name":"x1","type":"int","value":-279},{"name":"x2","type":"int","value":-237},{"name":"y1","type":"int","value":2032},{"name":"y2","type":"int","value":2034},{"name":"next","type":"int","value":27},{"name":"prev","type":"int","value":25}],"polyline":[{"x":0,"y":0},{"x":42,"y":2}]},{"id":481,"x":-237,"y":2034,"visible":true,"properties":[{"name":"layer","type":"int","value":1},{"name":"group","type":"int","value":4},{"name":"id","type":"int","value":27},{"name":"fh_layer","type":"int","value":1},{"name":"fh_group","type":"int","value":4},{"name":"fh_id","type":"int","value":27},{"name":"x1","type":"int","value":-237},{"name":"x2","type":"int","value":-229},{"name":"y1","type":"int","value":2034},{"name":"y2","type":"int","value":2031},{"name":"next","type":"int","value":28},{"name":"prev","type":"int","value":26}],"polyline":[{"x":0,"y":0},{"x":8,"y":-3}]},{"id":482,"x":-229,"y":2031,"visible":true,"properties":[{"name":"layer","type":"int","value":1},{"name":"group","type":"int","value":4},{"name":"id","type":"int","value":28},{"name":"fh_layer","type":"int","value":1},{"name":"fh_group","type":"int","value":4},{"name":"fh_id","type":"int","value":28},{"name":"x1","type":"int","value":-229},{"name":"x2","type":"int","value":-216},{"name":"y1","type":"int","value":2031},{"name":"y2","type":"int","value":2034},{"name":"next","type":"int","value":29},{"name":"prev","type":"int","value":27}],"polyline":[{"x":0,"y":0},{"x":13,"y":3}]},{"id":483,"x":-216,"y":2034,"visible":true,"properties":[{"name":"layer","type":"int","value":1},{"name":"group","type":"int","value":4},{"name":"id","type":"int","value":29},{"name":"fh_layer","type":"int","value":1},{"name":"fh_group","type":"int","value":4},{"name":"fh_id","type":"int","value":29},{"name":"x1","type":"int","value":-216},{"name":"x2","type":"int","value":-201},{"name":"y1","type":"int","value":2034},{"name":"y2","type":"int","value":2028},{"name":"next","type":"int","value":12},{"name":"prev","type":"int","value":28}],"polyline":[{"x":0,"y":0},{"x":15,"y":-6}]},{"id":484,"x":-271,"y":1941,"visible":true,"properties":[{"name":"layer","type":"int","value":1},{"name":"group","type":"int","value":4},{"name":"id","type":"int","value":30},{"name":"fh_layer","type":"int","value":1},{"name":"fh_group","type":"int","value":4},{"name":"fh_id","type":"int","value":30},{"name":"x1","type":"int","value":-271},{"name":"x2","type":"int","value":-235},{"name":"y1","type":"int","value":1941},{"name":"y2","type":"int","value":1928},{"name":"next","type":"int","value":31},{"name":"prev","type":"int","value":0}],"polyline":[{"x":0,"y":0},{"x":36,"y":-13}]},{"id":485,"x":-235,"y":1928,"visible":true,"properties":[{"name":"layer","type":"int","value":1},{"name":"group","type":"int","value":4},{"name":"id","type":"int","value":31},{"name":"fh_layer","type":"int","value":1},{"name":"fh_group","type":"int","value":4},{"name":"fh_id","type":"int","value":31},{"name":"x1","type":"int","value":-235},{"name":"x2","type":"int","value":-196},{"name":"y1","type":"int","value":1928},{"name":"y2","type":"int","value":1927},{"name":"next","type":"int","value":372},{"name":"prev","type":"int","value":30}],"polyline":[{"x":0,"y":0},{"x":39,"y":-1}]},{"id":486,"x":-383,"y":1999,"visible":true,"properties":[{"name":"layer","type":"int","value":1},{"name":"group","type":"int","value":4},{"name":"id","type":"int","value":32},{"name":"fh_layer","type":"int","value":1},{"name":"fh_group","type":"int","value":4},{"name":"fh_id","type":"int","value":32},{"name":"x1","type":"int","value":-383},{"name":"x2","type":"int","value":-358},{"name":"y1","type":"int","value":1999},{"name":"y2","type":"int","value":1988},{"name":"next","type":"int","value":33},{"name":"prev","type":"int","value":0}],"polyline":[{"x":0,"y":0},{"x":25,"y":-11}]},{"id":487,"x":-358,"y":1988,"visible":true,"properties":[{"name":"layer","type":"int","value":1},{"name":"group","type":"int","value":4},{"name":"id","type":"int","value":33},{"name":"fh_layer","type":"int","value":1},{"name":"fh_group","type":"int","value":4},{"name":"fh_id","type":"int","value":33},{"name":"x1","type":"int","value":-358},{"name":"x2","type":"int","value":-292},{"name":"y1","type":"int","value":1988},{"name":"y2","type":"int","value":1985},{"name":"next","type":"int","value":34},{"name":"prev","type":"int","value":32}],"polyline":[{"x":0,"y":0},{"x":66,"y":-3}]},{"id":488,"x":-292,"y":1985,"visible":true,"properties":[{"name":"layer","type":"int","value":1},{"name":"group","type":"int","value":4},{"name":"id","type":"int","value":34},{"name":"fh_layer","type":"int","value":1},{"name":"fh_group","type":"int","value":4},{"name":"fh_id","type":"int","value":34},{"name":"x1","type":"int","value":-292},{"name":"x2","type":"int","value":-254},{"name":"y1","type":"int","value":1985},{"name":"y2","type":"int","value":1992},{"name":"next","type":"int","value":0},{"name":"prev","type":"int","value":33}],"polyline":[{"x":0,"y":0},{"x":38,"y":7}]},{"id":489,"x":-406,"y":2035,"visible":true,"properties":[{"name":"layer","type":"int","value":1},{"name":"group","type":"int","value":5},{"name":"id","type":"int","value":84},{"name":"fh_layer","type":"int","value":1},{"name":"fh_group","type":"int","value":5},{"name":"fh_id","type":"int","value":84},{"name":"x1","type":"int","value":-406},{"name":"x2","type":"int","value":-377},{"name":"y1","type":"int","value":2035},{"name":"y2","type":"int","value":2039},{"name":"next","type":"int","value":85},{"name":"prev","type":"int","value":90}],"polyline":[{"x":0,"y":0},{"x":29,"y":4}]},{"id":490,"x":-377,"y":2039,"visible":true,"properties":[{"name":"layer","type":"int","value":1},{"name":"group","type":"int","value":5},{"name":"id","type":"int","value":85},{"name":"fh_layer","type":"int","value":1},{"name":"fh_group","type":"int","value":5},{"name":"fh_id","type":"int","value":85},{"name":"x1","type":"int","value":-377},{"name":"x2","type":"int","value":-347},{"name":"y1","type":"int","value":2039},{"name":"y2","type":"int","value":2039},{"name":"next","type":"int","value":86},{"name":"prev","type":"int","value":84}],"polyline":[{"x":0,"y":0},{"x":30,"y":0}]},{"id":491,"x":-347,"y":2039,"visible":true,"properties":[{"name":"layer","type":"int","value":1},{"name":"group","type":"int","value":5},{"name":"id","type":"int","value":86},{"name":"fh_layer","type":"int","value":1},{"name":"fh_group","type":"int","value":5},{"name":"fh_id","type":"int","value":86},{"name":"x1","type":"int","value":-347},{"name":"x2","type":"int","value":-336},{"name":"y1","type":"int","value":2039},{"name":"y2","type":"int","value":2037},{"name":"next","type":"int","value":87},{"name":"prev","type":"int","value":85}],"polyline":[{"x":0,"y":0},{"x":11,"y":-2}]},{"id":492,"x":-336,"y":2037,"visible":true,"properties":[{"name":"layer","type":"int","value":1},{"name":"group","type":"int","value":5},{"name":"id","type":"int","value":87},{"name":"fh_layer","type":"int","value":1},{"name":"fh_group","type":"int","value":5},{"name":"fh_id","type":"int","value":87},{"name":"x1","type":"int","value":-336},{"name":"x2","type":"int","value":-326},{"name":"y1","type":"int","value":2037},{"name":"y2","type":"int","value":2039},{"name":"next","type":"int","value":22},{"name":"prev","type":"int","value":86}],"polyline":[{"x":0,"y":0},{"x":10,"y":2}]},{"id":493,"x":-457,"y":2043,"visible":true,"properties":[{"name":"layer","type":"int","value":1},{"name":"group","type":"int","value":5},{"name":"id","type":"int","value":88},{"name":"fh_layer","type":"int","value":1},{"name":"fh_group","type":"int","value":5},{"name":"fh_id","type":"int","value":88},{"name":"x1","type":"int","value":-457},{"name":"x2","type":"int","value":-427},{"name":"y1","type":"int","value":2043},{"name":"y2","type":"int","value":2041},{"name":"next","type":"int","value":89},{"name":"prev","type":"int","value":91}],"polyline":[{"x":0,"y":0},{"x":30,"y":-2}]},{"id":494,"x":-427,"y":2041,"visible":true,"properties":[{"name":"layer","type":"int","value":1},{"name":"group","type":"int","value":5},{"name":"id","type":"int","value":89},{"name":"fh_layer","type":"int","value":1},{"name":"fh_group","type":"int","value":5},{"name":"fh_id","type":"int","value":89},{"name":"x1","type":"int","value":-427},{"name":"x2","type":"int","value":-424},{"name":"y1","type":"int","value":2041},{"name":"y2","type":"int","value":2042},{"name":"next","type":"int","value":90},{"name":"prev","type":"int","value":88}],"polyline":[{"x":0,"y":0},{"x":3,"y":1}]},{"id":495,"x":-424,"y":2042,"visible":true,"properties":[{"name":"layer","type":"int","value":1},{"name":"group","type":"int","value":5},{"name":"id","type":"int","value":90},{"name":"fh_layer","type":"int","value":1},{"name":"fh_group","type":"int","value":5},{"name":"fh_id","type":"int","value":90},{"name":"x1","type":"int","value":-424},{"name":"x2","type":"int","value":-406},{"name":"y1","type":"int","value":2042},{"name":"y2","type":"int","value":2035},{"name":"next","type":"int","value":84},{"name":"prev","type":"int","value":89}],"polyline":[{"x":0,"y":0},{"x":18,"y":-7}]},{"id":496,"x":-469,"y":2048,"visible":true,"properties":[{"name":"layer","type":"int","value":1},{"name":"group","type":"int","value":5},{"name":"id","type":"int","value":91},{"name":"fh_layer","type":"int","value":1},{"name":"fh_group","type":"int","value":5},{"name":"fh_id","type":"int","value":91},{"name":"x1","type":"int","value":-469},{"name":"x2","type":"int","value":-457},{"name":"y1","type":"int","value":2048},{"name":"y2","type":"int","value":2043},{"name":"next","type":"int","value":88},{"name":"prev","type":"int","value":61}],"polyline":[{"x":0,"y":0},{"x":12,"y":-5}]},{"id":497,"x":-630,"y":1817,"visible":true,"properties":[{"name":"layer","type":"int","value":1},{"name":"group","type":"int","value":6},{"name":"id","type":"int","value":863},{"name":"fh_layer","type":"int","value":1},{"name":"fh_group","type":"int","value":6},{"name":"fh_id","type":"int","value":863},{"name":"x1","type":"int","value":-630},{"name":"x2","type":"int","value":-601},{"name":"y1","type":"int","value":1817},{"name":"y2","type":"int","value":1821},{"name":"next","type":"int","value":864},{"name":"prev","type":"int","value":869}],"polyline":[{"x":0,"y":0},{"x":29,"y":4}]},{"id":498,"x":-601,"y":1821,"visible":true,"properties":[{"name":"layer","type":"int","value":1},{"name":"group","type":"int","value":6},{"name":"id","type":"int","value":864},{"name":"fh_layer","type":"int","value":1},{"name":"fh_group","type":"int","value":6},{"name":"fh_id","type":"int","value":864},{"name":"x1","type":"int","value":-601},{"name":"x2","type":"int","value":-571},{"name":"y1","type":"int","value":1821},{"name":"y2","type":"int","value":1821},{"name":"next","type":"int","value":865},{"name":"prev","type":"int","value":863}],"polyline":[{"x":0,"y":0},{"x":30,"y":0}]},{"id":499,"x":-571,"y":1821,"visible":true,"properties":[{"name":"layer","type":"int","value":1},{"name":"group","type":"int","value":6},{"name":"id","type":"int","value":865},{"name":"fh_layer","type":"int","value":1},{"name":"fh_group","type":"int","value":6},{"name":"fh_id","type":"int","value":865},{"name":"x1","type":"int","value":-571},{"name":"x2","type":"int","value":-560},{"name":"y1","type":"int","value":1821},{"name":"y2","type":"int","value":1819},{"name":"next","type":"int","value":866},{"name":"prev","type":"int","value":864}],"polyline":[{"x":0,"y":0},{"x":11,"y":-2}]},{"id":500,"x":-560,"y":1819,"visible":true,"properties":[{"name":"layer","type":"int","value":1},{"name":"group","type":"int","value":6},{"name":"id","type":"int","value":866},{"name":"fh_layer","type":"int","value":1},{"name":"fh_group","type":"int","value":6},{"name":"fh_id","type":"int","value":866},{"name":"x1","type":"int","value":-560},{"name":"x2","type":"int","value":-528},{"name":"y1","type":"int","value":1819},{"name":"y2","type":"int","value":1826},{"name":"next","type":"int","value":0},{"name":"prev","type":"int","value":865}],"polyline":[{"x":0,"y":0},{"x":32,"y":7}]},{"id":501,"x":-719,"y":1820,"visible":true,"properties":[{"name":"layer","type":"int","value":1},{"name":"group","type":"int","value":6},{"name":"id","type":"int","value":867},{"name":"fh_layer","type":"int","value":1},{"name":"fh_group","type":"int","value":6},{"name":"fh_id","type":"int","value":867},{"name":"x1","type":"int","value":-719},{"name":"x2","type":"int","value":-675},{"name":"y1","type":"int","value":1820},{"name":"y2","type":"int","value":1819},{"name":"next","type":"int","value":868},{"name":"prev","type":"int","value":877}],"polyline":[{"x":0,"y":0},{"x":44,"y":-1}]},{"id":502,"x":-675,"y":1819,"visible":true,"properties":[{"name":"layer","type":"int","value":1},{"name":"group","type":"int","value":6},{"name":"id","type":"int","value":868},{"name":"fh_layer","type":"int","value":1},{"name":"fh_group","type":"int","value":6},{"name":"fh_id","type":"int","value":868},{"name":"x1","type":"int","value":-675},{"name":"x2","type":"int","value":-650},{"name":"y1","type":"int","value":1819},{"name":"y2","type":"int","value":1825},{"name":"next","type":"int","value":869},{"name":"prev","type":"int","value":867}],"polyline":[{"x":0,"y":0},{"x":25,"y":6}]},{"id":503,"x":-650,"y":1825,"visible":true,"properties":[{"name":"layer","type":"int","value":1},{"name":"group","type":"int","value":6},{"name":"id","type":"int","value":869},{"name":"fh_layer","type":"int","value":1},{"name":"fh_group","type":"int","value":6},{"name":"fh_id","type":"int","value":869},{"name":"x1","type":"int","value":-650},{"name":"x2","type":"int","value":-630},{"name":"y1","type":"int","value":1825},{"name":"y2","type":"int","value":1817},{"name":"next","type":"int","value":863},{"name":"prev","type":"int","value":868}],"polyline":[{"x":0,"y":0},{"x":20,"y":-8}]},{"id":504,"x":-891,"y":1920,"visible":true,"properties":[{"name":"layer","type":"int","value":1},{"name":"group","type":"int","value":6},{"name":"id","type":"int","value":870},{"name":"fh_layer","type":"int","value":1},{"name":"fh_group","type":"int","value":6},{"name":"fh_id","type":"int","value":870},{"name":"x1","type":"int","value":-891},{"name":"x2","type":"int","value":-868},{"name":"y1","type":"int","value":1920},{"name":"y2","type":"int","value":1914},{"name":"next","type":"int","value":871},{"name":"prev","type":"int","value":886}],"polyline":[{"x":0,"y":0},{"x":23,"y":-6}]},{"id":505,"x":-868,"y":1914,"visible":true,"properties":[{"name":"layer","type":"int","value":1},{"name":"group","type":"int","value":6},{"name":"id","type":"int","value":871},{"name":"fh_layer","type":"int","value":1},{"name":"fh_group","type":"int","value":6},{"name":"fh_id","type":"int","value":871},{"name":"x1","type":"int","value":-868},{"name":"x2","type":"int","value":-837},{"name":"y1","type":"int","value":1914},{"name":"y2","type":"int","value":1904},{"name":"next","type":"int","value":872},{"name":"prev","type":"int","value":870}],"polyline":[{"x":0,"y":0},{"x":31,"y":-10}]},{"id":506,"x":-837,"y":1904,"visible":true,"properties":[{"name":"layer","type":"int","value":1},{"name":"group","type":"int","value":6},{"name":"id","type":"int","value":872},{"name":"fh_layer","type":"int","value":1},{"name":"fh_group","type":"int","value":6},{"name":"fh_id","type":"int","value":872},{"name":"x1","type":"int","value":-837},{"name":"x2","type":"int","value":-817},{"name":"y1","type":"int","value":1904},{"name":"y2","type":"int","value":1896},{"name":"next","type":"int","value":873},{"name":"prev","type":"int","value":871}],"polyline":[{"x":0,"y":0},{"x":20,"y":-8}]},{"id":507,"x":-817,"y":1896,"visible":true,"properties":[{"name":"layer","type":"int","value":1},{"name":"group","type":"int","value":6},{"name":"id","type":"int","value":873},{"name":"fh_layer","type":"int","value":1},{"name":"fh_group","type":"int","value":6},{"name":"fh_id","type":"int","value":873},{"name":"x1","type":"int","value":-817},{"name":"x2","type":"int","value":-797},{"name":"y1","type":"int","value":1896},{"name":"y2","type":"int","value":1886},{"name":"next","type":"int","value":874},{"name":"prev","type":"int","value":872}],"polyline":[{"x":0,"y":0},{"x":20,"y":-10}]},{"id":508,"x":-797,"y":1886,"visible":true,"properties":[{"name":"layer","type":"int","value":1},{"name":"group","type":"int","value":6},{"name":"id","type":"int","value":874},{"name":"fh_layer","type":"int","value":1},{"name":"fh_group","type":"int","value":6},{"name":"fh_id","type":"int","value":874},{"name":"x1","type":"int","value":-797},{"name":"x2","type":"int","value":-771},{"name":"y1","type":"int","value":1886},{"name":"y2","type":"int","value":1868},{"name":"next","type":"int","value":875},{"name":"prev","type":"int","value":873}],"polyline":[{"x":0,"y":0},{"x":26,"y":-18}]},{"id":509,"x":-771,"y":1868,"visible":true,"properties":[{"name":"layer","type":"int","value":1},{"name":"group","type":"int","value":6},{"name":"id","type":"int","value":875},{"name":"fh_layer","type":"int","value":1},{"name":"fh_group","type":"int","value":6},{"name":"fh_id","type":"int","value":875},{"name":"x1","type":"int","value":-771},{"name":"x2","type":"int","value":-749},{"name":"y1","type":"int","value":1868},{"name":"y2","type":"int","value":1849},{"name":"next","type":"int","value":876},{"name":"prev","type":"int","value":874}],"polyline":[{"x":0,"y":0},{"x":22,"y":-19}]},{"id":510,"x":-749,"y":1849,"visible":true,"properties":[{"name":"layer","type":"int","value":1},{"name":"group","type":"int","value":6},{"name":"id","type":"int","value":876},{"name":"fh_layer","type":"int","value":1},{"name":"fh_group","type":"int","value":6},{"name":"fh_id","type":"int","value":876},{"name":"x1","type":"int","value":-749},{"name":"x2","type":"int","value":-727},{"name":"y1","type":"int","value":1849},{"name":"y2","type":"int","value":1823},{"name":"next","type":"int","value":877},{"name":"prev","type":"int","value":875}],"polyline":[{"x":0,"y":0},{"x":22,"y":-26}]},{"id":511,"x":-727,"y":1823,"visible":true,"properties":[{"name":"layer","type":"int","value":1},{"name":"group","type":"int","value":6},{"name":"id","type":"int","value":877},{"name":"fh_layer","type":"int","value":1},{"name":"fh_group","type":"int","value":6},{"name":"fh_id","type":"int","value":877},{"name":"x1","type":"int","value":-727},{"name":"x2","type":"int","value":-719},{"name":"y1","type":"int","value":1823},{"name":"y2","type":"int","value":1820},{"name":"next","type":"int","value":867},{"name":"prev","type":"int","value":876}],"polyline":[{"x":0,"y":0},{"x":8,"y":-3}]},{"id":512,"x":-1039,"y":1937,"visible":true,"properties":[{"name":"layer","type":"int","value":1},{"name":"group","type":"int","value":6},{"name":"id","type":"int","value":878},{"name":"fh_layer","type":"int","value":1},{"name":"fh_group","type":"int","value":6},{"name":"fh_id","type":"int","value":878},{"name":"x1","type":"int","value":-1039},{"name":"x2","type":"int","value":-1027},{"name":"y1","type":"int","value":1937},{"name":"y2","type":"int","value":1929},{"name":"next","type":"int","value":879},{"name":"prev","type":"int","value":0}],"polyline":[{"x":0,"y":0},{"x":12,"y":-8}]},{"id":513,"x":-1027,"y":1929,"visible":true,"properties":[{"name":"layer","type":"int","value":1},{"name":"group","type":"int","value":6},{"name":"id","type":"int","value":879},{"name":"fh_layer","type":"int","value":1},{"name":"fh_group","type":"int","value":6},{"name":"fh_id","type":"int","value":879},{"name":"x1","type":"int","value":-1027},{"name":"x2","type":"int","value":-1010},{"name":"y1","type":"int","value":1929},{"name":"y2","type":"int","value":1929},{"name":"next","type":"int","value":880},{"name":"prev","type":"int","value":878}],"polyline":[{"x":0,"y":0},{"x":17,"y":0}]},{"id":514,"x":-1010,"y":1929,"visible":true,"properties":[{"name":"layer","type":"int","value":1},{"name":"group","type":"int","value":6},{"name":"id","type":"int","value":880},{"name":"fh_layer","type":"int","value":1},{"name":"fh_group","type":"int","value":6},{"name":"fh_id","type":"int","value":880},{"name":"x1","type":"int","value":-1010},{"name":"x2","type":"int","value":-1003},{"name":"y1","type":"int","value":1929},{"name":"y2","type":"int","value":1924},{"name":"next","type":"int","value":881},{"name":"prev","type":"int","value":879}],"polyline":[{"x":0,"y":0},{"x":7,"y":-5}]},{"id":515,"x":-1003,"y":1924,"visible":true,"properties":[{"name":"layer","type":"int","value":1},{"name":"group","type":"int","value":6},{"name":"id","type":"int","value":881},{"name":"fh_layer","type":"int","value":1},{"name":"fh_group","type":"int","value":6},{"name":"fh_id","type":"int","value":881},{"name":"x1","type":"int","value":-1003},{"name":"x2","type":"int","value":-980},{"name":"y1","type":"int","value":1924},{"name":"y2","type":"int","value":1925},{"name":"next","type":"int","value":882},{"name":"prev","type":"int","value":880}],"polyline":[{"x":0,"y":0},{"x":23,"y":1}]},{"id":516,"x":-980,"y":1925,"visible":true,"properties":[{"name":"layer","type":"int","value":1},{"name":"group","type":"int","value":6},{"name":"id","type":"int","value":882},{"name":"fh_layer","type":"int","value":1},{"name":"fh_group","type":"int","value":6},{"name":"fh_id","type":"int","value":882},{"name":"x1","type":"int","value":-980},{"name":"x2","type":"int","value":-971},{"name":"y1","type":"int","value":1925},{"name":"y2","type":"int","value":1922},{"name":"next","type":"int","value":883},{"name":"prev","type":"int","value":881}],"polyline":[{"x":0,"y":0},{"x":9,"y":-3}]},{"id":517,"x":-971,"y":1922,"visible":true,"properties":[{"name":"layer","type":"int","value":1},{"name":"group","type":"int","value":6},{"name":"id","type":"int","value":883},{"name":"fh_layer","type":"int","value":1},{"name":"fh_group","type":"int","value":6},{"name":"fh_id","type":"int","value":883},{"name":"x1","type":"int","value":-971},{"name":"x2","type":"int","value":-929},{"name":"y1","type":"int","value":1922},{"name":"y2","type":"int","value":1924},{"name":"next","type":"int","value":884},{"name":"prev","type":"int","value":882}],"polyline":[{"x":0,"y":0},{"x":42,"y":2}]},{"id":518,"x":-929,"y":1924,"visible":true,"properties":[{"name":"layer","type":"int","value":1},{"name":"group","type":"int","value":6},{"name":"id","type":"int","value":884},{"name":"fh_layer","type":"int","value":1},{"name":"fh_group","type":"int","value":6},{"name":"fh_id","type":"int","value":884},{"name":"x1","type":"int","value":-929},{"name":"x2","type":"int","value":-921},{"name":"y1","type":"int","value":1924},{"name":"y2","type":"int","value":1921},{"name":"next","type":"int","value":885},{"name":"prev","type":"int","value":883}],"polyline":[{"x":0,"y":0},{"x":8,"y":-3}]},{"id":519,"x":-921,"y":1921,"visible":true,"properties":[{"name":"layer","type":"int","value":1},{"name":"group","type":"int","value":6},{"name":"id","type":"int","value":885},{"name":"fh_layer","type":"int","value":1},{"name":"fh_group","type":"int","value":6},{"name":"fh_id","type":"int","value":885},{"name":"x1","type":"int","value":-921},{"name":"x2","type":"int","value":-908},{"name":"y1","type":"int","value":1921},{"name":"y2","type":"int","value":1924},{"name":"next","type":"int","value":886},{"name":"prev","type":"int","value":884}],"polyline":[{"x":0,"y":0},{"x":13,"y":3}]},{"id":520,"x":-908,"y":1924,"visible":true,"properties":[{"name":"layer","type":"int","value":1},{"name":"group","type":"int","value":6},{"name":"id","type":"int","value":886},{"name":"fh_layer","type":"int","value":1},{"name":"fh_group","type":"int","value":6},{"name":"fh_id","type":"int","value":886},{"name":"x1","type":"int","value":-908},{"name":"x2","type":"int","value":-891},{"name":"y1","type":"int","value":1924},{"name":"y2","type":"int","value":1920},{"name":"next","type":"int","value":870},{"name":"prev","type":"int","value":885}],"polyline":[{"x":0,"y":0},{"x":17,"y":-4}]},{"id":521,"x":266,"y":1768,"visible":true,"properties":[{"name":"layer","type":"int","value":1},{"name":"group","type":"int","value":7},{"name":"id","type":"int","value":343},{"name":"fh_layer","type":"int","value":1},{"name":"fh_group","type":"int","value":7},{"name":"fh_id","type":"int","value":343},{"name":"x1","type":"int","value":266},{"name":"x2","type":"int","value":291},{"name":"y1","type":"int","value":1768},{"name":"y2","type":"int","value":1752},{"name":"next","type":"int","value":344},{"name":"prev","type":"int","value":0}],"polyline":[{"x":0,"y":0},{"x":25,"y":-16}]},{"id":522,"x":291,"y":1752,"visible":true,"properties":[{"name":"layer","type":"int","value":1},{"name":"group","type":"int","value":7},{"name":"id","type":"int","value":344},{"name":"fh_layer","type":"int","value":1},{"name":"fh_group","type":"int","value":7},{"name":"fh_id","type":"int","value":344},{"name":"x1","type":"int","value":291},{"name":"x2","type":"int","value":292},{"name":"y1","type":"int","value":1752},{"name":"y2","type":"int","value":1752},{"name":"next","type":"int","value":359},{"name":"prev","type":"int","value":343}],"polyline":[{"x":0,"y":0},{"x":1,"y":0}]},{"id":523,"x":344,"y":1753,"visible":true,"properties":[{"name":"layer","type":"int","value":1},{"name":"group","type":"int","value":7},{"name":"id","type":"int","value":345},{"name":"fh_layer","type":"int","value":1},{"name":"fh_group","type":"int","value":7},{"name":"fh_id","type":"int","value":345},{"name":"x1","type":"int","value":344},{"name":"x2","type":"int","value":381},{"name":"y1","type":"int","value":1753},{"name":"y2","type":"int","value":1746},{"name":"next","type":"int","value":346},{"name":"prev","type":"int","value":359}],"polyline":[{"x":0,"y":0},{"x":37,"y":-7}]},{"id":524,"x":381,"y":1746,"visible":true,"properties":[{"name":"layer","type":"int","value":1},{"name":"group","type":"int","value":7},{"name":"id","type":"int","value":346},{"name":"fh_layer","type":"int","value":1},{"name":"fh_group","type":"int","value":7},{"name":"fh_id","type":"int","value":346},{"name":"x1","type":"int","value":381},{"name":"x2","type":"int","value":414},{"name":"y1","type":"int","value":1746},{"name":"y2","type":"int","value":1748},{"name":"next","type":"int","value":347},{"name":"prev","type":"int","value":345}],"polyline":[{"x":0,"y":0},{"x":33,"y":2}]},{"id":525,"x":414,"y":1748,"visible":true,"properties":[{"name":"layer","type":"int","value":1},{"name":"group","type":"int","value":7},{"name":"id","type":"int","value":347},{"name":"fh_layer","type":"int","value":1},{"name":"fh_group","type":"int","value":7},{"name":"fh_id","type":"int","value":347},{"name":"x1","type":"int","value":414},{"name":"x2","type":"int","value":426},{"name":"y1","type":"int","value":1748},{"name":"y2","type":"int","value":1745},{"name":"next","type":"int","value":348},{"name":"prev","type":"int","value":346}],"polyline":[{"x":0,"y":0},{"x":12,"y":-3}]},{"id":526,"x":426,"y":1745,"visible":true,"properties":[{"name":"layer","type":"int","value":1},{"name":"group","type":"int","value":7},{"name":"id","type":"int","value":348},{"name":"fh_layer","type":"int","value":1},{"name":"fh_group","type":"int","value":7},{"name":"fh_id","type":"int","value":348},{"name":"x1","type":"int","value":426},{"name":"x2","type":"int","value":441},{"name":"y1","type":"int","value":1745},{"name":"y2","type":"int","value":1745},{"name":"next","type":"int","value":349},{"name":"prev","type":"int","value":347}],"polyline":[{"x":0,"y":0},{"x":15,"y":0}]},{"id":527,"x":441,"y":1745,"visible":true,"properties":[{"name":"layer","type":"int","value":1},{"name":"group","type":"int","value":7},{"name":"id","type":"int","value":349},{"name":"fh_layer","type":"int","value":1},{"name":"fh_group","type":"int","value":7},{"name":"fh_id","type":"int","value":349},{"name":"x1","type":"int","value":441},{"name":"x2","type":"int","value":462},{"name":"y1","type":"int","value":1745},{"name":"y2","type":"int","value":1740},{"name":"next","type":"int","value":350},{"name":"prev","type":"int","value":348}],"polyline":[{"x":0,"y":0},{"x":21,"y":-5}]},{"id":528,"x":462,"y":1740,"visible":true,"properties":[{"name":"layer","type":"int","value":1},{"name":"group","type":"int","value":7},{"name":"id","type":"int","value":350},{"name":"fh_layer","type":"int","value":1},{"name":"fh_group","type":"int","value":7},{"name":"fh_id","type":"int","value":350},{"name":"x1","type":"int","value":462},{"name":"x2","type":"int","value":520},{"name":"y1","type":"int","value":1740},{"name":"y2","type":"int","value":1744},{"name":"next","type":"int","value":351},{"name":"prev","type":"int","value":349}],"polyline":[{"x":0,"y":0},{"x":58,"y":4}]},{"id":529,"x":520,"y":1744,"visible":true,"properties":[{"name":"layer","type":"int","value":1},{"name":"group","type":"int","value":7},{"name":"id","type":"int","value":351},{"name":"fh_layer","type":"int","value":1},{"name":"fh_group","type":"int","value":7},{"name":"fh_id","type":"int","value":351},{"name":"x1","type":"int","value":520},{"name":"x2","type":"int","value":562},{"name":"y1","type":"int","value":1744},{"name":"y2","type":"int","value":1744},{"name":"next","type":"int","value":0},{"name":"prev","type":"int","value":350}],"polyline":[{"x":0,"y":0},{"x":42,"y":0}]},{"id":530,"x":126,"y":1853,"visible":true,"properties":[{"name":"layer","type":"int","value":1},{"name":"group","type":"int","value":7},{"name":"id","type":"int","value":352},{"name":"fh_layer","type":"int","value":1},{"name":"fh_group","type":"int","value":7},{"name":"fh_id","type":"int","value":352},{"name":"x1","type":"int","value":126},{"name":"x2","type":"int","value":149},{"name":"y1","type":"int","value":1853},{"name":"y2","type":"int","value":1847},{"name":"next","type":"int","value":353},{"name":"prev","type":"int","value":365}],"polyline":[{"x":0,"y":0},{"x":23,"y":-6}]},{"id":531,"x":149,"y":1847,"visible":true,"properties":[{"name":"layer","type":"int","value":1},{"name":"group","type":"int","value":7},{"name":"id","type":"int","value":353},{"name":"fh_layer","type":"int","value":1},{"name":"fh_group","type":"int","value":7},{"name":"fh_id","type":"int","value":353},{"name":"x1","type":"int","value":149},{"name":"x2","type":"int","value":180},{"name":"y1","type":"int","value":1847},{"name":"y2","type":"int","value":1837},{"name":"next","type":"int","value":354},{"name":"prev","type":"int","value":352}],"polyline":[{"x":0,"y":0},{"x":31,"y":-10}]},{"id":532,"x":180,"y":1837,"visible":true,"properties":[{"name":"layer","type":"int","value":1},{"name":"group","type":"int","value":7},{"name":"id","type":"int","value":354},{"name":"fh_layer","type":"int","value":1},{"name":"fh_group","type":"int","value":7},{"name":"fh_id","type":"int","value":354},{"name":"x1","type":"int","value":180},{"name":"x2","type":"int","value":200},{"name":"y1","type":"int","value":1837},{"name":"y2","type":"int","value":1829},{"name":"next","type":"int","value":355},{"name":"prev","type":"int","value":353}],"polyline":[{"x":0,"y":0},{"x":20,"y":-8}]},{"id":533,"x":200,"y":1829,"visible":true,"properties":[{"name":"layer","type":"int","value":1},{"name":"group","type":"int","value":7},{"name":"id","type":"int","value":355},{"name":"fh_layer","type":"int","value":1},{"name":"fh_group","type":"int","value":7},{"name":"fh_id","type":"int","value":355},{"name":"x1","type":"int","value":200},{"name":"x2","type":"int","value":220},{"name":"y1","type":"int","value":1829},{"name":"y2","type":"int","value":1819},{"name":"next","type":"int","value":356},{"name":"prev","type":"int","value":354}],"polyline":[{"x":0,"y":0},{"x":20,"y":-10}]},{"id":534,"x":220,"y":1819,"visible":true,"properties":[{"name":"layer","type":"int","value":1},{"name":"group","type":"int","value":7},{"name":"id","type":"int","value":356},{"name":"fh_layer","type":"int","value":1},{"name":"fh_group","type":"int","value":7},{"name":"fh_id","type":"int","value":356},{"name":"x1","type":"int","value":220},{"name":"x2","type":"int","value":246},{"name":"y1","type":"int","value":1819},{"name":"y2","type":"int","value":1801},{"name":"next","type":"int","value":357},{"name":"prev","type":"int","value":355}],"polyline":[{"x":0,"y":0},{"x":26,"y":-18}]},{"id":535,"x":246,"y":1801,"visible":true,"properties":[{"name":"layer","type":"int","value":1},{"name":"group","type":"int","value":7},{"name":"id","type":"int","value":357},{"name":"fh_layer","type":"int","value":1},{"name":"fh_group","type":"int","value":7},{"name":"fh_id","type":"int","value":357},{"name":"x1","type":"int","value":246},{"name":"x2","type":"int","value":268},{"name":"y1","type":"int","value":1801},{"name":"y2","type":"int","value":1782},{"name":"next","type":"int","value":358},{"name":"prev","type":"int","value":356}],"polyline":[{"x":0,"y":0},{"x":22,"y":-19}]},{"id":536,"x":268,"y":1782,"visible":true,"properties":[{"name":"layer","type":"int","value":1},{"name":"group","type":"int","value":7},{"name":"id","type":"int","value":358},{"name":"fh_layer","type":"int","value":1},{"name":"fh_group","type":"int","value":7},{"name":"fh_id","type":"int","value":358},{"name":"x1","type":"int","value":268},{"name":"x2","type":"int","value":292},{"name":"y1","type":"int","value":1782},{"name":"y2","type":"int","value":1752},{"name":"next","type":"int","value":359},{"name":"prev","type":"int","value":357}],"polyline":[{"x":0,"y":0},{"x":24,"y":-30}]},{"id":537,"x":292,"y":1752,"visible":true,"properties":[{"name":"layer","type":"int","value":1},{"name":"group","type":"int","value":7},{"name":"id","type":"int","value":359},{"name":"fh_layer","type":"int","value":1},{"name":"fh_group","type":"int","value":7},{"name":"fh_id","type":"int","value":359},{"name":"x1","type":"int","value":292},{"name":"x2","type":"int","value":344},{"name":"y1","type":"int","value":1752},{"name":"y2","type":"int","value":1753},{"name":"next","type":"int","value":345},{"name":"prev","type":"int","value":344}],"polyline":[{"x":0,"y":0},{"x":52,"y":1}]},{"id":538,"x":-36,"y":1866,"visible":true,"properties":[{"name":"layer","type":"int","value":1},{"name":"group","type":"int","value":7},{"name":"id","type":"int","value":360},{"name":"fh_layer","type":"int","value":1},{"name":"fh_group","type":"int","value":7},{"name":"fh_id","type":"int","value":360},{"name":"x1","type":"int","value":-36},{"name":"x2","type":"int","value":19},{"name":"y1","type":"int","value":1866},{"name":"y2","type":"int","value":1866},{"name":"next","type":"int","value":361},{"name":"prev","type":"int","value":371}],"polyline":[{"x":0,"y":0},{"x":55,"y":0}]},{"id":539,"x":19,"y":1866,"visible":true,"properties":[{"name":"layer","type":"int","value":1},{"name":"group","type":"int","value":7},{"name":"id","type":"int","value":361},{"name":"fh_layer","type":"int","value":1},{"name":"fh_group","type":"int","value":7},{"name":"fh_id","type":"int","value":361},{"name":"x1","type":"int","value":19},{"name":"x2","type":"int","value":35},{"name":"y1","type":"int","value":1866},{"name":"y2","type":"int","value":1862},{"name":"next","type":"int","value":362},{"name":"prev","type":"int","value":360}],"polyline":[{"x":0,"y":0},{"x":16,"y":-4}]},{"id":540,"x":35,"y":1862,"visible":true,"properties":[{"name":"layer","type":"int","value":1},{"name":"group","type":"int","value":7},{"name":"id","type":"int","value":362},{"name":"fh_layer","type":"int","value":1},{"name":"fh_group","type":"int","value":7},{"name":"fh_id","type":"int","value":362},{"name":"x1","type":"int","value":35},{"name":"x2","type":"int","value":87},{"name":"y1","type":"int","value":1862},{"name":"y2","type":"int","value":1862},{"name":"next","type":"int","value":363},{"name":"prev","type":"int","value":361}],"polyline":[{"x":0,"y":0},{"x":52,"y":0}]},{"id":541,"x":87,"y":1862,"visible":true,"properties":[{"name":"layer","type":"int","value":1},{"name":"group","type":"int","value":7},{"name":"id","type":"int","value":363},{"name":"fh_layer","type":"int","value":1},{"name":"fh_group","type":"int","value":7},{"name":"fh_id","type":"int","value":363},{"name":"x1","type":"int","value":87},{"name":"x2","type":"int","value":97},{"name":"y1","type":"int","value":1862},{"name":"y2","type":"int","value":1857},{"name":"next","type":"int","value":364},{"name":"prev","type":"int","value":362}],"polyline":[{"x":0,"y":0},{"x":10,"y":-5}]},{"id":542,"x":97,"y":1857,"visible":true,"properties":[{"name":"layer","type":"int","value":1},{"name":"group","type":"int","value":7},{"name":"id","type":"int","value":364},{"name":"fh_layer","type":"int","value":1},{"name":"fh_group","type":"int","value":7},{"name":"fh_id","type":"int","value":364},{"name":"x1","type":"int","value":97},{"name":"x2","type":"int","value":102},{"name":"y1","type":"int","value":1857},{"name":"y2","type":"int","value":1858},{"name":"next","type":"int","value":365},{"name":"prev","type":"int","value":363}],"polyline":[{"x":0,"y":0},{"x":5,"y":1}]},{"id":543,"x":102,"y":1858,"visible":true,"properties":[{"name":"layer","type":"int","value":1},{"name":"group","type":"int","value":7},{"name":"id","type":"int","value":365},{"name":"fh_layer","type":"int","value":1},{"name":"fh_group","type":"int","value":7},{"name":"fh_id","type":"int","value":365},{"name":"x1","type":"int","value":102},{"name":"x2","type":"int","value":126},{"name":"y1","type":"int","value":1858},{"name":"y2","type":"int","value":1853},{"name":"next","type":"int","value":352},{"name":"prev","type":"int","value":364}],"polyline":[{"x":0,"y":0},{"x":24,"y":-5}]},{"id":544,"x":-175,"y":1913,"visible":true,"properties":[{"name":"layer","type":"int","value":1},{"name":"group","type":"int","value":7},{"name":"id","type":"int","value":366},{"name":"fh_layer","type":"int","value":1},{"name":"fh_group","type":"int","value":7},{"name":"fh_id","type":"int","value":366},{"name":"x1","type":"int","value":-175},{"name":"x2","type":"int","value":-147},{"name":"y1","type":"int","value":1913},{"name":"y2","type":"int","value":1907},{"name":"next","type":"int","value":367},{"name":"prev","type":"int","value":372}],"polyline":[{"x":0,"y":0},{"x":28,"y":-6}]},{"id":545,"x":-147,"y":1907,"visible":true,"properties":[{"name":"layer","type":"int","value":1},{"name":"group","type":"int","value":7},{"name":"id","type":"int","value":367},{"name":"fh_layer","type":"int","value":1},{"name":"fh_group","type":"int","value":7},{"name":"fh_id","type":"int","value":367},{"name":"x1","type":"int","value":-147},{"name":"x2","type":"int","value":-135},{"name":"y1","type":"int","value":1907},{"name":"y2","type":"int","value":1895},{"name":"next","type":"int","value":368},{"name":"prev","type":"int","value":366}],"polyline":[{"x":0,"y":0},{"x":12,"y":-12}]},{"id":546,"x":-135,"y":1895,"visible":true,"properties":[{"name":"layer","type":"int","value":1},{"name":"group","type":"int","value":7},{"name":"id","type":"int","value":368},{"name":"fh_layer","type":"int","value":1},{"name":"fh_group","type":"int","value":7},{"name":"fh_id","type":"int","value":368},{"name":"x1","type":"int","value":-135},{"name":"x2","type":"int","value":-97},{"name":"y1","type":"int","value":1895},{"name":"y2","type":"int","value":1889},{"name":"next","type":"int","value":369},{"name":"prev","type":"int","value":367}],"polyline":[{"x":0,"y":0},{"x":38,"y":-6}]},{"id":547,"x":-97,"y":1889,"visible":true,"properties":[{"name":"layer","type":"int","value":1},{"name":"group","type":"int","value":7},{"name":"id","type":"int","value":369},{"name":"fh_layer","type":"int","value":1},{"name":"fh_group","type":"int","value":7},{"name":"fh_id","type":"int","value":369},{"name":"x1","type":"int","value":-97},{"name":"x2","type":"int","value":-81},{"name":"y1","type":"int","value":1889},{"name":"y2","type":"int","value":1888},{"name":"next","type":"int","value":370},{"name":"prev","type":"int","value":368}],"polyline":[{"x":0,"y":0},{"x":16,"y":-1}]},{"id":548,"x":-81,"y":1888,"visible":true,"properties":[{"name":"layer","type":"int","value":1},{"name":"group","type":"int","value":7},{"name":"id","type":"int","value":370},{"name":"fh_layer","type":"int","value":1},{"name":"fh_group","type":"int","value":7},{"name":"fh_id","type":"int","value":370},{"name":"x1","type":"int","value":-81},{"name":"x2","type":"int","value":-57},{"name":"y1","type":"int","value":1888},{"name":"y2","type":"int","value":1881},{"name":"next","type":"int","value":371},{"name":"prev","type":"int","value":369}],"polyline":[{"x":0,"y":0},{"x":24,"y":-7}]},{"id":549,"x":-57,"y":1881,"visible":true,"properties":[{"name":"layer","type":"int","value":1},{"name":"group","type":"int","value":7},{"name":"id","type":"int","value":371},{"name":"fh_layer","type":"int","value":1},{"name":"fh_group","type":"int","value":7},{"name":"fh_id","type":"int","value":371},{"name":"x1","type":"int","value":-57},{"name":"x2","type":"int","value":-36},{"name":"y1","type":"int","value":1881},{"name":"y2","type":"int","value":1866},{"name":"next","type":"int","value":360},{"name":"prev","type":"int","value":370}],"polyline":[{"x":0,"y":0},{"x":21,"y":-15}]},{"id":550,"x":-196,"y":1927,"visible":true,"properties":[{"name":"layer","type":"int","value":1},{"name":"group","type":"int","value":7},{"name":"id","type":"int","value":372},{"name":"fh_layer","type":"int","value":1},{"name":"fh_group","type":"int","value":7},{"name":"fh_id","type":"int","value":372},{"name":"x1","type":"int","value":-196},{"name":"x2","type":"int","value":-175},{"name":"y1","type":"int","value":1927},{"name":"y2","type":"int","value":1913},{"name":"next","type":"int","value":366},{"name":"prev","type":"int","value":31}],"polyline":[{"x":0,"y":0},{"x":21,"y":-14}]},{"id":551,"x":575,"y":1724,"visible":true,"properties":[{"name":"layer","type":"int","value":1},{"name":"group","type":"int","value":12},{"name":"id","type":"int","value":373},{"name":"fh_layer","type":"int","value":1},{"name":"fh_group","type":"int","value":12},{"name":"fh_id","type":"int","value":373},{"name":"x1","type":"int","value":575},{"name":"x2","type":"int","value":611},{"name":"y1","type":"int","value":1724},{"name":"y2","type":"int","value":1711},{"name":"next","type":"int","value":374},{"name":"prev","type":"int","value":0}],"polyline":[{"x":0,"y":0},{"x":36,"y":-13}]},{"id":552,"x":611,"y":1711,"visible":true,"properties":[{"name":"layer","type":"int","value":1},{"name":"group","type":"int","value":12},{"name":"id","type":"int","value":374},{"name":"fh_layer","type":"int","value":1},{"name":"fh_group","type":"int","value":12},{"name":"fh_id","type":"int","value":374},{"name":"x1","type":"int","value":611},{"name":"x2","type":"int","value":655},{"name":"y1","type":"int","value":1711},{"name":"y2","type":"int","value":1710},{"name":"next","type":"int","value":375},{"name":"prev","type":"int","value":373}],"polyline":[{"x":0,"y":0},{"x":44,"y":-1}]},{"id":553,"x":655,"y":1710,"visible":true,"properties":[{"name":"layer","type":"int","value":1},{"name":"group","type":"int","value":12},{"name":"id","type":"int","value":375},{"name":"fh_layer","type":"int","value":1},{"name":"fh_group","type":"int","value":12},{"name":"fh_id","type":"int","value":375},{"name":"x1","type":"int","value":655},{"name":"x2","type":"int","value":658},{"name":"y1","type":"int","value":1710},{"name":"y2","type":"int","value":1710},{"name":"next","type":"int","value":376},{"name":"prev","type":"int","value":374}],"polyline":[{"x":0,"y":0},{"x":3,"y":0}]},{"id":554,"x":658,"y":1710,"visible":true,"properties":[{"name":"layer","type":"int","value":1},{"name":"group","type":"int","value":12},{"name":"id","type":"int","value":376},{"name":"fh_layer","type":"int","value":1},{"name":"fh_group","type":"int","value":12},{"name":"fh_id","type":"int","value":376},{"name":"x1","type":"int","value":658},{"name":"x2","type":"int","value":683},{"name":"y1","type":"int","value":1710},{"name":"y2","type":"int","value":1706},{"name":"next","type":"int","value":377},{"name":"prev","type":"int","value":375}],"polyline":[{"x":0,"y":0},{"x":25,"y":-4}]},{"id":555,"x":683,"y":1706,"visible":true,"properties":[{"name":"layer","type":"int","value":1},{"name":"group","type":"int","value":12},{"name":"id","type":"int","value":377},{"name":"fh_layer","type":"int","value":1},{"name":"fh_group","type":"int","value":12},{"name":"fh_id","type":"int","value":377},{"name":"x1","type":"int","value":683},{"name":"x2","type":"int","value":706},{"name":"y1","type":"int","value":1706},{"name":"y2","type":"int","value":1700},{"name":"next","type":"int","value":378},{"name":"prev","type":"int","value":376}],"polyline":[{"x":0,"y":0},{"x":23,"y":-6}]},{"id":556,"x":706,"y":1700,"visible":true,"properties":[{"name":"layer","type":"int","value":1},{"name":"group","type":"int","value":12},{"name":"id","type":"int","value":378},{"name":"fh_layer","type":"int","value":1},{"name":"fh_group","type":"int","value":12},{"name":"fh_id","type":"int","value":378},{"name":"x1","type":"int","value":706},{"name":"x2","type":"int","value":737},{"name":"y1","type":"int","value":1700},{"name":"y2","type":"int","value":1690},{"name":"next","type":"int","value":379},{"name":"prev","type":"int","value":377}],"polyline":[{"x":0,"y":0},{"x":31,"y":-10}]},{"id":557,"x":737,"y":1690,"visible":true,"properties":[{"name":"layer","type":"int","value":1},{"name":"group","type":"int","value":12},{"name":"id","type":"int","value":379},{"name":"fh_layer","type":"int","value":1},{"name":"fh_group","type":"int","value":12},{"name":"fh_id","type":"int","value":379},{"name":"x1","type":"int","value":737},{"name":"x2","type":"int","value":757},{"name":"y1","type":"int","value":1690},{"name":"y2","type":"int","value":1682},{"name":"next","type":"int","value":380},{"name":"prev","type":"int","value":378}],"polyline":[{"x":0,"y":0},{"x":20,"y":-8}]},{"id":558,"x":757,"y":1682,"visible":true,"properties":[{"name":"layer","type":"int","value":1},{"name":"group","type":"int","value":12},{"name":"id","type":"int","value":380},{"name":"fh_layer","type":"int","value":1},{"name":"fh_group","type":"int","value":12},{"name":"fh_id","type":"int","value":380},{"name":"x1","type":"int","value":757},{"name":"x2","type":"int","value":777},{"name":"y1","type":"int","value":1682},{"name":"y2","type":"int","value":1672},{"name":"next","type":"int","value":381},{"name":"prev","type":"int","value":379}],"polyline":[{"x":0,"y":0},{"x":20,"y":-10}]},{"id":559,"x":777,"y":1672,"visible":true,"properties":[{"name":"layer","type":"int","value":1},{"name":"group","type":"int","value":12},{"name":"id","type":"int","value":381},{"name":"fh_layer","type":"int","value":1},{"name":"fh_group","type":"int","value":12},{"name":"fh_id","type":"int","value":381},{"name":"x1","type":"int","value":777},{"name":"x2","type":"int","value":803},{"name":"y1","type":"int","value":1672},{"name":"y2","type":"int","value":1654},{"name":"next","type":"int","value":382},{"name":"prev","type":"int","value":380}],"polyline":[{"x":0,"y":0},{"x":26,"y":-18}]},{"id":560,"x":803,"y":1654,"visible":true,"properties":[{"name":"layer","type":"int","value":1},{"name":"group","type":"int","value":12},{"name":"id","type":"int","value":382},{"name":"fh_layer","type":"int","value":1},{"name":"fh_group","type":"int","value":12},{"name":"fh_id","type":"int","value":382},{"name":"x1","type":"int","value":803},{"name":"x2","type":"int","value":825},{"name":"y1","type":"int","value":1654},{"name":"y2","type":"int","value":1635},{"name":"next","type":"int","value":383},{"name":"prev","type":"int","value":381}],"polyline":[{"x":0,"y":0},{"x":22,"y":-19}]},{"id":561,"x":825,"y":1635,"visible":true,"properties":[{"name":"layer","type":"int","value":1},{"name":"group","type":"int","value":12},{"name":"id","type":"int","value":383},{"name":"fh_layer","type":"int","value":1},{"name":"fh_group","type":"int","value":12},{"name":"fh_id","type":"int","value":383},{"name":"x1","type":"int","value":825},{"name":"x2","type":"int","value":848},{"name":"y1","type":"int","value":1635},{"name":"y2","type":"int","value":1610},{"name":"next","type":"int","value":386},{"name":"prev","type":"int","value":382}],"polyline":[{"x":0,"y":0},{"x":23,"y":-25}]},{"id":562,"x":830,"y":1617,"visible":true,"properties":[{"name":"layer","type":"int","value":1},{"name":"group","type":"int","value":12},{"name":"id","type":"int","value":384},{"name":"fh_layer","type":"int","value":1},{"name":"fh_group","type":"int","value":12},{"name":"fh_id","type":"int","value":384},{"name":"x1","type":"int","value":830},{"name":"x2","type":"int","value":842},{"name":"y1","type":"int","value":1617},{"name":"y2","type":"int","value":1609},{"name":"next","type":"int","value":385},{"name":"prev","type":"int","value":0}],"polyline":[{"x":0,"y":0},{"x":12,"y":-8}]},{"id":563,"x":842,"y":1609,"visible":true,"properties":[{"name":"layer","type":"int","value":1},{"name":"group","type":"int","value":12},{"name":"id","type":"int","value":385},{"name":"fh_layer","type":"int","value":1},{"name":"fh_group","type":"int","value":12},{"name":"fh_id","type":"int","value":385},{"name":"x1","type":"int","value":842},{"name":"x2","type":"int","value":848},{"name":"y1","type":"int","value":1609},{"name":"y2","type":"int","value":1610},{"name":"next","type":"int","value":386},{"name":"prev","type":"int","value":384}],"polyline":[{"x":0,"y":0},{"x":6,"y":1}]},{"id":564,"x":848,"y":1610,"visible":true,"properties":[{"name":"layer","type":"int","value":1},{"name":"group","type":"int","value":12},{"name":"id","type":"int","value":386},{"name":"fh_layer","type":"int","value":1},{"name":"fh_group","type":"int","value":12},{"name":"fh_id","type":"int","value":386},{"name":"x1","type":"int","value":848},{"name":"x2","type":"int","value":859},{"name":"y1","type":"int","value":1610},{"name":"y2","type":"int","value":1609},{"name":"next","type":"int","value":387},{"name":"prev","type":"int","value":385}],"polyline":[{"x":0,"y":0},{"x":11,"y":-1}]},{"id":565,"x":859,"y":1609,"visible":true,"properties":[{"name":"layer","type":"int","value":1},{"name":"group","type":"int","value":12},{"name":"id","type":"int","value":387},{"name":"fh_layer","type":"int","value":1},{"name":"fh_group","type":"int","value":12},{"name":"fh_id","type":"int","value":387},{"name":"x1","type":"int","value":859},{"name":"x2","type":"int","value":866},{"name":"y1","type":"int","value":1609},{"name":"y2","type":"int","value":1604},{"name":"next","type":"int","value":388},{"name":"prev","type":"int","value":386}],"polyline":[{"x":0,"y":0},{"x":7,"y":-5}]},{"id":566,"x":866,"y":1604,"visible":true,"properties":[{"name":"layer","type":"int","value":1},{"name":"group","type":"int","value":12},{"name":"id","type":"int","value":388},{"name":"fh_layer","type":"int","value":1},{"name":"fh_group","type":"int","value":12},{"name":"fh_id","type":"int","value":388},{"name":"x1","type":"int","value":866},{"name":"x2","type":"int","value":889},{"name":"y1","type":"int","value":1604},{"name":"y2","type":"int","value":1605},{"name":"next","type":"int","value":389},{"name":"prev","type":"int","value":387}],"polyline":[{"x":0,"y":0},{"x":23,"y":1}]},{"id":567,"x":889,"y":1605,"visible":true,"properties":[{"name":"layer","type":"int","value":1},{"name":"group","type":"int","value":12},{"name":"id","type":"int","value":389},{"name":"fh_layer","type":"int","value":1},{"name":"fh_group","type":"int","value":12},{"name":"fh_id","type":"int","value":389},{"name":"x1","type":"int","value":889},{"name":"x2","type":"int","value":898},{"name":"y1","type":"int","value":1605},{"name":"y2","type":"int","value":1602},{"name":"next","type":"int","value":390},{"name":"prev","type":"int","value":388}],"polyline":[{"x":0,"y":0},{"x":9,"y":-3}]},{"id":568,"x":898,"y":1602,"visible":true,"properties":[{"name":"layer","type":"int","value":1},{"name":"group","type":"int","value":12},{"name":"id","type":"int","value":390},{"name":"fh_layer","type":"int","value":1},{"name":"fh_group","type":"int","value":12},{"name":"fh_id","type":"int","value":390},{"name":"x1","type":"int","value":898},{"name":"x2","type":"int","value":936},{"name":"y1","type":"int","value":1602},{"name":"y2","type":"int","value":1603},{"name":"next","type":"int","value":391},{"name":"prev","type":"int","value":389}],"polyline":[{"x":0,"y":0},{"x":38,"y":1}]},{"id":569,"x":936,"y":1603,"visible":true,"properties":[{"name":"layer","type":"int","value":1},{"name":"group","type":"int","value":12},{"name":"id","type":"int","value":391},{"name":"fh_layer","type":"int","value":1},{"name":"fh_group","type":"int","value":12},{"name":"fh_id","type":"int","value":391},{"name":"x1","type":"int","value":936},{"name":"x2","type":"int","value":942},{"name":"y1","type":"int","value":1603},{"name":"y2","type":"int","value":1600},{"name":"next","type":"int","value":392},{"name":"prev","type":"int","value":390}],"polyline":[{"x":0,"y":0},{"x":6,"y":-3}]},{"id":570,"x":942,"y":1600,"visible":true,"properties":[{"name":"layer","type":"int","value":1},{"name":"group","type":"int","value":12},{"name":"id","type":"int","value":392},{"name":"fh_layer","type":"int","value":1},{"name":"fh_group","type":"int","value":12},{"name":"fh_id","type":"int","value":392},{"name":"x1","type":"int","value":942},{"name":"x2","type":"int","value":997},{"name":"y1","type":"int","value":1600},{"name":"y2","type":"int","value":1600},{"name":"next","type":"int","value":393},{"name":"prev","type":"int","value":391}],"polyline":[{"x":0,"y":0},{"x":55,"y":0}]},{"id":571,"x":997,"y":1600,"visible":true,"properties":[{"name":"layer","type":"int","value":1},{"name":"group","type":"int","value":12},{"name":"id","type":"int","value":393},{"name":"fh_layer","type":"int","value":1},{"name":"fh_group","type":"int","value":12},{"name":"fh_id","type":"int","value":393},{"name":"x1","type":"int","value":997},{"name":"x2","type":"int","value":1013},{"name":"y1","type":"int","value":1600},{"name":"y2","type":"int","value":1596},{"name":"next","type":"int","value":394},{"name":"prev","type":"int","value":392}],"polyline":[{"x":0,"y":0},{"x":16,"y":-4}]},{"id":572,"x":1013,"y":1596,"visible":true,"properties":[{"name":"layer","type":"int","value":1},{"name":"group","type":"int","value":12},{"name":"id","type":"int","value":394},{"name":"fh_layer","type":"int","value":1},{"name":"fh_group","type":"int","value":12},{"name":"fh_id","type":"int","value":394},{"name":"x1","type":"int","value":1013},{"name":"x2","type":"int","value":1065},{"name":"y1","type":"int","value":1596},{"name":"y2","type":"int","value":1596},{"name":"next","type":"int","value":395},{"name":"prev","type":"int","value":393}],"polyline":[{"x":0,"y":0},{"x":52,"y":0}]},{"id":573,"x":1065,"y":1596,"visible":true,"properties":[{"name":"layer","type":"int","value":1},{"name":"group","type":"int","value":12},{"name":"id","type":"int","value":395},{"name":"fh_layer","type":"int","value":1},{"name":"fh_group","type":"int","value":12},{"name":"fh_id","type":"int","value":395},{"name":"x1","type":"int","value":1065},{"name":"x2","type":"int","value":1075},{"name":"y1","type":"int","value":1596},{"name":"y2","type":"int","value":1591},{"name":"next","type":"int","value":396},{"name":"prev","type":"int","value":394}],"polyline":[{"x":0,"y":0},{"x":10,"y":-5}]},{"id":574,"x":1075,"y":1591,"visible":true,"properties":[{"name":"layer","type":"int","value":1},{"name":"group","type":"int","value":12},{"name":"id","type":"int","value":396},{"name":"fh_layer","type":"int","value":1},{"name":"fh_group","type":"int","value":12},{"name":"fh_id","type":"int","value":396},{"name":"x1","type":"int","value":1075},{"name":"x2","type":"int","value":1095},{"name":"y1","type":"int","value":1591},{"name":"y2","type":"int","value":1593},{"name":"next","type":"int","value":397},{"name":"prev","type":"int","value":395}],"polyline":[{"x":0,"y":0},{"x":20,"y":2}]},{"id":575,"x":1095,"y":1593,"visible":true,"properties":[{"name":"layer","type":"int","value":1},{"name":"group","type":"int","value":12},{"name":"id","type":"int","value":397},{"name":"fh_layer","type":"int","value":1},{"name":"fh_group","type":"int","value":12},{"name":"fh_id","type":"int","value":397},{"name":"x1","type":"int","value":1095},{"name":"x2","type":"int","value":1110},{"name":"y1","type":"int","value":1593},{"name":"y2","type":"int","value":1599},{"name":"next","type":"int","value":0},{"name":"prev","type":"int","value":396}],"polyline":[{"x":0,"y":0},{"x":15,"y":6}]},{"id":576,"x":692,"y":1590,"visible":true,"properties":[{"name":"layer","type":"int","value":1},{"name":"group","type":"int","value":12},{"name":"id","type":"int","value":398},{"name":"fh_layer","type":"int","value":1},{"name":"fh_group","type":"int","value":12},{"name":"fh_id","type":"int","value":398},{"name":"x1","type":"int","value":692},{"name":"x2","type":"int","value":708},{"name":"y1","type":"int","value":1590},{"name":"y2","type":"int","value":1586},{"name":"next","type":"int","value":399},{"name":"prev","type":"int","value":405}],"polyline":[{"x":0,"y":0},{"x":16,"y":-4}]},{"id":577,"x":708,"y":1586,"visible":true,"properties":[{"name":"layer","type":"int","value":1},{"name":"group","type":"int","value":12},{"name":"id","type":"int","value":399},{"name":"fh_layer","type":"int","value":1},{"name":"fh_group","type":"int","value":12},{"name":"fh_id","type":"int","value":399},{"name":"x1","type":"int","value":708},{"name":"x2","type":"int","value":760},{"name":"y1","type":"int","value":1586},{"name":"y2","type":"int","value":1586},{"name":"next","type":"int","value":400},{"name":"prev","type":"int","value":398}],"polyline":[{"x":0,"y":0},{"x":52,"y":0}]},{"id":578,"x":760,"y":1586,"visible":true,"properties":[{"name":"layer","type":"int","value":1},{"name":"group","type":"int","value":12},{"name":"id","type":"int","value":400},{"name":"fh_layer","type":"int","value":1},{"name":"fh_group","type":"int","value":12},{"name":"fh_id","type":"int","value":400},{"name":"x1","type":"int","value":760},{"name":"x2","type":"int","value":770},{"name":"y1","type":"int","value":1586},{"name":"y2","type":"int","value":1581},{"name":"next","type":"int","value":401},{"name":"prev","type":"int","value":399}],"polyline":[{"x":0,"y":0},{"x":10,"y":-5}]},{"id":579,"x":770,"y":1581,"visible":true,"properties":[{"name":"layer","type":"int","value":1},{"name":"group","type":"int","value":12},{"name":"id","type":"int","value":401},{"name":"fh_layer","type":"int","value":1},{"name":"fh_group","type":"int","value":12},{"name":"fh_id","type":"int","value":401},{"name":"x1","type":"int","value":770},{"name":"x2","type":"int","value":790},{"name":"y1","type":"int","value":1581},{"name":"y2","type":"int","value":1583},{"name":"next","type":"int","value":402},{"name":"prev","type":"int","value":400}],"polyline":[{"x":0,"y":0},{"x":20,"y":2}]},{"id":580,"x":790,"y":1583,"visible":true,"properties":[{"name":"layer","type":"int","value":1},{"name":"group","type":"int","value":12},{"name":"id","type":"int","value":402},{"name":"fh_layer","type":"int","value":1},{"name":"fh_group","type":"int","value":12},{"name":"fh_id","type":"int","value":402},{"name":"x1","type":"int","value":790},{"name":"x2","type":"int","value":805},{"name":"y1","type":"int","value":1583},{"name":"y2","type":"int","value":1589},{"name":"next","type":"int","value":0},{"name":"prev","type":"int","value":401}],"polyline":[{"x":0,"y":0},{"x":15,"y":6}]},{"id":581,"x":559,"y":1565,"visible":true,"properties":[{"name":"layer","type":"int","value":1},{"name":"group","type":"int","value":12},{"name":"id","type":"int","value":403},{"name":"fh_layer","type":"int","value":1},{"name":"fh_group","type":"int","value":12},{"name":"fh_id","type":"int","value":403},{"name":"x1","type":"int","value":559},{"name":"x2","type":"int","value":613},{"name":"y1","type":"int","value":1565},{"name":"y2","type":"int","value":1574},{"name":"next","type":"int","value":404},{"name":"prev","type":"int","value":410}],"polyline":[{"x":0,"y":0},{"x":54,"y":9}]},{"id":582,"x":613,"y":1574,"visible":true,"properties":[{"name":"layer","type":"int","value":1},{"name":"group","type":"int","value":12},{"name":"id","type":"int","value":404},{"name":"fh_layer","type":"int","value":1},{"name":"fh_group","type":"int","value":12},{"name":"fh_id","type":"int","value":404},{"name":"x1","type":"int","value":613},{"name":"x2","type":"int","value":652},{"name":"y1","type":"int","value":1574},{"name":"y2","type":"int","value":1590},{"name":"next","type":"int","value":405},{"name":"prev","type":"int","value":403}],"polyline":[{"x":0,"y":0},{"x":39,"y":16}]},{"id":583,"x":652,"y":1590,"visible":true,"properties":[{"name":"layer","type":"int","value":1},{"name":"group","type":"int","value":12},{"name":"id","type":"int","value":405},{"name":"fh_layer","type":"int","value":1},{"name":"fh_group","type":"int","value":12},{"name":"fh_id","type":"int","value":405},{"name":"x1","type":"int","value":652},{"name":"x2","type":"int","value":692},{"name":"y1","type":"int","value":1590},{"name":"y2","type":"int","value":1590},{"name":"next","type":"int","value":398},{"name":"prev","type":"int","value":404}],"polyline":[{"x":0,"y":0},{"x":40,"y":0}]},{"id":584,"x":451,"y":1530,"visible":true,"properties":[{"name":"layer","type":"int","value":1},{"name":"group","type":"int","value":12},{"name":"id","type":"int","value":406},{"name":"fh_layer","type":"int","value":1},{"name":"fh_group","type":"int","value":12},{"name":"fh_id","type":"int","value":406},{"name":"x1","type":"int","value":451},{"name":"x2","type":"int","value":470},{"name":"y1","type":"int","value":1530},{"name":"y2","type":"int","value":1529},{"name":"next","type":"int","value":407},{"name":"prev","type":"int","value":412}],"polyline":[{"x":0,"y":0},{"x":19,"y":-1}]},{"id":585,"x":470,"y":1529,"visible":true,"properties":[{"name":"layer","type":"int","value":1},{"name":"group","type":"int","value":12},{"name":"id","type":"int","value":407},{"name":"fh_layer","type":"int","value":1},{"name":"fh_group","type":"int","value":12},{"name":"fh_id","type":"int","value":407},{"name":"x1","type":"int","value":470},{"name":"x2","type":"int","value":502},{"name":"y1","type":"int","value":1529},{"name":"y2","type":"int","value":1535},{"name":"next","type":"int","value":408},{"name":"prev","type":"int","value":406}],"polyline":[{"x":0,"y":0},{"x":32,"y":6}]},{"id":586,"x":502,"y":1535,"visible":true,"properties":[{"name":"layer","type":"int","value":1},{"name":"group","type":"int","value":12},{"name":"id","type":"int","value":408},{"name":"fh_layer","type":"int","value":1},{"name":"fh_group","type":"int","value":12},{"name":"fh_id","type":"int","value":408},{"name":"x1","type":"int","value":502},{"name":"x2","type":"int","value":523},{"name":"y1","type":"int","value":1535},{"name":"y2","type":"int","value":1550},{"name":"next","type":"int","value":409},{"name":"prev","type":"int","value":407}],"polyline":[{"x":0,"y":0},{"x":21,"y":15}]},{"id":587,"x":523,"y":1550,"visible":true,"properties":[{"name":"layer","type":"int","value":1},{"name":"group","type":"int","value":12},{"name":"id","type":"int","value":409},{"name":"fh_layer","type":"int","value":1},{"name":"fh_group","type":"int","value":12},{"name":"fh_id","type":"int","value":409},{"name":"x1","type":"int","value":523},{"name":"x2","type":"int","value":543},{"name":"y1","type":"int","value":1550},{"name":"y2","type":"int","value":1553},{"name":"next","type":"int","value":410},{"name":"prev","type":"int","value":408}],"polyline":[{"x":0,"y":0},{"x":20,"y":3}]},{"id":588,"x":543,"y":1553,"visible":true,"properties":[{"name":"layer","type":"int","value":1},{"name":"group","type":"int","value":12},{"name":"id","type":"int","value":410},{"name":"fh_layer","type":"int","value":1},{"name":"fh_group","type":"int","value":12},{"name":"fh_id","type":"int","value":410},{"name":"x1","type":"int","value":543},{"name":"x2","type":"int","value":559},{"name":"y1","type":"int","value":1553},{"name":"y2","type":"int","value":1565},{"name":"next","type":"int","value":403},{"name":"prev","type":"int","value":409}],"polyline":[{"x":0,"y":0},{"x":16,"y":12}]},{"id":589,"x":388,"y":1503,"visible":true,"properties":[{"name":"layer","type":"int","value":1},{"name":"group","type":"int","value":12},{"name":"id","type":"int","value":411},{"name":"fh_layer","type":"int","value":1},{"name":"fh_group","type":"int","value":12},{"name":"fh_id","type":"int","value":411},{"name":"x1","type":"int","value":388},{"name":"x2","type":"int","value":427},{"name":"y1","type":"int","value":1503},{"name":"y2","type":"int","value":1521},{"name":"next","type":"int","value":412},{"name":"prev","type":"int","value":418}],"polyline":[{"x":0,"y":0},{"x":39,"y":18}]},{"id":590,"x":427,"y":1521,"visible":true,"properties":[{"name":"layer","type":"int","value":1},{"name":"group","type":"int","value":12},{"name":"id","type":"int","value":412},{"name":"fh_layer","type":"int","value":1},{"name":"fh_group","type":"int","value":12},{"name":"fh_id","type":"int","value":412},{"name":"x1","type":"int","value":427},{"name":"x2","type":"int","value":451},{"name":"y1","type":"int","value":1521},{"name":"y2","type":"int","value":1530},{"name":"next","type":"int","value":406},{"name":"prev","type":"int","value":411}],"polyline":[{"x":0,"y":0},{"x":24,"y":9}]},{"id":591,"x":235,"y":1464,"visible":true,"properties":[{"name":"layer","type":"int","value":1},{"name":"group","type":"int","value":12},{"name":"id","type":"int","value":413},{"name":"fh_layer","type":"int","value":1},{"name":"fh_group","type":"int","value":12},{"name":"fh_id","type":"int","value":413},{"name":"x1","type":"int","value":235},{"name":"x2","type":"int","value":254},{"name":"y1","type":"int","value":1464},{"name":"y2","type":"int","value":1463},{"name":"next","type":"int","value":414},{"name":"prev","type":"int","value":422}],"polyline":[{"x":0,"y":0},{"x":19,"y":-1}]},{"id":592,"x":254,"y":1463,"visible":true,"properties":[{"name":"layer","type":"int","value":1},{"name":"group","type":"int","value":12},{"name":"id","type":"int","value":414},{"name":"fh_layer","type":"int","value":1},{"name":"fh_group","type":"int","value":12},{"name":"fh_id","type":"int","value":414},{"name":"x1","type":"int","value":254},{"name":"x2","type":"int","value":286},{"name":"y1","type":"int","value":1463},{"name":"y2","type":"int","value":1469},{"name":"next","type":"int","value":415},{"name":"prev","type":"int","value":413}],"polyline":[{"x":0,"y":0},{"x":32,"y":6}]},{"id":593,"x":286,"y":1469,"visible":true,"properties":[{"name":"layer","type":"int","value":1},{"name":"group","type":"int","value":12},{"name":"id","type":"int","value":415},{"name":"fh_layer","type":"int","value":1},{"name":"fh_group","type":"int","value":12},{"name":"fh_id","type":"int","value":415},{"name":"x1","type":"int","value":286},{"name":"x2","type":"int","value":307},{"name":"y1","type":"int","value":1469},{"name":"y2","type":"int","value":1484},{"name":"next","type":"int","value":416},{"name":"prev","type":"int","value":414}],"polyline":[{"x":0,"y":0},{"x":21,"y":15}]},{"id":594,"x":307,"y":1484,"visible":true,"properties":[{"name":"layer","type":"int","value":1},{"name":"group","type":"int","value":12},{"name":"id","type":"int","value":416},{"name":"fh_layer","type":"int","value":1},{"name":"fh_group","type":"int","value":12},{"name":"fh_id","type":"int","value":416},{"name":"x1","type":"int","value":307},{"name":"x2","type":"int","value":327},{"name":"y1","type":"int","value":1484},{"name":"y2","type":"int","value":1487},{"name":"next","type":"int","value":417},{"name":"prev","type":"int","value":415}],"polyline":[{"x":0,"y":0},{"x":20,"y":3}]},{"id":595,"x":327,"y":1487,"visible":true,"properties":[{"name":"layer","type":"int","value":1},{"name":"group","type":"int","value":12},{"name":"id","type":"int","value":417},{"name":"fh_layer","type":"int","value":1},{"name":"fh_group","type":"int","value":12},{"name":"fh_id","type":"int","value":417},{"name":"x1","type":"int","value":327},{"name":"x2","type":"int","value":344},{"name":"y1","type":"int","value":1487},{"name":"y2","type":"int","value":1499},{"name":"next","type":"int","value":418},{"name":"prev","type":"int","value":416}],"polyline":[{"x":0,"y":0},{"x":17,"y":12}]},{"id":596,"x":344,"y":1499,"visible":true,"properties":[{"name":"layer","type":"int","value":1},{"name":"group","type":"int","value":12},{"name":"id","type":"int","value":418},{"name":"fh_layer","type":"int","value":1},{"name":"fh_group","type":"int","value":12},{"name":"fh_id","type":"int","value":418},{"name":"x1","type":"int","value":344},{"name":"x2","type":"int","value":388},{"name":"y1","type":"int","value":1499},{"name":"y2","type":"int","value":1503},{"name":"next","type":"int","value":411},{"name":"prev","type":"int","value":417}],"polyline":[{"x":0,"y":0},{"x":44,"y":4}]},{"id":597,"x":103,"y":1431,"visible":true,"properties":[{"name":"layer","type":"int","value":1},{"name":"group","type":"int","value":12},{"name":"id","type":"int","value":419},{"name":"fh_layer","type":"int","value":1},{"name":"fh_group","type":"int","value":12},{"name":"fh_id","type":"int","value":419},{"name":"x1","type":"int","value":103},{"name":"x2","type":"int","value":108},{"name":"y1","type":"int","value":1431},{"name":"y2","type":"int","value":1429},{"name":"next","type":"int","value":420},{"name":"prev","type":"int","value":529}],"polyline":[{"x":0,"y":0},{"x":5,"y":-2}]},{"id":598,"x":108,"y":1429,"visible":true,"properties":[{"name":"layer","type":"int","value":1},{"name":"group","type":"int","value":12},{"name":"id","type":"int","value":420},{"name":"fh_layer","type":"int","value":1},{"name":"fh_group","type":"int","value":12},{"name":"fh_id","type":"int","value":420},{"name":"x1","type":"int","value":108},{"name":"x2","type":"int","value":161},{"name":"y1","type":"int","value":1429},{"name":"y2","type":"int","value":1433},{"name":"next","type":"int","value":421},{"name":"prev","type":"int","value":419}],"polyline":[{"x":0,"y":0},{"x":53,"y":4}]},{"id":599,"x":161,"y":1433,"visible":true,"properties":[{"name":"layer","type":"int","value":1},{"name":"group","type":"int","value":12},{"name":"id","type":"int","value":421},{"name":"fh_layer","type":"int","value":1},{"name":"fh_group","type":"int","value":12},{"name":"fh_id","type":"int","value":421},{"name":"x1","type":"int","value":161},{"name":"x2","type":"int","value":201},{"name":"y1","type":"int","value":1433},{"name":"y2","type":"int","value":1452},{"name":"next","type":"int","value":422},{"name":"prev","type":"int","value":420}],"polyline":[{"x":0,"y":0},{"x":40,"y":19}]},{"id":600,"x":201,"y":1452,"visible":true,"properties":[{"name":"layer","type":"int","value":1},{"name":"group","type":"int","value":12},{"name":"id","type":"int","value":422},{"name":"fh_layer","type":"int","value":1},{"name":"fh_group","type":"int","value":12},{"name":"fh_id","type":"int","value":422},{"name":"x1","type":"int","value":201},{"name":"x2","type":"int","value":235},{"name":"y1","type":"int","value":1452},{"name":"y2","type":"int","value":1464},{"name":"next","type":"int","value":413},{"name":"prev","type":"int","value":421}],"polyline":[{"x":0,"y":0},{"x":34,"y":12}]},{"id":601,"x":531,"y":1517,"visible":true,"properties":[{"name":"layer","type":"int","value":1},{"name":"group","type":"int","value":12},{"name":"id","type":"int","value":423},{"name":"fh_layer","type":"int","value":1},{"name":"fh_group","type":"int","value":12},{"name":"fh_id","type":"int","value":423},{"name":"x1","type":"int","value":531},{"name":"x2","type":"int","value":567},{"name":"y1","type":"int","value":1517},{"name":"y2","type":"int","value":1504},{"name":"next","type":"int","value":424},{"name":"prev","type":"int","value":0}],"polyline":[{"x":0,"y":0},{"x":36,"y":-13}]},{"id":602,"x":567,"y":1504,"visible":true,"properties":[{"name":"layer","type":"int","value":1},{"name":"group","type":"int","value":12},{"name":"id","type":"int","value":424},{"name":"fh_layer","type":"int","value":1},{"name":"fh_group","type":"int","value":12},{"name":"fh_id","type":"int","value":424},{"name":"x1","type":"int","value":567},{"name":"x2","type":"int","value":596},{"name":"y1","type":"int","value":1504},{"name":"y2","type":"int","value":1508},{"name":"next","type":"int","value":425},{"name":"prev","type":"int","value":423}],"polyline":[{"x":0,"y":0},{"x":29,"y":4}]},{"id":603,"x":596,"y":1508,"visible":true,"properties":[{"name":"layer","type":"int","value":1},{"name":"group","type":"int","value":12},{"name":"id","type":"int","value":425},{"name":"fh_layer","type":"int","value":1},{"name":"fh_group","type":"int","value":12},{"name":"fh_id","type":"int","value":425},{"name":"x1","type":"int","value":596},{"name":"x2","type":"int","value":626},{"name":"y1","type":"int","value":1508},{"name":"y2","type":"int","value":1508},{"name":"next","type":"int","value":426},{"name":"prev","type":"int","value":424}],"polyline":[{"x":0,"y":0},{"x":30,"y":0}]},{"id":604,"x":626,"y":1508,"visible":true,"properties":[{"name":"layer","type":"int","value":1},{"name":"group","type":"int","value":12},{"name":"id","type":"int","value":426},{"name":"fh_layer","type":"int","value":1},{"name":"fh_group","type":"int","value":12},{"name":"fh_id","type":"int","value":426},{"name":"x1","type":"int","value":626},{"name":"x2","type":"int","value":637},{"name":"y1","type":"int","value":1508},{"name":"y2","type":"int","value":1506},{"name":"next","type":"int","value":427},{"name":"prev","type":"int","value":425}],"polyline":[{"x":0,"y":0},{"x":11,"y":-2}]},{"id":605,"x":637,"y":1506,"visible":true,"properties":[{"name":"layer","type":"int","value":1},{"name":"group","type":"int","value":12},{"name":"id","type":"int","value":427},{"name":"fh_layer","type":"int","value":1},{"name":"fh_group","type":"int","value":12},{"name":"fh_id","type":"int","value":427},{"name":"x1","type":"int","value":637},{"name":"x2","type":"int","value":638},{"name":"y1","type":"int","value":1506},{"name":"y2","type":"int","value":1506},{"name":"next","type":"int","value":428},{"name":"prev","type":"int","value":426}],"polyline":[{"x":0,"y":0},{"x":1,"y":0}]},{"id":606,"x":638,"y":1506,"visible":true,"properties":[{"name":"layer","type":"int","value":1},{"name":"group","type":"int","value":12},{"name":"id","type":"int","value":428},{"name":"fh_layer","type":"int","value":1},{"name":"fh_group","type":"int","value":12},{"name":"fh_id","type":"int","value":428},{"name":"x1","type":"int","value":638},{"name":"x2","type":"int","value":655},{"name":"y1","type":"int","value":1506},{"name":"y2","type":"int","value":1503},{"name":"next","type":"int","value":429},{"name":"prev","type":"int","value":427}],"polyline":[{"x":0,"y":0},{"x":17,"y":-3}]},{"id":607,"x":655,"y":1503,"visible":true,"properties":[{"name":"layer","type":"int","value":1},{"name":"group","type":"int","value":12},{"name":"id","type":"int","value":429},{"name":"fh_layer","type":"int","value":1},{"name":"fh_group","type":"int","value":12},{"name":"fh_id","type":"int","value":429},{"name":"x1","type":"int","value":655},{"name":"x2","type":"int","value":678},{"name":"y1","type":"int","value":1503},{"name":"y2","type":"int","value":1497},{"name":"next","type":"int","value":430},{"name":"prev","type":"int","value":428}],"polyline":[{"x":0,"y":0},{"x":23,"y":-6}]},{"id":608,"x":678,"y":1497,"visible":true,"properties":[{"name":"layer","type":"int","value":1},{"name":"group","type":"int","value":12},{"name":"id","type":"int","value":430},{"name":"fh_layer","type":"int","value":1},{"name":"fh_group","type":"int","value":12},{"name":"fh_id","type":"int","value":430},{"name":"x1","type":"int","value":678},{"name":"x2","type":"int","value":709},{"name":"y1","type":"int","value":1497},{"name":"y2","type":"int","value":1487},{"name":"next","type":"int","value":431},{"name":"prev","type":"int","value":429}],"polyline":[{"x":0,"y":0},{"x":31,"y":-10}]},{"id":609,"x":709,"y":1487,"visible":true,"properties":[{"name":"layer","type":"int","value":1},{"name":"group","type":"int","value":12},{"name":"id","type":"int","value":431},{"name":"fh_layer","type":"int","value":1},{"name":"fh_group","type":"int","value":12},{"name":"fh_id","type":"int","value":431},{"name":"x1","type":"int","value":709},{"name":"x2","type":"int","value":729},{"name":"y1","type":"int","value":1487},{"name":"y2","type":"int","value":1479},{"name":"next","type":"int","value":432},{"name":"prev","type":"int","value":430}],"polyline":[{"x":0,"y":0},{"x":20,"y":-8}]},{"id":610,"x":729,"y":1479,"visible":true,"properties":[{"name":"layer","type":"int","value":1},{"name":"group","type":"int","value":12},{"name":"id","type":"int","value":432},{"name":"fh_layer","type":"int","value":1},{"name":"fh_group","type":"int","value":12},{"name":"fh_id","type":"int","value":432},{"name":"x1","type":"int","value":729},{"name":"x2","type":"int","value":749},{"name":"y1","type":"int","value":1479},{"name":"y2","type":"int","value":1469},{"name":"next","type":"int","value":433},{"name":"prev","type":"int","value":431}],"polyline":[{"x":0,"y":0},{"x":20,"y":-10}]},{"id":611,"x":749,"y":1469,"visible":true,"properties":[{"name":"layer","type":"int","value":1},{"name":"group","type":"int","value":12},{"name":"id","type":"int","value":433},{"name":"fh_layer","type":"int","value":1},{"name":"fh_group","type":"int","value":12},{"name":"fh_id","type":"int","value":433},{"name":"x1","type":"int","value":749},{"name":"x2","type":"int","value":775},{"name":"y1","type":"int","value":1469},{"name":"y2","type":"int","value":1451},{"name":"next","type":"int","value":434},{"name":"prev","type":"int","value":432}],"polyline":[{"x":0,"y":0},{"x":26,"y":-18}]},{"id":612,"x":775,"y":1451,"visible":true,"properties":[{"name":"layer","type":"int","value":1},{"name":"group","type":"int","value":12},{"name":"id","type":"int","value":434},{"name":"fh_layer","type":"int","value":1},{"name":"fh_group","type":"int","value":12},{"name":"fh_id","type":"int","value":434},{"name":"x1","type":"int","value":775},{"name":"x2","type":"int","value":797},{"name":"y1","type":"int","value":1451},{"name":"y2","type":"int","value":1432},{"name":"next","type":"int","value":435},{"name":"prev","type":"int","value":433}],"polyline":[{"x":0,"y":0},{"x":22,"y":-19}]},{"id":613,"x":797,"y":1432,"visible":true,"properties":[{"name":"layer","type":"int","value":1},{"name":"group","type":"int","value":12},{"name":"id","type":"int","value":435},{"name":"fh_layer","type":"int","value":1},{"name":"fh_group","type":"int","value":12},{"name":"fh_id","type":"int","value":435},{"name":"x1","type":"int","value":797},{"name":"x2","type":"int","value":821},{"name":"y1","type":"int","value":1432},{"name":"y2","type":"int","value":1403},{"name":"next","type":"int","value":436},{"name":"prev","type":"int","value":434}],"polyline":[{"x":0,"y":0},{"x":24,"y":-29}]},{"id":614,"x":821,"y":1403,"visible":true,"properties":[{"name":"layer","type":"int","value":1},{"name":"group","type":"int","value":12},{"name":"id","type":"int","value":436},{"name":"fh_layer","type":"int","value":1},{"name":"fh_group","type":"int","value":12},{"name":"fh_id","type":"int","value":436},{"name":"x1","type":"int","value":821},{"name":"x2","type":"int","value":840},{"name":"y1","type":"int","value":1403},{"name":"y2","type":"int","value":1395},{"name":"next","type":"int","value":437},{"name":"prev","type":"int","value":435}],"polyline":[{"x":0,"y":0},{"x":19,"y":-8}]},{"id":615,"x":840,"y":1395,"visible":true,"properties":[{"name":"layer","type":"int","value":1},{"name":"group","type":"int","value":12},{"name":"id","type":"int","value":437},{"name":"fh_layer","type":"int","value":1},{"name":"fh_group","type":"int","value":12},{"name":"fh_id","type":"int","value":437},{"name":"x1","type":"int","value":840},{"name":"x2","type":"int","value":869},{"name":"y1","type":"int","value":1395},{"name":"y2","type":"int","value":1399},{"name":"next","type":"int","value":438},{"name":"prev","type":"int","value":436}],"polyline":[{"x":0,"y":0},{"x":29,"y":4}]},{"id":616,"x":869,"y":1399,"visible":true,"properties":[{"name":"layer","type":"int","value":1},{"name":"group","type":"int","value":12},{"name":"id","type":"int","value":438},{"name":"fh_layer","type":"int","value":1},{"name":"fh_group","type":"int","value":12},{"name":"fh_id","type":"int","value":438},{"name":"x1","type":"int","value":869},{"name":"x2","type":"int","value":896},{"name":"y1","type":"int","value":1399},{"name":"y2","type":"int","value":1399},{"name":"next","type":"int","value":439},{"name":"prev","type":"int","value":437}],"polyline":[{"x":0,"y":0},{"x":27,"y":0}]},{"id":617,"x":896,"y":1399,"visible":true,"properties":[{"name":"layer","type":"int","value":1},{"name":"group","type":"int","value":12},{"name":"id","type":"int","value":439},{"name":"fh_layer","type":"int","value":1},{"name":"fh_group","type":"int","value":12},{"name":"fh_id","type":"int","value":439},{"name":"x1","type":"int","value":896},{"name":"x2","type":"int","value":920},{"name":"y1","type":"int","value":1399},{"name":"y2","type":"int","value":1393},{"name":"next","type":"int","value":440},{"name":"prev","type":"int","value":438}],"polyline":[{"x":0,"y":0},{"x":24,"y":-6}]},{"id":618,"x":920,"y":1393,"visible":true,"properties":[{"name":"layer","type":"int","value":1},{"name":"group","type":"int","value":12},{"name":"id","type":"int","value":440},{"name":"fh_layer","type":"int","value":1},{"name":"fh_group","type":"int","value":12},{"name":"fh_id","type":"int","value":440},{"name":"x1","type":"int","value":920},{"name":"x2","type":"int","value":943},{"name":"y1","type":"int","value":1393},{"name":"y2","type":"int","value":1385},{"name":"next","type":"int","value":441},{"name":"prev","type":"int","value":439}],"polyline":[{"x":0,"y":0},{"x":23,"y":-8}]},{"id":619,"x":943,"y":1385,"visible":true,"properties":[{"name":"layer","type":"int","value":1},{"name":"group","type":"int","value":12},{"name":"id","type":"int","value":441},{"name":"fh_layer","type":"int","value":1},{"name":"fh_group","type":"int","value":12},{"name":"fh_id","type":"int","value":441},{"name":"x1","type":"int","value":943},{"name":"x2","type":"int","value":963},{"name":"y1","type":"int","value":1385},{"name":"y2","type":"int","value":1374},{"name":"next","type":"int","value":442},{"name":"prev","type":"int","value":440}],"polyline":[{"x":0,"y":0},{"x":20,"y":-11}]},{"id":620,"x":963,"y":1374,"visible":true,"properties":[{"name":"layer","type":"int","value":1},{"name":"group","type":"int","value":12},{"name":"id","type":"int","value":442},{"name":"fh_layer","type":"int","value":1},{"name":"fh_group","type":"int","value":12},{"name":"fh_id","type":"int","value":442},{"name":"x1","type":"int","value":963},{"name":"x2","type":"int","value":988},{"name":"y1","type":"int","value":1374},{"name":"y2","type":"int","value":1350},{"name":"next","type":"int","value":443},{"name":"prev","type":"int","value":441}],"polyline":[{"x":0,"y":0},{"x":25,"y":-24}]},{"id":621,"x":988,"y":1350,"visible":true,"properties":[{"name":"layer","type":"int","value":1},{"name":"group","type":"int","value":12},{"name":"id","type":"int","value":443},{"name":"fh_layer","type":"int","value":1},{"name":"fh_group","type":"int","value":12},{"name":"fh_id","type":"int","value":443},{"name":"x1","type":"int","value":988},{"name":"x2","type":"int","value":1008},{"name":"y1","type":"int","value":1350},{"name":"y2","type":"int","value":1342},{"name":"next","type":"int","value":444},{"name":"prev","type":"int","value":442}],"polyline":[{"x":0,"y":0},{"x":20,"y":-8}]},{"id":622,"x":1008,"y":1342,"visible":true,"properties":[{"name":"layer","type":"int","value":1},{"name":"group","type":"int","value":12},{"name":"id","type":"int","value":444},{"name":"fh_layer","type":"int","value":1},{"name":"fh_group","type":"int","value":12},{"name":"fh_id","type":"int","value":444},{"name":"x1","type":"int","value":1008},{"name":"x2","type":"int","value":1052},{"name":"y1","type":"int","value":1342},{"name":"y2","type":"int","value":1341},{"name":"next","type":"int","value":445},{"name":"prev","type":"int","value":443}],"polyline":[{"x":0,"y":0},{"x":44,"y":-1}]},{"id":623,"x":1052,"y":1341,"visible":true,"properties":[{"name":"layer","type":"int","value":1},{"name":"group","type":"int","value":12},{"name":"id","type":"int","value":445},{"name":"fh_layer","type":"int","value":1},{"name":"fh_group","type":"int","value":12},{"name":"fh_id","type":"int","value":445},{"name":"x1","type":"int","value":1052},{"name":"x2","type":"int","value":1097},{"name":"y1","type":"int","value":1341},{"name":"y2","type":"int","value":1351},{"name":"next","type":"int","value":0},{"name":"prev","type":"int","value":444}],"polyline":[{"x":0,"y":0},{"x":45,"y":10}]},{"id":624,"x":-933,"y":1559,"visible":true,"properties":[{"name":"layer","type":"int","value":1},{"name":"group","type":"int","value":16},{"name":"id","type":"int","value":550},{"name":"fh_layer","type":"int","value":1},{"name":"fh_group","type":"int","value":16},{"name":"fh_id","type":"int","value":550},{"name":"x1","type":"int","value":-933},{"name":"x2","type":"int","value":-907},{"name":"y1","type":"int","value":1559},{"name":"y2","type":"int","value":1577},{"name":"next","type":"int","value":551},{"name":"prev","type":"int","value":559}],"polyline":[{"x":0,"y":0},{"x":26,"y":18}]},{"id":625,"x":-907,"y":1577,"visible":true,"properties":[{"name":"layer","type":"int","value":1},{"name":"group","type":"int","value":16},{"name":"id","type":"int","value":551},{"name":"fh_layer","type":"int","value":1},{"name":"fh_group","type":"int","value":16},{"name":"fh_id","type":"int","value":551},{"name":"x1","type":"int","value":-907},{"name":"x2","type":"int","value":-897},{"name":"y1","type":"int","value":1577},{"name":"y2","type":"int","value":1587},{"name":"next","type":"int","value":552},{"name":"prev","type":"int","value":550}],"polyline":[{"x":0,"y":0},{"x":10,"y":10}]},{"id":626,"x":-897,"y":1587,"visible":true,"properties":[{"name":"layer","type":"int","value":1},{"name":"group","type":"int","value":16},{"name":"id","type":"int","value":552},{"name":"fh_layer","type":"int","value":1},{"name":"fh_group","type":"int","value":16},{"name":"fh_id","type":"int","value":552},{"name":"x1","type":"int","value":-897},{"name":"x2","type":"int","value":-874},{"name":"y1","type":"int","value":1587},{"name":"y2","type":"int","value":1598},{"name":"next","type":"int","value":553},{"name":"prev","type":"int","value":551}],"polyline":[{"x":0,"y":0},{"x":23,"y":11}]},{"id":627,"x":-874,"y":1598,"visible":true,"properties":[{"name":"layer","type":"int","value":1},{"name":"group","type":"int","value":16},{"name":"id","type":"int","value":553},{"name":"fh_layer","type":"int","value":1},{"name":"fh_group","type":"int","value":16},{"name":"fh_id","type":"int","value":553},{"name":"x1","type":"int","value":-874},{"name":"x2","type":"int","value":-852},{"name":"y1","type":"int","value":1598},{"name":"y2","type":"int","value":1606},{"name":"next","type":"int","value":554},{"name":"prev","type":"int","value":552}],"polyline":[{"x":0,"y":0},{"x":22,"y":8}]},{"id":628,"x":-852,"y":1606,"visible":true,"properties":[{"name":"layer","type":"int","value":1},{"name":"group","type":"int","value":16},{"name":"id","type":"int","value":554},{"name":"fh_layer","type":"int","value":1},{"name":"fh_group","type":"int","value":16},{"name":"fh_id","type":"int","value":554},{"name":"x1","type":"int","value":-852},{"name":"x2","type":"int","value":-827},{"name":"y1","type":"int","value":1606},{"name":"y2","type":"int","value":1614},{"name":"next","type":"int","value":555},{"name":"prev","type":"int","value":553}],"polyline":[{"x":0,"y":0},{"x":25,"y":8}]},{"id":629,"x":-827,"y":1614,"visible":true,"properties":[{"name":"layer","type":"int","value":1},{"name":"group","type":"int","value":16},{"name":"id","type":"int","value":555},{"name":"fh_layer","type":"int","value":1},{"name":"fh_group","type":"int","value":16},{"name":"fh_id","type":"int","value":555},{"name":"x1","type":"int","value":-827},{"name":"x2","type":"int","value":-796},{"name":"y1","type":"int","value":1614},{"name":"y2","type":"int","value":1622},{"name":"next","type":"int","value":556},{"name":"prev","type":"int","value":554}],"polyline":[{"x":0,"y":0},{"x":31,"y":8}]},{"id":630,"x":-796,"y":1622,"visible":true,"properties":[{"name":"layer","type":"int","value":1},{"name":"group","type":"int","value":16},{"name":"id","type":"int","value":556},{"name":"fh_layer","type":"int","value":1},{"name":"fh_group","type":"int","value":16},{"name":"fh_id","type":"int","value":556},{"name":"x1","type":"int","value":-796},{"name":"x2","type":"int","value":-784},{"name":"y1","type":"int","value":1622},{"name":"y2","type":"int","value":1624},{"name":"next","type":"int","value":621},{"name":"prev","type":"int","value":555}],"polyline":[{"x":0,"y":0},{"x":12,"y":2}]},{"id":631,"x":-1047,"y":1503,"visible":true,"properties":[{"name":"layer","type":"int","value":1},{"name":"group","type":"int","value":16},{"name":"id","type":"int","value":557},{"name":"fh_layer","type":"int","value":1},{"name":"fh_group","type":"int","value":16},{"name":"fh_id","type":"int","value":557},{"name":"x1","type":"int","value":-1047},{"name":"x2","type":"int","value":-993},{"name":"y1","type":"int","value":1503},{"name":"y2","type":"int","value":1512},{"name":"next","type":"int","value":558},{"name":"prev","type":"int","value":567}],"polyline":[{"x":0,"y":0},{"x":54,"y":9}]},{"id":632,"x":-993,"y":1512,"visible":true,"properties":[{"name":"layer","type":"int","value":1},{"name":"group","type":"int","value":16},{"name":"id","type":"int","value":558},{"name":"fh_layer","type":"int","value":1},{"name":"fh_group","type":"int","value":16},{"name":"fh_id","type":"int","value":558},{"name":"x1","type":"int","value":-993},{"name":"x2","type":"int","value":-960},{"name":"y1","type":"int","value":1512},{"name":"y2","type":"int","value":1526},{"name":"next","type":"int","value":559},{"name":"prev","type":"int","value":557}],"polyline":[{"x":0,"y":0},{"x":33,"y":14}]},{"id":633,"x":-960,"y":1526,"visible":true,"properties":[{"name":"layer","type":"int","value":1},{"name":"group","type":"int","value":16},{"name":"id","type":"int","value":559},{"name":"fh_layer","type":"int","value":1},{"name":"fh_group","type":"int","value":16},{"name":"fh_id","type":"int","value":559},{"name":"x1","type":"int","value":-960},{"name":"x2","type":"int","value":-933},{"name":"y1","type":"int","value":1526},{"name":"y2","type":"int","value":1559},{"name":"next","type":"int","value":550},{"name":"prev","type":"int","value":558}],"polyline":[{"x":0,"y":0},{"x":27,"y":33}]},{"id":634,"x":-1225,"y":1605,"visible":true,"properties":[{"name":"layer","type":"int","value":1},{"name":"group","type":"int","value":16},{"name":"id","type":"int","value":560},{"name":"fh_layer","type":"int","value":1},{"name":"fh_group","type":"int","value":16},{"name":"fh_id","type":"int","value":560},{"name":"x1","type":"int","value":-1225},{"name":"x2","type":"int","value":-1202},{"name":"y1","type":"int","value":1605},{"name":"y2","type":"int","value":1599},{"name":"next","type":"int","value":561},{"name":"prev","type":"int","value":571}],"polyline":[{"x":0,"y":0},{"x":23,"y":-6}]},{"id":635,"x":-1202,"y":1599,"visible":true,"properties":[{"name":"layer","type":"int","value":1},{"name":"group","type":"int","value":16},{"name":"id","type":"int","value":561},{"name":"fh_layer","type":"int","value":1},{"name":"fh_group","type":"int","value":16},{"name":"fh_id","type":"int","value":561},{"name":"x1","type":"int","value":-1202},{"name":"x2","type":"int","value":-1171},{"name":"y1","type":"int","value":1599},{"name":"y2","type":"int","value":1589},{"name":"next","type":"int","value":562},{"name":"prev","type":"int","value":560}],"polyline":[{"x":0,"y":0},{"x":31,"y":-10}]},{"id":636,"x":-1171,"y":1589,"visible":true,"properties":[{"name":"layer","type":"int","value":1},{"name":"group","type":"int","value":16},{"name":"id","type":"int","value":562},{"name":"fh_layer","type":"int","value":1},{"name":"fh_group","type":"int","value":16},{"name":"fh_id","type":"int","value":562},{"name":"x1","type":"int","value":-1171},{"name":"x2","type":"int","value":-1151},{"name":"y1","type":"int","value":1589},{"name":"y2","type":"int","value":1581},{"name":"next","type":"int","value":563},{"name":"prev","type":"int","value":561}],"polyline":[{"x":0,"y":0},{"x":20,"y":-8}]},{"id":637,"x":-1151,"y":1581,"visible":true,"properties":[{"name":"layer","type":"int","value":1},{"name":"group","type":"int","value":16},{"name":"id","type":"int","value":563},{"name":"fh_layer","type":"int","value":1},{"name":"fh_group","type":"int","value":16},{"name":"fh_id","type":"int","value":563},{"name":"x1","type":"int","value":-1151},{"name":"x2","type":"int","value":-1131},{"name":"y1","type":"int","value":1581},{"name":"y2","type":"int","value":1571},{"name":"next","type":"int","value":564},{"name":"prev","type":"int","value":562}],"polyline":[{"x":0,"y":0},{"x":20,"y":-10}]},{"id":638,"x":-1131,"y":1571,"visible":true,"properties":[{"name":"layer","type":"int","value":1},{"name":"group","type":"int","value":16},{"name":"id","type":"int","value":564},{"name":"fh_layer","type":"int","value":1},{"name":"fh_group","type":"int","value":16},{"name":"fh_id","type":"int","value":564},{"name":"x1","type":"int","value":-1131},{"name":"x2","type":"int","value":-1105},{"name":"y1","type":"int","value":1571},{"name":"y2","type":"int","value":1553},{"name":"next","type":"int","value":565},{"name":"prev","type":"int","value":563}],"polyline":[{"x":0,"y":0},{"x":26,"y":-18}]},{"id":639,"x":-1105,"y":1553,"visible":true,"properties":[{"name":"layer","type":"int","value":1},{"name":"group","type":"int","value":16},{"name":"id","type":"int","value":565},{"name":"fh_layer","type":"int","value":1},{"name":"fh_group","type":"int","value":16},{"name":"fh_id","type":"int","value":565},{"name":"x1","type":"int","value":-1105},{"name":"x2","type":"int","value":-1083},{"name":"y1","type":"int","value":1553},{"name":"y2","type":"int","value":1534},{"name":"next","type":"int","value":566},{"name":"prev","type":"int","value":564}],"polyline":[{"x":0,"y":0},{"x":22,"y":-19}]},{"id":640,"x":-1083,"y":1534,"visible":true,"properties":[{"name":"layer","type":"int","value":1},{"name":"group","type":"int","value":16},{"name":"id","type":"int","value":566},{"name":"fh_layer","type":"int","value":1},{"name":"fh_group","type":"int","value":16},{"name":"fh_id","type":"int","value":566},{"name":"x1","type":"int","value":-1083},{"name":"x2","type":"int","value":-1060},{"name":"y1","type":"int","value":1534},{"name":"y2","type":"int","value":1507},{"name":"next","type":"int","value":567},{"name":"prev","type":"int","value":565}],"polyline":[{"x":0,"y":0},{"x":23,"y":-27}]},{"id":641,"x":-1060,"y":1507,"visible":true,"properties":[{"name":"layer","type":"int","value":1},{"name":"group","type":"int","value":16},{"name":"id","type":"int","value":567},{"name":"fh_layer","type":"int","value":1},{"name":"fh_group","type":"int","value":16},{"name":"fh_id","type":"int","value":567},{"name":"x1","type":"int","value":-1060},{"name":"x2","type":"int","value":-1047},{"name":"y1","type":"int","value":1507},{"name":"y2","type":"int","value":1503},{"name":"next","type":"int","value":557},{"name":"prev","type":"int","value":566}],"polyline":[{"x":0,"y":0},{"x":13,"y":-4}]},{"id":642,"x":-1326,"y":1623,"visible":true,"properties":[{"name":"layer","type":"int","value":1},{"name":"group","type":"int","value":16},{"name":"id","type":"int","value":568},{"name":"fh_layer","type":"int","value":1},{"name":"fh_group","type":"int","value":16},{"name":"fh_id","type":"int","value":568},{"name":"x1","type":"int","value":-1326},{"name":"x2","type":"int","value":-1290},{"name":"y1","type":"int","value":1623},{"name":"y2","type":"int","value":1610},{"name":"next","type":"int","value":569},{"name":"prev","type":"int","value":0}],"polyline":[{"x":0,"y":0},{"x":36,"y":-13}]},{"id":643,"x":-1290,"y":1610,"visible":true,"properties":[{"name":"layer","type":"int","value":1},{"name":"group","type":"int","value":16},{"name":"id","type":"int","value":569},{"name":"fh_layer","type":"int","value":1},{"name":"fh_group","type":"int","value":16},{"name":"fh_id","type":"int","value":569},{"name":"x1","type":"int","value":-1290},{"name":"x2","type":"int","value":-1246},{"name":"y1","type":"int","value":1610},{"name":"y2","type":"int","value":1609},{"name":"next","type":"int","value":570},{"name":"prev","type":"int","value":568}],"polyline":[{"x":0,"y":0},{"x":44,"y":-1}]},{"id":644,"x":-1246,"y":1609,"visible":true,"properties":[{"name":"layer","type":"int","value":1},{"name":"group","type":"int","value":16},{"name":"id","type":"int","value":570},{"name":"fh_layer","type":"int","value":1},{"name":"fh_group","type":"int","value":16},{"name":"fh_id","type":"int","value":570},{"name":"x1","type":"int","value":-1246},{"name":"x2","type":"int","value":-1245},{"name":"y1","type":"int","value":1609},{"name":"y2","type":"int","value":1609},{"name":"next","type":"int","value":571},{"name":"prev","type":"int","value":569}],"polyline":[{"x":0,"y":0},{"x":1,"y":0}]},{"id":645,"x":-1245,"y":1609,"visible":true,"properties":[{"name":"layer","type":"int","value":1},{"name":"group","type":"int","value":16},{"name":"id","type":"int","value":571},{"name":"fh_layer","type":"int","value":1},{"name":"fh_group","type":"int","value":16},{"name":"fh_id","type":"int","value":571},{"name":"x1","type":"int","value":-1245},{"name":"x2","type":"int","value":-1225},{"name":"y1","type":"int","value":1609},{"name":"y2","type":"int","value":1605},{"name":"next","type":"int","value":560},{"name":"prev","type":"int","value":570}],"polyline":[{"x":0,"y":0},{"x":20,"y":-4}]},{"id":646,"x":-734,"y":1627,"visible":true,"properties":[{"name":"layer","type":"int","value":1},{"name":"group","type":"int","value":16},{"name":"id","type":"int","value":572},{"name":"fh_layer","type":"int","value":1},{"name":"fh_group","type":"int","value":16},{"name":"fh_id","type":"int","value":572},{"name":"x1","type":"int","value":-734},{"name":"x2","type":"int","value":-679},{"name":"y1","type":"int","value":1627},{"name":"y2","type":"int","value":1627},{"name":"next","type":"int","value":573},{"name":"prev","type":"int","value":620}],"polyline":[{"x":0,"y":0},{"x":55,"y":0}]},{"id":647,"x":-679,"y":1627,"visible":true,"properties":[{"name":"layer","type":"int","value":1},{"name":"group","type":"int","value":16},{"name":"id","type":"int","value":573},{"name":"fh_layer","type":"int","value":1},{"name":"fh_group","type":"int","value":16},{"name":"fh_id","type":"int","value":573},{"name":"x1","type":"int","value":-679},{"name":"x2","type":"int","value":-663},{"name":"y1","type":"int","value":1627},{"name":"y2","type":"int","value":1623},{"name":"next","type":"int","value":574},{"name":"prev","type":"int","value":572}],"polyline":[{"x":0,"y":0},{"x":16,"y":-4}]},{"id":648,"x":-663,"y":1623,"visible":true,"properties":[{"name":"layer","type":"int","value":1},{"name":"group","type":"int","value":16},{"name":"id","type":"int","value":574},{"name":"fh_layer","type":"int","value":1},{"name":"fh_group","type":"int","value":16},{"name":"fh_id","type":"int","value":574},{"name":"x1","type":"int","value":-663},{"name":"x2","type":"int","value":-611},{"name":"y1","type":"int","value":1623},{"name":"y2","type":"int","value":1623},{"name":"next","type":"int","value":575},{"name":"prev","type":"int","value":573}],"polyline":[{"x":0,"y":0},{"x":52,"y":0}]},{"id":649,"x":-611,"y":1623,"visible":true,"properties":[{"name":"layer","type":"int","value":1},{"name":"group","type":"int","value":16},{"name":"id","type":"int","value":575},{"name":"fh_layer","type":"int","value":1},{"name":"fh_group","type":"int","value":16},{"name":"fh_id","type":"int","value":575},{"name":"x1","type":"int","value":-611},{"name":"x2","type":"int","value":-601},{"name":"y1","type":"int","value":1623},{"name":"y2","type":"int","value":1618},{"name":"next","type":"int","value":576},{"name":"prev","type":"int","value":574}],"polyline":[{"x":0,"y":0},{"x":10,"y":-5}]},{"id":650,"x":-601,"y":1618,"visible":true,"properties":[{"name":"layer","type":"int","value":1},{"name":"group","type":"int","value":16},{"name":"id","type":"int","value":576},{"name":"fh_layer","type":"int","value":1},{"name":"fh_group","type":"int","value":16},{"name":"fh_id","type":"int","value":576},{"name":"x1","type":"int","value":-601},{"name":"x2","type":"int","value":-581},{"name":"y1","type":"int","value":1618},{"name":"y2","type":"int","value":1620},{"name":"next","type":"int","value":577},{"name":"prev","type":"int","value":575}],"polyline":[{"x":0,"y":0},{"x":20,"y":2}]},{"id":651,"x":-581,"y":1620,"visible":true,"properties":[{"name":"layer","type":"int","value":1},{"name":"group","type":"int","value":16},{"name":"id","type":"int","value":577},{"name":"fh_layer","type":"int","value":1},{"name":"fh_group","type":"int","value":16},{"name":"fh_id","type":"int","value":577},{"name":"x1","type":"int","value":-581},{"name":"x2","type":"int","value":-566},{"name":"y1","type":"int","value":1620},{"name":"y2","type":"int","value":1626},{"name":"next","type":"int","value":0},{"name":"prev","type":"int","value":576}],"polyline":[{"x":0,"y":0},{"x":15,"y":6}]},{"id":652,"x":-1050,"y":1449,"visible":true,"properties":[{"name":"layer","type":"int","value":1},{"name":"group","type":"int","value":16},{"name":"id","type":"int","value":578},{"name":"fh_layer","type":"int","value":1},{"name":"fh_group","type":"int","value":16},{"name":"fh_id","type":"int","value":578},{"name":"x1","type":"int","value":-1050},{"name":"x2","type":"int","value":-996},{"name":"y1","type":"int","value":1449},{"name":"y2","type":"int","value":1458},{"name":"next","type":"int","value":579},{"name":"prev","type":"int","value":587}],"polyline":[{"x":0,"y":0},{"x":54,"y":9}]},{"id":653,"x":-996,"y":1458,"visible":true,"properties":[{"name":"layer","type":"int","value":1},{"name":"group","type":"int","value":16},{"name":"id","type":"int","value":579},{"name":"fh_layer","type":"int","value":1},{"name":"fh_group","type":"int","value":16},{"name":"fh_id","type":"int","value":579},{"name":"x1","type":"int","value":-996},{"name":"x2","type":"int","value":-977},{"name":"y1","type":"int","value":1458},{"name":"y2","type":"int","value":1465},{"name":"next","type":"int","value":588},{"name":"prev","type":"int","value":578}],"polyline":[{"x":0,"y":0},{"x":19,"y":7}]},{"id":654,"x":-1203,"y":1385,"visible":true,"properties":[{"name":"layer","type":"int","value":1},{"name":"group","type":"int","value":16},{"name":"id","type":"int","value":580},{"name":"fh_layer","type":"int","value":1},{"name":"fh_group","type":"int","value":16},{"name":"fh_id","type":"int","value":580},{"name":"x1","type":"int","value":-1203},{"name":"x2","type":"int","value":-1177},{"name":"y1","type":"int","value":1385},{"name":"y2","type":"int","value":1403},{"name":"next","type":"int","value":581},{"name":"prev","type":"int","value":602}],"polyline":[{"x":0,"y":0},{"x":26,"y":18}]},{"id":655,"x":-1177,"y":1403,"visible":true,"properties":[{"name":"layer","type":"int","value":1},{"name":"group","type":"int","value":16},{"name":"id","type":"int","value":581},{"name":"fh_layer","type":"int","value":1},{"name":"fh_group","type":"int","value":16},{"name":"fh_id","type":"int","value":581},{"name":"x1","type":"int","value":-1177},{"name":"x2","type":"int","value":-1167},{"name":"y1","type":"int","value":1403},{"name":"y2","type":"int","value":1413},{"name":"next","type":"int","value":582},{"name":"prev","type":"int","value":580}],"polyline":[{"x":0,"y":0},{"x":10,"y":10}]},{"id":656,"x":-1167,"y":1413,"visible":true,"properties":[{"name":"layer","type":"int","value":1},{"name":"group","type":"int","value":16},{"name":"id","type":"int","value":582},{"name":"fh_layer","type":"int","value":1},{"name":"fh_group","type":"int","value":16},{"name":"fh_id","type":"int","value":582},{"name":"x1","type":"int","value":-1167},{"name":"x2","type":"int","value":-1144},{"name":"y1","type":"int","value":1413},{"name":"y2","type":"int","value":1424},{"name":"next","type":"int","value":583},{"name":"prev","type":"int","value":581}],"polyline":[{"x":0,"y":0},{"x":23,"y":11}]},{"id":657,"x":-1144,"y":1424,"visible":true,"properties":[{"name":"layer","type":"int","value":1},{"name":"group","type":"int","value":16},{"name":"id","type":"int","value":583},{"name":"fh_layer","type":"int","value":1},{"name":"fh_group","type":"int","value":16},{"name":"fh_id","type":"int","value":583},{"name":"x1","type":"int","value":-1144},{"name":"x2","type":"int","value":-1122},{"name":"y1","type":"int","value":1424},{"name":"y2","type":"int","value":1432},{"name":"next","type":"int","value":584},{"name":"prev","type":"int","value":582}],"polyline":[{"x":0,"y":0},{"x":22,"y":8}]},{"id":658,"x":-1122,"y":1432,"visible":true,"properties":[{"name":"layer","type":"int","value":1},{"name":"group","type":"int","value":16},{"name":"id","type":"int","value":584},{"name":"fh_layer","type":"int","value":1},{"name":"fh_group","type":"int","value":16},{"name":"fh_id","type":"int","value":584},{"name":"x1","type":"int","value":-1122},{"name":"x2","type":"int","value":-1097},{"name":"y1","type":"int","value":1432},{"name":"y2","type":"int","value":1440},{"name":"next","type":"int","value":585},{"name":"prev","type":"int","value":583}],"polyline":[{"x":0,"y":0},{"x":25,"y":8}]},{"id":659,"x":-1097,"y":1440,"visible":true,"properties":[{"name":"layer","type":"int","value":1},{"name":"group","type":"int","value":16},{"name":"id","type":"int","value":585},{"name":"fh_layer","type":"int","value":1},{"name":"fh_group","type":"int","value":16},{"name":"fh_id","type":"int","value":585},{"name":"x1","type":"int","value":-1097},{"name":"x2","type":"int","value":-1066},{"name":"y1","type":"int","value":1440},{"name":"y2","type":"int","value":1448},{"name":"next","type":"int","value":586},{"name":"prev","type":"int","value":584}],"polyline":[{"x":0,"y":0},{"x":31,"y":8}]},{"id":660,"x":-1066,"y":1448,"visible":true,"properties":[{"name":"layer","type":"int","value":1},{"name":"group","type":"int","value":16},{"name":"id","type":"int","value":586},{"name":"fh_layer","type":"int","value":1},{"name":"fh_group","type":"int","value":16},{"name":"fh_id","type":"int","value":586},{"name":"x1","type":"int","value":-1066},{"name":"x2","type":"int","value":-1054},{"name":"y1","type":"int","value":1448},{"name":"y2","type":"int","value":1451},{"name":"next","type":"int","value":587},{"name":"prev","type":"int","value":585}],"polyline":[{"x":0,"y":0},{"x":12,"y":3}]},{"id":661,"x":-1054,"y":1451,"visible":true,"properties":[{"name":"layer","type":"int","value":1},{"name":"group","type":"int","value":16},{"name":"id","type":"int","value":587},{"name":"fh_layer","type":"int","value":1},{"name":"fh_group","type":"int","value":16},{"name":"fh_id","type":"int","value":587},{"name":"x1","type":"int","value":-1054},{"name":"x2","type":"int","value":-1050},{"name":"y1","type":"int","value":1451},{"name":"y2","type":"int","value":1449},{"name":"next","type":"int","value":578},{"name":"prev","type":"int","value":586}],"polyline":[{"x":0,"y":0},{"x":4,"y":-2}]},{"id":662,"x":-977,"y":1465,"visible":true,"properties":[{"name":"layer","type":"int","value":1},{"name":"group","type":"int","value":16},{"name":"id","type":"int","value":588},{"name":"fh_layer","type":"int","value":1},{"name":"fh_group","type":"int","value":16},{"name":"fh_id","type":"int","value":588},{"name":"x1","type":"int","value":-977},{"name":"x2","type":"int","value":-959},{"name":"y1","type":"int","value":1465},{"name":"y2","type":"int","value":1462},{"name":"next","type":"int","value":589},{"name":"prev","type":"int","value":579}],"polyline":[{"x":0,"y":0},{"x":18,"y":-3}]},{"id":663,"x":-959,"y":1462,"visible":true,"properties":[{"name":"layer","type":"int","value":1},{"name":"group","type":"int","value":16},{"name":"id","type":"int","value":589},{"name":"fh_layer","type":"int","value":1},{"name":"fh_group","type":"int","value":16},{"name":"fh_id","type":"int","value":589},{"name":"x1","type":"int","value":-959},{"name":"x2","type":"int","value":-936},{"name":"y1","type":"int","value":1462},{"name":"y2","type":"int","value":1456},{"name":"next","type":"int","value":590},{"name":"prev","type":"int","value":588}],"polyline":[{"x":0,"y":0},{"x":23,"y":-6}]},{"id":664,"x":-936,"y":1456,"visible":true,"properties":[{"name":"layer","type":"int","value":1},{"name":"group","type":"int","value":16},{"name":"id","type":"int","value":590},{"name":"fh_layer","type":"int","value":1},{"name":"fh_group","type":"int","value":16},{"name":"fh_id","type":"int","value":590},{"name":"x1","type":"int","value":-936},{"name":"x2","type":"int","value":-905},{"name":"y1","type":"int","value":1456},{"name":"y2","type":"int","value":1446},{"name":"next","type":"int","value":591},{"name":"prev","type":"int","value":589}],"polyline":[{"x":0,"y":0},{"x":31,"y":-10}]},{"id":665,"x":-905,"y":1446,"visible":true,"properties":[{"name":"layer","type":"int","value":1},{"name":"group","type":"int","value":16},{"name":"id","type":"int","value":591},{"name":"fh_layer","type":"int","value":1},{"name":"fh_group","type":"int","value":16},{"name":"fh_id","type":"int","value":591},{"name":"x1","type":"int","value":-905},{"name":"x2","type":"int","value":-885},{"name":"y1","type":"int","value":1446},{"name":"y2","type":"int","value":1438},{"name":"next","type":"int","value":592},{"name":"prev","type":"int","value":590}],"polyline":[{"x":0,"y":0},{"x":20,"y":-8}]},{"id":666,"x":-885,"y":1438,"visible":true,"properties":[{"name":"layer","type":"int","value":1},{"name":"group","type":"int","value":16},{"name":"id","type":"int","value":592},{"name":"fh_layer","type":"int","value":1},{"name":"fh_group","type":"int","value":16},{"name":"fh_id","type":"int","value":592},{"name":"x1","type":"int","value":-885},{"name":"x2","type":"int","value":-865},{"name":"y1","type":"int","value":1438},{"name":"y2","type":"int","value":1428},{"name":"next","type":"int","value":593},{"name":"prev","type":"int","value":591}],"polyline":[{"x":0,"y":0},{"x":20,"y":-10}]},{"id":667,"x":-865,"y":1428,"visible":true,"properties":[{"name":"layer","type":"int","value":1},{"name":"group","type":"int","value":16},{"name":"id","type":"int","value":593},{"name":"fh_layer","type":"int","value":1},{"name":"fh_group","type":"int","value":16},{"name":"fh_id","type":"int","value":593},{"name":"x1","type":"int","value":-865},{"name":"x2","type":"int","value":-839},{"name":"y1","type":"int","value":1428},{"name":"y2","type":"int","value":1410},{"name":"next","type":"int","value":594},{"name":"prev","type":"int","value":592}],"polyline":[{"x":0,"y":0},{"x":26,"y":-18}]},{"id":668,"x":-839,"y":1410,"visible":true,"properties":[{"name":"layer","type":"int","value":1},{"name":"group","type":"int","value":16},{"name":"id","type":"int","value":594},{"name":"fh_layer","type":"int","value":1},{"name":"fh_group","type":"int","value":16},{"name":"fh_id","type":"int","value":594},{"name":"x1","type":"int","value":-839},{"name":"x2","type":"int","value":-817},{"name":"y1","type":"int","value":1410},{"name":"y2","type":"int","value":1391},{"name":"next","type":"int","value":595},{"name":"prev","type":"int","value":593}],"polyline":[{"x":0,"y":0},{"x":22,"y":-19}]},{"id":669,"x":-817,"y":1391,"visible":true,"properties":[{"name":"layer","type":"int","value":1},{"name":"group","type":"int","value":16},{"name":"id","type":"int","value":595},{"name":"fh_layer","type":"int","value":1},{"name":"fh_group","type":"int","value":16},{"name":"fh_id","type":"int","value":595},{"name":"x1","type":"int","value":-817},{"name":"x2","type":"int","value":-794},{"name":"y1","type":"int","value":1391},{"name":"y2","type":"int","value":1363},{"name":"next","type":"int","value":596},{"name":"prev","type":"int","value":594}],"polyline":[{"x":0,"y":0},{"x":23,"y":-28}]},{"id":670,"x":-794,"y":1363,"visible":true,"properties":[{"name":"layer","type":"int","value":1},{"name":"group","type":"int","value":16},{"name":"id","type":"int","value":596},{"name":"fh_layer","type":"int","value":1},{"name":"fh_group","type":"int","value":16},{"name":"fh_id","type":"int","value":596},{"name":"x1","type":"int","value":-794},{"name":"x2","type":"int","value":-791},{"name":"y1","type":"int","value":1363},{"name":"y2","type":"int","value":1362},{"name":"next","type":"int","value":597},{"name":"prev","type":"int","value":595}],"polyline":[{"x":0,"y":0},{"x":3,"y":-1}]},{"id":671,"x":-791,"y":1362,"visible":true,"properties":[{"name":"layer","type":"int","value":1},{"name":"group","type":"int","value":16},{"name":"id","type":"int","value":597},{"name":"fh_layer","type":"int","value":1},{"name":"fh_group","type":"int","value":16},{"name":"fh_id","type":"int","value":597},{"name":"x1","type":"int","value":-791},{"name":"x2","type":"int","value":-725},{"name":"y1","type":"int","value":1362},{"name":"y2","type":"int","value":1359},{"name":"next","type":"int","value":598},{"name":"prev","type":"int","value":596}],"polyline":[{"x":0,"y":0},{"x":66,"y":-3}]},{"id":672,"x":-725,"y":1359,"visible":true,"properties":[{"name":"layer","type":"int","value":1},{"name":"group","type":"int","value":16},{"name":"id","type":"int","value":598},{"name":"fh_layer","type":"int","value":1},{"name":"fh_group","type":"int","value":16},{"name":"fh_id","type":"int","value":598},{"name":"x1","type":"int","value":-725},{"name":"x2","type":"int","value":-714},{"name":"y1","type":"int","value":1359},{"name":"y2","type":"int","value":1361},{"name":"next","type":"int","value":603},{"name":"prev","type":"int","value":597}],"polyline":[{"x":0,"y":0},{"x":11,"y":2}]},{"id":673,"x":-1286,"y":1349,"visible":true,"properties":[{"name":"layer","type":"int","value":1},{"name":"group","type":"int","value":16},{"name":"id","type":"int","value":599},{"name":"fh_layer","type":"int","value":1},{"name":"fh_group","type":"int","value":16},{"name":"fh_id","type":"int","value":599},{"name":"x1","type":"int","value":-1286},{"name":"x2","type":"int","value":-1256},{"name":"y1","type":"int","value":1349},{"name":"y2","type":"int","value":1349},{"name":"next","type":"int","value":600},{"name":"prev","type":"int","value":613}],"polyline":[{"x":0,"y":0},{"x":30,"y":0}]},{"id":674,"x":-1256,"y":1349,"visible":true,"properties":[{"name":"layer","type":"int","value":1},{"name":"group","type":"int","value":16},{"name":"id","type":"int","value":600},{"name":"fh_layer","type":"int","value":1},{"name":"fh_group","type":"int","value":16},{"name":"fh_id","type":"int","value":600},{"name":"x1","type":"int","value":-1256},{"name":"x2","type":"int","value":-1245},{"name":"y1","type":"int","value":1349},{"name":"y2","type":"int","value":1347},{"name":"next","type":"int","value":601},{"name":"prev","type":"int","value":599}],"polyline":[{"x":0,"y":0},{"x":11,"y":-2}]},{"id":675,"x":-1245,"y":1347,"visible":true,"properties":[{"name":"layer","type":"int","value":1},{"name":"group","type":"int","value":16},{"name":"id","type":"int","value":601},{"name":"fh_layer","type":"int","value":1},{"name":"fh_group","type":"int","value":16},{"name":"fh_id","type":"int","value":601},{"name":"x1","type":"int","value":-1245},{"name":"x2","type":"int","value":-1231},{"name":"y1","type":"int","value":1347},{"name":"y2","type":"int","value":1350},{"name":"next","type":"int","value":602},{"name":"prev","type":"int","value":600}],"polyline":[{"x":0,"y":0},{"x":14,"y":3}]},{"id":676,"x":-1231,"y":1350,"visible":true,"properties":[{"name":"layer","type":"int","value":1},{"name":"group","type":"int","value":16},{"name":"id","type":"int","value":602},{"name":"fh_layer","type":"int","value":1},{"name":"fh_group","type":"int","value":16},{"name":"fh_id","type":"int","value":602},{"name":"x1","type":"int","value":-1231},{"name":"x2","type":"int","value":-1203},{"name":"y1","type":"int","value":1350},{"name":"y2","type":"int","value":1385},{"name":"next","type":"int","value":580},{"name":"prev","type":"int","value":601}],"polyline":[{"x":0,"y":0},{"x":28,"y":35}]},{"id":677,"x":-714,"y":1361,"visible":true,"properties":[{"name":"layer","type":"int","value":1},{"name":"group","type":"int","value":16},{"name":"id","type":"int","value":603},{"name":"fh_layer","type":"int","value":1},{"name":"fh_group","type":"int","value":16},{"name":"fh_id","type":"int","value":603},{"name":"x1","type":"int","value":-714},{"name":"x2","type":"int","value":-713},{"name":"y1","type":"int","value":1361},{"name":"y2","type":"int","value":1361},{"name":"next","type":"int","value":604},{"name":"prev","type":"int","value":598}],"polyline":[{"x":0,"y":0},{"x":1,"y":0}]},{"id":678,"x":-713,"y":1361,"visible":true,"properties":[{"name":"layer","type":"int","value":1},{"name":"group","type":"int","value":16},{"name":"id","type":"int","value":604},{"name":"fh_layer","type":"int","value":1},{"name":"fh_group","type":"int","value":16},{"name":"fh_id","type":"int","value":604},{"name":"x1","type":"int","value":-713},{"name":"x2","type":"int","value":-706},{"name":"y1","type":"int","value":1361},{"name":"y2","type":"int","value":1356},{"name":"next","type":"int","value":605},{"name":"prev","type":"int","value":603}],"polyline":[{"x":0,"y":0},{"x":7,"y":-5}]},{"id":679,"x":-706,"y":1356,"visible":true,"properties":[{"name":"layer","type":"int","value":1},{"name":"group","type":"int","value":16},{"name":"id","type":"int","value":605},{"name":"fh_layer","type":"int","value":1},{"name":"fh_group","type":"int","value":16},{"name":"fh_id","type":"int","value":605},{"name":"x1","type":"int","value":-706},{"name":"x2","type":"int","value":-683},{"name":"y1","type":"int","value":1356},{"name":"y2","type":"int","value":1357},{"name":"next","type":"int","value":606},{"name":"prev","type":"int","value":604}],"polyline":[{"x":0,"y":0},{"x":23,"y":1}]},{"id":680,"x":-683,"y":1357,"visible":true,"properties":[{"name":"layer","type":"int","value":1},{"name":"group","type":"int","value":16},{"name":"id","type":"int","value":606},{"name":"fh_layer","type":"int","value":1},{"name":"fh_group","type":"int","value":16},{"name":"fh_id","type":"int","value":606},{"name":"x1","type":"int","value":-683},{"name":"x2","type":"int","value":-674},{"name":"y1","type":"int","value":1357},{"name":"y2","type":"int","value":1354},{"name":"next","type":"int","value":607},{"name":"prev","type":"int","value":605}],"polyline":[{"x":0,"y":0},{"x":9,"y":-3}]},{"id":681,"x":-674,"y":1354,"visible":true,"properties":[{"name":"layer","type":"int","value":1},{"name":"group","type":"int","value":16},{"name":"id","type":"int","value":607},{"name":"fh_layer","type":"int","value":1},{"name":"fh_group","type":"int","value":16},{"name":"fh_id","type":"int","value":607},{"name":"x1","type":"int","value":-674},{"name":"x2","type":"int","value":-632},{"name":"y1","type":"int","value":1354},{"name":"y2","type":"int","value":1356},{"name":"next","type":"int","value":608},{"name":"prev","type":"int","value":606}],"polyline":[{"x":0,"y":0},{"x":42,"y":2}]},{"id":682,"x":-632,"y":1356,"visible":true,"properties":[{"name":"layer","type":"int","value":1},{"name":"group","type":"int","value":16},{"name":"id","type":"int","value":608},{"name":"fh_layer","type":"int","value":1},{"name":"fh_group","type":"int","value":16},{"name":"fh_id","type":"int","value":608},{"name":"x1","type":"int","value":-632},{"name":"x2","type":"int","value":-624},{"name":"y1","type":"int","value":1356},{"name":"y2","type":"int","value":1353},{"name":"next","type":"int","value":609},{"name":"prev","type":"int","value":607}],"polyline":[{"x":0,"y":0},{"x":8,"y":-3}]},{"id":683,"x":-624,"y":1353,"visible":true,"properties":[{"name":"layer","type":"int","value":1},{"name":"group","type":"int","value":16},{"name":"id","type":"int","value":609},{"name":"fh_layer","type":"int","value":1},{"name":"fh_group","type":"int","value":16},{"name":"fh_id","type":"int","value":609},{"name":"x1","type":"int","value":-624},{"name":"x2","type":"int","value":-598},{"name":"y1","type":"int","value":1353},{"name":"y2","type":"int","value":1358},{"name":"next","type":"int","value":0},{"name":"prev","type":"int","value":608}],"polyline":[{"x":0,"y":0},{"x":26,"y":5}]},{"id":684,"x":-1430,"y":1334,"visible":true,"properties":[{"name":"layer","type":"int","value":1},{"name":"group","type":"int","value":16},{"name":"id","type":"int","value":610},{"name":"fh_layer","type":"int","value":1},{"name":"fh_group","type":"int","value":16},{"name":"fh_id","type":"int","value":610},{"name":"x1","type":"int","value":-1430},{"name":"x2","type":"int","value":-1404},{"name":"y1","type":"int","value":1334},{"name":"y2","type":"int","value":1323},{"name":"next","type":"int","value":611},{"name":"prev","type":"int","value":0}],"polyline":[{"x":0,"y":0},{"x":26,"y":-11}]},{"id":685,"x":-1404,"y":1323,"visible":true,"properties":[{"name":"layer","type":"int","value":1},{"name":"group","type":"int","value":16},{"name":"id","type":"int","value":611},{"name":"fh_layer","type":"int","value":1},{"name":"fh_group","type":"int","value":16},{"name":"fh_id","type":"int","value":611},{"name":"x1","type":"int","value":-1404},{"name":"x2","type":"int","value":-1351},{"name":"y1","type":"int","value":1323},{"name":"y2","type":"int","value":1327},{"name":"next","type":"int","value":612},{"name":"prev","type":"int","value":610}],"polyline":[{"x":0,"y":0},{"x":53,"y":4}]},{"id":686,"x":-1351,"y":1327,"visible":true,"properties":[{"name":"layer","type":"int","value":1},{"name":"group","type":"int","value":16},{"name":"id","type":"int","value":612},{"name":"fh_layer","type":"int","value":1},{"name":"fh_group","type":"int","value":16},{"name":"fh_id","type":"int","value":612},{"name":"x1","type":"int","value":-1351},{"name":"x2","type":"int","value":-1312},{"name":"y1","type":"int","value":1327},{"name":"y2","type":"int","value":1345},{"name":"next","type":"int","value":613},{"name":"prev","type":"int","value":611}],"polyline":[{"x":0,"y":0},{"x":39,"y":18}]},{"id":687,"x":-1312,"y":1345,"visible":true,"properties":[{"name":"layer","type":"int","value":1},{"name":"group","type":"int","value":16},{"name":"id","type":"int","value":613},{"name":"fh_layer","type":"int","value":1},{"name":"fh_group","type":"int","value":16},{"name":"fh_id","type":"int","value":613},{"name":"x1","type":"int","value":-1312},{"name":"x2","type":"int","value":-1286},{"name":"y1","type":"int","value":1345},{"name":"y2","type":"int","value":1349},{"name":"next","type":"int","value":599},{"name":"prev","type":"int","value":612}],"polyline":[{"x":0,"y":0},{"x":26,"y":4}]},{"id":688,"x":-613,"y":1307,"visible":true,"properties":[{"name":"layer","type":"int","value":1},{"name":"group","type":"int","value":16},{"name":"id","type":"int","value":614},{"name":"fh_layer","type":"int","value":1},{"name":"fh_group","type":"int","value":16},{"name":"fh_id","type":"int","value":614},{"name":"x1","type":"int","value":-613},{"name":"x2","type":"int","value":-588},{"name":"y1","type":"int","value":1307},{"name":"y2","type":"int","value":1296},{"name":"next","type":"int","value":615},{"name":"prev","type":"int","value":0}],"polyline":[{"x":0,"y":0},{"x":25,"y":-11}]},{"id":689,"x":-588,"y":1296,"visible":true,"properties":[{"name":"layer","type":"int","value":1},{"name":"group","type":"int","value":16},{"name":"id","type":"int","value":615},{"name":"fh_layer","type":"int","value":1},{"name":"fh_group","type":"int","value":16},{"name":"fh_id","type":"int","value":615},{"name":"x1","type":"int","value":-588},{"name":"x2","type":"int","value":-522},{"name":"y1","type":"int","value":1296},{"name":"y2","type":"int","value":1293},{"name":"next","type":"int","value":616},{"name":"prev","type":"int","value":614}],"polyline":[{"x":0,"y":0},{"x":66,"y":-3}]},{"id":690,"x":-522,"y":1293,"visible":true,"properties":[{"name":"layer","type":"int","value":1},{"name":"group","type":"int","value":16},{"name":"id","type":"int","value":616},{"name":"fh_layer","type":"int","value":1},{"name":"fh_group","type":"int","value":16},{"name":"fh_id","type":"int","value":616},{"name":"x1","type":"int","value":-522},{"name":"x2","type":"int","value":-484},{"name":"y1","type":"int","value":1293},{"name":"y2","type":"int","value":1300},{"name":"next","type":"int","value":0},{"name":"prev","type":"int","value":615}],"polyline":[{"x":0,"y":0},{"x":38,"y":7}]},{"id":691,"x":-736,"y":1253,"visible":true,"properties":[{"name":"layer","type":"int","value":1},{"name":"group","type":"int","value":16},{"name":"id","type":"int","value":617},{"name":"fh_layer","type":"int","value":1},{"name":"fh_group","type":"int","value":16},{"name":"fh_id","type":"int","value":617},{"name":"x1","type":"int","value":-736},{"name":"x2","type":"int","value":-711},{"name":"y1","type":"int","value":1253},{"name":"y2","type":"int","value":1242},{"name":"next","type":"int","value":618},{"name":"prev","type":"int","value":0}],"polyline":[{"x":0,"y":0},{"x":25,"y":-11}]},{"id":692,"x":-711,"y":1242,"visible":true,"properties":[{"name":"layer","type":"int","value":1},{"name":"group","type":"int","value":16},{"name":"id","type":"int","value":618},{"name":"fh_layer","type":"int","value":1},{"name":"fh_group","type":"int","value":16},{"name":"fh_id","type":"int","value":618},{"name":"x1","type":"int","value":-711},{"name":"x2","type":"int","value":-645},{"name":"y1","type":"int","value":1242},{"name":"y2","type":"int","value":1239},{"name":"next","type":"int","value":619},{"name":"prev","type":"int","value":617}],"polyline":[{"x":0,"y":0},{"x":66,"y":-3}]},{"id":693,"x":-645,"y":1239,"visible":true,"properties":[{"name":"layer","type":"int","value":1},{"name":"group","type":"int","value":16},{"name":"id","type":"int","value":619},{"name":"fh_layer","type":"int","value":1},{"name":"fh_group","type":"int","value":16},{"name":"fh_id","type":"int","value":619},{"name":"x1","type":"int","value":-645},{"name":"x2","type":"int","value":-607},{"name":"y1","type":"int","value":1239},{"name":"y2","type":"int","value":1246},{"name":"next","type":"int","value":0},{"name":"prev","type":"int","value":618}],"polyline":[{"x":0,"y":0},{"x":38,"y":7}]},{"id":694,"x":-735,"y":1628,"visible":true,"properties":[{"name":"layer","type":"int","value":1},{"name":"group","type":"int","value":16},{"name":"id","type":"int","value":620},{"name":"fh_layer","type":"int","value":1},{"name":"fh_group","type":"int","value":16},{"name":"fh_id","type":"int","value":620},{"name":"x1","type":"int","value":-735},{"name":"x2","type":"int","value":-734},{"name":"y1","type":"int","value":1628},{"name":"y2","type":"int","value":1627},{"name":"next","type":"int","value":572},{"name":"prev","type":"int","value":621}],"polyline":[{"x":0,"y":0},{"x":1,"y":-1}]},{"id":695,"x":-784,"y":1624,"visible":true,"properties":[{"name":"layer","type":"int","value":1},{"name":"group","type":"int","value":16},{"name":"id","type":"int","value":621},{"name":"fh_layer","type":"int","value":1},{"name":"fh_group","type":"int","value":16},{"name":"fh_id","type":"int","value":621},{"name":"x1","type":"int","value":-784},{"name":"x2","type":"int","value":-735},{"name":"y1","type":"int","value":1624},{"name":"y2","type":"int","value":1628},{"name":"next","type":"int","value":620},{"name":"prev","type":"int","value":556}],"polyline":[{"x":0,"y":0},{"x":49,"y":4}]},{"id":696,"x":-1452,"y":1625,"visible":true,"properties":[{"name":"layer","type":"int","value":1},{"name":"group","type":"int","value":17},{"name":"id","type":"int","value":622},{"name":"fh_layer","type":"int","value":1},{"name":"fh_group","type":"int","value":17},{"name":"fh_id","type":"int","value":622},{"name":"x1","type":"int","value":-1452},{"name":"x2","type":"int","value":-1398},{"name":"y1","type":"int","value":1625},{"name":"y2","type":"int","value":1634},{"name":"next","type":"int","value":623},{"name":"prev","type":"int","value":624}],"polyline":[{"x":0,"y":0},{"x":54,"y":9}]},{"id":697,"x":-1398,"y":1634,"visible":true,"properties":[{"name":"layer","type":"int","value":1},{"name":"group","type":"int","value":17},{"name":"id","type":"int","value":623},{"name":"fh_layer","type":"int","value":1},{"name":"fh_group","type":"int","value":17},{"name":"fh_id","type":"int","value":623},{"name":"x1","type":"int","value":-1398},{"name":"x2","type":"int","value":-1351},{"name":"y1","type":"int","value":1634},{"name":"y2","type":"int","value":1653},{"name":"next","type":"int","value":0},{"name":"prev","type":"int","value":622}],"polyline":[{"x":0,"y":0},{"x":47,"y":19}]},{"id":698,"x":-1473,"y":1631,"visible":true,"properties":[{"name":"layer","type":"int","value":1},{"name":"group","type":"int","value":17},{"name":"id","type":"int","value":624},{"name":"fh_layer","type":"int","value":1},{"name":"fh_group","type":"int","value":17},{"name":"fh_id","type":"int","value":624},{"name":"x1","type":"int","value":-1473},{"name":"x2","type":"int","value":-1452},{"name":"y1","type":"int","value":1631},{"name":"y2","type":"int","value":1625},{"name":"next","type":"int","value":622},{"name":"prev","type":"int","value":328}],"polyline":[{"x":0,"y":0},{"x":21,"y":-6}]},{"id":699,"x":-145,"y":1439,"visible":true,"properties":[{"name":"layer","type":"int","value":1},{"name":"group","type":"int","value":20},{"name":"id","type":"int","value":522},{"name":"fh_layer","type":"int","value":1},{"name":"fh_group","type":"int","value":20},{"name":"fh_id","type":"int","value":522},{"name":"x1","type":"int","value":-145},{"name":"x2","type":"int","value":-92},{"name":"y1","type":"int","value":1439},{"name":"y2","type":"int","value":1440},{"name":"next","type":"int","value":523},{"name":"prev","type":"int","value":535}],"polyline":[{"x":0,"y":0},{"x":53,"y":1}]},{"id":700,"x":-92,"y":1440,"visible":true,"properties":[{"name":"layer","type":"int","value":1},{"name":"group","type":"int","value":20},{"name":"id","type":"int","value":523},{"name":"fh_layer","type":"int","value":1},{"name":"fh_group","type":"int","value":20},{"name":"fh_id","type":"int","value":523},{"name":"x1","type":"int","value":-92},{"name":"x2","type":"int","value":-55},{"name":"y1","type":"int","value":1440},{"name":"y2","type":"int","value":1433},{"name":"next","type":"int","value":524},{"name":"prev","type":"int","value":522}],"polyline":[{"x":0,"y":0},{"x":37,"y":-7}]},{"id":701,"x":-55,"y":1433,"visible":true,"properties":[{"name":"layer","type":"int","value":1},{"name":"group","type":"int","value":20},{"name":"id","type":"int","value":524},{"name":"fh_layer","type":"int","value":1},{"name":"fh_group","type":"int","value":20},{"name":"fh_id","type":"int","value":524},{"name":"x1","type":"int","value":-55},{"name":"x2","type":"int","value":-22},{"name":"y1","type":"int","value":1433},{"name":"y2","type":"int","value":1435},{"name":"next","type":"int","value":525},{"name":"prev","type":"int","value":523}],"polyline":[{"x":0,"y":0},{"x":33,"y":2}]},{"id":702,"x":-22,"y":1435,"visible":true,"properties":[{"name":"layer","type":"int","value":1},{"name":"group","type":"int","value":20},{"name":"id","type":"int","value":525},{"name":"fh_layer","type":"int","value":1},{"name":"fh_group","type":"int","value":20},{"name":"fh_id","type":"int","value":525},{"name":"x1","type":"int","value":-22},{"name":"x2","type":"int","value":-10},{"name":"y1","type":"int","value":1435},{"name":"y2","type":"int","value":1432},{"name":"next","type":"int","value":526},{"name":"prev","type":"int","value":524}],"polyline":[{"x":0,"y":0},{"x":12,"y":-3}]},{"id":703,"x":-10,"y":1432,"visible":true,"properties":[{"name":"layer","type":"int","value":1},{"name":"group","type":"int","value":20},{"name":"id","type":"int","value":526},{"name":"fh_layer","type":"int","value":1},{"name":"fh_group","type":"int","value":20},{"name":"fh_id","type":"int","value":526},{"name":"x1","type":"int","value":-10},{"name":"x2","type":"int","value":5},{"name":"y1","type":"int","value":1432},{"name":"y2","type":"int","value":1432},{"name":"next","type":"int","value":527},{"name":"prev","type":"int","value":525}],"polyline":[{"x":0,"y":0},{"x":15,"y":0}]},{"id":704,"x":5,"y":1432,"visible":true,"properties":[{"name":"layer","type":"int","value":1},{"name":"group","type":"int","value":20},{"name":"id","type":"int","value":527},{"name":"fh_layer","type":"int","value":1},{"name":"fh_group","type":"int","value":20},{"name":"fh_id","type":"int","value":527},{"name":"x1","type":"int","value":5},{"name":"x2","type":"int","value":26},{"name":"y1","type":"int","value":1432},{"name":"y2","type":"int","value":1427},{"name":"next","type":"int","value":528},{"name":"prev","type":"int","value":526}],"polyline":[{"x":0,"y":0},{"x":21,"y":-5}]},{"id":705,"x":26,"y":1427,"visible":true,"properties":[{"name":"layer","type":"int","value":1},{"name":"group","type":"int","value":20},{"name":"id","type":"int","value":528},{"name":"fh_layer","type":"int","value":1},{"name":"fh_group","type":"int","value":20},{"name":"fh_id","type":"int","value":528},{"name":"x1","type":"int","value":26},{"name":"x2","type":"int","value":84},{"name":"y1","type":"int","value":1427},{"name":"y2","type":"int","value":1431},{"name":"next","type":"int","value":529},{"name":"prev","type":"int","value":527}],"polyline":[{"x":0,"y":0},{"x":58,"y":4}]},{"id":706,"x":84,"y":1431,"visible":true,"properties":[{"name":"layer","type":"int","value":1},{"name":"group","type":"int","value":20},{"name":"id","type":"int","value":529},{"name":"fh_layer","type":"int","value":1},{"name":"fh_group","type":"int","value":20},{"name":"fh_id","type":"int","value":529},{"name":"x1","type":"int","value":84},{"name":"x2","type":"int","value":103},{"name":"y1","type":"int","value":1431},{"name":"y2","type":"int","value":1431},{"name":"next","type":"int","value":419},{"name":"prev","type":"int","value":528}],"polyline":[{"x":0,"y":0},{"x":19,"y":0}]},{"id":707,"x":-283,"y":1484,"visible":true,"properties":[{"name":"layer","type":"int","value":1},{"name":"group","type":"int","value":20},{"name":"id","type":"int","value":530},{"name":"fh_layer","type":"int","value":1},{"name":"fh_group","type":"int","value":20},{"name":"fh_id","type":"int","value":530},{"name":"x1","type":"int","value":-283},{"name":"x2","type":"int","value":-255},{"name":"y1","type":"int","value":1484},{"name":"y2","type":"int","value":1478},{"name":"next","type":"int","value":531},{"name":"prev","type":"int","value":538}],"polyline":[{"x":0,"y":0},{"x":28,"y":-6}]},{"id":708,"x":-255,"y":1478,"visible":true,"properties":[{"name":"layer","type":"int","value":1},{"name":"group","type":"int","value":20},{"name":"id","type":"int","value":531},{"name":"fh_layer","type":"int","value":1},{"name":"fh_group","type":"int","value":20},{"name":"fh_id","type":"int","value":531},{"name":"x1","type":"int","value":-255},{"name":"x2","type":"int","value":-243},{"name":"y1","type":"int","value":1478},{"name":"y2","type":"int","value":1466},{"name":"next","type":"int","value":532},{"name":"prev","type":"int","value":530}],"polyline":[{"x":0,"y":0},{"x":12,"y":-12}]},{"id":709,"x":-243,"y":1466,"visible":true,"properties":[{"name":"layer","type":"int","value":1},{"name":"group","type":"int","value":20},{"name":"id","type":"int","value":532},{"name":"fh_layer","type":"int","value":1},{"name":"fh_group","type":"int","value":20},{"name":"fh_id","type":"int","value":532},{"name":"x1","type":"int","value":-243},{"name":"x2","type":"int","value":-205},{"name":"y1","type":"int","value":1466},{"name":"y2","type":"int","value":1460},{"name":"next","type":"int","value":533},{"name":"prev","type":"int","value":531}],"polyline":[{"x":0,"y":0},{"x":38,"y":-6}]},{"id":710,"x":-205,"y":1460,"visible":true,"properties":[{"name":"layer","type":"int","value":1},{"name":"group","type":"int","value":20},{"name":"id","type":"int","value":533},{"name":"fh_layer","type":"int","value":1},{"name":"fh_group","type":"int","value":20},{"name":"fh_id","type":"int","value":533},{"name":"x1","type":"int","value":-205},{"name":"x2","type":"int","value":-189},{"name":"y1","type":"int","value":1460},{"name":"y2","type":"int","value":1459},{"name":"next","type":"int","value":534},{"name":"prev","type":"int","value":532}],"polyline":[{"x":0,"y":0},{"x":16,"y":-1}]},{"id":711,"x":-189,"y":1459,"visible":true,"properties":[{"name":"layer","type":"int","value":1},{"name":"group","type":"int","value":20},{"name":"id","type":"int","value":534},{"name":"fh_layer","type":"int","value":1},{"name":"fh_group","type":"int","value":20},{"name":"fh_id","type":"int","value":534},{"name":"x1","type":"int","value":-189},{"name":"x2","type":"int","value":-163},{"name":"y1","type":"int","value":1459},{"name":"y2","type":"int","value":1451},{"name":"next","type":"int","value":535},{"name":"prev","type":"int","value":533}],"polyline":[{"x":0,"y":0},{"x":26,"y":-8}]},{"id":712,"x":-163,"y":1451,"visible":true,"properties":[{"name":"layer","type":"int","value":1},{"name":"group","type":"int","value":20},{"name":"id","type":"int","value":535},{"name":"fh_layer","type":"int","value":1},{"name":"fh_group","type":"int","value":20},{"name":"fh_id","type":"int","value":535},{"name":"x1","type":"int","value":-163},{"name":"x2","type":"int","value":-145},{"name":"y1","type":"int","value":1451},{"name":"y2","type":"int","value":1439},{"name":"next","type":"int","value":522},{"name":"prev","type":"int","value":534}],"polyline":[{"x":0,"y":0},{"x":18,"y":-12}]},{"id":713,"x":-344,"y":1494,"visible":true,"properties":[{"name":"layer","type":"int","value":1},{"name":"group","type":"int","value":20},{"name":"id","type":"int","value":536},{"name":"fh_layer","type":"int","value":1},{"name":"fh_group","type":"int","value":20},{"name":"fh_id","type":"int","value":536},{"name":"x1","type":"int","value":-344},{"name":"x2","type":"int","value":-300},{"name":"y1","type":"int","value":1494},{"name":"y2","type":"int","value":1493},{"name":"next","type":"int","value":537},{"name":"prev","type":"int","value":544}],"polyline":[{"x":0,"y":0},{"x":44,"y":-1}]},{"id":714,"x":-300,"y":1493,"visible":true,"properties":[{"name":"layer","type":"int","value":1},{"name":"group","type":"int","value":20},{"name":"id","type":"int","value":537},{"name":"fh_layer","type":"int","value":1},{"name":"fh_group","type":"int","value":20},{"name":"fh_id","type":"int","value":537},{"name":"x1","type":"int","value":-300},{"name":"x2","type":"int","value":-297},{"name":"y1","type":"int","value":1493},{"name":"y2","type":"int","value":1494},{"name":"next","type":"int","value":538},{"name":"prev","type":"int","value":536}],"polyline":[{"x":0,"y":0},{"x":3,"y":1}]},{"id":715,"x":-297,"y":1494,"visible":true,"properties":[{"name":"layer","type":"int","value":1},{"name":"group","type":"int","value":20},{"name":"id","type":"int","value":538},{"name":"fh_layer","type":"int","value":1},{"name":"fh_group","type":"int","value":20},{"name":"fh_id","type":"int","value":538},{"name":"x1","type":"int","value":-297},{"name":"x2","type":"int","value":-283},{"name":"y1","type":"int","value":1494},{"name":"y2","type":"int","value":1484},{"name":"next","type":"int","value":530},{"name":"prev","type":"int","value":537}],"polyline":[{"x":0,"y":0},{"x":14,"y":-10}]},{"id":716,"x":-484,"y":1534,"visible":true,"properties":[{"name":"layer","type":"int","value":1},{"name":"group","type":"int","value":20},{"name":"id","type":"int","value":539},{"name":"fh_layer","type":"int","value":1},{"name":"fh_group","type":"int","value":20},{"name":"fh_id","type":"int","value":539},{"name":"x1","type":"int","value":-484},{"name":"x2","type":"int","value":-456},{"name":"y1","type":"int","value":1534},{"name":"y2","type":"int","value":1528},{"name":"next","type":"int","value":540},{"name":"prev","type":"int","value":546}],"polyline":[{"x":0,"y":0},{"x":28,"y":-6}]},{"id":717,"x":-456,"y":1528,"visible":true,"properties":[{"name":"layer","type":"int","value":1},{"name":"group","type":"int","value":20},{"name":"id","type":"int","value":540},{"name":"fh_layer","type":"int","value":1},{"name":"fh_group","type":"int","value":20},{"name":"fh_id","type":"int","value":540},{"name":"x1","type":"int","value":-456},{"name":"x2","type":"int","value":-444},{"name":"y1","type":"int","value":1528},{"name":"y2","type":"int","value":1516},{"name":"next","type":"int","value":541},{"name":"prev","type":"int","value":539}],"polyline":[{"x":0,"y":0},{"x":12,"y":-12}]},{"id":718,"x":-444,"y":1516,"visible":true,"properties":[{"name":"layer","type":"int","value":1},{"name":"group","type":"int","value":20},{"name":"id","type":"int","value":541},{"name":"fh_layer","type":"int","value":1},{"name":"fh_group","type":"int","value":20},{"name":"fh_id","type":"int","value":541},{"name":"x1","type":"int","value":-444},{"name":"x2","type":"int","value":-406},{"name":"y1","type":"int","value":1516},{"name":"y2","type":"int","value":1510},{"name":"next","type":"int","value":542},{"name":"prev","type":"int","value":540}],"polyline":[{"x":0,"y":0},{"x":38,"y":-6}]},{"id":719,"x":-406,"y":1510,"visible":true,"properties":[{"name":"layer","type":"int","value":1},{"name":"group","type":"int","value":20},{"name":"id","type":"int","value":542},{"name":"fh_layer","type":"int","value":1},{"name":"fh_group","type":"int","value":20},{"name":"fh_id","type":"int","value":542},{"name":"x1","type":"int","value":-406},{"name":"x2","type":"int","value":-390},{"name":"y1","type":"int","value":1510},{"name":"y2","type":"int","value":1509},{"name":"next","type":"int","value":543},{"name":"prev","type":"int","value":541}],"polyline":[{"x":0,"y":0},{"x":16,"y":-1}]},{"id":720,"x":-390,"y":1509,"visible":true,"properties":[{"name":"layer","type":"int","value":1},{"name":"group","type":"int","value":20},{"name":"id","type":"int","value":543},{"name":"fh_layer","type":"int","value":1},{"name":"fh_group","type":"int","value":20},{"name":"fh_id","type":"int","value":543},{"name":"x1","type":"int","value":-390},{"name":"x2","type":"int","value":-351},{"name":"y1","type":"int","value":1509},{"name":"y2","type":"int","value":1497},{"name":"next","type":"int","value":544},{"name":"prev","type":"int","value":542}],"polyline":[{"x":0,"y":0},{"x":39,"y":-12}]},{"id":721,"x":-351,"y":1497,"visible":true,"properties":[{"name":"layer","type":"int","value":1},{"name":"group","type":"int","value":20},{"name":"id","type":"int","value":544},{"name":"fh_layer","type":"int","value":1},{"name":"fh_group","type":"int","value":20},{"name":"fh_id","type":"int","value":544},{"name":"x1","type":"int","value":-351},{"name":"x2","type":"int","value":-344},{"name":"y1","type":"int","value":1497},{"name":"y2","type":"int","value":1494},{"name":"next","type":"int","value":536},{"name":"prev","type":"int","value":543}],"polyline":[{"x":0,"y":0},{"x":7,"y":-3}]},{"id":722,"x":-543,"y":1548,"visible":true,"properties":[{"name":"layer","type":"int","value":1},{"name":"group","type":"int","value":20},{"name":"id","type":"int","value":545},{"name":"fh_layer","type":"int","value":1},{"name":"fh_group","type":"int","value":20},{"name":"fh_id","type":"int","value":545},{"name":"x1","type":"int","value":-543},{"name":"x2","type":"int","value":-503},{"name":"y1","type":"int","value":1548},{"name":"y2","type":"int","value":1547},{"name":"next","type":"int","value":546},{"name":"prev","type":"int","value":549}],"polyline":[{"x":0,"y":0},{"x":40,"y":-1}]},{"id":723,"x":-503,"y":1547,"visible":true,"properties":[{"name":"layer","type":"int","value":1},{"name":"group","type":"int","value":20},{"name":"id","type":"int","value":546},{"name":"fh_layer","type":"int","value":1},{"name":"fh_group","type":"int","value":20},{"name":"fh_id","type":"int","value":546},{"name":"x1","type":"int","value":-503},{"name":"x2","type":"int","value":-484},{"name":"y1","type":"int","value":1547},{"name":"y2","type":"int","value":1534},{"name":"next","type":"int","value":539},{"name":"prev","type":"int","value":545}],"polyline":[{"x":0,"y":0},{"x":19,"y":-13}]},{"id":724,"x":-616,"y":1567,"visible":true,"properties":[{"name":"layer","type":"int","value":1},{"name":"group","type":"int","value":20},{"name":"id","type":"int","value":547},{"name":"fh_layer","type":"int","value":1},{"name":"fh_group","type":"int","value":20},{"name":"fh_id","type":"int","value":547},{"name":"x1","type":"int","value":-616},{"name":"x2","type":"int","value":-598},{"name":"y1","type":"int","value":1567},{"name":"y2","type":"int","value":1560},{"name":"next","type":"int","value":548},{"name":"prev","type":"int","value":0}],"polyline":[{"x":0,"y":0},{"x":18,"y":-7}]},{"id":725,"x":-598,"y":1560,"visible":true,"properties":[{"name":"layer","type":"int","value":1},{"name":"group","type":"int","value":20},{"name":"id","type":"int","value":548},{"name":"fh_layer","type":"int","value":1},{"name":"fh_group","type":"int","value":20},{"name":"fh_id","type":"int","value":548},{"name":"x1","type":"int","value":-598},{"name":"x2","type":"int","value":-571},{"name":"y1","type":"int","value":1560},{"name":"y2","type":"int","value":1559},{"name":"next","type":"int","value":549},{"name":"prev","type":"int","value":547}],"polyline":[{"x":0,"y":0},{"x":27,"y":-1}]},{"id":726,"x":-571,"y":1559,"visible":true,"properties":[{"name":"layer","type":"int","value":1},{"name":"group","type":"int","value":20},{"name":"id","type":"int","value":549},{"name":"fh_layer","type":"int","value":1},{"name":"fh_group","type":"int","value":20},{"name":"fh_id","type":"int","value":549},{"name":"x1","type":"int","value":-571},{"name":"x2","type":"int","value":-543},{"name":"y1","type":"int","value":1559},{"name":"y2","type":"int","value":1548},{"name":"next","type":"int","value":545},{"name":"prev","type":"int","value":548}],"polyline":[{"x":0,"y":0},{"x":28,"y":-11}]},{"id":727,"x":-819,"y":1204,"visible":true,"properties":[{"name":"layer","type":"int","value":1},{"name":"group","type":"int","value":28},{"name":"id","type":"int","value":625},{"name":"fh_layer","type":"int","value":1},{"name":"fh_group","type":"int","value":28},{"name":"fh_id","type":"int","value":625},{"name":"x1","type":"int","value":-819},{"name":"x2","type":"int","value":-783},{"name":"y1","type":"int","value":1204},{"name":"y2","type":"int","value":1191},{"name":"next","type":"int","value":626},{"name":"prev","type":"int","value":0}],"polyline":[{"x":0,"y":0},{"x":36,"y":-13}]},{"id":728,"x":-783,"y":1191,"visible":true,"properties":[{"name":"layer","type":"int","value":1},{"name":"group","type":"int","value":28},{"name":"id","type":"int","value":626},{"name":"fh_layer","type":"int","value":1},{"name":"fh_group","type":"int","value":28},{"name":"fh_id","type":"int","value":626},{"name":"x1","type":"int","value":-783},{"name":"x2","type":"int","value":-754},{"name":"y1","type":"int","value":1191},{"name":"y2","type":"int","value":1195},{"name":"next","type":"int","value":627},{"name":"prev","type":"int","value":625}],"polyline":[{"x":0,"y":0},{"x":29,"y":4}]},{"id":729,"x":-754,"y":1195,"visible":true,"properties":[{"name":"layer","type":"int","value":1},{"name":"group","type":"int","value":28},{"name":"id","type":"int","value":627},{"name":"fh_layer","type":"int","value":1},{"name":"fh_group","type":"int","value":28},{"name":"fh_id","type":"int","value":627},{"name":"x1","type":"int","value":-754},{"name":"x2","type":"int","value":-724},{"name":"y1","type":"int","value":1195},{"name":"y2","type":"int","value":1195},{"name":"next","type":"int","value":628},{"name":"prev","type":"int","value":626}],"polyline":[{"x":0,"y":0},{"x":30,"y":0}]},{"id":730,"x":-724,"y":1195,"visible":true,"properties":[{"name":"layer","type":"int","value":1},{"name":"group","type":"int","value":28},{"name":"id","type":"int","value":628},{"name":"fh_layer","type":"int","value":1},{"name":"fh_group","type":"int","value":28},{"name":"fh_id","type":"int","value":628},{"name":"x1","type":"int","value":-724},{"name":"x2","type":"int","value":-713},{"name":"y1","type":"int","value":1195},{"name":"y2","type":"int","value":1193},{"name":"next","type":"int","value":629},{"name":"prev","type":"int","value":627}],"polyline":[{"x":0,"y":0},{"x":11,"y":-2}]},{"id":731,"x":-713,"y":1193,"visible":true,"properties":[{"name":"layer","type":"int","value":1},{"name":"group","type":"int","value":28},{"name":"id","type":"int","value":629},{"name":"fh_layer","type":"int","value":1},{"name":"fh_group","type":"int","value":28},{"name":"fh_id","type":"int","value":629},{"name":"x1","type":"int","value":-713},{"name":"x2","type":"int","value":-681},{"name":"y1","type":"int","value":1193},{"name":"y2","type":"int","value":1200},{"name":"next","type":"int","value":0},{"name":"prev","type":"int","value":628}],"polyline":[{"x":0,"y":0},{"x":32,"y":7}]},{"id":732,"x":-950,"y":1169,"visible":true,"properties":[{"name":"layer","type":"int","value":1},{"name":"group","type":"int","value":28},{"name":"id","type":"int","value":630},{"name":"fh_layer","type":"int","value":1},{"name":"fh_group","type":"int","value":28},{"name":"fh_id","type":"int","value":630},{"name":"x1","type":"int","value":-950},{"name":"x2","type":"int","value":-914},{"name":"y1","type":"int","value":1169},{"name":"y2","type":"int","value":1156},{"name":"next","type":"int","value":631},{"name":"prev","type":"int","value":0}],"polyline":[{"x":0,"y":0},{"x":36,"y":-13}]},{"id":733,"x":-914,"y":1156,"visible":true,"properties":[{"name":"layer","type":"int","value":1},{"name":"group","type":"int","value":28},{"name":"id","type":"int","value":631},{"name":"fh_layer","type":"int","value":1},{"name":"fh_group","type":"int","value":28},{"name":"fh_id","type":"int","value":631},{"name":"x1","type":"int","value":-914},{"name":"x2","type":"int","value":-885},{"name":"y1","type":"int","value":1156},{"name":"y2","type":"int","value":1160},{"name":"next","type":"int","value":632},{"name":"prev","type":"int","value":630}],"polyline":[{"x":0,"y":0},{"x":29,"y":4}]},{"id":734,"x":-885,"y":1160,"visible":true,"properties":[{"name":"layer","type":"int","value":1},{"name":"group","type":"int","value":28},{"name":"id","type":"int","value":632},{"name":"fh_layer","type":"int","value":1},{"name":"fh_group","type":"int","value":28},{"name":"fh_id","type":"int","value":632},{"name":"x1","type":"int","value":-885},{"name":"x2","type":"int","value":-855},{"name":"y1","type":"int","value":1160},{"name":"y2","type":"int","value":1160},{"name":"next","type":"int","value":633},{"name":"prev","type":"int","value":631}],"polyline":[{"x":0,"y":0},{"x":30,"y":0}]},{"id":735,"x":-855,"y":1160,"visible":true,"properties":[{"name":"layer","type":"int","value":1},{"name":"group","type":"int","value":28},{"name":"id","type":"int","value":633},{"name":"fh_layer","type":"int","value":1},{"name":"fh_group","type":"int","value":28},{"name":"fh_id","type":"int","value":633},{"name":"x1","type":"int","value":-855},{"name":"x2","type":"int","value":-844},{"name":"y1","type":"int","value":1160},{"name":"y2","type":"int","value":1158},{"name":"next","type":"int","value":634},{"name":"prev","type":"int","value":632}],"polyline":[{"x":0,"y":0},{"x":11,"y":-2}]},{"id":736,"x":-844,"y":1158,"visible":true,"properties":[{"name":"layer","type":"int","value":1},{"name":"group","type":"int","value":28},{"name":"id","type":"int","value":634},{"name":"fh_layer","type":"int","value":1},{"name":"fh_group","type":"int","value":28},{"name":"fh_id","type":"int","value":634},{"name":"x1","type":"int","value":-844},{"name":"x2","type":"int","value":-812},{"name":"y1","type":"int","value":1158},{"name":"y2","type":"int","value":1165},{"name":"next","type":"int","value":0},{"name":"prev","type":"int","value":633}],"polyline":[{"x":0,"y":0},{"x":32,"y":7}]},{"id":737,"x":1039,"y":1140,"visible":true,"properties":[{"name":"layer","type":"int","value":1},{"name":"group","type":"int","value":29},{"name":"id","type":"int","value":652},{"name":"fh_layer","type":"int","value":1},{"name":"fh_group","type":"int","value":29},{"name":"fh_id","type":"int","value":652},{"name":"x1","type":"int","value":1039},{"name":"x2","type":"int","value":1085},{"name":"y1","type":"int","value":1140},{"name":"y2","type":"int","value":1162},{"name":"next","type":"int","value":0},{"name":"prev","type":"int","value":653}],"polyline":[{"x":0,"y":0},{"x":46,"y":22}]},{"id":738,"x":990,"y":1136,"visible":true,"properties":[{"name":"layer","type":"int","value":1},{"name":"group","type":"int","value":29},{"name":"id","type":"int","value":653},{"name":"fh_layer","type":"int","value":1},{"name":"fh_group","type":"int","value":29},{"name":"fh_id","type":"int","value":653},{"name":"x1","type":"int","value":990},{"name":"x2","type":"int","value":1039},{"name":"y1","type":"int","value":1136},{"name":"y2","type":"int","value":1140},{"name":"next","type":"int","value":652},{"name":"prev","type":"int","value":275}],"polyline":[{"x":0,"y":0},{"x":49,"y":4}]},{"id":739,"x":-288,"y":1093,"visible":true,"properties":[{"name":"layer","type":"int","value":1},{"name":"group","type":"int","value":30},{"name":"id","type":"int","value":230},{"name":"fh_layer","type":"int","value":1},{"name":"fh_group","type":"int","value":30},{"name":"fh_id","type":"int","value":230},{"name":"x1","type":"int","value":-288},{"name":"x2","type":"int","value":-208},{"name":"y1","type":"int","value":1093},{"name":"y2","type":"int","value":1096},{"name":"next","type":"int","value":231},{"name":"prev","type":"int","value":249}],"polyline":[{"x":0,"y":0},{"x":80,"y":3}]},{"id":740,"x":-208,"y":1096,"visible":true,"properties":[{"name":"layer","type":"int","value":1},{"name":"group","type":"int","value":30},{"name":"id","type":"int","value":231},{"name":"fh_layer","type":"int","value":1},{"name":"fh_group","type":"int","value":30},{"name":"fh_id","type":"int","value":231},{"name":"x1","type":"int","value":-208},{"name":"x2","type":"int","value":-166},{"name":"y1","type":"int","value":1096},{"name":"y2","type":"int","value":1084},{"name":"next","type":"int","value":232},{"name":"prev","type":"int","value":230}],"polyline":[{"x":0,"y":0},{"x":42,"y":-12}]},{"id":741,"x":-166,"y":1084,"visible":true,"properties":[{"name":"layer","type":"int","value":1},{"name":"group","type":"int","value":30},{"name":"id","type":"int","value":232},{"name":"fh_layer","type":"int","value":1},{"name":"fh_group","type":"int","value":30},{"name":"fh_id","type":"int","value":232},{"name":"x1","type":"int","value":-166},{"name":"x2","type":"int","value":-154},{"name":"y1","type":"int","value":1084},{"name":"y2","type":"int","value":1074},{"name":"next","type":"int","value":233},{"name":"prev","type":"int","value":231}],"polyline":[{"x":0,"y":0},{"x":12,"y":-10}]},{"id":742,"x":-154,"y":1074,"visible":true,"properties":[{"name":"layer","type":"int","value":1},{"name":"group","type":"int","value":30},{"name":"id","type":"int","value":233},{"name":"fh_layer","type":"int","value":1},{"name":"fh_group","type":"int","value":30},{"name":"fh_id","type":"int","value":233},{"name":"x1","type":"int","value":-154},{"name":"x2","type":"int","value":-121},{"name":"y1","type":"int","value":1074},{"name":"y2","type":"int","value":1069},{"name":"next","type":"int","value":234},{"name":"prev","type":"int","value":232}],"polyline":[{"x":0,"y":0},{"x":33,"y":-5}]},{"id":743,"x":-121,"y":1069,"visible":true,"properties":[{"name":"layer","type":"int","value":1},{"name":"group","type":"int","value":30},{"name":"id","type":"int","value":234},{"name":"fh_layer","type":"int","value":1},{"name":"fh_group","type":"int","value":30},{"name":"fh_id","type":"int","value":234},{"name":"x1","type":"int","value":-121},{"name":"x2","type":"int","value":-89},{"name":"y1","type":"int","value":1069},{"name":"y2","type":"int","value":1069},{"name":"next","type":"int","value":235},{"name":"prev","type":"int","value":233}],"polyline":[{"x":0,"y":0},{"x":32,"y":0}]},{"id":744,"x":-89,"y":1069,"visible":true,"properties":[{"name":"layer","type":"int","value":1},{"name":"group","type":"int","value":30},{"name":"id","type":"int","value":235},{"name":"fh_layer","type":"int","value":1},{"name":"fh_group","type":"int","value":30},{"name":"fh_id","type":"int","value":235},{"name":"x1","type":"int","value":-89},{"name":"x2","type":"int","value":-63},{"name":"y1","type":"int","value":1069},{"name":"y2","type":"int","value":1049},{"name":"next","type":"int","value":236},{"name":"prev","type":"int","value":234}],"polyline":[{"x":0,"y":0},{"x":26,"y":-20}]},{"id":745,"x":-63,"y":1049,"visible":true,"properties":[{"name":"layer","type":"int","value":1},{"name":"group","type":"int","value":30},{"name":"id","type":"int","value":236},{"name":"fh_layer","type":"int","value":1},{"name":"fh_group","type":"int","value":30},{"name":"fh_id","type":"int","value":236},{"name":"x1","type":"int","value":-63},{"name":"x2","type":"int","value":-21},{"name":"y1","type":"int","value":1049},{"name":"y2","type":"int","value":1055},{"name":"next","type":"int","value":237},{"name":"prev","type":"int","value":235}],"polyline":[{"x":0,"y":0},{"x":42,"y":6}]},{"id":746,"x":-21,"y":1055,"visible":true,"properties":[{"name":"layer","type":"int","value":1},{"name":"group","type":"int","value":30},{"name":"id","type":"int","value":237},{"name":"fh_layer","type":"int","value":1},{"name":"fh_group","type":"int","value":30},{"name":"fh_id","type":"int","value":237},{"name":"x1","type":"int","value":-21},{"name":"x2","type":"int","value":11},{"name":"y1","type":"int","value":1055},{"name":"y2","type":"int","value":1043},{"name":"next","type":"int","value":238},{"name":"prev","type":"int","value":236}],"polyline":[{"x":0,"y":0},{"x":32,"y":-12}]},{"id":747,"x":11,"y":1043,"visible":true,"properties":[{"name":"layer","type":"int","value":1},{"name":"group","type":"int","value":30},{"name":"id","type":"int","value":238},{"name":"fh_layer","type":"int","value":1},{"name":"fh_group","type":"int","value":30},{"name":"fh_id","type":"int","value":238},{"name":"x1","type":"int","value":11},{"name":"x2","type":"int","value":15},{"name":"y1","type":"int","value":1043},{"name":"y2","type":"int","value":1044},{"name":"next","type":"int","value":250},{"name":"prev","type":"int","value":237}],"polyline":[{"x":0,"y":0},{"x":4,"y":1}]},{"id":748,"x":-639,"y":1171,"visible":true,"properties":[{"name":"layer","type":"int","value":1},{"name":"group","type":"int","value":30},{"name":"id","type":"int","value":239},{"name":"fh_layer","type":"int","value":1},{"name":"fh_group","type":"int","value":30},{"name":"fh_id","type":"int","value":239},{"name":"x1","type":"int","value":-639},{"name":"x2","type":"int","value":-608},{"name":"y1","type":"int","value":1171},{"name":"y2","type":"int","value":1151},{"name":"next","type":"int","value":240},{"name":"prev","type":"int","value":0}],"polyline":[{"x":0,"y":0},{"x":31,"y":-20}]},{"id":749,"x":-608,"y":1151,"visible":true,"properties":[{"name":"layer","type":"int","value":1},{"name":"group","type":"int","value":30},{"name":"id","type":"int","value":240},{"name":"fh_layer","type":"int","value":1},{"name":"fh_group","type":"int","value":30},{"name":"fh_id","type":"int","value":240},{"name":"x1","type":"int","value":-608},{"name":"x2","type":"int","value":-528},{"name":"y1","type":"int","value":1151},{"name":"y2","type":"int","value":1154},{"name":"next","type":"int","value":241},{"name":"prev","type":"int","value":239}],"polyline":[{"x":0,"y":0},{"x":80,"y":3}]},{"id":750,"x":-528,"y":1154,"visible":true,"properties":[{"name":"layer","type":"int","value":1},{"name":"group","type":"int","value":30},{"name":"id","type":"int","value":241},{"name":"fh_layer","type":"int","value":1},{"name":"fh_group","type":"int","value":30},{"name":"fh_id","type":"int","value":241},{"name":"x1","type":"int","value":-528},{"name":"x2","type":"int","value":-486},{"name":"y1","type":"int","value":1154},{"name":"y2","type":"int","value":1142},{"name":"next","type":"int","value":242},{"name":"prev","type":"int","value":240}],"polyline":[{"x":0,"y":0},{"x":42,"y":-12}]},{"id":751,"x":-486,"y":1142,"visible":true,"properties":[{"name":"layer","type":"int","value":1},{"name":"group","type":"int","value":30},{"name":"id","type":"int","value":242},{"name":"fh_layer","type":"int","value":1},{"name":"fh_group","type":"int","value":30},{"name":"fh_id","type":"int","value":242},{"name":"x1","type":"int","value":-486},{"name":"x2","type":"int","value":-474},{"name":"y1","type":"int","value":1142},{"name":"y2","type":"int","value":1132},{"name":"next","type":"int","value":243},{"name":"prev","type":"int","value":241}],"polyline":[{"x":0,"y":0},{"x":12,"y":-10}]},{"id":752,"x":-474,"y":1132,"visible":true,"properties":[{"name":"layer","type":"int","value":1},{"name":"group","type":"int","value":30},{"name":"id","type":"int","value":243},{"name":"fh_layer","type":"int","value":1},{"name":"fh_group","type":"int","value":30},{"name":"fh_id","type":"int","value":243},{"name":"x1","type":"int","value":-474},{"name":"x2","type":"int","value":-441},{"name":"y1","type":"int","value":1132},{"name":"y2","type":"int","value":1127},{"name":"next","type":"int","value":244},{"name":"prev","type":"int","value":242}],"polyline":[{"x":0,"y":0},{"x":33,"y":-5}]},{"id":753,"x":-441,"y":1127,"visible":true,"properties":[{"name":"layer","type":"int","value":1},{"name":"group","type":"int","value":30},{"name":"id","type":"int","value":244},{"name":"fh_layer","type":"int","value":1},{"name":"fh_group","type":"int","value":30},{"name":"fh_id","type":"int","value":244},{"name":"x1","type":"int","value":-441},{"name":"x2","type":"int","value":-409},{"name":"y1","type":"int","value":1127},{"name":"y2","type":"int","value":1127},{"name":"next","type":"int","value":245},{"name":"prev","type":"int","value":243}],"polyline":[{"x":0,"y":0},{"x":32,"y":0}]},{"id":754,"x":-409,"y":1127,"visible":true,"properties":[{"name":"layer","type":"int","value":1},{"name":"group","type":"int","value":30},{"name":"id","type":"int","value":245},{"name":"fh_layer","type":"int","value":1},{"name":"fh_group","type":"int","value":30},{"name":"fh_id","type":"int","value":245},{"name":"x1","type":"int","value":-409},{"name":"x2","type":"int","value":-383},{"name":"y1","type":"int","value":1127},{"name":"y2","type":"int","value":1107},{"name":"next","type":"int","value":246},{"name":"prev","type":"int","value":244}],"polyline":[{"x":0,"y":0},{"x":26,"y":-20}]},{"id":755,"x":-383,"y":1107,"visible":true,"properties":[{"name":"layer","type":"int","value":1},{"name":"group","type":"int","value":30},{"name":"id","type":"int","value":246},{"name":"fh_layer","type":"int","value":1},{"name":"fh_group","type":"int","value":30},{"name":"fh_id","type":"int","value":246},{"name":"x1","type":"int","value":-383},{"name":"x2","type":"int","value":-341},{"name":"y1","type":"int","value":1107},{"name":"y2","type":"int","value":1113},{"name":"next","type":"int","value":247},{"name":"prev","type":"int","value":245}],"polyline":[{"x":0,"y":0},{"x":42,"y":6}]},{"id":756,"x":-341,"y":1113,"visible":true,"properties":[{"name":"layer","type":"int","value":1},{"name":"group","type":"int","value":30},{"name":"id","type":"int","value":247},{"name":"fh_layer","type":"int","value":1},{"name":"fh_group","type":"int","value":30},{"name":"fh_id","type":"int","value":247},{"name":"x1","type":"int","value":-341},{"name":"x2","type":"int","value":-309},{"name":"y1","type":"int","value":1113},{"name":"y2","type":"int","value":1101},{"name":"next","type":"int","value":248},{"name":"prev","type":"int","value":246}],"polyline":[{"x":0,"y":0},{"x":32,"y":-12}]},{"id":757,"x":-309,"y":1101,"visible":true,"properties":[{"name":"layer","type":"int","value":1},{"name":"group","type":"int","value":30},{"name":"id","type":"int","value":248},{"name":"fh_layer","type":"int","value":1},{"name":"fh_group","type":"int","value":30},{"name":"fh_id","type":"int","value":248},{"name":"x1","type":"int","value":-309},{"name":"x2","type":"int","value":-303},{"name":"y1","type":"int","value":1101},{"name":"y2","type":"int","value":1103},{"name":"next","type":"int","value":249},{"name":"prev","type":"int","value":247}],"polyline":[{"x":0,"y":0},{"x":6,"y":2}]},{"id":758,"x":-303,"y":1103,"visible":true,"properties":[{"name":"layer","type":"int","value":1},{"name":"group","type":"int","value":30},{"name":"id","type":"int","value":249},{"name":"fh_layer","type":"int","value":1},{"name":"fh_group","type":"int","value":30},{"name":"fh_id","type":"int","value":249},{"name":"x1","type":"int","value":-303},{"name":"x2","type":"int","value":-288},{"name":"y1","type":"int","value":1103},{"name":"y2","type":"int","value":1093},{"name":"next","type":"int","value":230},{"name":"prev","type":"int","value":248}],"polyline":[{"x":0,"y":0},{"x":15,"y":-10}]},{"id":759,"x":15,"y":1044,"visible":true,"properties":[{"name":"layer","type":"int","value":1},{"name":"group","type":"int","value":30},{"name":"id","type":"int","value":250},{"name":"fh_layer","type":"int","value":1},{"name":"fh_group","type":"int","value":30},{"name":"fh_id","type":"int","value":250},{"name":"x1","type":"int","value":15},{"name":"x2","type":"int","value":31},{"name":"y1","type":"int","value":1044},{"name":"y2","type":"int","value":1035},{"name":"next","type":"int","value":251},{"name":"prev","type":"int","value":238}],"polyline":[{"x":0,"y":0},{"x":16,"y":-9}]},{"id":760,"x":31,"y":1035,"visible":true,"properties":[{"name":"layer","type":"int","value":1},{"name":"group","type":"int","value":30},{"name":"id","type":"int","value":251},{"name":"fh_layer","type":"int","value":1},{"name":"fh_group","type":"int","value":30},{"name":"fh_id","type":"int","value":251},{"name":"x1","type":"int","value":31},{"name":"x2","type":"int","value":111},{"name":"y1","type":"int","value":1035},{"name":"y2","type":"int","value":1038},{"name":"next","type":"int","value":252},{"name":"prev","type":"int","value":250}],"polyline":[{"x":0,"y":0},{"x":80,"y":3}]},{"id":761,"x":111,"y":1038,"visible":true,"properties":[{"name":"layer","type":"int","value":1},{"name":"group","type":"int","value":30},{"name":"id","type":"int","value":252},{"name":"fh_layer","type":"int","value":1},{"name":"fh_group","type":"int","value":30},{"name":"fh_id","type":"int","value":252},{"name":"x1","type":"int","value":111},{"name":"x2","type":"int","value":153},{"name":"y1","type":"int","value":1038},{"name":"y2","type":"int","value":1026},{"name":"next","type":"int","value":253},{"name":"prev","type":"int","value":251}],"polyline":[{"x":0,"y":0},{"x":42,"y":-12}]},{"id":762,"x":153,"y":1026,"visible":true,"properties":[{"name":"layer","type":"int","value":1},{"name":"group","type":"int","value":30},{"name":"id","type":"int","value":253},{"name":"fh_layer","type":"int","value":1},{"name":"fh_group","type":"int","value":30},{"name":"fh_id","type":"int","value":253},{"name":"x1","type":"int","value":153},{"name":"x2","type":"int","value":165},{"name":"y1","type":"int","value":1026},{"name":"y2","type":"int","value":1016},{"name":"next","type":"int","value":254},{"name":"prev","type":"int","value":252}],"polyline":[{"x":0,"y":0},{"x":12,"y":-10}]},{"id":763,"x":165,"y":1016,"visible":true,"properties":[{"name":"layer","type":"int","value":1},{"name":"group","type":"int","value":30},{"name":"id","type":"int","value":254},{"name":"fh_layer","type":"int","value":1},{"name":"fh_group","type":"int","value":30},{"name":"fh_id","type":"int","value":254},{"name":"x1","type":"int","value":165},{"name":"x2","type":"int","value":198},{"name":"y1","type":"int","value":1016},{"name":"y2","type":"int","value":1011},{"name":"next","type":"int","value":255},{"name":"prev","type":"int","value":253}],"polyline":[{"x":0,"y":0},{"x":33,"y":-5}]},{"id":764,"x":198,"y":1011,"visible":true,"properties":[{"name":"layer","type":"int","value":1},{"name":"group","type":"int","value":30},{"name":"id","type":"int","value":255},{"name":"fh_layer","type":"int","value":1},{"name":"fh_group","type":"int","value":30},{"name":"fh_id","type":"int","value":255},{"name":"x1","type":"int","value":198},{"name":"x2","type":"int","value":230},{"name":"y1","type":"int","value":1011},{"name":"y2","type":"int","value":1011},{"name":"next","type":"int","value":256},{"name":"prev","type":"int","value":254}],"polyline":[{"x":0,"y":0},{"x":32,"y":0}]},{"id":765,"x":230,"y":1011,"visible":true,"properties":[{"name":"layer","type":"int","value":1},{"name":"group","type":"int","value":30},{"name":"id","type":"int","value":256},{"name":"fh_layer","type":"int","value":1},{"name":"fh_group","type":"int","value":30},{"name":"fh_id","type":"int","value":256},{"name":"x1","type":"int","value":230},{"name":"x2","type":"int","value":256},{"name":"y1","type":"int","value":1011},{"name":"y2","type":"int","value":991},{"name":"next","type":"int","value":257},{"name":"prev","type":"int","value":255}],"polyline":[{"x":0,"y":0},{"x":26,"y":-20}]},{"id":766,"x":256,"y":991,"visible":true,"properties":[{"name":"layer","type":"int","value":1},{"name":"group","type":"int","value":30},{"name":"id","type":"int","value":257},{"name":"fh_layer","type":"int","value":1},{"name":"fh_group","type":"int","value":30},{"name":"fh_id","type":"int","value":257},{"name":"x1","type":"int","value":256},{"name":"x2","type":"int","value":298},{"name":"y1","type":"int","value":991},{"name":"y2","type":"int","value":997},{"name":"next","type":"int","value":258},{"name":"prev","type":"int","value":256}],"polyline":[{"x":0,"y":0},{"x":42,"y":6}]},{"id":767,"x":298,"y":997,"visible":true,"properties":[{"name":"layer","type":"int","value":1},{"name":"group","type":"int","value":30},{"name":"id","type":"int","value":258},{"name":"fh_layer","type":"int","value":1},{"name":"fh_group","type":"int","value":30},{"name":"fh_id","type":"int","value":258},{"name":"x1","type":"int","value":298},{"name":"x2","type":"int","value":330},{"name":"y1","type":"int","value":997},{"name":"y2","type":"int","value":985},{"name":"next","type":"int","value":259},{"name":"prev","type":"int","value":257}],"polyline":[{"x":0,"y":0},{"x":32,"y":-12}]},{"id":768,"x":330,"y":985,"visible":true,"properties":[{"name":"layer","type":"int","value":1},{"name":"group","type":"int","value":30},{"name":"id","type":"int","value":259},{"name":"fh_layer","type":"int","value":1},{"name":"fh_group","type":"int","value":30},{"name":"fh_id","type":"int","value":259},{"name":"x1","type":"int","value":330},{"name":"x2","type":"int","value":334},{"name":"y1","type":"int","value":985},{"name":"y2","type":"int","value":986},{"name":"next","type":"int","value":277},{"name":"prev","type":"int","value":258}],"polyline":[{"x":0,"y":0},{"x":4,"y":1}]},{"id":769,"x":347,"y":992,"visible":true,"properties":[{"name":"layer","type":"int","value":1},{"name":"group","type":"int","value":30},{"name":"id","type":"int","value":260},{"name":"fh_layer","type":"int","value":1},{"name":"fh_group","type":"int","value":30},{"name":"fh_id","type":"int","value":260},{"name":"x1","type":"int","value":347},{"name":"x2","type":"int","value":358},{"name":"y1","type":"int","value":992},{"name":"y2","type":"int","value":983},{"name":"next","type":"int","value":279},{"name":"prev","type":"int","value":276}],"polyline":[{"x":0,"y":0},{"x":11,"y":-9}]},{"id":770,"x":369,"y":974,"visible":true,"properties":[{"name":"layer","type":"int","value":1},{"name":"group","type":"int","value":30},{"name":"id","type":"int","value":261},{"name":"fh_layer","type":"int","value":1},{"name":"fh_group","type":"int","value":30},{"name":"fh_id","type":"int","value":261},{"name":"x1","type":"int","value":369},{"name":"x2","type":"int","value":471},{"name":"y1","type":"int","value":974},{"name":"y2","type":"int","value":1001},{"name":"next","type":"int","value":262},{"name":"prev","type":"int","value":279}],"polyline":[{"x":0,"y":0},{"x":102,"y":27}]},{"id":771,"x":471,"y":1001,"visible":true,"properties":[{"name":"layer","type":"int","value":1},{"name":"group","type":"int","value":30},{"name":"id","type":"int","value":262},{"name":"fh_layer","type":"int","value":1},{"name":"fh_group","type":"int","value":30},{"name":"fh_id","type":"int","value":262},{"name":"x1","type":"int","value":471},{"name":"x2","type":"int","value":522},{"name":"y1","type":"int","value":1001},{"name":"y2","type":"int","value":1003},{"name":"next","type":"int","value":263},{"name":"prev","type":"int","value":261}],"polyline":[{"x":0,"y":0},{"x":51,"y":2}]},{"id":772,"x":522,"y":1003,"visible":true,"properties":[{"name":"layer","type":"int","value":1},{"name":"group","type":"int","value":30},{"name":"id","type":"int","value":263},{"name":"fh_layer","type":"int","value":1},{"name":"fh_group","type":"int","value":30},{"name":"fh_id","type":"int","value":263},{"name":"x1","type":"int","value":522},{"name":"x2","type":"int","value":556},{"name":"y1","type":"int","value":1003},{"name":"y2","type":"int","value":1022},{"name":"next","type":"int","value":264},{"name":"prev","type":"int","value":262}],"polyline":[{"x":0,"y":0},{"x":34,"y":19}]},{"id":773,"x":556,"y":1022,"visible":true,"properties":[{"name":"layer","type":"int","value":1},{"name":"group","type":"int","value":30},{"name":"id","type":"int","value":264},{"name":"fh_layer","type":"int","value":1},{"name":"fh_group","type":"int","value":30},{"name":"fh_id","type":"int","value":264},{"name":"x1","type":"int","value":556},{"name":"x2","type":"int","value":588},{"name":"y1","type":"int","value":1022},{"name":"y2","type":"int","value":1030},{"name":"next","type":"int","value":265},{"name":"prev","type":"int","value":263}],"polyline":[{"x":0,"y":0},{"x":32,"y":8}]},{"id":774,"x":588,"y":1030,"visible":true,"properties":[{"name":"layer","type":"int","value":1},{"name":"group","type":"int","value":30},{"name":"id","type":"int","value":265},{"name":"fh_layer","type":"int","value":1},{"name":"fh_group","type":"int","value":30},{"name":"fh_id","type":"int","value":265},{"name":"x1","type":"int","value":588},{"name":"x2","type":"int","value":636},{"name":"y1","type":"int","value":1030},{"name":"y2","type":"int","value":1026},{"name":"next","type":"int","value":266},{"name":"prev","type":"int","value":264}],"polyline":[{"x":0,"y":0},{"x":48,"y":-4}]},{"id":775,"x":636,"y":1026,"visible":true,"properties":[{"name":"layer","type":"int","value":1},{"name":"group","type":"int","value":30},{"name":"id","type":"int","value":266},{"name":"fh_layer","type":"int","value":1},{"name":"fh_group","type":"int","value":30},{"name":"fh_id","type":"int","value":266},{"name":"x1","type":"int","value":636},{"name":"x2","type":"int","value":640},{"name":"y1","type":"int","value":1026},{"name":"y2","type":"int","value":1027},{"name":"next","type":"int","value":267},{"name":"prev","type":"int","value":265}],"polyline":[{"x":0,"y":0},{"x":4,"y":1}]},{"id":776,"x":640,"y":1027,"visible":true,"properties":[{"name":"layer","type":"int","value":1},{"name":"group","type":"int","value":30},{"name":"id","type":"int","value":267},{"name":"fh_layer","type":"int","value":1},{"name":"fh_group","type":"int","value":30},{"name":"fh_id","type":"int","value":267},{"name":"x1","type":"int","value":640},{"name":"x2","type":"int","value":656},{"name":"y1","type":"int","value":1027},{"name":"y2","type":"int","value":1020},{"name":"next","type":"int","value":268},{"name":"prev","type":"int","value":266}],"polyline":[{"x":0,"y":0},{"x":16,"y":-7}]},{"id":777,"x":656,"y":1020,"visible":true,"properties":[{"name":"layer","type":"int","value":1},{"name":"group","type":"int","value":30},{"name":"id","type":"int","value":268},{"name":"fh_layer","type":"int","value":1},{"name":"fh_group","type":"int","value":30},{"name":"fh_id","type":"int","value":268},{"name":"x1","type":"int","value":656},{"name":"x2","type":"int","value":722},{"name":"y1","type":"int","value":1020},{"name":"y2","type":"int","value":1023},{"name":"next","type":"int","value":269},{"name":"prev","type":"int","value":267}],"polyline":[{"x":0,"y":0},{"x":66,"y":3}]},{"id":778,"x":722,"y":1023,"visible":true,"properties":[{"name":"layer","type":"int","value":1},{"name":"group","type":"int","value":30},{"name":"id","type":"int","value":269},{"name":"fh_layer","type":"int","value":1},{"name":"fh_group","type":"int","value":30},{"name":"fh_id","type":"int","value":269},{"name":"x1","type":"int","value":722},{"name":"x2","type":"int","value":758},{"name":"y1","type":"int","value":1023},{"name":"y2","type":"int","value":1050},{"name":"next","type":"int","value":270},{"name":"prev","type":"int","value":268}],"polyline":[{"x":0,"y":0},{"x":36,"y":27}]},{"id":779,"x":758,"y":1050,"visible":true,"properties":[{"name":"layer","type":"int","value":1},{"name":"group","type":"int","value":30},{"name":"id","type":"int","value":270},{"name":"fh_layer","type":"int","value":1},{"name":"fh_group","type":"int","value":30},{"name":"fh_id","type":"int","value":270},{"name":"x1","type":"int","value":758},{"name":"x2","type":"int","value":781},{"name":"y1","type":"int","value":1050},{"name":"y2","type":"int","value":1069},{"name":"next","type":"int","value":271},{"name":"prev","type":"int","value":269}],"polyline":[{"x":0,"y":0},{"x":23,"y":19}]},{"id":780,"x":781,"y":1069,"visible":true,"properties":[{"name":"layer","type":"int","value":1},{"name":"group","type":"int","value":30},{"name":"id","type":"int","value":271},{"name":"fh_layer","type":"int","value":1},{"name":"fh_group","type":"int","value":30},{"name":"fh_id","type":"int","value":271},{"name":"x1","type":"int","value":781},{"name":"x2","type":"int","value":807},{"name":"y1","type":"int","value":1069},{"name":"y2","type":"int","value":1086},{"name":"next","type":"int","value":272},{"name":"prev","type":"int","value":270}],"polyline":[{"x":0,"y":0},{"x":26,"y":17}]},{"id":781,"x":807,"y":1086,"visible":true,"properties":[{"name":"layer","type":"int","value":1},{"name":"group","type":"int","value":30},{"name":"id","type":"int","value":272},{"name":"fh_layer","type":"int","value":1},{"name":"fh_group","type":"int","value":30},{"name":"fh_id","type":"int","value":272},{"name":"x1","type":"int","value":807},{"name":"x2","type":"int","value":848},{"name":"y1","type":"int","value":1086},{"name":"y2","type":"int","value":1105},{"name":"next","type":"int","value":273},{"name":"prev","type":"int","value":271}],"polyline":[{"x":0,"y":0},{"x":41,"y":19}]},{"id":782,"x":848,"y":1105,"visible":true,"properties":[{"name":"layer","type":"int","value":1},{"name":"group","type":"int","value":30},{"name":"id","type":"int","value":273},{"name":"fh_layer","type":"int","value":1},{"name":"fh_group","type":"int","value":30},{"name":"fh_id","type":"int","value":273},{"name":"x1","type":"int","value":848},{"name":"x2","type":"int","value":923},{"name":"y1","type":"int","value":1105},{"name":"y2","type":"int","value":1124},{"name":"next","type":"int","value":274},{"name":"prev","type":"int","value":272}],"polyline":[{"x":0,"y":0},{"x":75,"y":19}]},{"id":783,"x":923,"y":1124,"visible":true,"properties":[{"name":"layer","type":"int","value":1},{"name":"group","type":"int","value":30},{"name":"id","type":"int","value":274},{"name":"fh_layer","type":"int","value":1},{"name":"fh_group","type":"int","value":30},{"name":"fh_id","type":"int","value":274},{"name":"x1","type":"int","value":923},{"name":"x2","type":"int","value":966},{"name":"y1","type":"int","value":1124},{"name":"y2","type":"int","value":1128},{"name":"next","type":"int","value":275},{"name":"prev","type":"int","value":273}],"polyline":[{"x":0,"y":0},{"x":43,"y":4}]},{"id":784,"x":966,"y":1128,"visible":true,"properties":[{"name":"layer","type":"int","value":1},{"name":"group","type":"int","value":30},{"name":"id","type":"int","value":275},{"name":"fh_layer","type":"int","value":1},{"name":"fh_group","type":"int","value":30},{"name":"fh_id","type":"int","value":275},{"name":"x1","type":"int","value":966},{"name":"x2","type":"int","value":990},{"name":"y1","type":"int","value":1128},{"name":"y2","type":"int","value":1136},{"name":"next","type":"int","value":653},{"name":"prev","type":"int","value":274}],"polyline":[{"x":0,"y":0},{"x":24,"y":8}]},{"id":785,"x":334,"y":986,"visible":true,"properties":[{"name":"layer","type":"int","value":1},{"name":"group","type":"int","value":30},{"name":"id","type":"int","value":276},{"name":"fh_layer","type":"int","value":1},{"name":"fh_group","type":"int","value":30},{"name":"fh_id","type":"int","value":276},{"name":"x1","type":"int","value":334},{"name":"x2","type":"int","value":347},{"name":"y1","type":"int","value":986},{"name":"y2","type":"int","value":992},{"name":"next","type":"int","value":260},{"name":"prev","type":"int","value":259}],"polyline":[{"x":0,"y":0},{"x":13,"y":6}]},{"id":786,"x":334,"y":986,"visible":true,"properties":[{"name":"layer","type":"int","value":1},{"name":"group","type":"int","value":30},{"name":"id","type":"int","value":277},{"name":"fh_layer","type":"int","value":1},{"name":"fh_group","type":"int","value":30},{"name":"fh_id","type":"int","value":277},{"name":"x1","type":"int","value":334},{"name":"x2","type":"int","value":341},{"name":"y1","type":"int","value":986},{"name":"y2","type":"int","value":984},{"name":"next","type":"int","value":278},{"name":"prev","type":"int","value":259}],"polyline":[{"x":0,"y":0},{"x":7,"y":-2}]},{"id":787,"x":341,"y":984,"visible":true,"properties":[{"name":"layer","type":"int","value":1},{"name":"group","type":"int","value":30},{"name":"id","type":"int","value":278},{"name":"fh_layer","type":"int","value":1},{"name":"fh_group","type":"int","value":30},{"name":"fh_id","type":"int","value":278},{"name":"x1","type":"int","value":341},{"name":"x2","type":"int","value":358},{"name":"y1","type":"int","value":984},{"name":"y2","type":"int","value":983},{"name":"next","type":"int","value":279},{"name":"prev","type":"int","value":277}],"polyline":[{"x":0,"y":0},{"x":17,"y":-1}]},{"id":788,"x":358,"y":983,"visible":true,"properties":[{"name":"layer","type":"int","value":1},{"name":"group","type":"int","value":30},{"name":"id","type":"int","value":279},{"name":"fh_layer","type":"int","value":1},{"name":"fh_group","type":"int","value":30},{"name":"fh_id","type":"int","value":279},{"name":"x1","type":"int","value":358},{"name":"x2","type":"int","value":369},{"name":"y1","type":"int","value":983},{"name":"y2","type":"int","value":974},{"name":"next","type":"int","value":261},{"name":"prev","type":"int","value":278}],"polyline":[{"x":0,"y":0},{"x":11,"y":-9}]},{"id":789,"x":-1750,"y":961,"visible":true,"properties":[{"name":"layer","type":"int","value":1},{"name":"group","type":"int","value":31},{"name":"id","type":"int","value":730},{"name":"fh_layer","type":"int","value":1},{"name":"fh_group","type":"int","value":31},{"name":"fh_id","type":"int","value":730},{"name":"x1","type":"int","value":-1750},{"name":"x2","type":"int","value":-1679},{"name":"y1","type":"int","value":961},{"name":"y2","type":"int","value":964},{"name":"next","type":"int","value":731},{"name":"prev","type":"int","value":0}],"polyline":[{"x":0,"y":0},{"x":71,"y":3}]},{"id":790,"x":-1679,"y":964,"visible":true,"properties":[{"name":"layer","type":"int","value":1},{"name":"group","type":"int","value":31},{"name":"id","type":"int","value":731},{"name":"fh_layer","type":"int","value":1},{"name":"fh_group","type":"int","value":31},{"name":"fh_id","type":"int","value":731},{"name":"x1","type":"int","value":-1679},{"name":"x2","type":"int","value":-1620},{"name":"y1","type":"int","value":964},{"name":"y2","type":"int","value":956},{"name":"next","type":"int","value":0},{"name":"prev","type":"int","value":730}],"polyline":[{"x":0,"y":0},{"x":59,"y":-8}]},{"id":791,"x":-1863,"y":977,"visible":true,"properties":[{"name":"layer","type":"int","value":1},{"name":"group","type":"int","value":31},{"name":"id","type":"int","value":732},{"name":"fh_layer","type":"int","value":1},{"name":"fh_group","type":"int","value":31},{"name":"fh_id","type":"int","value":732},{"name":"x1","type":"int","value":-1863},{"name":"x2","type":"int","value":-1837},{"name":"y1","type":"int","value":977},{"name":"y2","type":"int","value":966},{"name":"next","type":"int","value":733},{"name":"prev","type":"int","value":0}],"polyline":[{"x":0,"y":0},{"x":26,"y":-11}]},{"id":792,"x":-1837,"y":966,"visible":true,"properties":[{"name":"layer","type":"int","value":1},{"name":"group","type":"int","value":31},{"name":"id","type":"int","value":733},{"name":"fh_layer","type":"int","value":1},{"name":"fh_group","type":"int","value":31},{"name":"fh_id","type":"int","value":733},{"name":"x1","type":"int","value":-1837},{"name":"x2","type":"int","value":-1784},{"name":"y1","type":"int","value":966},{"name":"y2","type":"int","value":970},{"name":"next","type":"int","value":734},{"name":"prev","type":"int","value":732}],"polyline":[{"x":0,"y":0},{"x":53,"y":4}]},{"id":793,"x":-1784,"y":970,"visible":true,"properties":[{"name":"layer","type":"int","value":1},{"name":"group","type":"int","value":31},{"name":"id","type":"int","value":734},{"name":"fh_layer","type":"int","value":1},{"name":"fh_group","type":"int","value":31},{"name":"fh_id","type":"int","value":734},{"name":"x1","type":"int","value":-1784},{"name":"x2","type":"int","value":-1749},{"name":"y1","type":"int","value":970},{"name":"y2","type":"int","value":986},{"name":"next","type":"int","value":735},{"name":"prev","type":"int","value":733}],"polyline":[{"x":0,"y":0},{"x":35,"y":16}]},{"id":794,"x":-1749,"y":986,"visible":true,"properties":[{"name":"layer","type":"int","value":1},{"name":"group","type":"int","value":31},{"name":"id","type":"int","value":735},{"name":"fh_layer","type":"int","value":1},{"name":"fh_group","type":"int","value":31},{"name":"fh_id","type":"int","value":735},{"name":"x1","type":"int","value":-1749},{"name":"x2","type":"int","value":-1728},{"name":"y1","type":"int","value":986},{"name":"y2","type":"int","value":994},{"name":"next","type":"int","value":736},{"name":"prev","type":"int","value":734}],"polyline":[{"x":0,"y":0},{"x":21,"y":8}]},{"id":795,"x":-1728,"y":994,"visible":true,"properties":[{"name":"layer","type":"int","value":1},{"name":"group","type":"int","value":31},{"name":"id","type":"int","value":736},{"name":"fh_layer","type":"int","value":1},{"name":"fh_group","type":"int","value":31},{"name":"fh_id","type":"int","value":736},{"name":"x1","type":"int","value":-1728},{"name":"x2","type":"int","value":-1709},{"name":"y1","type":"int","value":994},{"name":"y2","type":"int","value":993},{"name":"next","type":"int","value":737},{"name":"prev","type":"int","value":735}],"polyline":[{"x":0,"y":0},{"x":19,"y":-1}]},{"id":796,"x":-1709,"y":993,"visible":true,"properties":[{"name":"layer","type":"int","value":1},{"name":"group","type":"int","value":31},{"name":"id","type":"int","value":737},{"name":"fh_layer","type":"int","value":1},{"name":"fh_group","type":"int","value":31},{"name":"fh_id","type":"int","value":737},{"name":"x1","type":"int","value":-1709},{"name":"x2","type":"int","value":-1677},{"name":"y1","type":"int","value":993},{"name":"y2","type":"int","value":999},{"name":"next","type":"int","value":738},{"name":"prev","type":"int","value":736}],"polyline":[{"x":0,"y":0},{"x":32,"y":6}]},{"id":797,"x":-1677,"y":999,"visible":true,"properties":[{"name":"layer","type":"int","value":1},{"name":"group","type":"int","value":31},{"name":"id","type":"int","value":738},{"name":"fh_layer","type":"int","value":1},{"name":"fh_group","type":"int","value":31},{"name":"fh_id","type":"int","value":738},{"name":"x1","type":"int","value":-1677},{"name":"x2","type":"int","value":-1656},{"name":"y1","type":"int","value":999},{"name":"y2","type":"int","value":1014},{"name":"next","type":"int","value":739},{"name":"prev","type":"int","value":737}],"polyline":[{"x":0,"y":0},{"x":21,"y":15}]},{"id":798,"x":-1656,"y":1014,"visible":true,"properties":[{"name":"layer","type":"int","value":1},{"name":"group","type":"int","value":31},{"name":"id","type":"int","value":739},{"name":"fh_layer","type":"int","value":1},{"name":"fh_group","type":"int","value":31},{"name":"fh_id","type":"int","value":739},{"name":"x1","type":"int","value":-1656},{"name":"x2","type":"int","value":-1636},{"name":"y1","type":"int","value":1014},{"name":"y2","type":"int","value":1017},{"name":"next","type":"int","value":740},{"name":"prev","type":"int","value":738}],"polyline":[{"x":0,"y":0},{"x":20,"y":3}]},{"id":799,"x":-1636,"y":1017,"visible":true,"properties":[{"name":"layer","type":"int","value":1},{"name":"group","type":"int","value":31},{"name":"id","type":"int","value":740},{"name":"fh_layer","type":"int","value":1},{"name":"fh_group","type":"int","value":31},{"name":"fh_id","type":"int","value":740},{"name":"x1","type":"int","value":-1636},{"name":"x2","type":"int","value":-1622},{"name":"y1","type":"int","value":1017},{"name":"y2","type":"int","value":1027},{"name":"next","type":"int","value":741},{"name":"prev","type":"int","value":739}],"polyline":[{"x":0,"y":0},{"x":14,"y":10}]},{"id":800,"x":-1622,"y":1027,"visible":true,"properties":[{"name":"layer","type":"int","value":1},{"name":"group","type":"int","value":31},{"name":"id","type":"int","value":741},{"name":"fh_layer","type":"int","value":1},{"name":"fh_group","type":"int","value":31},{"name":"fh_id","type":"int","value":741},{"name":"x1","type":"int","value":-1622},{"name":"x2","type":"int","value":-1568},{"name":"y1","type":"int","value":1027},{"name":"y2","type":"int","value":1036},{"name":"next","type":"int","value":742},{"name":"prev","type":"int","value":740}],"polyline":[{"x":0,"y":0},{"x":54,"y":9}]},{"id":801,"x":-1568,"y":1036,"visible":true,"properties":[{"name":"layer","type":"int","value":1},{"name":"group","type":"int","value":31},{"name":"id","type":"int","value":742},{"name":"fh_layer","type":"int","value":1},{"name":"fh_group","type":"int","value":31},{"name":"fh_id","type":"int","value":742},{"name":"x1","type":"int","value":-1568},{"name":"x2","type":"int","value":-1552},{"name":"y1","type":"int","value":1036},{"name":"y2","type":"int","value":1042},{"name":"next","type":"int","value":743},{"name":"prev","type":"int","value":741}],"polyline":[{"x":0,"y":0},{"x":16,"y":6}]},{"id":802,"x":-1552,"y":1042,"visible":true,"properties":[{"name":"layer","type":"int","value":1},{"name":"group","type":"int","value":31},{"name":"id","type":"int","value":743},{"name":"fh_layer","type":"int","value":1},{"name":"fh_group","type":"int","value":31},{"name":"fh_id","type":"int","value":743},{"name":"x1","type":"int","value":-1552},{"name":"x2","type":"int","value":-1510},{"name":"y1","type":"int","value":1042},{"name":"y2","type":"int","value":1057},{"name":"next","type":"int","value":744},{"name":"prev","type":"int","value":742}],"polyline":[{"x":0,"y":0},{"x":42,"y":15}]},{"id":803,"x":-1510,"y":1057,"visible":true,"properties":[{"name":"layer","type":"int","value":1},{"name":"group","type":"int","value":31},{"name":"id","type":"int","value":744},{"name":"fh_layer","type":"int","value":1},{"name":"fh_group","type":"int","value":31},{"name":"fh_id","type":"int","value":744},{"name":"x1","type":"int","value":-1510},{"name":"x2","type":"int","value":-1491},{"name":"y1","type":"int","value":1057},{"name":"y2","type":"int","value":1056},{"name":"next","type":"int","value":745},{"name":"prev","type":"int","value":743}],"polyline":[{"x":0,"y":0},{"x":19,"y":-1}]},{"id":804,"x":-1491,"y":1056,"visible":true,"properties":[{"name":"layer","type":"int","value":1},{"name":"group","type":"int","value":31},{"name":"id","type":"int","value":745},{"name":"fh_layer","type":"int","value":1},{"name":"fh_group","type":"int","value":31},{"name":"fh_id","type":"int","value":745},{"name":"x1","type":"int","value":-1491},{"name":"x2","type":"int","value":-1459},{"name":"y1","type":"int","value":1056},{"name":"y2","type":"int","value":1062},{"name":"next","type":"int","value":746},{"name":"prev","type":"int","value":744}],"polyline":[{"x":0,"y":0},{"x":32,"y":6}]},{"id":805,"x":-1459,"y":1062,"visible":true,"properties":[{"name":"layer","type":"int","value":1},{"name":"group","type":"int","value":31},{"name":"id","type":"int","value":746},{"name":"fh_layer","type":"int","value":1},{"name":"fh_group","type":"int","value":31},{"name":"fh_id","type":"int","value":746},{"name":"x1","type":"int","value":-1459},{"name":"x2","type":"int","value":-1438},{"name":"y1","type":"int","value":1062},{"name":"y2","type":"int","value":1077},{"name":"next","type":"int","value":747},{"name":"prev","type":"int","value":745}],"polyline":[{"x":0,"y":0},{"x":21,"y":15}]},{"id":806,"x":-1438,"y":1077,"visible":true,"properties":[{"name":"layer","type":"int","value":1},{"name":"group","type":"int","value":31},{"name":"id","type":"int","value":747},{"name":"fh_layer","type":"int","value":1},{"name":"fh_group","type":"int","value":31},{"name":"fh_id","type":"int","value":747},{"name":"x1","type":"int","value":-1438},{"name":"x2","type":"int","value":-1418},{"name":"y1","type":"int","value":1077},{"name":"y2","type":"int","value":1080},{"name":"next","type":"int","value":748},{"name":"prev","type":"int","value":746}],"polyline":[{"x":0,"y":0},{"x":20,"y":3}]},{"id":807,"x":-1418,"y":1080,"visible":true,"properties":[{"name":"layer","type":"int","value":1},{"name":"group","type":"int","value":31},{"name":"id","type":"int","value":748},{"name":"fh_layer","type":"int","value":1},{"name":"fh_group","type":"int","value":31},{"name":"fh_id","type":"int","value":748},{"name":"x1","type":"int","value":-1418},{"name":"x2","type":"int","value":-1408},{"name":"y1","type":"int","value":1080},{"name":"y2","type":"int","value":1087},{"name":"next","type":"int","value":749},{"name":"prev","type":"int","value":747}],"polyline":[{"x":0,"y":0},{"x":10,"y":7}]},{"id":808,"x":-1408,"y":1087,"visible":true,"properties":[{"name":"layer","type":"int","value":1},{"name":"group","type":"int","value":31},{"name":"id","type":"int","value":749},{"name":"fh_layer","type":"int","value":1},{"name":"fh_group","type":"int","value":31},{"name":"fh_id","type":"int","value":749},{"name":"x1","type":"int","value":-1408},{"name":"x2","type":"int","value":-1357},{"name":"y1","type":"int","value":1087},{"name":"y2","type":"int","value":1091},{"name":"next","type":"int","value":750},{"name":"prev","type":"int","value":748}],"polyline":[{"x":0,"y":0},{"x":51,"y":4}]},{"id":809,"x":-1357,"y":1091,"visible":true,"properties":[{"name":"layer","type":"int","value":1},{"name":"group","type":"int","value":31},{"name":"id","type":"int","value":750},{"name":"fh_layer","type":"int","value":1},{"name":"fh_group","type":"int","value":31},{"name":"fh_id","type":"int","value":750},{"name":"x1","type":"int","value":-1357},{"name":"x2","type":"int","value":-1311},{"name":"y1","type":"int","value":1091},{"name":"y2","type":"int","value":1113},{"name":"next","type":"int","value":0},{"name":"prev","type":"int","value":749}],"polyline":[{"x":0,"y":0},{"x":46,"y":22}]},{"id":810,"x":-1344,"y":991,"visible":true,"properties":[{"name":"layer","type":"int","value":1},{"name":"group","type":"int","value":37},{"name":"id","type":"int","value":635},{"name":"fh_layer","type":"int","value":1},{"name":"fh_group","type":"int","value":37},{"name":"fh_id","type":"int","value":635},{"name":"x1","type":"int","value":-1344},{"name":"x2","type":"int","value":-1308},{"name":"y1","type":"int","value":991},{"name":"y2","type":"int","value":978},{"name":"next","type":"int","value":636},{"name":"prev","type":"int","value":0}],"polyline":[{"x":0,"y":0},{"x":36,"y":-13}]},{"id":811,"x":-1308,"y":978,"visible":true,"properties":[{"name":"layer","type":"int","value":1},{"name":"group","type":"int","value":37},{"name":"id","type":"int","value":636},{"name":"fh_layer","type":"int","value":1},{"name":"fh_group","type":"int","value":37},{"name":"fh_id","type":"int","value":636},{"name":"x1","type":"int","value":-1308},{"name":"x2","type":"int","value":-1279},{"name":"y1","type":"int","value":978},{"name":"y2","type":"int","value":982},{"name":"next","type":"int","value":637},{"name":"prev","type":"int","value":635}],"polyline":[{"x":0,"y":0},{"x":29,"y":4}]},{"id":812,"x":-1279,"y":982,"visible":true,"properties":[{"name":"layer","type":"int","value":1},{"name":"group","type":"int","value":37},{"name":"id","type":"int","value":637},{"name":"fh_layer","type":"int","value":1},{"name":"fh_group","type":"int","value":37},{"name":"fh_id","type":"int","value":637},{"name":"x1","type":"int","value":-1279},{"name":"x2","type":"int","value":-1249},{"name":"y1","type":"int","value":982},{"name":"y2","type":"int","value":982},{"name":"next","type":"int","value":638},{"name":"prev","type":"int","value":636}],"polyline":[{"x":0,"y":0},{"x":30,"y":0}]},{"id":813,"x":-1249,"y":982,"visible":true,"properties":[{"name":"layer","type":"int","value":1},{"name":"group","type":"int","value":37},{"name":"id","type":"int","value":638},{"name":"fh_layer","type":"int","value":1},{"name":"fh_group","type":"int","value":37},{"name":"fh_id","type":"int","value":638},{"name":"x1","type":"int","value":-1249},{"name":"x2","type":"int","value":-1238},{"name":"y1","type":"int","value":982},{"name":"y2","type":"int","value":980},{"name":"next","type":"int","value":639},{"name":"prev","type":"int","value":637}],"polyline":[{"x":0,"y":0},{"x":11,"y":-2}]},{"id":814,"x":-1238,"y":980,"visible":true,"properties":[{"name":"layer","type":"int","value":1},{"name":"group","type":"int","value":37},{"name":"id","type":"int","value":639},{"name":"fh_layer","type":"int","value":1},{"name":"fh_group","type":"int","value":37},{"name":"fh_id","type":"int","value":639},{"name":"x1","type":"int","value":-1238},{"name":"x2","type":"int","value":-1206},{"name":"y1","type":"int","value":980},{"name":"y2","type":"int","value":987},{"name":"next","type":"int","value":0},{"name":"prev","type":"int","value":638}],"polyline":[{"x":0,"y":0},{"x":32,"y":7}]},{"id":815,"x":-1175,"y":920,"visible":true,"properties":[{"name":"layer","type":"int","value":1},{"name":"group","type":"int","value":37},{"name":"id","type":"int","value":640},{"name":"fh_layer","type":"int","value":1},{"name":"fh_group","type":"int","value":37},{"name":"fh_id","type":"int","value":640},{"name":"x1","type":"int","value":-1175},{"name":"x2","type":"int","value":-1146},{"name":"y1","type":"int","value":920},{"name":"y2","type":"int","value":924},{"name":"next","type":"int","value":641},{"name":"prev","type":"int","value":646}],"polyline":[{"x":0,"y":0},{"x":29,"y":4}]},{"id":816,"x":-1146,"y":924,"visible":true,"properties":[{"name":"layer","type":"int","value":1},{"name":"group","type":"int","value":37},{"name":"id","type":"int","value":641},{"name":"fh_layer","type":"int","value":1},{"name":"fh_group","type":"int","value":37},{"name":"fh_id","type":"int","value":641},{"name":"x1","type":"int","value":-1146},{"name":"x2","type":"int","value":-1116},{"name":"y1","type":"int","value":924},{"name":"y2","type":"int","value":924},{"name":"next","type":"int","value":642},{"name":"prev","type":"int","value":640}],"polyline":[{"x":0,"y":0},{"x":30,"y":0}]},{"id":817,"x":-1116,"y":924,"visible":true,"properties":[{"name":"layer","type":"int","value":1},{"name":"group","type":"int","value":37},{"name":"id","type":"int","value":642},{"name":"fh_layer","type":"int","value":1},{"name":"fh_group","type":"int","value":37},{"name":"fh_id","type":"int","value":642},{"name":"x1","type":"int","value":-1116},{"name":"x2","type":"int","value":-1107},{"name":"y1","type":"int","value":924},{"name":"y2","type":"int","value":923},{"name":"next","type":"int","value":729},{"name":"prev","type":"int","value":641}],"polyline":[{"x":0,"y":0},{"x":9,"y":-1}]},{"id":818,"x":-1287,"y":940,"visible":true,"properties":[{"name":"layer","type":"int","value":1},{"name":"group","type":"int","value":37},{"name":"id","type":"int","value":643},{"name":"fh_layer","type":"int","value":1},{"name":"fh_group","type":"int","value":37},{"name":"fh_id","type":"int","value":643},{"name":"x1","type":"int","value":-1287},{"name":"x2","type":"int","value":-1262},{"name":"y1","type":"int","value":940},{"name":"y2","type":"int","value":929},{"name":"next","type":"int","value":644},{"name":"prev","type":"int","value":0}],"polyline":[{"x":0,"y":0},{"x":25,"y":-11}]},{"id":819,"x":-1262,"y":929,"visible":true,"properties":[{"name":"layer","type":"int","value":1},{"name":"group","type":"int","value":37},{"name":"id","type":"int","value":644},{"name":"fh_layer","type":"int","value":1},{"name":"fh_group","type":"int","value":37},{"name":"fh_id","type":"int","value":644},{"name":"x1","type":"int","value":-1262},{"name":"x2","type":"int","value":-1196},{"name":"y1","type":"int","value":929},{"name":"y2","type":"int","value":926},{"name":"next","type":"int","value":645},{"name":"prev","type":"int","value":643}],"polyline":[{"x":0,"y":0},{"x":66,"y":-3}]},{"id":820,"x":-1196,"y":926,"visible":true,"properties":[{"name":"layer","type":"int","value":1},{"name":"group","type":"int","value":37},{"name":"id","type":"int","value":645},{"name":"fh_layer","type":"int","value":1},{"name":"fh_group","type":"int","value":37},{"name":"fh_id","type":"int","value":645},{"name":"x1","type":"int","value":-1196},{"name":"x2","type":"int","value":-1193},{"name":"y1","type":"int","value":926},{"name":"y2","type":"int","value":927},{"name":"next","type":"int","value":646},{"name":"prev","type":"int","value":644}],"polyline":[{"x":0,"y":0},{"x":3,"y":1}]},{"id":821,"x":-1193,"y":927,"visible":true,"properties":[{"name":"layer","type":"int","value":1},{"name":"group","type":"int","value":37},{"name":"id","type":"int","value":646},{"name":"fh_layer","type":"int","value":1},{"name":"fh_group","type":"int","value":37},{"name":"fh_id","type":"int","value":646},{"name":"x1","type":"int","value":-1193},{"name":"x2","type":"int","value":-1175},{"name":"y1","type":"int","value":927},{"name":"y2","type":"int","value":920},{"name":"next","type":"int","value":640},{"name":"prev","type":"int","value":645}],"polyline":[{"x":0,"y":0},{"x":18,"y":-7}]},{"id":822,"x":-1162,"y":897,"visible":true,"properties":[{"name":"layer","type":"int","value":1},{"name":"group","type":"int","value":37},{"name":"id","type":"int","value":647},{"name":"fh_layer","type":"int","value":1},{"name":"fh_group","type":"int","value":37},{"name":"fh_id","type":"int","value":647},{"name":"x1","type":"int","value":-1162},{"name":"x2","type":"int","value":-1091},{"name":"y1","type":"int","value":897},{"name":"y2","type":"int","value":900},{"name":"next","type":"int","value":648},{"name":"prev","type":"int","value":0}],"polyline":[{"x":0,"y":0},{"x":71,"y":3}]},{"id":823,"x":-1091,"y":900,"visible":true,"properties":[{"name":"layer","type":"int","value":1},{"name":"group","type":"int","value":37},{"name":"id","type":"int","value":648},{"name":"fh_layer","type":"int","value":1},{"name":"fh_group","type":"int","value":37},{"name":"fh_id","type":"int","value":648},{"name":"x1","type":"int","value":-1091},{"name":"x2","type":"int","value":-1032},{"name":"y1","type":"int","value":900},{"name":"y2","type":"int","value":892},{"name":"next","type":"int","value":0},{"name":"prev","type":"int","value":647}],"polyline":[{"x":0,"y":0},{"x":59,"y":-8}]},{"id":824,"x":-1453,"y":1028,"visible":true,"properties":[{"name":"layer","type":"int","value":1},{"name":"group","type":"int","value":37},{"name":"id","type":"int","value":649},{"name":"fh_layer","type":"int","value":1},{"name":"fh_group","type":"int","value":37},{"name":"fh_id","type":"int","value":649},{"name":"x1","type":"int","value":-1453},{"name":"x2","type":"int","value":-1428},{"name":"y1","type":"int","value":1028},{"name":"y2","type":"int","value":1017},{"name":"next","type":"int","value":650},{"name":"prev","type":"int","value":0}],"polyline":[{"x":0,"y":0},{"x":25,"y":-11}]},{"id":825,"x":-1428,"y":1017,"visible":true,"properties":[{"name":"layer","type":"int","value":1},{"name":"group","type":"int","value":37},{"name":"id","type":"int","value":650},{"name":"fh_layer","type":"int","value":1},{"name":"fh_group","type":"int","value":37},{"name":"fh_id","type":"int","value":650},{"name":"x1","type":"int","value":-1428},{"name":"x2","type":"int","value":-1362},{"name":"y1","type":"int","value":1017},{"name":"y2","type":"int","value":1014},{"name":"next","type":"int","value":651},{"name":"prev","type":"int","value":649}],"polyline":[{"x":0,"y":0},{"x":66,"y":-3}]},{"id":826,"x":-1362,"y":1014,"visible":true,"properties":[{"name":"layer","type":"int","value":1},{"name":"group","type":"int","value":37},{"name":"id","type":"int","value":651},{"name":"fh_layer","type":"int","value":1},{"name":"fh_group","type":"int","value":37},{"name":"fh_id","type":"int","value":651},{"name":"x1","type":"int","value":-1362},{"name":"x2","type":"int","value":-1324},{"name":"y1","type":"int","value":1014},{"name":"y2","type":"int","value":1021},{"name":"next","type":"int","value":0},{"name":"prev","type":"int","value":650}],"polyline":[{"x":0,"y":0},{"x":38,"y":7}]},{"id":827,"x":385,"y":925,"visible":true,"properties":[{"name":"layer","type":"int","value":1},{"name":"group","type":"int","value":40},{"name":"id","type":"int","value":654},{"name":"fh_layer","type":"int","value":1},{"name":"fh_group","type":"int","value":40},{"name":"fh_id","type":"int","value":654},{"name":"x1","type":"int","value":385},{"name":"x2","type":"int","value":438},{"name":"y1","type":"int","value":925},{"name":"y2","type":"int","value":929},{"name":"next","type":"int","value":655},{"name":"prev","type":"int","value":659}],"polyline":[{"x":0,"y":0},{"x":53,"y":4}]},{"id":828,"x":438,"y":929,"visible":true,"properties":[{"name":"layer","type":"int","value":1},{"name":"group","type":"int","value":40},{"name":"id","type":"int","value":655},{"name":"fh_layer","type":"int","value":1},{"name":"fh_group","type":"int","value":40},{"name":"fh_id","type":"int","value":655},{"name":"x1","type":"int","value":438},{"name":"x2","type":"int","value":484},{"name":"y1","type":"int","value":929},{"name":"y2","type":"int","value":951},{"name":"next","type":"int","value":0},{"name":"prev","type":"int","value":654}],"polyline":[{"x":0,"y":0},{"x":46,"y":22}]},{"id":829,"x":321,"y":919,"visible":true,"properties":[{"name":"layer","type":"int","value":1},{"name":"group","type":"int","value":40},{"name":"id","type":"int","value":656},{"name":"fh_layer","type":"int","value":1},{"name":"fh_group","type":"int","value":40},{"name":"fh_id","type":"int","value":656},{"name":"x1","type":"int","value":321},{"name":"x2","type":"int","value":340},{"name":"y1","type":"int","value":919},{"name":"y2","type":"int","value":918},{"name":"next","type":"int","value":657},{"name":"prev","type":"int","value":663}],"polyline":[{"x":0,"y":0},{"x":19,"y":-1}]},{"id":830,"x":340,"y":918,"visible":true,"properties":[{"name":"layer","type":"int","value":1},{"name":"group","type":"int","value":40},{"name":"id","type":"int","value":657},{"name":"fh_layer","type":"int","value":1},{"name":"fh_group","type":"int","value":40},{"name":"fh_id","type":"int","value":657},{"name":"x1","type":"int","value":340},{"name":"x2","type":"int","value":372},{"name":"y1","type":"int","value":918},{"name":"y2","type":"int","value":924},{"name":"next","type":"int","value":658},{"name":"prev","type":"int","value":656}],"polyline":[{"x":0,"y":0},{"x":32,"y":6}]},{"id":831,"x":372,"y":924,"visible":true,"properties":[{"name":"layer","type":"int","value":1},{"name":"group","type":"int","value":40},{"name":"id","type":"int","value":658},{"name":"fh_layer","type":"int","value":1},{"name":"fh_group","type":"int","value":40},{"name":"fh_id","type":"int","value":658},{"name":"x1","type":"int","value":372},{"name":"x2","type":"int","value":377},{"name":"y1","type":"int","value":924},{"name":"y2","type":"int","value":929},{"name":"next","type":"int","value":659},{"name":"prev","type":"int","value":657}],"polyline":[{"x":0,"y":0},{"x":5,"y":5}]},{"id":832,"x":377,"y":929,"visible":true,"properties":[{"name":"layer","type":"int","value":1},{"name":"group","type":"int","value":40},{"name":"id","type":"int","value":659},{"name":"fh_layer","type":"int","value":1},{"name":"fh_group","type":"int","value":40},{"name":"fh_id","type":"int","value":659},{"name":"x1","type":"int","value":377},{"name":"x2","type":"int","value":385},{"name":"y1","type":"int","value":929},{"name":"y2","type":"int","value":925},{"name":"next","type":"int","value":654},{"name":"prev","type":"int","value":658}],"polyline":[{"x":0,"y":0},{"x":8,"y":-4}]},{"id":833,"x":174,"y":897,"visible":true,"properties":[{"name":"layer","type":"int","value":1},{"name":"group","type":"int","value":40},{"name":"id","type":"int","value":660},{"name":"fh_layer","type":"int","value":1},{"name":"fh_group","type":"int","value":40},{"name":"fh_id","type":"int","value":660},{"name":"x1","type":"int","value":174},{"name":"x2","type":"int","value":200},{"name":"y1","type":"int","value":897},{"name":"y2","type":"int","value":886},{"name":"next","type":"int","value":661},{"name":"prev","type":"int","value":0}],"polyline":[{"x":0,"y":0},{"x":26,"y":-11}]},{"id":834,"x":200,"y":886,"visible":true,"properties":[{"name":"layer","type":"int","value":1},{"name":"group","type":"int","value":40},{"name":"id","type":"int","value":661},{"name":"fh_layer","type":"int","value":1},{"name":"fh_group","type":"int","value":40},{"name":"fh_id","type":"int","value":661},{"name":"x1","type":"int","value":200},{"name":"x2","type":"int","value":253},{"name":"y1","type":"int","value":886},{"name":"y2","type":"int","value":890},{"name":"next","type":"int","value":662},{"name":"prev","type":"int","value":660}],"polyline":[{"x":0,"y":0},{"x":53,"y":4}]},{"id":835,"x":253,"y":890,"visible":true,"properties":[{"name":"layer","type":"int","value":1},{"name":"group","type":"int","value":40},{"name":"id","type":"int","value":662},{"name":"fh_layer","type":"int","value":1},{"name":"fh_group","type":"int","value":40},{"name":"fh_id","type":"int","value":662},{"name":"x1","type":"int","value":253},{"name":"x2","type":"int","value":294},{"name":"y1","type":"int","value":890},{"name":"y2","type":"int","value":909},{"name":"next","type":"int","value":663},{"name":"prev","type":"int","value":661}],"polyline":[{"x":0,"y":0},{"x":41,"y":19}]},{"id":836,"x":294,"y":909,"visible":true,"properties":[{"name":"layer","type":"int","value":1},{"name":"group","type":"int","value":40},{"name":"id","type":"int","value":663},{"name":"fh_layer","type":"int","value":1},{"name":"fh_group","type":"int","value":40},{"name":"fh_id","type":"int","value":663},{"name":"x1","type":"int","value":294},{"name":"x2","type":"int","value":321},{"name":"y1","type":"int","value":909},{"name":"y2","type":"int","value":919},{"name":"next","type":"int","value":656},{"name":"prev","type":"int","value":662}],"polyline":[{"x":0,"y":0},{"x":27,"y":10}]},{"id":837,"x":287,"y":869,"visible":true,"properties":[{"name":"layer","type":"int","value":1},{"name":"group","type":"int","value":40},{"name":"id","type":"int","value":664},{"name":"fh_layer","type":"int","value":1},{"name":"fh_group","type":"int","value":40},{"name":"fh_id","type":"int","value":664},{"name":"x1","type":"int","value":287},{"name":"x2","type":"int","value":312},{"name":"y1","type":"int","value":869},{"name":"y2","type":"int","value":852},{"name":"next","type":"int","value":665},{"name":"prev","type":"int","value":0}],"polyline":[{"x":0,"y":0},{"x":25,"y":-17}]},{"id":838,"x":312,"y":852,"visible":true,"properties":[{"name":"layer","type":"int","value":1},{"name":"group","type":"int","value":40},{"name":"id","type":"int","value":665},{"name":"fh_layer","type":"int","value":1},{"name":"fh_group","type":"int","value":40},{"name":"fh_id","type":"int","value":665},{"name":"x1","type":"int","value":312},{"name":"x2","type":"int","value":367},{"name":"y1","type":"int","value":852},{"name":"y2","type":"int","value":852},{"name":"next","type":"int","value":666},{"name":"prev","type":"int","value":664}],"polyline":[{"x":0,"y":0},{"x":55,"y":0}]},{"id":839,"x":367,"y":852,"visible":true,"properties":[{"name":"layer","type":"int","value":1},{"name":"group","type":"int","value":40},{"name":"id","type":"int","value":666},{"name":"fh_layer","type":"int","value":1},{"name":"fh_group","type":"int","value":40},{"name":"fh_id","type":"int","value":666},{"name":"x1","type":"int","value":367},{"name":"x2","type":"int","value":383},{"name":"y1","type":"int","value":852},{"name":"y2","type":"int","value":848},{"name":"next","type":"int","value":667},{"name":"prev","type":"int","value":665}],"polyline":[{"x":0,"y":0},{"x":16,"y":-4}]},{"id":840,"x":383,"y":848,"visible":true,"properties":[{"name":"layer","type":"int","value":1},{"name":"group","type":"int","value":40},{"name":"id","type":"int","value":667},{"name":"fh_layer","type":"int","value":1},{"name":"fh_group","type":"int","value":40},{"name":"fh_id","type":"int","value":667},{"name":"x1","type":"int","value":383},{"name":"x2","type":"int","value":435},{"name":"y1","type":"int","value":848},{"name":"y2","type":"int","value":848},{"name":"next","type":"int","value":668},{"name":"prev","type":"int","value":666}],"polyline":[{"x":0,"y":0},{"x":52,"y":0}]},{"id":841,"x":435,"y":848,"visible":true,"properties":[{"name":"layer","type":"int","value":1},{"name":"group","type":"int","value":40},{"name":"id","type":"int","value":668},{"name":"fh_layer","type":"int","value":1},{"name":"fh_group","type":"int","value":40},{"name":"fh_id","type":"int","value":668},{"name":"x1","type":"int","value":435},{"name":"x2","type":"int","value":445},{"name":"y1","type":"int","value":848},{"name":"y2","type":"int","value":843},{"name":"next","type":"int","value":669},{"name":"prev","type":"int","value":667}],"polyline":[{"x":0,"y":0},{"x":10,"y":-5}]},{"id":842,"x":445,"y":843,"visible":true,"properties":[{"name":"layer","type":"int","value":1},{"name":"group","type":"int","value":40},{"name":"id","type":"int","value":669},{"name":"fh_layer","type":"int","value":1},{"name":"fh_group","type":"int","value":40},{"name":"fh_id","type":"int","value":669},{"name":"x1","type":"int","value":445},{"name":"x2","type":"int","value":465},{"name":"y1","type":"int","value":843},{"name":"y2","type":"int","value":845},{"name":"next","type":"int","value":670},{"name":"prev","type":"int","value":668}],"polyline":[{"x":0,"y":0},{"x":20,"y":2}]},{"id":843,"x":465,"y":845,"visible":true,"properties":[{"name":"layer","type":"int","value":1},{"name":"group","type":"int","value":40},{"name":"id","type":"int","value":670},{"name":"fh_layer","type":"int","value":1},{"name":"fh_group","type":"int","value":40},{"name":"fh_id","type":"int","value":670},{"name":"x1","type":"int","value":465},{"name":"x2","type":"int","value":480},{"name":"y1","type":"int","value":845},{"name":"y2","type":"int","value":851},{"name":"next","type":"int","value":0},{"name":"prev","type":"int","value":669}],"polyline":[{"x":0,"y":0},{"x":15,"y":6}]},{"id":844,"x":-1102,"y":919,"visible":true,"properties":[{"name":"layer","type":"int","value":1},{"name":"group","type":"int","value":41},{"name":"id","type":"int","value":722},{"name":"fh_layer","type":"int","value":1},{"name":"fh_group","type":"int","value":41},{"name":"fh_id","type":"int","value":722},{"name":"x1","type":"int","value":-1102},{"name":"x2","type":"int","value":-1085},{"name":"y1","type":"int","value":919},{"name":"y2","type":"int","value":919},{"name":"next","type":"int","value":723},{"name":"prev","type":"int","value":729}],"polyline":[{"x":0,"y":0},{"x":17,"y":0}]},{"id":845,"x":-1085,"y":919,"visible":true,"properties":[{"name":"layer","type":"int","value":1},{"name":"group","type":"int","value":41},{"name":"id","type":"int","value":723},{"name":"fh_layer","type":"int","value":1},{"name":"fh_group","type":"int","value":41},{"name":"fh_id","type":"int","value":723},{"name":"x1","type":"int","value":-1085},{"name":"x2","type":"int","value":-1078},{"name":"y1","type":"int","value":919},{"name":"y2","type":"int","value":914},{"name":"next","type":"int","value":724},{"name":"prev","type":"int","value":722}],"polyline":[{"x":0,"y":0},{"x":7,"y":-5}]},{"id":846,"x":-1078,"y":914,"visible":true,"properties":[{"name":"layer","type":"int","value":1},{"name":"group","type":"int","value":41},{"name":"id","type":"int","value":724},{"name":"fh_layer","type":"int","value":1},{"name":"fh_group","type":"int","value":41},{"name":"fh_id","type":"int","value":724},{"name":"x1","type":"int","value":-1078},{"name":"x2","type":"int","value":-1055},{"name":"y1","type":"int","value":914},{"name":"y2","type":"int","value":915},{"name":"next","type":"int","value":725},{"name":"prev","type":"int","value":723}],"polyline":[{"x":0,"y":0},{"x":23,"y":1}]},{"id":847,"x":-1055,"y":915,"visible":true,"properties":[{"name":"layer","type":"int","value":1},{"name":"group","type":"int","value":41},{"name":"id","type":"int","value":725},{"name":"fh_layer","type":"int","value":1},{"name":"fh_group","type":"int","value":41},{"name":"fh_id","type":"int","value":725},{"name":"x1","type":"int","value":-1055},{"name":"x2","type":"int","value":-1046},{"name":"y1","type":"int","value":915},{"name":"y2","type":"int","value":912},{"name":"next","type":"int","value":726},{"name":"prev","type":"int","value":724}],"polyline":[{"x":0,"y":0},{"x":9,"y":-3}]},{"id":848,"x":-1046,"y":912,"visible":true,"properties":[{"name":"layer","type":"int","value":1},{"name":"group","type":"int","value":41},{"name":"id","type":"int","value":726},{"name":"fh_layer","type":"int","value":1},{"name":"fh_group","type":"int","value":41},{"name":"fh_id","type":"int","value":726},{"name":"x1","type":"int","value":-1046},{"name":"x2","type":"int","value":-1004},{"name":"y1","type":"int","value":912},{"name":"y2","type":"int","value":914},{"name":"next","type":"int","value":727},{"name":"prev","type":"int","value":725}],"polyline":[{"x":0,"y":0},{"x":42,"y":2}]},{"id":849,"x":-1004,"y":914,"visible":true,"properties":[{"name":"layer","type":"int","value":1},{"name":"group","type":"int","value":41},{"name":"id","type":"int","value":727},{"name":"fh_layer","type":"int","value":1},{"name":"fh_group","type":"int","value":41},{"name":"fh_id","type":"int","value":727},{"name":"x1","type":"int","value":-1004},{"name":"x2","type":"int","value":-996},{"name":"y1","type":"int","value":914},{"name":"y2","type":"int","value":911},{"name":"next","type":"int","value":728},{"name":"prev","type":"int","value":726}],"polyline":[{"x":0,"y":0},{"x":8,"y":-3}]},{"id":850,"x":-996,"y":911,"visible":true,"properties":[{"name":"layer","type":"int","value":1},{"name":"group","type":"int","value":41},{"name":"id","type":"int","value":728},{"name":"fh_layer","type":"int","value":1},{"name":"fh_group","type":"int","value":41},{"name":"fh_id","type":"int","value":728},{"name":"x1","type":"int","value":-996},{"name":"x2","type":"int","value":-970},{"name":"y1","type":"int","value":911},{"name":"y2","type":"int","value":916},{"name":"next","type":"int","value":0},{"name":"prev","type":"int","value":727}],"polyline":[{"x":0,"y":0},{"x":26,"y":5}]},{"id":851,"x":-1107,"y":923,"visible":true,"properties":[{"name":"layer","type":"int","value":1},{"name":"group","type":"int","value":41},{"name":"id","type":"int","value":729},{"name":"fh_layer","type":"int","value":1},{"name":"fh_group","type":"int","value":41},{"name":"fh_id","type":"int","value":729},{"name":"x1","type":"int","value":-1107},{"name":"x2","type":"int","value":-1102},{"name":"y1","type":"int","value":923},{"name":"y2","type":"int","value":919},{"name":"next","type":"int","value":722},{"name":"prev","type":"int","value":642}],"polyline":[{"x":0,"y":0},{"x":5,"y":-4}]},{"id":852,"x":12,"y":861,"visible":true,"properties":[{"name":"layer","type":"int","value":1},{"name":"group","type":"int","value":42},{"name":"id","type":"int","value":682},{"name":"fh_layer","type":"int","value":1},{"name":"fh_group","type":"int","value":42},{"name":"fh_id","type":"int","value":682},{"name":"x1","type":"int","value":12},{"name":"x2","type":"int","value":66},{"name":"y1","type":"int","value":861},{"name":"y2","type":"int","value":870},{"name":"next","type":"int","value":683},{"name":"prev","type":"int","value":688}],"polyline":[{"x":0,"y":0},{"x":54,"y":9}]},{"id":853,"x":66,"y":870,"visible":true,"properties":[{"name":"layer","type":"int","value":1},{"name":"group","type":"int","value":42},{"name":"id","type":"int","value":683},{"name":"fh_layer","type":"int","value":1},{"name":"fh_group","type":"int","value":42},{"name":"fh_id","type":"int","value":683},{"name":"x1","type":"int","value":66},{"name":"x2","type":"int","value":113},{"name":"y1","type":"int","value":870},{"name":"y2","type":"int","value":889},{"name":"next","type":"int","value":0},{"name":"prev","type":"int","value":682}],"polyline":[{"x":0,"y":0},{"x":47,"y":19}]},{"id":854,"x":-82,"y":832,"visible":true,"properties":[{"name":"layer","type":"int","value":1},{"name":"group","type":"int","value":42},{"name":"id","type":"int","value":684},{"name":"fh_layer","type":"int","value":1},{"name":"fh_group","type":"int","value":42},{"name":"fh_id","type":"int","value":684},{"name":"x1","type":"int","value":-82},{"name":"x2","type":"int","value":-50},{"name":"y1","type":"int","value":832},{"name":"y2","type":"int","value":838},{"name":"next","type":"int","value":685},{"name":"prev","type":"int","value":691}],"polyline":[{"x":0,"y":0},{"x":32,"y":6}]},{"id":855,"x":-50,"y":838,"visible":true,"properties":[{"name":"layer","type":"int","value":1},{"name":"group","type":"int","value":42},{"name":"id","type":"int","value":685},{"name":"fh_layer","type":"int","value":1},{"name":"fh_group","type":"int","value":42},{"name":"fh_id","type":"int","value":685},{"name":"x1","type":"int","value":-50},{"name":"x2","type":"int","value":-29},{"name":"y1","type":"int","value":838},{"name":"y2","type":"int","value":853},{"name":"next","type":"int","value":686},{"name":"prev","type":"int","value":684}],"polyline":[{"x":0,"y":0},{"x":21,"y":15}]},{"id":856,"x":-29,"y":853,"visible":true,"properties":[{"name":"layer","type":"int","value":1},{"name":"group","type":"int","value":42},{"name":"id","type":"int","value":686},{"name":"fh_layer","type":"int","value":1},{"name":"fh_group","type":"int","value":42},{"name":"fh_id","type":"int","value":686},{"name":"x1","type":"int","value":-29},{"name":"x2","type":"int","value":-9},{"name":"y1","type":"int","value":853},{"name":"y2","type":"int","value":856},{"name":"next","type":"int","value":687},{"name":"prev","type":"int","value":685}],"polyline":[{"x":0,"y":0},{"x":20,"y":3}]},{"id":857,"x":-9,"y":856,"visible":true,"properties":[{"name":"layer","type":"int","value":1},{"name":"group","type":"int","value":42},{"name":"id","type":"int","value":687},{"name":"fh_layer","type":"int","value":1},{"name":"fh_group","type":"int","value":42},{"name":"fh_id","type":"int","value":687},{"name":"x1","type":"int","value":-9},{"name":"x2","type":"int","value":1},{"name":"y1","type":"int","value":856},{"name":"y2","type":"int","value":864},{"name":"next","type":"int","value":688},{"name":"prev","type":"int","value":686}],"polyline":[{"x":0,"y":0},{"x":10,"y":8}]},{"id":858,"x":1,"y":864,"visible":true,"properties":[{"name":"layer","type":"int","value":1},{"name":"group","type":"int","value":42},{"name":"id","type":"int","value":688},{"name":"fh_layer","type":"int","value":1},{"name":"fh_group","type":"int","value":42},{"name":"fh_id","type":"int","value":688},{"name":"x1","type":"int","value":1},{"name":"x2","type":"int","value":12},{"name":"y1","type":"int","value":864},{"name":"y2","type":"int","value":861},{"name":"next","type":"int","value":682},{"name":"prev","type":"int","value":687}],"polyline":[{"x":0,"y":0},{"x":11,"y":-3}]},{"id":859,"x":-183,"y":809,"visible":true,"properties":[{"name":"layer","type":"int","value":1},{"name":"group","type":"int","value":42},{"name":"id","type":"int","value":689},{"name":"fh_layer","type":"int","value":1},{"name":"fh_group","type":"int","value":42},{"name":"fh_id","type":"int","value":689},{"name":"x1","type":"int","value":-183},{"name":"x2","type":"int","value":-129},{"name":"y1","type":"int","value":809},{"name":"y2","type":"int","value":818},{"name":"next","type":"int","value":690},{"name":"prev","type":"int","value":697}],"polyline":[{"x":0,"y":0},{"x":54,"y":9}]},{"id":860,"x":-129,"y":818,"visible":true,"properties":[{"name":"layer","type":"int","value":1},{"name":"group","type":"int","value":42},{"name":"id","type":"int","value":690},{"name":"fh_layer","type":"int","value":1},{"name":"fh_group","type":"int","value":42},{"name":"fh_id","type":"int","value":690},{"name":"x1","type":"int","value":-129},{"name":"x2","type":"int","value":-92},{"name":"y1","type":"int","value":818},{"name":"y2","type":"int","value":833},{"name":"next","type":"int","value":691},{"name":"prev","type":"int","value":689}],"polyline":[{"x":0,"y":0},{"x":37,"y":15}]},{"id":861,"x":-92,"y":833,"visible":true,"properties":[{"name":"layer","type":"int","value":1},{"name":"group","type":"int","value":42},{"name":"id","type":"int","value":691},{"name":"fh_layer","type":"int","value":1},{"name":"fh_group","type":"int","value":42},{"name":"fh_id","type":"int","value":691},{"name":"x1","type":"int","value":-92},{"name":"x2","type":"int","value":-82},{"name":"y1","type":"int","value":833},{"name":"y2","type":"int","value":832},{"name":"next","type":"int","value":684},{"name":"prev","type":"int","value":690}],"polyline":[{"x":0,"y":0},{"x":10,"y":-1}]},{"id":862,"x":-303,"y":780,"visible":true,"properties":[{"name":"layer","type":"int","value":1},{"name":"group","type":"int","value":42},{"name":"id","type":"int","value":692},{"name":"fh_layer","type":"int","value":1},{"name":"fh_group","type":"int","value":42},{"name":"fh_id","type":"int","value":692},{"name":"x1","type":"int","value":-303},{"name":"x2","type":"int","value":-284},{"name":"y1","type":"int","value":780},{"name":"y2","type":"int","value":779},{"name":"next","type":"int","value":693},{"name":"prev","type":"int","value":700}],"polyline":[{"x":0,"y":0},{"x":19,"y":-1}]},{"id":863,"x":-284,"y":779,"visible":true,"properties":[{"name":"layer","type":"int","value":1},{"name":"group","type":"int","value":42},{"name":"id","type":"int","value":693},{"name":"fh_layer","type":"int","value":1},{"name":"fh_group","type":"int","value":42},{"name":"fh_id","type":"int","value":693},{"name":"x1","type":"int","value":-284},{"name":"x2","type":"int","value":-252},{"name":"y1","type":"int","value":779},{"name":"y2","type":"int","value":785},{"name":"next","type":"int","value":694},{"name":"prev","type":"int","value":692}],"polyline":[{"x":0,"y":0},{"x":32,"y":6}]},{"id":864,"x":-252,"y":785,"visible":true,"properties":[{"name":"layer","type":"int","value":1},{"name":"group","type":"int","value":42},{"name":"id","type":"int","value":694},{"name":"fh_layer","type":"int","value":1},{"name":"fh_group","type":"int","value":42},{"name":"fh_id","type":"int","value":694},{"name":"x1","type":"int","value":-252},{"name":"x2","type":"int","value":-231},{"name":"y1","type":"int","value":785},{"name":"y2","type":"int","value":800},{"name":"next","type":"int","value":695},{"name":"prev","type":"int","value":693}],"polyline":[{"x":0,"y":0},{"x":21,"y":15}]},{"id":865,"x":-231,"y":800,"visible":true,"properties":[{"name":"layer","type":"int","value":1},{"name":"group","type":"int","value":42},{"name":"id","type":"int","value":695},{"name":"fh_layer","type":"int","value":1},{"name":"fh_group","type":"int","value":42},{"name":"fh_id","type":"int","value":695},{"name":"x1","type":"int","value":-231},{"name":"x2","type":"int","value":-211},{"name":"y1","type":"int","value":800},{"name":"y2","type":"int","value":803},{"name":"next","type":"int","value":696},{"name":"prev","type":"int","value":694}],"polyline":[{"x":0,"y":0},{"x":20,"y":3}]},{"id":866,"x":-211,"y":803,"visible":true,"properties":[{"name":"layer","type":"int","value":1},{"name":"group","type":"int","value":42},{"name":"id","type":"int","value":696},{"name":"fh_layer","type":"int","value":1},{"name":"fh_group","type":"int","value":42},{"name":"fh_id","type":"int","value":696},{"name":"x1","type":"int","value":-211},{"name":"x2","type":"int","value":-197},{"name":"y1","type":"int","value":803},{"name":"y2","type":"int","value":813},{"name":"next","type":"int","value":697},{"name":"prev","type":"int","value":695}],"polyline":[{"x":0,"y":0},{"x":14,"y":10}]},{"id":867,"x":-197,"y":813,"visible":true,"properties":[{"name":"layer","type":"int","value":1},{"name":"group","type":"int","value":42},{"name":"id","type":"int","value":697},{"name":"fh_layer","type":"int","value":1},{"name":"fh_group","type":"int","value":42},{"name":"fh_id","type":"int","value":697},{"name":"x1","type":"int","value":-197},{"name":"x2","type":"int","value":-183},{"name":"y1","type":"int","value":813},{"name":"y2","type":"int","value":809},{"name":"next","type":"int","value":689},{"name":"prev","type":"int","value":696}],"polyline":[{"x":0,"y":0},{"x":14,"y":-4}]},{"id":868,"x":-415,"y":752,"visible":true,"properties":[{"name":"layer","type":"int","value":1},{"name":"group","type":"int","value":42},{"name":"id","type":"int","value":698},{"name":"fh_layer","type":"int","value":1},{"name":"fh_group","type":"int","value":42},{"name":"fh_id","type":"int","value":698},{"name":"x1","type":"int","value":-415},{"name":"x2","type":"int","value":-362},{"name":"y1","type":"int","value":752},{"name":"y2","type":"int","value":756},{"name":"next","type":"int","value":699},{"name":"prev","type":"int","value":706}],"polyline":[{"x":0,"y":0},{"x":53,"y":4}]},{"id":869,"x":-362,"y":756,"visible":true,"properties":[{"name":"layer","type":"int","value":1},{"name":"group","type":"int","value":42},{"name":"id","type":"int","value":699},{"name":"fh_layer","type":"int","value":1},{"name":"fh_group","type":"int","value":42},{"name":"fh_id","type":"int","value":699},{"name":"x1","type":"int","value":-362},{"name":"x2","type":"int","value":-335},{"name":"y1","type":"int","value":756},{"name":"y2","type":"int","value":768},{"name":"next","type":"int","value":700},{"name":"prev","type":"int","value":698}],"polyline":[{"x":0,"y":0},{"x":27,"y":12}]},{"id":870,"x":-335,"y":768,"visible":true,"properties":[{"name":"layer","type":"int","value":1},{"name":"group","type":"int","value":42},{"name":"id","type":"int","value":700},{"name":"fh_layer","type":"int","value":1},{"name":"fh_group","type":"int","value":42},{"name":"fh_id","type":"int","value":700},{"name":"x1","type":"int","value":-335},{"name":"x2","type":"int","value":-303},{"name":"y1","type":"int","value":768},{"name":"y2","type":"int","value":780},{"name":"next","type":"int","value":692},{"name":"prev","type":"int","value":699}],"polyline":[{"x":0,"y":0},{"x":32,"y":12}]},{"id":871,"x":-573,"y":766,"visible":true,"properties":[{"name":"layer","type":"int","value":1},{"name":"group","type":"int","value":42},{"name":"id","type":"int","value":701},{"name":"fh_layer","type":"int","value":1},{"name":"fh_group","type":"int","value":42},{"name":"fh_id","type":"int","value":701},{"name":"x1","type":"int","value":-573},{"name":"x2","type":"int","value":-518},{"name":"y1","type":"int","value":766},{"name":"y2","type":"int","value":766},{"name":"next","type":"int","value":702},{"name":"prev","type":"int","value":714}],"polyline":[{"x":0,"y":0},{"x":55,"y":0}]},{"id":872,"x":-518,"y":766,"visible":true,"properties":[{"name":"layer","type":"int","value":1},{"name":"group","type":"int","value":42},{"name":"id","type":"int","value":702},{"name":"fh_layer","type":"int","value":1},{"name":"fh_group","type":"int","value":42},{"name":"fh_id","type":"int","value":702},{"name":"x1","type":"int","value":-518},{"name":"x2","type":"int","value":-502},{"name":"y1","type":"int","value":766},{"name":"y2","type":"int","value":762},{"name":"next","type":"int","value":703},{"name":"prev","type":"int","value":701}],"polyline":[{"x":0,"y":0},{"x":16,"y":-4}]},{"id":873,"x":-502,"y":762,"visible":true,"properties":[{"name":"layer","type":"int","value":1},{"name":"group","type":"int","value":42},{"name":"id","type":"int","value":703},{"name":"fh_layer","type":"int","value":1},{"name":"fh_group","type":"int","value":42},{"name":"fh_id","type":"int","value":703},{"name":"x1","type":"int","value":-502},{"name":"x2","type":"int","value":-450},{"name":"y1","type":"int","value":762},{"name":"y2","type":"int","value":762},{"name":"next","type":"int","value":704},{"name":"prev","type":"int","value":702}],"polyline":[{"x":0,"y":0},{"x":52,"y":0}]},{"id":874,"x":-450,"y":762,"visible":true,"properties":[{"name":"layer","type":"int","value":1},{"name":"group","type":"int","value":42},{"name":"id","type":"int","value":704},{"name":"fh_layer","type":"int","value":1},{"name":"fh_group","type":"int","value":42},{"name":"fh_id","type":"int","value":704},{"name":"x1","type":"int","value":-450},{"name":"x2","type":"int","value":-440},{"name":"y1","type":"int","value":762},{"name":"y2","type":"int","value":757},{"name":"next","type":"int","value":705},{"name":"prev","type":"int","value":703}],"polyline":[{"x":0,"y":0},{"x":10,"y":-5}]},{"id":875,"x":-440,"y":757,"visible":true,"properties":[{"name":"layer","type":"int","value":1},{"name":"group","type":"int","value":42},{"name":"id","type":"int","value":705},{"name":"fh_layer","type":"int","value":1},{"name":"fh_group","type":"int","value":42},{"name":"fh_id","type":"int","value":705},{"name":"x1","type":"int","value":-440},{"name":"x2","type":"int","value":-429},{"name":"y1","type":"int","value":757},{"name":"y2","type":"int","value":758},{"name":"next","type":"int","value":706},{"name":"prev","type":"int","value":704}],"polyline":[{"x":0,"y":0},{"x":11,"y":1}]},{"id":876,"x":-429,"y":758,"visible":true,"properties":[{"name":"layer","type":"int","value":1},{"name":"group","type":"int","value":42},{"name":"id","type":"int","value":706},{"name":"fh_layer","type":"int","value":1},{"name":"fh_group","type":"int","value":42},{"name":"fh_id","type":"int","value":706},{"name":"x1","type":"int","value":-429},{"name":"x2","type":"int","value":-415},{"name":"y1","type":"int","value":758},{"name":"y2","type":"int","value":752},{"name":"next","type":"int","value":698},{"name":"prev","type":"int","value":705}],"polyline":[{"x":0,"y":0},{"x":14,"y":-6}]},{"id":877,"x":-740,"y":865,"visible":true,"properties":[{"name":"layer","type":"int","value":1},{"name":"group","type":"int","value":42},{"name":"id","type":"int","value":707},{"name":"fh_layer","type":"int","value":1},{"name":"fh_group","type":"int","value":42},{"name":"fh_id","type":"int","value":707},{"name":"x1","type":"int","value":-740},{"name":"x2","type":"int","value":-717},{"name":"y1","type":"int","value":865},{"name":"y2","type":"int","value":859},{"name":"next","type":"int","value":708},{"name":"prev","type":"int","value":721}],"polyline":[{"x":0,"y":0},{"x":23,"y":-6}]},{"id":878,"x":-717,"y":859,"visible":true,"properties":[{"name":"layer","type":"int","value":1},{"name":"group","type":"int","value":42},{"name":"id","type":"int","value":708},{"name":"fh_layer","type":"int","value":1},{"name":"fh_group","type":"int","value":42},{"name":"fh_id","type":"int","value":708},{"name":"x1","type":"int","value":-717},{"name":"x2","type":"int","value":-686},{"name":"y1","type":"int","value":859},{"name":"y2","type":"int","value":849},{"name":"next","type":"int","value":709},{"name":"prev","type":"int","value":707}],"polyline":[{"x":0,"y":0},{"x":31,"y":-10}]},{"id":879,"x":-686,"y":849,"visible":true,"properties":[{"name":"layer","type":"int","value":1},{"name":"group","type":"int","value":42},{"name":"id","type":"int","value":709},{"name":"fh_layer","type":"int","value":1},{"name":"fh_group","type":"int","value":42},{"name":"fh_id","type":"int","value":709},{"name":"x1","type":"int","value":-686},{"name":"x2","type":"int","value":-666},{"name":"y1","type":"int","value":849},{"name":"y2","type":"int","value":841},{"name":"next","type":"int","value":710},{"name":"prev","type":"int","value":708}],"polyline":[{"x":0,"y":0},{"x":20,"y":-8}]},{"id":880,"x":-666,"y":841,"visible":true,"properties":[{"name":"layer","type":"int","value":1},{"name":"group","type":"int","value":42},{"name":"id","type":"int","value":710},{"name":"fh_layer","type":"int","value":1},{"name":"fh_group","type":"int","value":42},{"name":"fh_id","type":"int","value":710},{"name":"x1","type":"int","value":-666},{"name":"x2","type":"int","value":-646},{"name":"y1","type":"int","value":841},{"name":"y2","type":"int","value":831},{"name":"next","type":"int","value":711},{"name":"prev","type":"int","value":709}],"polyline":[{"x":0,"y":0},{"x":20,"y":-10}]},{"id":881,"x":-646,"y":831,"visible":true,"properties":[{"name":"layer","type":"int","value":1},{"name":"group","type":"int","value":42},{"name":"id","type":"int","value":711},{"name":"fh_layer","type":"int","value":1},{"name":"fh_group","type":"int","value":42},{"name":"fh_id","type":"int","value":711},{"name":"x1","type":"int","value":-646},{"name":"x2","type":"int","value":-620},{"name":"y1","type":"int","value":831},{"name":"y2","type":"int","value":813},{"name":"next","type":"int","value":712},{"name":"prev","type":"int","value":710}],"polyline":[{"x":0,"y":0},{"x":26,"y":-18}]},{"id":882,"x":-620,"y":813,"visible":true,"properties":[{"name":"layer","type":"int","value":1},{"name":"group","type":"int","value":42},{"name":"id","type":"int","value":712},{"name":"fh_layer","type":"int","value":1},{"name":"fh_group","type":"int","value":42},{"name":"fh_id","type":"int","value":712},{"name":"x1","type":"int","value":-620},{"name":"x2","type":"int","value":-598},{"name":"y1","type":"int","value":813},{"name":"y2","type":"int","value":794},{"name":"next","type":"int","value":713},{"name":"prev","type":"int","value":711}],"polyline":[{"x":0,"y":0},{"x":22,"y":-19}]},{"id":883,"x":-598,"y":794,"visible":true,"properties":[{"name":"layer","type":"int","value":1},{"name":"group","type":"int","value":42},{"name":"id","type":"int","value":713},{"name":"fh_layer","type":"int","value":1},{"name":"fh_group","type":"int","value":42},{"name":"fh_id","type":"int","value":713},{"name":"x1","type":"int","value":-598},{"name":"x2","type":"int","value":-577},{"name":"y1","type":"int","value":794},{"name":"y2","type":"int","value":769},{"name":"next","type":"int","value":714},{"name":"prev","type":"int","value":712}],"polyline":[{"x":0,"y":0},{"x":21,"y":-25}]},{"id":884,"x":-577,"y":769,"visible":true,"properties":[{"name":"layer","type":"int","value":1},{"name":"group","type":"int","value":42},{"name":"id","type":"int","value":714},{"name":"fh_layer","type":"int","value":1},{"name":"fh_group","type":"int","value":42},{"name":"fh_id","type":"int","value":714},{"name":"x1","type":"int","value":-577},{"name":"x2","type":"int","value":-573},{"name":"y1","type":"int","value":769},{"name":"y2","type":"int","value":766},{"name":"next","type":"int","value":701},{"name":"prev","type":"int","value":713}],"polyline":[{"x":0,"y":0},{"x":4,"y":-3}]},{"id":885,"x":-927,"y":895,"visible":true,"properties":[{"name":"layer","type":"int","value":1},{"name":"group","type":"int","value":42},{"name":"id","type":"int","value":715},{"name":"fh_layer","type":"int","value":1},{"name":"fh_group","type":"int","value":42},{"name":"fh_id","type":"int","value":715},{"name":"x1","type":"int","value":-927},{"name":"x2","type":"int","value":-902},{"name":"y1","type":"int","value":895},{"name":"y2","type":"int","value":878},{"name":"next","type":"int","value":716},{"name":"prev","type":"int","value":0}],"polyline":[{"x":0,"y":0},{"x":25,"y":-17}]},{"id":886,"x":-902,"y":878,"visible":true,"properties":[{"name":"layer","type":"int","value":1},{"name":"group","type":"int","value":42},{"name":"id","type":"int","value":716},{"name":"fh_layer","type":"int","value":1},{"name":"fh_group","type":"int","value":42},{"name":"fh_id","type":"int","value":716},{"name":"x1","type":"int","value":-902},{"name":"x2","type":"int","value":-847},{"name":"y1","type":"int","value":878},{"name":"y2","type":"int","value":878},{"name":"next","type":"int","value":717},{"name":"prev","type":"int","value":715}],"polyline":[{"x":0,"y":0},{"x":55,"y":0}]},{"id":887,"x":-847,"y":878,"visible":true,"properties":[{"name":"layer","type":"int","value":1},{"name":"group","type":"int","value":42},{"name":"id","type":"int","value":717},{"name":"fh_layer","type":"int","value":1},{"name":"fh_group","type":"int","value":42},{"name":"fh_id","type":"int","value":717},{"name":"x1","type":"int","value":-847},{"name":"x2","type":"int","value":-831},{"name":"y1","type":"int","value":878},{"name":"y2","type":"int","value":874},{"name":"next","type":"int","value":718},{"name":"prev","type":"int","value":716}],"polyline":[{"x":0,"y":0},{"x":16,"y":-4}]},{"id":888,"x":-831,"y":874,"visible":true,"properties":[{"name":"layer","type":"int","value":1},{"name":"group","type":"int","value":42},{"name":"id","type":"int","value":718},{"name":"fh_layer","type":"int","value":1},{"name":"fh_group","type":"int","value":42},{"name":"fh_id","type":"int","value":718},{"name":"x1","type":"int","value":-831},{"name":"x2","type":"int","value":-779},{"name":"y1","type":"int","value":874},{"name":"y2","type":"int","value":874},{"name":"next","type":"int","value":719},{"name":"prev","type":"int","value":717}],"polyline":[{"x":0,"y":0},{"x":52,"y":0}]},{"id":889,"x":-779,"y":874,"visible":true,"properties":[{"name":"layer","type":"int","value":1},{"name":"group","type":"int","value":42},{"name":"id","type":"int","value":719},{"name":"fh_layer","type":"int","value":1},{"name":"fh_group","type":"int","value":42},{"name":"fh_id","type":"int","value":719},{"name":"x1","type":"int","value":-779},{"name":"x2","type":"int","value":-769},{"name":"y1","type":"int","value":874},{"name":"y2","type":"int","value":869},{"name":"next","type":"int","value":720},{"name":"prev","type":"int","value":718}],"polyline":[{"x":0,"y":0},{"x":10,"y":-5}]},{"id":890,"x":-769,"y":869,"visible":true,"properties":[{"name":"layer","type":"int","value":1},{"name":"group","type":"int","value":42},{"name":"id","type":"int","value":720},{"name":"fh_layer","type":"int","value":1},{"name":"fh_group","type":"int","value":42},{"name":"fh_id","type":"int","value":720},{"name":"x1","type":"int","value":-769},{"name":"x2","type":"int","value":-763},{"name":"y1","type":"int","value":869},{"name":"y2","type":"int","value":870},{"name":"next","type":"int","value":721},{"name":"prev","type":"int","value":719}],"polyline":[{"x":0,"y":0},{"x":6,"y":1}]},{"id":891,"x":-763,"y":870,"visible":true,"properties":[{"name":"layer","type":"int","value":1},{"name":"group","type":"int","value":42},{"name":"id","type":"int","value":721},{"name":"fh_layer","type":"int","value":1},{"name":"fh_group","type":"int","value":42},{"name":"fh_id","type":"int","value":721},{"name":"x1","type":"int","value":-763},{"name":"x2","type":"int","value":-740},{"name":"y1","type":"int","value":870},{"name":"y2","type":"int","value":865},{"name":"next","type":"int","value":707},{"name":"prev","type":"int","value":720}],"polyline":[{"x":0,"y":0},{"x":23,"y":-5}]},{"id":892,"x":527,"y":829,"visible":true,"properties":[{"name":"layer","type":"int","value":1},{"name":"group","type":"int","value":46},{"name":"id","type":"int","value":671},{"name":"fh_layer","type":"int","value":1},{"name":"fh_group","type":"int","value":46},{"name":"fh_id","type":"int","value":671},{"name":"x1","type":"int","value":527},{"name":"x2","type":"int","value":552},{"name":"y1","type":"int","value":829},{"name":"y2","type":"int","value":818},{"name":"next","type":"int","value":672},{"name":"prev","type":"int","value":0}],"polyline":[{"x":0,"y":0},{"x":25,"y":-11}]},{"id":893,"x":552,"y":818,"visible":true,"properties":[{"name":"layer","type":"int","value":1},{"name":"group","type":"int","value":46},{"name":"id","type":"int","value":672},{"name":"fh_layer","type":"int","value":1},{"name":"fh_group","type":"int","value":46},{"name":"fh_id","type":"int","value":672},{"name":"x1","type":"int","value":552},{"name":"x2","type":"int","value":618},{"name":"y1","type":"int","value":818},{"name":"y2","type":"int","value":815},{"name":"next","type":"int","value":673},{"name":"prev","type":"int","value":671}],"polyline":[{"x":0,"y":0},{"x":66,"y":-3}]},{"id":894,"x":618,"y":815,"visible":true,"properties":[{"name":"layer","type":"int","value":1},{"name":"group","type":"int","value":46},{"name":"id","type":"int","value":673},{"name":"fh_layer","type":"int","value":1},{"name":"fh_group","type":"int","value":46},{"name":"fh_id","type":"int","value":673},{"name":"x1","type":"int","value":618},{"name":"x2","type":"int","value":623},{"name":"y1","type":"int","value":815},{"name":"y2","type":"int","value":815},{"name":"next","type":"int","value":674},{"name":"prev","type":"int","value":672}],"polyline":[{"x":0,"y":0},{"x":5,"y":0}]},{"id":895,"x":623,"y":815,"visible":true,"properties":[{"name":"layer","type":"int","value":1},{"name":"group","type":"int","value":46},{"name":"id","type":"int","value":674},{"name":"fh_layer","type":"int","value":1},{"name":"fh_group","type":"int","value":46},{"name":"fh_id","type":"int","value":674},{"name":"x1","type":"int","value":623},{"name":"x2","type":"int","value":644},{"name":"y1","type":"int","value":815},{"name":"y2","type":"int","value":812},{"name":"next","type":"int","value":675},{"name":"prev","type":"int","value":673}],"polyline":[{"x":0,"y":0},{"x":21,"y":-3}]},{"id":896,"x":644,"y":812,"visible":true,"properties":[{"name":"layer","type":"int","value":1},{"name":"group","type":"int","value":46},{"name":"id","type":"int","value":675},{"name":"fh_layer","type":"int","value":1},{"name":"fh_group","type":"int","value":46},{"name":"fh_id","type":"int","value":675},{"name":"x1","type":"int","value":644},{"name":"x2","type":"int","value":667},{"name":"y1","type":"int","value":812},{"name":"y2","type":"int","value":806},{"name":"next","type":"int","value":676},{"name":"prev","type":"int","value":674}],"polyline":[{"x":0,"y":0},{"x":23,"y":-6}]},{"id":897,"x":667,"y":806,"visible":true,"properties":[{"name":"layer","type":"int","value":1},{"name":"group","type":"int","value":46},{"name":"id","type":"int","value":676},{"name":"fh_layer","type":"int","value":1},{"name":"fh_group","type":"int","value":46},{"name":"fh_id","type":"int","value":676},{"name":"x1","type":"int","value":667},{"name":"x2","type":"int","value":698},{"name":"y1","type":"int","value":806},{"name":"y2","type":"int","value":796},{"name":"next","type":"int","value":677},{"name":"prev","type":"int","value":675}],"polyline":[{"x":0,"y":0},{"x":31,"y":-10}]},{"id":898,"x":698,"y":796,"visible":true,"properties":[{"name":"layer","type":"int","value":1},{"name":"group","type":"int","value":46},{"name":"id","type":"int","value":677},{"name":"fh_layer","type":"int","value":1},{"name":"fh_group","type":"int","value":46},{"name":"fh_id","type":"int","value":677},{"name":"x1","type":"int","value":698},{"name":"x2","type":"int","value":718},{"name":"y1","type":"int","value":796},{"name":"y2","type":"int","value":788},{"name":"next","type":"int","value":678},{"name":"prev","type":"int","value":676}],"polyline":[{"x":0,"y":0},{"x":20,"y":-8}]},{"id":899,"x":718,"y":788,"visible":true,"properties":[{"name":"layer","type":"int","value":1},{"name":"group","type":"int","value":46},{"name":"id","type":"int","value":678},{"name":"fh_layer","type":"int","value":1},{"name":"fh_group","type":"int","value":46},{"name":"fh_id","type":"int","value":678},{"name":"x1","type":"int","value":718},{"name":"x2","type":"int","value":738},{"name":"y1","type":"int","value":788},{"name":"y2","type":"int","value":778},{"name":"next","type":"int","value":679},{"name":"prev","type":"int","value":677}],"polyline":[{"x":0,"y":0},{"x":20,"y":-10}]},{"id":900,"x":738,"y":778,"visible":true,"properties":[{"name":"layer","type":"int","value":1},{"name":"group","type":"int","value":46},{"name":"id","type":"int","value":679},{"name":"fh_layer","type":"int","value":1},{"name":"fh_group","type":"int","value":46},{"name":"fh_id","type":"int","value":679},{"name":"x1","type":"int","value":738},{"name":"x2","type":"int","value":764},{"name":"y1","type":"int","value":778},{"name":"y2","type":"int","value":760},{"name":"next","type":"int","value":680},{"name":"prev","type":"int","value":678}],"polyline":[{"x":0,"y":0},{"x":26,"y":-18}]},{"id":901,"x":764,"y":760,"visible":true,"properties":[{"name":"layer","type":"int","value":1},{"name":"group","type":"int","value":46},{"name":"id","type":"int","value":680},{"name":"fh_layer","type":"int","value":1},{"name":"fh_group","type":"int","value":46},{"name":"fh_id","type":"int","value":680},{"name":"x1","type":"int","value":764},{"name":"x2","type":"int","value":786},{"name":"y1","type":"int","value":760},{"name":"y2","type":"int","value":741},{"name":"next","type":"int","value":681},{"name":"prev","type":"int","value":679}],"polyline":[{"x":0,"y":0},{"x":22,"y":-19}]},{"id":902,"x":786,"y":741,"visible":true,"properties":[{"name":"layer","type":"int","value":1},{"name":"group","type":"int","value":46},{"name":"id","type":"int","value":681},{"name":"fh_layer","type":"int","value":1},{"name":"fh_group","type":"int","value":46},{"name":"fh_id","type":"int","value":681},{"name":"x1","type":"int","value":786},{"name":"x2","type":"int","value":803},{"name":"y1","type":"int","value":741},{"name":"y2","type":"int","value":723},{"name":"next","type":"int","value":136},{"name":"prev","type":"int","value":680}],"polyline":[{"x":0,"y":0},{"x":17,"y":-18}]},{"id":903,"x":-1336,"y":341,"visible":true,"properties":[{"name":"layer","type":"int","value":1},{"name":"group","type":"int","value":47},{"name":"id","type":"int","value":446},{"name":"fh_layer","type":"int","value":1},{"name":"fh_group","type":"int","value":47},{"name":"fh_id","type":"int","value":446},{"name":"x1","type":"int","value":-1336},{"name":"x2","type":"int","value":-1311},{"name":"y1","type":"int","value":341},{"name":"y2","type":"int","value":330},{"name":"next","type":"int","value":447},{"name":"prev","type":"int","value":0}],"polyline":[{"x":0,"y":0},{"x":25,"y":-11}]},{"id":904,"x":-1311,"y":330,"visible":true,"properties":[{"name":"layer","type":"int","value":1},{"name":"group","type":"int","value":47},{"name":"id","type":"int","value":447},{"name":"fh_layer","type":"int","value":1},{"name":"fh_group","type":"int","value":47},{"name":"fh_id","type":"int","value":447},{"name":"x1","type":"int","value":-1311},{"name":"x2","type":"int","value":-1245},{"name":"y1","type":"int","value":330},{"name":"y2","type":"int","value":327},{"name":"next","type":"int","value":448},{"name":"prev","type":"int","value":446}],"polyline":[{"x":0,"y":0},{"x":66,"y":-3}]},{"id":905,"x":-1245,"y":327,"visible":true,"properties":[{"name":"layer","type":"int","value":1},{"name":"group","type":"int","value":47},{"name":"id","type":"int","value":448},{"name":"fh_layer","type":"int","value":1},{"name":"fh_group","type":"int","value":47},{"name":"fh_id","type":"int","value":448},{"name":"x1","type":"int","value":-1245},{"name":"x2","type":"int","value":-1235},{"name":"y1","type":"int","value":327},{"name":"y2","type":"int","value":328},{"name":"next","type":"int","value":457},{"name":"prev","type":"int","value":447}],"polyline":[{"x":0,"y":0},{"x":10,"y":1}]},{"id":906,"x":-1219,"y":285,"visible":true,"properties":[{"name":"layer","type":"int","value":1},{"name":"group","type":"int","value":47},{"name":"id","type":"int","value":449},{"name":"fh_layer","type":"int","value":1},{"name":"fh_group","type":"int","value":47},{"name":"fh_id","type":"int","value":449},{"name":"x1","type":"int","value":-1219},{"name":"x2","type":"int","value":-1174},{"name":"y1","type":"int","value":285},{"name":"y2","type":"int","value":295},{"name":"next","type":"int","value":450},{"name":"prev","type":"int","value":0}],"polyline":[{"x":0,"y":0},{"x":45,"y":10}]},{"id":907,"x":-1174,"y":295,"visible":true,"properties":[{"name":"layer","type":"int","value":1},{"name":"group","type":"int","value":47},{"name":"id","type":"int","value":450},{"name":"fh_layer","type":"int","value":1},{"name":"fh_group","type":"int","value":47},{"name":"fh_id","type":"int","value":450},{"name":"x1","type":"int","value":-1174},{"name":"x2","type":"int","value":-1116},{"name":"y1","type":"int","value":295},{"name":"y2","type":"int","value":290},{"name":"next","type":"int","value":451},{"name":"prev","type":"int","value":449}],"polyline":[{"x":0,"y":0},{"x":58,"y":-5}]},{"id":908,"x":-1116,"y":290,"visible":true,"properties":[{"name":"layer","type":"int","value":1},{"name":"group","type":"int","value":47},{"name":"id","type":"int","value":451},{"name":"fh_layer","type":"int","value":1},{"name":"fh_group","type":"int","value":47},{"name":"fh_id","type":"int","value":451},{"name":"x1","type":"int","value":-1116},{"name":"x2","type":"int","value":-1111},{"name":"y1","type":"int","value":290},{"name":"y2","type":"int","value":288},{"name":"next","type":"int","value":452},{"name":"prev","type":"int","value":450}],"polyline":[{"x":0,"y":0},{"x":5,"y":-2}]},{"id":909,"x":-1111,"y":288,"visible":true,"properties":[{"name":"layer","type":"int","value":1},{"name":"group","type":"int","value":47},{"name":"id","type":"int","value":452},{"name":"fh_layer","type":"int","value":1},{"name":"fh_group","type":"int","value":47},{"name":"fh_id","type":"int","value":452},{"name":"x1","type":"int","value":-1111},{"name":"x2","type":"int","value":-1104},{"name":"y1","type":"int","value":288},{"name":"y2","type":"int","value":289},{"name":"next","type":"int","value":453},{"name":"prev","type":"int","value":451}],"polyline":[{"x":0,"y":0},{"x":7,"y":1}]},{"id":910,"x":-1104,"y":289,"visible":true,"properties":[{"name":"layer","type":"int","value":1},{"name":"group","type":"int","value":47},{"name":"id","type":"int","value":453},{"name":"fh_layer","type":"int","value":1},{"name":"fh_group","type":"int","value":47},{"name":"fh_id","type":"int","value":453},{"name":"x1","type":"int","value":-1104},{"name":"x2","type":"int","value":-1082},{"name":"y1","type":"int","value":289},{"name":"y2","type":"int","value":292},{"name":"next","type":"int","value":454},{"name":"prev","type":"int","value":452}],"polyline":[{"x":0,"y":0},{"x":22,"y":3}]},{"id":911,"x":-1082,"y":292,"visible":true,"properties":[{"name":"layer","type":"int","value":1},{"name":"group","type":"int","value":47},{"name":"id","type":"int","value":454},{"name":"fh_layer","type":"int","value":1},{"name":"fh_group","type":"int","value":47},{"name":"fh_id","type":"int","value":454},{"name":"x1","type":"int","value":-1082},{"name":"x2","type":"int","value":-1052},{"name":"y1","type":"int","value":292},{"name":"y2","type":"int","value":292},{"name":"next","type":"int","value":455},{"name":"prev","type":"int","value":453}],"polyline":[{"x":0,"y":0},{"x":30,"y":0}]},{"id":912,"x":-1052,"y":292,"visible":true,"properties":[{"name":"layer","type":"int","value":1},{"name":"group","type":"int","value":47},{"name":"id","type":"int","value":455},{"name":"fh_layer","type":"int","value":1},{"name":"fh_group","type":"int","value":47},{"name":"fh_id","type":"int","value":455},{"name":"x1","type":"int","value":-1052},{"name":"x2","type":"int","value":-1041},{"name":"y1","type":"int","value":292},{"name":"y2","type":"int","value":290},{"name":"next","type":"int","value":456},{"name":"prev","type":"int","value":454}],"polyline":[{"x":0,"y":0},{"x":11,"y":-2}]},{"id":913,"x":-1041,"y":290,"visible":true,"properties":[{"name":"layer","type":"int","value":1},{"name":"group","type":"int","value":47},{"name":"id","type":"int","value":456},{"name":"fh_layer","type":"int","value":1},{"name":"fh_group","type":"int","value":47},{"name":"fh_id","type":"int","value":456},{"name":"x1","type":"int","value":-1041},{"name":"x2","type":"int","value":-1025},{"name":"y1","type":"int","value":290},{"name":"y2","type":"int","value":293},{"name":"next","type":"int","value":508},{"name":"prev","type":"int","value":455}],"polyline":[{"x":0,"y":0},{"x":16,"y":3}]},{"id":914,"x":-1235,"y":328,"visible":true,"properties":[{"name":"layer","type":"int","value":1},{"name":"group","type":"int","value":47},{"name":"id","type":"int","value":457},{"name":"fh_layer","type":"int","value":1},{"name":"fh_group","type":"int","value":47},{"name":"fh_id","type":"int","value":457},{"name":"x1","type":"int","value":-1235},{"name":"x2","type":"int","value":-1226},{"name":"y1","type":"int","value":328},{"name":"y2","type":"int","value":326},{"name":"next","type":"int","value":458},{"name":"prev","type":"int","value":448}],"polyline":[{"x":0,"y":0},{"x":9,"y":-2}]},{"id":915,"x":-1226,"y":326,"visible":true,"properties":[{"name":"layer","type":"int","value":1},{"name":"group","type":"int","value":47},{"name":"id","type":"int","value":458},{"name":"fh_layer","type":"int","value":1},{"name":"fh_group","type":"int","value":47},{"name":"fh_id","type":"int","value":458},{"name":"x1","type":"int","value":-1226},{"name":"x2","type":"int","value":-1172},{"name":"y1","type":"int","value":326},{"name":"y2","type":"int","value":335},{"name":"next","type":"int","value":459},{"name":"prev","type":"int","value":457}],"polyline":[{"x":0,"y":0},{"x":54,"y":9}]},{"id":916,"x":-1172,"y":335,"visible":true,"properties":[{"name":"layer","type":"int","value":1},{"name":"group","type":"int","value":47},{"name":"id","type":"int","value":459},{"name":"fh_layer","type":"int","value":1},{"name":"fh_group","type":"int","value":47},{"name":"fh_id","type":"int","value":459},{"name":"x1","type":"int","value":-1172},{"name":"x2","type":"int","value":-1131},{"name":"y1","type":"int","value":335},{"name":"y2","type":"int","value":351},{"name":"next","type":"int","value":460},{"name":"prev","type":"int","value":458}],"polyline":[{"x":0,"y":0},{"x":41,"y":16}]},{"id":917,"x":-1131,"y":351,"visible":true,"properties":[{"name":"layer","type":"int","value":1},{"name":"group","type":"int","value":47},{"name":"id","type":"int","value":460},{"name":"fh_layer","type":"int","value":1},{"name":"fh_group","type":"int","value":47},{"name":"fh_id","type":"int","value":460},{"name":"x1","type":"int","value":-1131},{"name":"x2","type":"int","value":-1097},{"name":"y1","type":"int","value":351},{"name":"y2","type":"int","value":354},{"name":"next","type":"int","value":461},{"name":"prev","type":"int","value":459}],"polyline":[{"x":0,"y":0},{"x":34,"y":3}]},{"id":918,"x":-1097,"y":354,"visible":true,"properties":[{"name":"layer","type":"int","value":1},{"name":"group","type":"int","value":47},{"name":"id","type":"int","value":461},{"name":"fh_layer","type":"int","value":1},{"name":"fh_group","type":"int","value":47},{"name":"fh_id","type":"int","value":461},{"name":"x1","type":"int","value":-1097},{"name":"x2","type":"int","value":-1069},{"name":"y1","type":"int","value":354},{"name":"y2","type":"int","value":367},{"name":"next","type":"int","value":462},{"name":"prev","type":"int","value":460}],"polyline":[{"x":0,"y":0},{"x":28,"y":13}]},{"id":919,"x":-1069,"y":367,"visible":true,"properties":[{"name":"layer","type":"int","value":1},{"name":"group","type":"int","value":47},{"name":"id","type":"int","value":462},{"name":"fh_layer","type":"int","value":1},{"name":"fh_group","type":"int","value":47},{"name":"fh_id","type":"int","value":462},{"name":"x1","type":"int","value":-1069},{"name":"x2","type":"int","value":-1047},{"name":"y1","type":"int","value":367},{"name":"y2","type":"int","value":375},{"name":"next","type":"int","value":463},{"name":"prev","type":"int","value":461}],"polyline":[{"x":0,"y":0},{"x":22,"y":8}]},{"id":920,"x":-1047,"y":375,"visible":true,"properties":[{"name":"layer","type":"int","value":1},{"name":"group","type":"int","value":47},{"name":"id","type":"int","value":463},{"name":"fh_layer","type":"int","value":1},{"name":"fh_group","type":"int","value":47},{"name":"fh_id","type":"int","value":463},{"name":"x1","type":"int","value":-1047},{"name":"x2","type":"int","value":-1028},{"name":"y1","type":"int","value":375},{"name":"y2","type":"int","value":374},{"name":"next","type":"int","value":464},{"name":"prev","type":"int","value":462}],"polyline":[{"x":0,"y":0},{"x":19,"y":-1}]},{"id":921,"x":-1028,"y":374,"visible":true,"properties":[{"name":"layer","type":"int","value":1},{"name":"group","type":"int","value":47},{"name":"id","type":"int","value":464},{"name":"fh_layer","type":"int","value":1},{"name":"fh_group","type":"int","value":47},{"name":"fh_id","type":"int","value":464},{"name":"x1","type":"int","value":-1028},{"name":"x2","type":"int","value":-996},{"name":"y1","type":"int","value":374},{"name":"y2","type":"int","value":380},{"name":"next","type":"int","value":465},{"name":"prev","type":"int","value":463}],"polyline":[{"x":0,"y":0},{"x":32,"y":6}]},{"id":922,"x":-996,"y":380,"visible":true,"properties":[{"name":"layer","type":"int","value":1},{"name":"group","type":"int","value":47},{"name":"id","type":"int","value":465},{"name":"fh_layer","type":"int","value":1},{"name":"fh_group","type":"int","value":47},{"name":"fh_id","type":"int","value":465},{"name":"x1","type":"int","value":-996},{"name":"x2","type":"int","value":-975},{"name":"y1","type":"int","value":380},{"name":"y2","type":"int","value":395},{"name":"next","type":"int","value":466},{"name":"prev","type":"int","value":464}],"polyline":[{"x":0,"y":0},{"x":21,"y":15}]},{"id":923,"x":-975,"y":395,"visible":true,"properties":[{"name":"layer","type":"int","value":1},{"name":"group","type":"int","value":47},{"name":"id","type":"int","value":466},{"name":"fh_layer","type":"int","value":1},{"name":"fh_group","type":"int","value":47},{"name":"fh_id","type":"int","value":466},{"name":"x1","type":"int","value":-975},{"name":"x2","type":"int","value":-955},{"name":"y1","type":"int","value":395},{"name":"y2","type":"int","value":398},{"name":"next","type":"int","value":467},{"name":"prev","type":"int","value":465}],"polyline":[{"x":0,"y":0},{"x":20,"y":3}]},{"id":924,"x":-955,"y":398,"visible":true,"properties":[{"name":"layer","type":"int","value":1},{"name":"group","type":"int","value":47},{"name":"id","type":"int","value":467},{"name":"fh_layer","type":"int","value":1},{"name":"fh_group","type":"int","value":47},{"name":"fh_id","type":"int","value":467},{"name":"x1","type":"int","value":-955},{"name":"x2","type":"int","value":-933},{"name":"y1","type":"int","value":398},{"name":"y2","type":"int","value":414},{"name":"next","type":"int","value":468},{"name":"prev","type":"int","value":466}],"polyline":[{"x":0,"y":0},{"x":22,"y":16}]},{"id":925,"x":-933,"y":414,"visible":true,"properties":[{"name":"layer","type":"int","value":1},{"name":"group","type":"int","value":47},{"name":"id","type":"int","value":468},{"name":"fh_layer","type":"int","value":1},{"name":"fh_group","type":"int","value":47},{"name":"fh_id","type":"int","value":468},{"name":"x1","type":"int","value":-933},{"name":"x2","type":"int","value":-901},{"name":"y1","type":"int","value":414},{"name":"y2","type":"int","value":416},{"name":"next","type":"int","value":469},{"name":"prev","type":"int","value":467}],"polyline":[{"x":0,"y":0},{"x":32,"y":2}]},{"id":926,"x":-901,"y":416,"visible":true,"properties":[{"name":"layer","type":"int","value":1},{"name":"group","type":"int","value":47},{"name":"id","type":"int","value":469},{"name":"fh_layer","type":"int","value":1},{"name":"fh_group","type":"int","value":47},{"name":"fh_id","type":"int","value":469},{"name":"x1","type":"int","value":-901},{"name":"x2","type":"int","value":-863},{"name":"y1","type":"int","value":416},{"name":"y2","type":"int","value":434},{"name":"next","type":"int","value":470},{"name":"prev","type":"int","value":468}],"polyline":[{"x":0,"y":0},{"x":38,"y":18}]},{"id":927,"x":-863,"y":434,"visible":true,"properties":[{"name":"layer","type":"int","value":1},{"name":"group","type":"int","value":47},{"name":"id","type":"int","value":470},{"name":"fh_layer","type":"int","value":1},{"name":"fh_group","type":"int","value":47},{"name":"fh_id","type":"int","value":470},{"name":"x1","type":"int","value":-863},{"name":"x2","type":"int","value":-849},{"name":"y1","type":"int","value":434},{"name":"y2","type":"int","value":439},{"name":"next","type":"int","value":471},{"name":"prev","type":"int","value":469}],"polyline":[{"x":0,"y":0},{"x":14,"y":5}]},{"id":928,"x":-849,"y":439,"visible":true,"properties":[{"name":"layer","type":"int","value":1},{"name":"group","type":"int","value":47},{"name":"id","type":"int","value":471},{"name":"fh_layer","type":"int","value":1},{"name":"fh_group","type":"int","value":47},{"name":"fh_id","type":"int","value":471},{"name":"x1","type":"int","value":-849},{"name":"x2","type":"int","value":-830},{"name":"y1","type":"int","value":439},{"name":"y2","type":"int","value":438},{"name":"next","type":"int","value":472},{"name":"prev","type":"int","value":470}],"polyline":[{"x":0,"y":0},{"x":19,"y":-1}]},{"id":929,"x":-830,"y":438,"visible":true,"properties":[{"name":"layer","type":"int","value":1},{"name":"group","type":"int","value":47},{"name":"id","type":"int","value":472},{"name":"fh_layer","type":"int","value":1},{"name":"fh_group","type":"int","value":47},{"name":"fh_id","type":"int","value":472},{"name":"x1","type":"int","value":-830},{"name":"x2","type":"int","value":-798},{"name":"y1","type":"int","value":438},{"name":"y2","type":"int","value":444},{"name":"next","type":"int","value":473},{"name":"prev","type":"int","value":471}],"polyline":[{"x":0,"y":0},{"x":32,"y":6}]},{"id":930,"x":-798,"y":444,"visible":true,"properties":[{"name":"layer","type":"int","value":1},{"name":"group","type":"int","value":47},{"name":"id","type":"int","value":473},{"name":"fh_layer","type":"int","value":1},{"name":"fh_group","type":"int","value":47},{"name":"fh_id","type":"int","value":473},{"name":"x1","type":"int","value":-798},{"name":"x2","type":"int","value":-777},{"name":"y1","type":"int","value":444},{"name":"y2","type":"int","value":459},{"name":"next","type":"int","value":474},{"name":"prev","type":"int","value":472}],"polyline":[{"x":0,"y":0},{"x":21,"y":15}]},{"id":931,"x":-777,"y":459,"visible":true,"properties":[{"name":"layer","type":"int","value":1},{"name":"group","type":"int","value":47},{"name":"id","type":"int","value":474},{"name":"fh_layer","type":"int","value":1},{"name":"fh_group","type":"int","value":47},{"name":"fh_id","type":"int","value":474},{"name":"x1","type":"int","value":-777},{"name":"x2","type":"int","value":-757},{"name":"y1","type":"int","value":459},{"name":"y2","type":"int","value":462},{"name":"next","type":"int","value":475},{"name":"prev","type":"int","value":473}],"polyline":[{"x":0,"y":0},{"x":20,"y":3}]},{"id":932,"x":-757,"y":462,"visible":true,"properties":[{"name":"layer","type":"int","value":1},{"name":"group","type":"int","value":47},{"name":"id","type":"int","value":475},{"name":"fh_layer","type":"int","value":1},{"name":"fh_group","type":"int","value":47},{"name":"fh_id","type":"int","value":475},{"name":"x1","type":"int","value":-757},{"name":"x2","type":"int","value":-746},{"name":"y1","type":"int","value":462},{"name":"y2","type":"int","value":470},{"name":"next","type":"int","value":476},{"name":"prev","type":"int","value":474}],"polyline":[{"x":0,"y":0},{"x":11,"y":8}]},{"id":933,"x":-746,"y":470,"visible":true,"properties":[{"name":"layer","type":"int","value":1},{"name":"group","type":"int","value":47},{"name":"id","type":"int","value":476},{"name":"fh_layer","type":"int","value":1},{"name":"fh_group","type":"int","value":47},{"name":"fh_id","type":"int","value":476},{"name":"x1","type":"int","value":-746},{"name":"x2","type":"int","value":-707},{"name":"y1","type":"int","value":470},{"name":"y2","type":"int","value":476},{"name":"next","type":"int","value":477},{"name":"prev","type":"int","value":475}],"polyline":[{"x":0,"y":0},{"x":39,"y":6}]},{"id":934,"x":-707,"y":476,"visible":true,"properties":[{"name":"layer","type":"int","value":1},{"name":"group","type":"int","value":47},{"name":"id","type":"int","value":477},{"name":"fh_layer","type":"int","value":1},{"name":"fh_group","type":"int","value":47},{"name":"fh_id","type":"int","value":477},{"name":"x1","type":"int","value":-707},{"name":"x2","type":"int","value":-669},{"name":"y1","type":"int","value":476},{"name":"y2","type":"int","value":491},{"name":"next","type":"int","value":478},{"name":"prev","type":"int","value":476}],"polyline":[{"x":0,"y":0},{"x":38,"y":15}]},{"id":935,"x":-669,"y":491,"visible":true,"properties":[{"name":"layer","type":"int","value":1},{"name":"group","type":"int","value":47},{"name":"id","type":"int","value":478},{"name":"fh_layer","type":"int","value":1},{"name":"fh_group","type":"int","value":47},{"name":"fh_id","type":"int","value":478},{"name":"x1","type":"int","value":-669},{"name":"x2","type":"int","value":-632},{"name":"y1","type":"int","value":491},{"name":"y2","type":"int","value":494},{"name":"next","type":"int","value":479},{"name":"prev","type":"int","value":477}],"polyline":[{"x":0,"y":0},{"x":37,"y":3}]},{"id":936,"x":-632,"y":494,"visible":true,"properties":[{"name":"layer","type":"int","value":1},{"name":"group","type":"int","value":47},{"name":"id","type":"int","value":479},{"name":"fh_layer","type":"int","value":1},{"name":"fh_group","type":"int","value":47},{"name":"fh_id","type":"int","value":479},{"name":"x1","type":"int","value":-632},{"name":"x2","type":"int","value":-602},{"name":"y1","type":"int","value":494},{"name":"y2","type":"int","value":508},{"name":"next","type":"int","value":480},{"name":"prev","type":"int","value":478}],"polyline":[{"x":0,"y":0},{"x":30,"y":14}]},{"id":937,"x":-602,"y":508,"visible":true,"properties":[{"name":"layer","type":"int","value":1},{"name":"group","type":"int","value":47},{"name":"id","type":"int","value":480},{"name":"fh_layer","type":"int","value":1},{"name":"fh_group","type":"int","value":47},{"name":"fh_id","type":"int","value":480},{"name":"x1","type":"int","value":-602},{"name":"x2","type":"int","value":-601},{"name":"y1","type":"int","value":508},{"name":"y2","type":"int","value":508},{"name":"next","type":"int","value":481},{"name":"prev","type":"int","value":479}],"polyline":[{"x":0,"y":0},{"x":1,"y":0}]},{"id":938,"x":-601,"y":508,"visible":true,"properties":[{"name":"layer","type":"int","value":1},{"name":"group","type":"int","value":47},{"name":"id","type":"int","value":481},{"name":"fh_layer","type":"int","value":1},{"name":"fh_group","type":"int","value":47},{"name":"fh_id","type":"int","value":481},{"name":"x1","type":"int","value":-601},{"name":"x2","type":"int","value":-547},{"name":"y1","type":"int","value":508},{"name":"y2","type":"int","value":517},{"name":"next","type":"int","value":482},{"name":"prev","type":"int","value":480}],"polyline":[{"x":0,"y":0},{"x":54,"y":9}]},{"id":939,"x":-547,"y":517,"visible":true,"properties":[{"name":"layer","type":"int","value":1},{"name":"group","type":"int","value":47},{"name":"id","type":"int","value":482},{"name":"fh_layer","type":"int","value":1},{"name":"fh_group","type":"int","value":47},{"name":"fh_id","type":"int","value":482},{"name":"x1","type":"int","value":-547},{"name":"x2","type":"int","value":-518},{"name":"y1","type":"int","value":517},{"name":"y2","type":"int","value":528},{"name":"next","type":"int","value":483},{"name":"prev","type":"int","value":481}],"polyline":[{"x":0,"y":0},{"x":29,"y":11}]},{"id":940,"x":-518,"y":528,"visible":true,"properties":[{"name":"layer","type":"int","value":1},{"name":"group","type":"int","value":47},{"name":"id","type":"int","value":483},{"name":"fh_layer","type":"int","value":1},{"name":"fh_group","type":"int","value":47},{"name":"fh_id","type":"int","value":483},{"name":"x1","type":"int","value":-518},{"name":"x2","type":"int","value":-497},{"name":"y1","type":"int","value":528},{"name":"y2","type":"int","value":536},{"name":"next","type":"int","value":484},{"name":"prev","type":"int","value":482}],"polyline":[{"x":0,"y":0},{"x":21,"y":8}]},{"id":941,"x":-497,"y":536,"visible":true,"properties":[{"name":"layer","type":"int","value":1},{"name":"group","type":"int","value":47},{"name":"id","type":"int","value":484},{"name":"fh_layer","type":"int","value":1},{"name":"fh_group","type":"int","value":47},{"name":"fh_id","type":"int","value":484},{"name":"x1","type":"int","value":-497},{"name":"x2","type":"int","value":-478},{"name":"y1","type":"int","value":536},{"name":"y2","type":"int","value":535},{"name":"next","type":"int","value":485},{"name":"prev","type":"int","value":483}],"polyline":[{"x":0,"y":0},{"x":19,"y":-1}]},{"id":942,"x":-478,"y":535,"visible":true,"properties":[{"name":"layer","type":"int","value":1},{"name":"group","type":"int","value":47},{"name":"id","type":"int","value":485},{"name":"fh_layer","type":"int","value":1},{"name":"fh_group","type":"int","value":47},{"name":"fh_id","type":"int","value":485},{"name":"x1","type":"int","value":-478},{"name":"x2","type":"int","value":-446},{"name":"y1","type":"int","value":535},{"name":"y2","type":"int","value":541},{"name":"next","type":"int","value":486},{"name":"prev","type":"int","value":484}],"polyline":[{"x":0,"y":0},{"x":32,"y":6}]},{"id":943,"x":-446,"y":541,"visible":true,"properties":[{"name":"layer","type":"int","value":1},{"name":"group","type":"int","value":47},{"name":"id","type":"int","value":486},{"name":"fh_layer","type":"int","value":1},{"name":"fh_group","type":"int","value":47},{"name":"fh_id","type":"int","value":486},{"name":"x1","type":"int","value":-446},{"name":"x2","type":"int","value":-425},{"name":"y1","type":"int","value":541},{"name":"y2","type":"int","value":556},{"name":"next","type":"int","value":487},{"name":"prev","type":"int","value":485}],"polyline":[{"x":0,"y":0},{"x":21,"y":15}]},{"id":944,"x":-425,"y":556,"visible":true,"properties":[{"name":"layer","type":"int","value":1},{"name":"group","type":"int","value":47},{"name":"id","type":"int","value":487},{"name":"fh_layer","type":"int","value":1},{"name":"fh_group","type":"int","value":47},{"name":"fh_id","type":"int","value":487},{"name":"x1","type":"int","value":-425},{"name":"x2","type":"int","value":-405},{"name":"y1","type":"int","value":556},{"name":"y2","type":"int","value":559},{"name":"next","type":"int","value":488},{"name":"prev","type":"int","value":486}],"polyline":[{"x":0,"y":0},{"x":20,"y":3}]},{"id":945,"x":-405,"y":559,"visible":true,"properties":[{"name":"layer","type":"int","value":1},{"name":"group","type":"int","value":47},{"name":"id","type":"int","value":488},{"name":"fh_layer","type":"int","value":1},{"name":"fh_group","type":"int","value":47},{"name":"fh_id","type":"int","value":488},{"name":"x1","type":"int","value":-405},{"name":"x2","type":"int","value":-384},{"name":"y1","type":"int","value":559},{"name":"y2","type":"int","value":574},{"name":"next","type":"int","value":489},{"name":"prev","type":"int","value":487}],"polyline":[{"x":0,"y":0},{"x":21,"y":15}]},{"id":946,"x":-384,"y":574,"visible":true,"properties":[{"name":"layer","type":"int","value":1},{"name":"group","type":"int","value":47},{"name":"id","type":"int","value":489},{"name":"fh_layer","type":"int","value":1},{"name":"fh_group","type":"int","value":47},{"name":"fh_id","type":"int","value":489},{"name":"x1","type":"int","value":-384},{"name":"x2","type":"int","value":-346},{"name":"y1","type":"int","value":574},{"name":"y2","type":"int","value":577},{"name":"next","type":"int","value":490},{"name":"prev","type":"int","value":488}],"polyline":[{"x":0,"y":0},{"x":38,"y":3}]},{"id":947,"x":-346,"y":577,"visible":true,"properties":[{"name":"layer","type":"int","value":1},{"name":"group","type":"int","value":47},{"name":"id","type":"int","value":490},{"name":"fh_layer","type":"int","value":1},{"name":"fh_group","type":"int","value":47},{"name":"fh_id","type":"int","value":490},{"name":"x1","type":"int","value":-346},{"name":"x2","type":"int","value":-323},{"name":"y1","type":"int","value":577},{"name":"y2","type":"int","value":588},{"name":"next","type":"int","value":491},{"name":"prev","type":"int","value":489}],"polyline":[{"x":0,"y":0},{"x":23,"y":11}]},{"id":948,"x":-323,"y":588,"visible":true,"properties":[{"name":"layer","type":"int","value":1},{"name":"group","type":"int","value":47},{"name":"id","type":"int","value":491},{"name":"fh_layer","type":"int","value":1},{"name":"fh_group","type":"int","value":47},{"name":"fh_id","type":"int","value":491},{"name":"x1","type":"int","value":-323},{"name":"x2","type":"int","value":-294},{"name":"y1","type":"int","value":588},{"name":"y2","type":"int","value":598},{"name":"next","type":"int","value":492},{"name":"prev","type":"int","value":490}],"polyline":[{"x":0,"y":0},{"x":29,"y":10}]},{"id":949,"x":-294,"y":598,"visible":true,"properties":[{"name":"layer","type":"int","value":1},{"name":"group","type":"int","value":47},{"name":"id","type":"int","value":492},{"name":"fh_layer","type":"int","value":1},{"name":"fh_group","type":"int","value":47},{"name":"fh_id","type":"int","value":492},{"name":"x1","type":"int","value":-294},{"name":"x2","type":"int","value":-275},{"name":"y1","type":"int","value":598},{"name":"y2","type":"int","value":597},{"name":"next","type":"int","value":493},{"name":"prev","type":"int","value":491}],"polyline":[{"x":0,"y":0},{"x":19,"y":-1}]},{"id":950,"x":-275,"y":597,"visible":true,"properties":[{"name":"layer","type":"int","value":1},{"name":"group","type":"int","value":47},{"name":"id","type":"int","value":493},{"name":"fh_layer","type":"int","value":1},{"name":"fh_group","type":"int","value":47},{"name":"fh_id","type":"int","value":493},{"name":"x1","type":"int","value":-275},{"name":"x2","type":"int","value":-243},{"name":"y1","type":"int","value":597},{"name":"y2","type":"int","value":603},{"name":"next","type":"int","value":494},{"name":"prev","type":"int","value":492}],"polyline":[{"x":0,"y":0},{"x":32,"y":6}]},{"id":951,"x":-243,"y":603,"visible":true,"properties":[{"name":"layer","type":"int","value":1},{"name":"group","type":"int","value":47},{"name":"id","type":"int","value":494},{"name":"fh_layer","type":"int","value":1},{"name":"fh_group","type":"int","value":47},{"name":"fh_id","type":"int","value":494},{"name":"x1","type":"int","value":-243},{"name":"x2","type":"int","value":-222},{"name":"y1","type":"int","value":603},{"name":"y2","type":"int","value":618},{"name":"next","type":"int","value":495},{"name":"prev","type":"int","value":493}],"polyline":[{"x":0,"y":0},{"x":21,"y":15}]},{"id":952,"x":-222,"y":618,"visible":true,"properties":[{"name":"layer","type":"int","value":1},{"name":"group","type":"int","value":47},{"name":"id","type":"int","value":495},{"name":"fh_layer","type":"int","value":1},{"name":"fh_group","type":"int","value":47},{"name":"fh_id","type":"int","value":495},{"name":"x1","type":"int","value":-222},{"name":"x2","type":"int","value":-202},{"name":"y1","type":"int","value":618},{"name":"y2","type":"int","value":621},{"name":"next","type":"int","value":496},{"name":"prev","type":"int","value":494}],"polyline":[{"x":0,"y":0},{"x":20,"y":3}]},{"id":953,"x":-202,"y":621,"visible":true,"properties":[{"name":"layer","type":"int","value":1},{"name":"group","type":"int","value":47},{"name":"id","type":"int","value":496},{"name":"fh_layer","type":"int","value":1},{"name":"fh_group","type":"int","value":47},{"name":"fh_id","type":"int","value":496},{"name":"x1","type":"int","value":-202},{"name":"x2","type":"int","value":-181},{"name":"y1","type":"int","value":621},{"name":"y2","type":"int","value":636},{"name":"next","type":"int","value":497},{"name":"prev","type":"int","value":495}],"polyline":[{"x":0,"y":0},{"x":21,"y":15}]},{"id":954,"x":-181,"y":636,"visible":true,"properties":[{"name":"layer","type":"int","value":1},{"name":"group","type":"int","value":47},{"name":"id","type":"int","value":497},{"name":"fh_layer","type":"int","value":1},{"name":"fh_group","type":"int","value":47},{"name":"fh_id","type":"int","value":497},{"name":"x1","type":"int","value":-181},{"name":"x2","type":"int","value":-151},{"name":"y1","type":"int","value":636},{"name":"y2","type":"int","value":641},{"name":"next","type":"int","value":498},{"name":"prev","type":"int","value":496}],"polyline":[{"x":0,"y":0},{"x":30,"y":5}]},{"id":955,"x":-151,"y":641,"visible":true,"properties":[{"name":"layer","type":"int","value":1},{"name":"group","type":"int","value":47},{"name":"id","type":"int","value":498},{"name":"fh_layer","type":"int","value":1},{"name":"fh_group","type":"int","value":47},{"name":"fh_id","type":"int","value":498},{"name":"x1","type":"int","value":-151},{"name":"x2","type":"int","value":-104},{"name":"y1","type":"int","value":641},{"name":"y2","type":"int","value":660},{"name":"next","type":"int","value":0},{"name":"prev","type":"int","value":497}],"polyline":[{"x":0,"y":0},{"x":47,"y":19}]},{"id":956,"x":-145,"y":721,"visible":true,"properties":[{"name":"layer","type":"int","value":1},{"name":"group","type":"int","value":47},{"name":"id","type":"int","value":499},{"name":"fh_layer","type":"int","value":1},{"name":"fh_group","type":"int","value":47},{"name":"fh_id","type":"int","value":499},{"name":"x1","type":"int","value":-145},{"name":"x2","type":"int","value":-112},{"name":"y1","type":"int","value":721},{"name":"y2","type":"int","value":712},{"name":"next","type":"int","value":500},{"name":"prev","type":"int","value":0}],"polyline":[{"x":0,"y":0},{"x":33,"y":-9}]},{"id":957,"x":-112,"y":712,"visible":true,"properties":[{"name":"layer","type":"int","value":1},{"name":"group","type":"int","value":47},{"name":"id","type":"int","value":500},{"name":"fh_layer","type":"int","value":1},{"name":"fh_group","type":"int","value":47},{"name":"fh_id","type":"int","value":500},{"name":"x1","type":"int","value":-112},{"name":"x2","type":"int","value":-58},{"name":"y1","type":"int","value":712},{"name":"y2","type":"int","value":721},{"name":"next","type":"int","value":501},{"name":"prev","type":"int","value":499}],"polyline":[{"x":0,"y":0},{"x":54,"y":9}]},{"id":958,"x":-58,"y":721,"visible":true,"properties":[{"name":"layer","type":"int","value":1},{"name":"group","type":"int","value":47},{"name":"id","type":"int","value":501},{"name":"fh_layer","type":"int","value":1},{"name":"fh_group","type":"int","value":47},{"name":"fh_id","type":"int","value":501},{"name":"x1","type":"int","value":-58},{"name":"x2","type":"int","value":-11},{"name":"y1","type":"int","value":721},{"name":"y2","type":"int","value":740},{"name":"next","type":"int","value":0},{"name":"prev","type":"int","value":500}],"polyline":[{"x":0,"y":0},{"x":47,"y":19}]},{"id":959,"x":2,"y":800,"visible":true,"properties":[{"name":"layer","type":"int","value":1},{"name":"group","type":"int","value":47},{"name":"id","type":"int","value":502},{"name":"fh_layer","type":"int","value":1},{"name":"fh_group","type":"int","value":47},{"name":"fh_id","type":"int","value":502},{"name":"x1","type":"int","value":2},{"name":"x2","type":"int","value":27},{"name":"y1","type":"int","value":800},{"name":"y2","type":"int","value":789},{"name":"next","type":"int","value":503},{"name":"prev","type":"int","value":0}],"polyline":[{"x":0,"y":0},{"x":25,"y":-11}]},{"id":960,"x":27,"y":789,"visible":true,"properties":[{"name":"layer","type":"int","value":1},{"name":"group","type":"int","value":47},{"name":"id","type":"int","value":503},{"name":"fh_layer","type":"int","value":1},{"name":"fh_group","type":"int","value":47},{"name":"fh_id","type":"int","value":503},{"name":"x1","type":"int","value":27},{"name":"x2","type":"int","value":93},{"name":"y1","type":"int","value":789},{"name":"y2","type":"int","value":786},{"name":"next","type":"int","value":504},{"name":"prev","type":"int","value":502}],"polyline":[{"x":0,"y":0},{"x":66,"y":-3}]},{"id":961,"x":93,"y":786,"visible":true,"properties":[{"name":"layer","type":"int","value":1},{"name":"group","type":"int","value":47},{"name":"id","type":"int","value":504},{"name":"fh_layer","type":"int","value":1},{"name":"fh_group","type":"int","value":47},{"name":"fh_id","type":"int","value":504},{"name":"x1","type":"int","value":93},{"name":"x2","type":"int","value":131},{"name":"y1","type":"int","value":786},{"name":"y2","type":"int","value":793},{"name":"next","type":"int","value":0},{"name":"prev","type":"int","value":503}],"polyline":[{"x":0,"y":0},{"x":38,"y":7}]},{"id":962,"x":-180,"y":129,"visible":true,"properties":[{"name":"layer","type":"int","value":1},{"name":"group","type":"int","value":47},{"name":"id","type":"int","value":505},{"name":"fh_layer","type":"int","value":1},{"name":"fh_group","type":"int","value":47},{"name":"fh_id","type":"int","value":505},{"name":"x1","type":"int","value":-180},{"name":"x2","type":"int","value":-147},{"name":"y1","type":"int","value":129},{"name":"y2","type":"int","value":120},{"name":"next","type":"int","value":506},{"name":"prev","type":"int","value":0}],"polyline":[{"x":0,"y":0},{"x":33,"y":-9}]},{"id":963,"x":-147,"y":120,"visible":true,"properties":[{"name":"layer","type":"int","value":1},{"name":"group","type":"int","value":47},{"name":"id","type":"int","value":506},{"name":"fh_layer","type":"int","value":1},{"name":"fh_group","type":"int","value":47},{"name":"fh_id","type":"int","value":506},{"name":"x1","type":"int","value":-147},{"name":"x2","type":"int","value":-93},{"name":"y1","type":"int","value":120},{"name":"y2","type":"int","value":129},{"name":"next","type":"int","value":507},{"name":"prev","type":"int","value":505}],"polyline":[{"x":0,"y":0},{"x":54,"y":9}]},{"id":964,"x":-93,"y":129,"visible":true,"properties":[{"name":"layer","type":"int","value":1},{"name":"group","type":"int","value":47},{"name":"id","type":"int","value":507},{"name":"fh_layer","type":"int","value":1},{"name":"fh_group","type":"int","value":47},{"name":"fh_id","type":"int","value":507},{"name":"x1","type":"int","value":-93},{"name":"x2","type":"int","value":-70},{"name":"y1","type":"int","value":129},{"name":"y2","type":"int","value":138},{"name":"next","type":"int","value":282},{"name":"prev","type":"int","value":506}],"polyline":[{"x":0,"y":0},{"x":23,"y":9}]},{"id":965,"x":-1025,"y":293,"visible":true,"properties":[{"name":"layer","type":"int","value":1},{"name":"group","type":"int","value":47},{"name":"id","type":"int","value":508},{"name":"fh_layer","type":"int","value":1},{"name":"fh_group","type":"int","value":47},{"name":"fh_id","type":"int","value":508},{"name":"x1","type":"int","value":-1025},{"name":"x2","type":"int","value":-1009},{"name":"y1","type":"int","value":293},{"name":"y2","type":"int","value":286},{"name":"next","type":"int","value":509},{"name":"prev","type":"int","value":456}],"polyline":[{"x":0,"y":0},{"x":16,"y":-7}]},{"id":966,"x":-1009,"y":286,"visible":true,"properties":[{"name":"layer","type":"int","value":1},{"name":"group","type":"int","value":47},{"name":"id","type":"int","value":509},{"name":"fh_layer","type":"int","value":1},{"name":"fh_group","type":"int","value":47},{"name":"fh_id","type":"int","value":509},{"name":"x1","type":"int","value":-1009},{"name":"x2","type":"int","value":-937},{"name":"y1","type":"int","value":286},{"name":"y2","type":"int","value":283},{"name":"next","type":"int","value":510},{"name":"prev","type":"int","value":508}],"polyline":[{"x":0,"y":0},{"x":72,"y":-3}]},{"id":967,"x":-937,"y":283,"visible":true,"properties":[{"name":"layer","type":"int","value":1},{"name":"group","type":"int","value":47},{"name":"id","type":"int","value":510},{"name":"fh_layer","type":"int","value":1},{"name":"fh_group","type":"int","value":47},{"name":"fh_id","type":"int","value":510},{"name":"x1","type":"int","value":-937},{"name":"x2","type":"int","value":-901},{"name":"y1","type":"int","value":283},{"name":"y2","type":"int","value":274},{"name":"next","type":"int","value":511},{"name":"prev","type":"int","value":509}],"polyline":[{"x":0,"y":0},{"x":36,"y":-9}]},{"id":968,"x":-901,"y":274,"visible":true,"properties":[{"name":"layer","type":"int","value":1},{"name":"group","type":"int","value":47},{"name":"id","type":"int","value":511},{"name":"fh_layer","type":"int","value":1},{"name":"fh_group","type":"int","value":47},{"name":"fh_id","type":"int","value":511},{"name":"x1","type":"int","value":-901},{"name":"x2","type":"int","value":-845},{"name":"y1","type":"int","value":274},{"name":"y2","type":"int","value":253},{"name":"next","type":"int","value":512},{"name":"prev","type":"int","value":510}],"polyline":[{"x":0,"y":0},{"x":56,"y":-21}]},{"id":969,"x":-845,"y":253,"visible":true,"properties":[{"name":"layer","type":"int","value":1},{"name":"group","type":"int","value":47},{"name":"id","type":"int","value":512},{"name":"fh_layer","type":"int","value":1},{"name":"fh_group","type":"int","value":47},{"name":"fh_id","type":"int","value":512},{"name":"x1","type":"int","value":-845},{"name":"x2","type":"int","value":-801},{"name":"y1","type":"int","value":253},{"name":"y2","type":"int","value":226},{"name":"next","type":"int","value":513},{"name":"prev","type":"int","value":511}],"polyline":[{"x":0,"y":0},{"x":44,"y":-27}]},{"id":970,"x":-801,"y":226,"visible":true,"properties":[{"name":"layer","type":"int","value":1},{"name":"group","type":"int","value":47},{"name":"id","type":"int","value":513},{"name":"fh_layer","type":"int","value":1},{"name":"fh_group","type":"int","value":47},{"name":"fh_id","type":"int","value":513},{"name":"x1","type":"int","value":-801},{"name":"x2","type":"int","value":-760},{"name":"y1","type":"int","value":226},{"name":"y2","type":"int","value":188},{"name":"next","type":"int","value":514},{"name":"prev","type":"int","value":512}],"polyline":[{"x":0,"y":0},{"x":41,"y":-38}]},{"id":971,"x":-760,"y":188,"visible":true,"properties":[{"name":"layer","type":"int","value":1},{"name":"group","type":"int","value":47},{"name":"id","type":"int","value":514},{"name":"fh_layer","type":"int","value":1},{"name":"fh_group","type":"int","value":47},{"name":"fh_id","type":"int","value":514},{"name":"x1","type":"int","value":-760},{"name":"x2","type":"int","value":-743},{"name":"y1","type":"int","value":188},{"name":"y2","type":"int","value":178},{"name":"next","type":"int","value":515},{"name":"prev","type":"int","value":513}],"polyline":[{"x":0,"y":0},{"x":17,"y":-10}]},{"id":972,"x":-743,"y":178,"visible":true,"properties":[{"name":"layer","type":"int","value":1},{"name":"group","type":"int","value":47},{"name":"id","type":"int","value":515},{"name":"fh_layer","type":"int","value":1},{"name":"fh_group","type":"int","value":47},{"name":"fh_id","type":"int","value":515},{"name":"x1","type":"int","value":-743},{"name":"x2","type":"int","value":-714},{"name":"y1","type":"int","value":178},{"name":"y2","type":"int","value":174},{"name":"next","type":"int","value":516},{"name":"prev","type":"int","value":514}],"polyline":[{"x":0,"y":0},{"x":29,"y":-4}]},{"id":973,"x":-714,"y":174,"visible":true,"properties":[{"name":"layer","type":"int","value":1},{"name":"group","type":"int","value":47},{"name":"id","type":"int","value":516},{"name":"fh_layer","type":"int","value":1},{"name":"fh_group","type":"int","value":47},{"name":"fh_id","type":"int","value":516},{"name":"x1","type":"int","value":-714},{"name":"x2","type":"int","value":-698},{"name":"y1","type":"int","value":174},{"name":"y2","type":"int","value":177},{"name":"next","type":"int","value":517},{"name":"prev","type":"int","value":515}],"polyline":[{"x":0,"y":0},{"x":16,"y":3}]},{"id":974,"x":-698,"y":177,"visible":true,"properties":[{"name":"layer","type":"int","value":1},{"name":"group","type":"int","value":47},{"name":"id","type":"int","value":517},{"name":"fh_layer","type":"int","value":1},{"name":"fh_group","type":"int","value":47},{"name":"fh_id","type":"int","value":517},{"name":"x1","type":"int","value":-698},{"name":"x2","type":"int","value":-679},{"name":"y1","type":"int","value":177},{"name":"y2","type":"int","value":170},{"name":"next","type":"int","value":518},{"name":"prev","type":"int","value":516}],"polyline":[{"x":0,"y":0},{"x":19,"y":-7}]},{"id":975,"x":-679,"y":170,"visible":true,"properties":[{"name":"layer","type":"int","value":1},{"name":"group","type":"int","value":47},{"name":"id","type":"int","value":518},{"name":"fh_layer","type":"int","value":1},{"name":"fh_group","type":"int","value":47},{"name":"fh_id","type":"int","value":518},{"name":"x1","type":"int","value":-679},{"name":"x2","type":"int","value":-650},{"name":"y1","type":"int","value":170},{"name":"y2","type":"int","value":174},{"name":"next","type":"int","value":519},{"name":"prev","type":"int","value":517}],"polyline":[{"x":0,"y":0},{"x":29,"y":4}]},{"id":976,"x":-650,"y":174,"visible":true,"properties":[{"name":"layer","type":"int","value":1},{"name":"group","type":"int","value":47},{"name":"id","type":"int","value":519},{"name":"fh_layer","type":"int","value":1},{"name":"fh_group","type":"int","value":47},{"name":"fh_id","type":"int","value":519},{"name":"x1","type":"int","value":-650},{"name":"x2","type":"int","value":-620},{"name":"y1","type":"int","value":174},{"name":"y2","type":"int","value":174},{"name":"next","type":"int","value":520},{"name":"prev","type":"int","value":518}],"polyline":[{"x":0,"y":0},{"x":30,"y":0}]},{"id":977,"x":-620,"y":174,"visible":true,"properties":[{"name":"layer","type":"int","value":1},{"name":"group","type":"int","value":47},{"name":"id","type":"int","value":520},{"name":"fh_layer","type":"int","value":1},{"name":"fh_group","type":"int","value":47},{"name":"fh_id","type":"int","value":520},{"name":"x1","type":"int","value":-620},{"name":"x2","type":"int","value":-609},{"name":"y1","type":"int","value":174},{"name":"y2","type":"int","value":172},{"name":"next","type":"int","value":521},{"name":"prev","type":"int","value":519}],"polyline":[{"x":0,"y":0},{"x":11,"y":-2}]},{"id":978,"x":-609,"y":172,"visible":true,"properties":[{"name":"layer","type":"int","value":1},{"name":"group","type":"int","value":47},{"name":"id","type":"int","value":521},{"name":"fh_layer","type":"int","value":1},{"name":"fh_group","type":"int","value":47},{"name":"fh_id","type":"int","value":521},{"name":"x1","type":"int","value":-609},{"name":"x2","type":"int","value":-607},{"name":"y1","type":"int","value":172},{"name":"y2","type":"int","value":173},{"name":"next","type":"int","value":860},{"name":"prev","type":"int","value":520}],"polyline":[{"x":0,"y":0},{"x":2,"y":1}]},{"id":979,"x":959,"y":603,"visible":true,"properties":[{"name":"layer","type":"int","value":1},{"name":"group","type":"int","value":49},{"name":"id","type":"int","value":134},{"name":"fh_layer","type":"int","value":1},{"name":"fh_group","type":"int","value":49},{"name":"fh_id","type":"int","value":134},{"name":"x1","type":"int","value":959},{"name":"x2","type":"int","value":1030},{"name":"y1","type":"int","value":603},{"name":"y2","type":"int","value":606},{"name":"next","type":"int","value":135},{"name":"prev","type":"int","value":0}],"polyline":[{"x":0,"y":0},{"x":71,"y":3}]},{"id":980,"x":1030,"y":606,"visible":true,"properties":[{"name":"layer","type":"int","value":1},{"name":"group","type":"int","value":49},{"name":"id","type":"int","value":135},{"name":"fh_layer","type":"int","value":1},{"name":"fh_group","type":"int","value":49},{"name":"fh_id","type":"int","value":135},{"name":"x1","type":"int","value":1030},{"name":"x2","type":"int","value":1089},{"name":"y1","type":"int","value":606},{"name":"y2","type":"int","value":598},{"name":"next","type":"int","value":0},{"name":"prev","type":"int","value":134}],"polyline":[{"x":0,"y":0},{"x":59,"y":-8}]},{"id":981,"x":803,"y":723,"visible":true,"properties":[{"name":"layer","type":"int","value":1},{"name":"group","type":"int","value":49},{"name":"id","type":"int","value":136},{"name":"fh_layer","type":"int","value":1},{"name":"fh_group","type":"int","value":49},{"name":"fh_id","type":"int","value":136},{"name":"x1","type":"int","value":803},{"name":"x2","type":"int","value":813},{"name":"y1","type":"int","value":723},{"name":"y2","type":"int","value":715},{"name":"next","type":"int","value":137},{"name":"prev","type":"int","value":681}],"polyline":[{"x":0,"y":0},{"x":10,"y":-8}]},{"id":982,"x":813,"y":715,"visible":true,"properties":[{"name":"layer","type":"int","value":1},{"name":"group","type":"int","value":49},{"name":"id","type":"int","value":137},{"name":"fh_layer","type":"int","value":1},{"name":"fh_group","type":"int","value":49},{"name":"fh_id","type":"int","value":137},{"name":"x1","type":"int","value":813},{"name":"x2","type":"int","value":868},{"name":"y1","type":"int","value":715},{"name":"y2","type":"int","value":715},{"name":"next","type":"int","value":138},{"name":"prev","type":"int","value":136}],"polyline":[{"x":0,"y":0},{"x":55,"y":0}]},{"id":983,"x":868,"y":715,"visible":true,"properties":[{"name":"layer","type":"int","value":1},{"name":"group","type":"int","value":49},{"name":"id","type":"int","value":138},{"name":"fh_layer","type":"int","value":1},{"name":"fh_group","type":"int","value":49},{"name":"fh_id","type":"int","value":138},{"name":"x1","type":"int","value":868},{"name":"x2","type":"int","value":884},{"name":"y1","type":"int","value":715},{"name":"y2","type":"int","value":711},{"name":"next","type":"int","value":139},{"name":"prev","type":"int","value":137}],"polyline":[{"x":0,"y":0},{"x":16,"y":-4}]},{"id":984,"x":884,"y":711,"visible":true,"properties":[{"name":"layer","type":"int","value":1},{"name":"group","type":"int","value":49},{"name":"id","type":"int","value":139},{"name":"fh_layer","type":"int","value":1},{"name":"fh_group","type":"int","value":49},{"name":"fh_id","type":"int","value":139},{"name":"x1","type":"int","value":884},{"name":"x2","type":"int","value":936},{"name":"y1","type":"int","value":711},{"name":"y2","type":"int","value":711},{"name":"next","type":"int","value":140},{"name":"prev","type":"int","value":138}],"polyline":[{"x":0,"y":0},{"x":52,"y":0}]},{"id":985,"x":936,"y":711,"visible":true,"properties":[{"name":"layer","type":"int","value":1},{"name":"group","type":"int","value":49},{"name":"id","type":"int","value":140},{"name":"fh_layer","type":"int","value":1},{"name":"fh_group","type":"int","value":49},{"name":"fh_id","type":"int","value":140},{"name":"x1","type":"int","value":936},{"name":"x2","type":"int","value":946},{"name":"y1","type":"int","value":711},{"name":"y2","type":"int","value":706},{"name":"next","type":"int","value":141},{"name":"prev","type":"int","value":139}],"polyline":[{"x":0,"y":0},{"x":10,"y":-5}]},{"id":986,"x":946,"y":706,"visible":true,"properties":[{"name":"layer","type":"int","value":1},{"name":"group","type":"int","value":49},{"name":"id","type":"int","value":141},{"name":"fh_layer","type":"int","value":1},{"name":"fh_group","type":"int","value":49},{"name":"fh_id","type":"int","value":141},{"name":"x1","type":"int","value":946},{"name":"x2","type":"int","value":966},{"name":"y1","type":"int","value":706},{"name":"y2","type":"int","value":708},{"name":"next","type":"int","value":142},{"name":"prev","type":"int","value":140}],"polyline":[{"x":0,"y":0},{"x":20,"y":2}]},{"id":987,"x":966,"y":708,"visible":true,"properties":[{"name":"layer","type":"int","value":1},{"name":"group","type":"int","value":49},{"name":"id","type":"int","value":142},{"name":"fh_layer","type":"int","value":1},{"name":"fh_group","type":"int","value":49},{"name":"fh_id","type":"int","value":142},{"name":"x1","type":"int","value":966},{"name":"x2","type":"int","value":981},{"name":"y1","type":"int","value":708},{"name":"y2","type":"int","value":714},{"name":"next","type":"int","value":0},{"name":"prev","type":"int","value":141}],"polyline":[{"x":0,"y":0},{"x":15,"y":6}]},{"id":988,"x":987,"y":681,"visible":true,"properties":[{"name":"layer","type":"int","value":1},{"name":"group","type":"int","value":49},{"name":"id","type":"int","value":143},{"name":"fh_layer","type":"int","value":1},{"name":"fh_group","type":"int","value":49},{"name":"fh_id","type":"int","value":143},{"name":"x1","type":"int","value":987},{"name":"x2","type":"int","value":1012},{"name":"y1","type":"int","value":681},{"name":"y2","type":"int","value":670},{"name":"next","type":"int","value":144},{"name":"prev","type":"int","value":0}],"polyline":[{"x":0,"y":0},{"x":25,"y":-11}]},{"id":989,"x":1012,"y":670,"visible":true,"properties":[{"name":"layer","type":"int","value":1},{"name":"group","type":"int","value":49},{"name":"id","type":"int","value":144},{"name":"fh_layer","type":"int","value":1},{"name":"fh_group","type":"int","value":49},{"name":"fh_id","type":"int","value":144},{"name":"x1","type":"int","value":1012},{"name":"x2","type":"int","value":1078},{"name":"y1","type":"int","value":670},{"name":"y2","type":"int","value":667},{"name":"next","type":"int","value":145},{"name":"prev","type":"int","value":143}],"polyline":[{"x":0,"y":0},{"x":66,"y":-3}]},{"id":990,"x":1078,"y":667,"visible":true,"properties":[{"name":"layer","type":"int","value":1},{"name":"group","type":"int","value":49},{"name":"id","type":"int","value":145},{"name":"fh_layer","type":"int","value":1},{"name":"fh_group","type":"int","value":49},{"name":"fh_id","type":"int","value":145},{"name":"x1","type":"int","value":1078},{"name":"x2","type":"int","value":1116},{"name":"y1","type":"int","value":667},{"name":"y2","type":"int","value":674},{"name":"next","type":"int","value":0},{"name":"prev","type":"int","value":144}],"polyline":[{"x":0,"y":0},{"x":38,"y":7}]},{"id":991,"x":938,"y":609,"visible":true,"properties":[{"name":"layer","type":"int","value":1},{"name":"group","type":"int","value":49},{"name":"id","type":"int","value":146},{"name":"fh_layer","type":"int","value":1},{"name":"fh_group","type":"int","value":49},{"name":"fh_id","type":"int","value":146},{"name":"x1","type":"int","value":938},{"name":"x2","type":"int","value":984},{"name":"y1","type":"int","value":609},{"name":"y2","type":"int","value":631},{"name":"next","type":"int","value":0},{"name":"prev","type":"int","value":150}],"polyline":[{"x":0,"y":0},{"x":46,"y":22}]},{"id":992,"x":836,"y":584,"visible":true,"properties":[{"name":"layer","type":"int","value":1},{"name":"group","type":"int","value":49},{"name":"id","type":"int","value":147},{"name":"fh_layer","type":"int","value":1},{"name":"fh_group","type":"int","value":49},{"name":"fh_id","type":"int","value":147},{"name":"x1","type":"int","value":836},{"name":"x2","type":"int","value":853},{"name":"y1","type":"int","value":584},{"name":"y2","type":"int","value":593},{"name":"next","type":"int","value":148},{"name":"prev","type":"int","value":209}],"polyline":[{"x":0,"y":0},{"x":17,"y":9}]},{"id":993,"x":853,"y":593,"visible":true,"properties":[{"name":"layer","type":"int","value":1},{"name":"group","type":"int","value":49},{"name":"id","type":"int","value":148},{"name":"fh_layer","type":"int","value":1},{"name":"fh_group","type":"int","value":49},{"name":"fh_id","type":"int","value":148},{"name":"x1","type":"int","value":853},{"name":"x2","type":"int","value":885},{"name":"y1","type":"int","value":593},{"name":"y2","type":"int","value":603},{"name":"next","type":"int","value":149},{"name":"prev","type":"int","value":147}],"polyline":[{"x":0,"y":0},{"x":32,"y":10}]},{"id":994,"x":885,"y":603,"visible":true,"properties":[{"name":"layer","type":"int","value":1},{"name":"group","type":"int","value":49},{"name":"id","type":"int","value":149},{"name":"fh_layer","type":"int","value":1},{"name":"fh_group","type":"int","value":49},{"name":"fh_id","type":"int","value":149},{"name":"x1","type":"int","value":885},{"name":"x2","type":"int","value":889},{"name":"y1","type":"int","value":603},{"name":"y2","type":"int","value":605},{"name":"next","type":"int","value":150},{"name":"prev","type":"int","value":148}],"polyline":[{"x":0,"y":0},{"x":4,"y":2}]},{"id":995,"x":889,"y":605,"visible":true,"properties":[{"name":"layer","type":"int","value":1},{"name":"group","type":"int","value":49},{"name":"id","type":"int","value":150},{"name":"fh_layer","type":"int","value":1},{"name":"fh_group","type":"int","value":49},{"name":"fh_id","type":"int","value":150},{"name":"x1","type":"int","value":889},{"name":"x2","type":"int","value":938},{"name":"y1","type":"int","value":605},{"name":"y2","type":"int","value":609},{"name":"next","type":"int","value":146},{"name":"prev","type":"int","value":149}],"polyline":[{"x":0,"y":0},{"x":49,"y":4}]},{"id":996,"x":624,"y":479,"visible":true,"properties":[{"name":"layer","type":"int","value":1},{"name":"group","type":"int","value":49},{"name":"id","type":"int","value":151},{"name":"fh_layer","type":"int","value":1},{"name":"fh_group","type":"int","value":49},{"name":"fh_id","type":"int","value":151},{"name":"x1","type":"int","value":624},{"name":"x2","type":"int","value":650},{"name":"y1","type":"int","value":479},{"name":"y2","type":"int","value":497},{"name":"next","type":"int","value":152},{"name":"prev","type":"int","value":159}],"polyline":[{"x":0,"y":0},{"x":26,"y":18}]},{"id":997,"x":650,"y":497,"visible":true,"properties":[{"name":"layer","type":"int","value":1},{"name":"group","type":"int","value":49},{"name":"id","type":"int","value":152},{"name":"fh_layer","type":"int","value":1},{"name":"fh_group","type":"int","value":49},{"name":"fh_id","type":"int","value":152},{"name":"x1","type":"int","value":650},{"name":"x2","type":"int","value":660},{"name":"y1","type":"int","value":497},{"name":"y2","type":"int","value":507},{"name":"next","type":"int","value":153},{"name":"prev","type":"int","value":151}],"polyline":[{"x":0,"y":0},{"x":10,"y":10}]},{"id":998,"x":660,"y":507,"visible":true,"properties":[{"name":"layer","type":"int","value":1},{"name":"group","type":"int","value":49},{"name":"id","type":"int","value":153},{"name":"fh_layer","type":"int","value":1},{"name":"fh_group","type":"int","value":49},{"name":"fh_id","type":"int","value":153},{"name":"x1","type":"int","value":660},{"name":"x2","type":"int","value":683},{"name":"y1","type":"int","value":507},{"name":"y2","type":"int","value":518},{"name":"next","type":"int","value":154},{"name":"prev","type":"int","value":152}],"polyline":[{"x":0,"y":0},{"x":23,"y":11}]},{"id":999,"x":683,"y":518,"visible":true,"properties":[{"name":"layer","type":"int","value":1},{"name":"group","type":"int","value":49},{"name":"id","type":"int","value":154},{"name":"fh_layer","type":"int","value":1},{"name":"fh_group","type":"int","value":49},{"name":"fh_id","type":"int","value":154},{"name":"x1","type":"int","value":683},{"name":"x2","type":"int","value":705},{"name":"y1","type":"int","value":518},{"name":"y2","type":"int","value":526},{"name":"next","type":"int","value":155},{"name":"prev","type":"int","value":153}],"polyline":[{"x":0,"y":0},{"x":22,"y":8}]},{"id":1000,"x":705,"y":526,"visible":true,"properties":[{"name":"layer","type":"int","value":1},{"name":"group","type":"int","value":49},{"name":"id","type":"int","value":155},{"name":"fh_layer","type":"int","value":1},{"name":"fh_group","type":"int","value":49},{"name":"fh_id","type":"int","value":155},{"name":"x1","type":"int","value":705},{"name":"x2","type":"int","value":730},{"name":"y1","type":"int","value":526},{"name":"y2","type":"int","value":534},{"name":"next","type":"int","value":156},{"name":"prev","type":"int","value":154}],"polyline":[{"x":0,"y":0},{"x":25,"y":8}]},{"id":1001,"x":730,"y":534,"visible":true,"properties":[{"name":"layer","type":"int","value":1},{"name":"group","type":"int","value":49},{"name":"id","type":"int","value":156},{"name":"fh_layer","type":"int","value":1},{"name":"fh_group","type":"int","value":49},{"name":"fh_id","type":"int","value":156},{"name":"x1","type":"int","value":730},{"name":"x2","type":"int","value":744},{"name":"y1","type":"int","value":534},{"name":"y2","type":"int","value":537},{"name":"next","type":"int","value":207},{"name":"prev","type":"int","value":155}],"polyline":[{"x":0,"y":0},{"x":14,"y":3}]},{"id":1002,"x":527,"y":434,"visible":true,"properties":[{"name":"layer","type":"int","value":1},{"name":"group","type":"int","value":49},{"name":"id","type":"int","value":157},{"name":"fh_layer","type":"int","value":1},{"name":"fh_group","type":"int","value":49},{"name":"fh_id","type":"int","value":157},{"name":"x1","type":"int","value":527},{"name":"x2","type":"int","value":580},{"name":"y1","type":"int","value":434},{"name":"y2","type":"int","value":438},{"name":"next","type":"int","value":158},{"name":"prev","type":"int","value":196}],"polyline":[{"x":0,"y":0},{"x":53,"y":4}]},{"id":1003,"x":580,"y":438,"visible":true,"properties":[{"name":"layer","type":"int","value":1},{"name":"group","type":"int","value":49},{"name":"id","type":"int","value":158},{"name":"fh_layer","type":"int","value":1},{"name":"fh_group","type":"int","value":49},{"name":"fh_id","type":"int","value":158},{"name":"x1","type":"int","value":580},{"name":"x2","type":"int","value":597},{"name":"y1","type":"int","value":438},{"name":"y2","type":"int","value":446},{"name":"next","type":"int","value":159},{"name":"prev","type":"int","value":157}],"polyline":[{"x":0,"y":0},{"x":17,"y":8}]},{"id":1004,"x":597,"y":446,"visible":true,"properties":[{"name":"layer","type":"int","value":1},{"name":"group","type":"int","value":49},{"name":"id","type":"int","value":159},{"name":"fh_layer","type":"int","value":1},{"name":"fh_group","type":"int","value":49},{"name":"fh_id","type":"int","value":159},{"name":"x1","type":"int","value":597},{"name":"x2","type":"int","value":624},{"name":"y1","type":"int","value":446},{"name":"y2","type":"int","value":479},{"name":"next","type":"int","value":151},{"name":"prev","type":"int","value":158}],"polyline":[{"x":0,"y":0},{"x":27,"y":33}]},{"id":1005,"x":594,"y":404,"visible":true,"properties":[{"name":"layer","type":"int","value":1},{"name":"group","type":"int","value":49},{"name":"id","type":"int","value":160},{"name":"fh_layer","type":"int","value":1},{"name":"fh_group","type":"int","value":49},{"name":"fh_id","type":"int","value":160},{"name":"x1","type":"int","value":594},{"name":"x2","type":"int","value":630},{"name":"y1","type":"int","value":404},{"name":"y2","type":"int","value":391},{"name":"next","type":"int","value":161},{"name":"prev","type":"int","value":0}],"polyline":[{"x":0,"y":0},{"x":36,"y":-13}]},{"id":1006,"x":630,"y":391,"visible":true,"properties":[{"name":"layer","type":"int","value":1},{"name":"group","type":"int","value":49},{"name":"id","type":"int","value":161},{"name":"fh_layer","type":"int","value":1},{"name":"fh_group","type":"int","value":49},{"name":"fh_id","type":"int","value":161},{"name":"x1","type":"int","value":630},{"name":"x2","type":"int","value":674},{"name":"y1","type":"int","value":391},{"name":"y2","type":"int","value":390},{"name":"next","type":"int","value":162},{"name":"prev","type":"int","value":160}],"polyline":[{"x":0,"y":0},{"x":44,"y":-1}]},{"id":1007,"x":674,"y":390,"visible":true,"properties":[{"name":"layer","type":"int","value":1},{"name":"group","type":"int","value":49},{"name":"id","type":"int","value":162},{"name":"fh_layer","type":"int","value":1},{"name":"fh_group","type":"int","value":49},{"name":"fh_id","type":"int","value":162},{"name":"x1","type":"int","value":674},{"name":"x2","type":"int","value":679},{"name":"y1","type":"int","value":390},{"name":"y2","type":"int","value":391},{"name":"next","type":"int","value":163},{"name":"prev","type":"int","value":161}],"polyline":[{"x":0,"y":0},{"x":5,"y":1}]},{"id":1008,"x":679,"y":391,"visible":true,"properties":[{"name":"layer","type":"int","value":1},{"name":"group","type":"int","value":49},{"name":"id","type":"int","value":163},{"name":"fh_layer","type":"int","value":1},{"name":"fh_group","type":"int","value":49},{"name":"fh_id","type":"int","value":163},{"name":"x1","type":"int","value":679},{"name":"x2","type":"int","value":702},{"name":"y1","type":"int","value":391},{"name":"y2","type":"int","value":387},{"name":"next","type":"int","value":164},{"name":"prev","type":"int","value":162}],"polyline":[{"x":0,"y":0},{"x":23,"y":-4}]},{"id":1009,"x":702,"y":387,"visible":true,"properties":[{"name":"layer","type":"int","value":1},{"name":"group","type":"int","value":49},{"name":"id","type":"int","value":164},{"name":"fh_layer","type":"int","value":1},{"name":"fh_group","type":"int","value":49},{"name":"fh_id","type":"int","value":164},{"name":"x1","type":"int","value":702},{"name":"x2","type":"int","value":725},{"name":"y1","type":"int","value":387},{"name":"y2","type":"int","value":381},{"name":"next","type":"int","value":165},{"name":"prev","type":"int","value":163}],"polyline":[{"x":0,"y":0},{"x":23,"y":-6}]},{"id":1010,"x":725,"y":381,"visible":true,"properties":[{"name":"layer","type":"int","value":1},{"name":"group","type":"int","value":49},{"name":"id","type":"int","value":165},{"name":"fh_layer","type":"int","value":1},{"name":"fh_group","type":"int","value":49},{"name":"fh_id","type":"int","value":165},{"name":"x1","type":"int","value":725},{"name":"x2","type":"int","value":756},{"name":"y1","type":"int","value":381},{"name":"y2","type":"int","value":371},{"name":"next","type":"int","value":166},{"name":"prev","type":"int","value":164}],"polyline":[{"x":0,"y":0},{"x":31,"y":-10}]},{"id":1011,"x":756,"y":371,"visible":true,"properties":[{"name":"layer","type":"int","value":1},{"name":"group","type":"int","value":49},{"name":"id","type":"int","value":166},{"name":"fh_layer","type":"int","value":1},{"name":"fh_group","type":"int","value":49},{"name":"fh_id","type":"int","value":166},{"name":"x1","type":"int","value":756},{"name":"x2","type":"int","value":776},{"name":"y1","type":"int","value":371},{"name":"y2","type":"int","value":363},{"name":"next","type":"int","value":167},{"name":"prev","type":"int","value":165}],"polyline":[{"x":0,"y":0},{"x":20,"y":-8}]},{"id":1012,"x":776,"y":363,"visible":true,"properties":[{"name":"layer","type":"int","value":1},{"name":"group","type":"int","value":49},{"name":"id","type":"int","value":167},{"name":"fh_layer","type":"int","value":1},{"name":"fh_group","type":"int","value":49},{"name":"fh_id","type":"int","value":167},{"name":"x1","type":"int","value":776},{"name":"x2","type":"int","value":796},{"name":"y1","type":"int","value":363},{"name":"y2","type":"int","value":353},{"name":"next","type":"int","value":168},{"name":"prev","type":"int","value":166}],"polyline":[{"x":0,"y":0},{"x":20,"y":-10}]},{"id":1013,"x":796,"y":353,"visible":true,"properties":[{"name":"layer","type":"int","value":1},{"name":"group","type":"int","value":49},{"name":"id","type":"int","value":168},{"name":"fh_layer","type":"int","value":1},{"name":"fh_group","type":"int","value":49},{"name":"fh_id","type":"int","value":168},{"name":"x1","type":"int","value":796},{"name":"x2","type":"int","value":822},{"name":"y1","type":"int","value":353},{"name":"y2","type":"int","value":335},{"name":"next","type":"int","value":169},{"name":"prev","type":"int","value":167}],"polyline":[{"x":0,"y":0},{"x":26,"y":-18}]},{"id":1014,"x":822,"y":335,"visible":true,"properties":[{"name":"layer","type":"int","value":1},{"name":"group","type":"int","value":49},{"name":"id","type":"int","value":169},{"name":"fh_layer","type":"int","value":1},{"name":"fh_group","type":"int","value":49},{"name":"fh_id","type":"int","value":169},{"name":"x1","type":"int","value":822},{"name":"x2","type":"int","value":844},{"name":"y1","type":"int","value":335},{"name":"y2","type":"int","value":316},{"name":"next","type":"int","value":170},{"name":"prev","type":"int","value":168}],"polyline":[{"x":0,"y":0},{"x":22,"y":-19}]},{"id":1015,"x":844,"y":316,"visible":true,"properties":[{"name":"layer","type":"int","value":1},{"name":"group","type":"int","value":49},{"name":"id","type":"int","value":170},{"name":"fh_layer","type":"int","value":1},{"name":"fh_group","type":"int","value":49},{"name":"fh_id","type":"int","value":170},{"name":"x1","type":"int","value":844},{"name":"x2","type":"int","value":866},{"name":"y1","type":"int","value":316},{"name":"y2","type":"int","value":292},{"name":"next","type":"int","value":173},{"name":"prev","type":"int","value":169}],"polyline":[{"x":0,"y":0},{"x":22,"y":-24}]},{"id":1016,"x":826,"y":304,"visible":true,"properties":[{"name":"layer","type":"int","value":1},{"name":"group","type":"int","value":49},{"name":"id","type":"int","value":171},{"name":"fh_layer","type":"int","value":1},{"name":"fh_group","type":"int","value":49},{"name":"fh_id","type":"int","value":171},{"name":"x1","type":"int","value":826},{"name":"x2","type":"int","value":862},{"name":"y1","type":"int","value":304},{"name":"y2","type":"int","value":291},{"name":"next","type":"int","value":172},{"name":"prev","type":"int","value":0}],"polyline":[{"x":0,"y":0},{"x":36,"y":-13}]},{"id":1017,"x":862,"y":291,"visible":true,"properties":[{"name":"layer","type":"int","value":1},{"name":"group","type":"int","value":49},{"name":"id","type":"int","value":172},{"name":"fh_layer","type":"int","value":1},{"name":"fh_group","type":"int","value":49},{"name":"fh_id","type":"int","value":172},{"name":"x1","type":"int","value":862},{"name":"x2","type":"int","value":866},{"name":"y1","type":"int","value":291},{"name":"y2","type":"int","value":292},{"name":"next","type":"int","value":173},{"name":"prev","type":"int","value":171}],"polyline":[{"x":0,"y":0},{"x":4,"y":1}]},{"id":1018,"x":866,"y":292,"visible":true,"properties":[{"name":"layer","type":"int","value":1},{"name":"group","type":"int","value":49},{"name":"id","type":"int","value":173},{"name":"fh_layer","type":"int","value":1},{"name":"fh_group","type":"int","value":49},{"name":"fh_id","type":"int","value":173},{"name":"x1","type":"int","value":866},{"name":"x2","type":"int","value":883},{"name":"y1","type":"int","value":292},{"name":"y2","type":"int","value":294},{"name":"next","type":"int","value":178},{"name":"prev","type":"int","value":172}],"polyline":[{"x":0,"y":0},{"x":17,"y":2}]},{"id":1019,"x":891,"y":295,"visible":true,"properties":[{"name":"layer","type":"int","value":1},{"name":"group","type":"int","value":49},{"name":"id","type":"int","value":174},{"name":"fh_layer","type":"int","value":1},{"name":"fh_group","type":"int","value":49},{"name":"fh_id","type":"int","value":174},{"name":"x1","type":"int","value":891},{"name":"x2","type":"int","value":921},{"name":"y1","type":"int","value":295},{"name":"y2","type":"int","value":295},{"name":"next","type":"int","value":175},{"name":"prev","type":"int","value":177}],"polyline":[{"x":0,"y":0},{"x":30,"y":0}]},{"id":1020,"x":921,"y":295,"visible":true,"properties":[{"name":"layer","type":"int","value":1},{"name":"group","type":"int","value":49},{"name":"id","type":"int","value":175},{"name":"fh_layer","type":"int","value":1},{"name":"fh_group","type":"int","value":49},{"name":"fh_id","type":"int","value":175},{"name":"x1","type":"int","value":921},{"name":"x2","type":"int","value":932},{"name":"y1","type":"int","value":295},{"name":"y2","type":"int","value":293},{"name":"next","type":"int","value":176},{"name":"prev","type":"int","value":174}],"polyline":[{"x":0,"y":0},{"x":11,"y":-2}]},{"id":1021,"x":932,"y":293,"visible":true,"properties":[{"name":"layer","type":"int","value":1},{"name":"group","type":"int","value":49},{"name":"id","type":"int","value":176},{"name":"fh_layer","type":"int","value":1},{"name":"fh_group","type":"int","value":49},{"name":"fh_id","type":"int","value":176},{"name":"x1","type":"int","value":932},{"name":"x2","type":"int","value":964},{"name":"y1","type":"int","value":293},{"name":"y2","type":"int","value":300},{"name":"next","type":"int","value":0},{"name":"prev","type":"int","value":175}],"polyline":[{"x":0,"y":0},{"x":32,"y":7}]},{"id":1022,"x":883,"y":294,"visible":true,"properties":[{"name":"layer","type":"int","value":1},{"name":"group","type":"int","value":49},{"name":"id","type":"int","value":177},{"name":"fh_layer","type":"int","value":1},{"name":"fh_group","type":"int","value":49},{"name":"fh_id","type":"int","value":177},{"name":"x1","type":"int","value":883},{"name":"x2","type":"int","value":891},{"name":"y1","type":"int","value":294},{"name":"y2","type":"int","value":295},{"name":"next","type":"int","value":174},{"name":"prev","type":"int","value":173}],"polyline":[{"x":0,"y":0},{"x":8,"y":1}]},{"id":1023,"x":883,"y":294,"visible":true,"properties":[{"name":"layer","type":"int","value":1},{"name":"group","type":"int","value":49},{"name":"id","type":"int","value":178},{"name":"fh_layer","type":"int","value":1},{"name":"fh_group","type":"int","value":49},{"name":"fh_id","type":"int","value":178},{"name":"x1","type":"int","value":883},{"name":"x2","type":"int","value":911},{"name":"y1","type":"int","value":294},{"name":"y2","type":"int","value":287},{"name":"next","type":"int","value":179},{"name":"prev","type":"int","value":173}],"polyline":[{"x":0,"y":0},{"x":28,"y":-7}]},{"id":1024,"x":911,"y":287,"visible":true,"properties":[{"name":"layer","type":"int","value":1},{"name":"group","type":"int","value":49},{"name":"id","type":"int","value":179},{"name":"fh_layer","type":"int","value":1},{"name":"fh_group","type":"int","value":49},{"name":"fh_id","type":"int","value":179},{"name":"x1","type":"int","value":911},{"name":"x2","type":"int","value":934},{"name":"y1","type":"int","value":287},{"name":"y2","type":"int","value":279},{"name":"next","type":"int","value":180},{"name":"prev","type":"int","value":178}],"polyline":[{"x":0,"y":0},{"x":23,"y":-8}]},{"id":1025,"x":934,"y":279,"visible":true,"properties":[{"name":"layer","type":"int","value":1},{"name":"group","type":"int","value":49},{"name":"id","type":"int","value":180},{"name":"fh_layer","type":"int","value":1},{"name":"fh_group","type":"int","value":49},{"name":"fh_id","type":"int","value":180},{"name":"x1","type":"int","value":934},{"name":"x2","type":"int","value":954},{"name":"y1","type":"int","value":279},{"name":"y2","type":"int","value":268},{"name":"next","type":"int","value":181},{"name":"prev","type":"int","value":179}],"polyline":[{"x":0,"y":0},{"x":20,"y":-11}]},{"id":1026,"x":954,"y":268,"visible":true,"properties":[{"name":"layer","type":"int","value":1},{"name":"group","type":"int","value":49},{"name":"id","type":"int","value":181},{"name":"fh_layer","type":"int","value":1},{"name":"fh_group","type":"int","value":49},{"name":"fh_id","type":"int","value":181},{"name":"x1","type":"int","value":954},{"name":"x2","type":"int","value":982},{"name":"y1","type":"int","value":268},{"name":"y2","type":"int","value":241},{"name":"next","type":"int","value":184},{"name":"prev","type":"int","value":180}],"polyline":[{"x":0,"y":0},{"x":28,"y":-27}]},{"id":1027,"x":969,"y":248,"visible":true,"properties":[{"name":"layer","type":"int","value":1},{"name":"group","type":"int","value":49},{"name":"id","type":"int","value":182},{"name":"fh_layer","type":"int","value":1},{"name":"fh_group","type":"int","value":49},{"name":"fh_id","type":"int","value":182},{"name":"x1","type":"int","value":969},{"name":"x2","type":"int","value":981},{"name":"y1","type":"int","value":248},{"name":"y2","type":"int","value":240},{"name":"next","type":"int","value":183},{"name":"prev","type":"int","value":0}],"polyline":[{"x":0,"y":0},{"x":12,"y":-8}]},{"id":1028,"x":981,"y":240,"visible":true,"properties":[{"name":"layer","type":"int","value":1},{"name":"group","type":"int","value":49},{"name":"id","type":"int","value":183},{"name":"fh_layer","type":"int","value":1},{"name":"fh_group","type":"int","value":49},{"name":"fh_id","type":"int","value":183},{"name":"x1","type":"int","value":981},{"name":"x2","type":"int","value":982},{"name":"y1","type":"int","value":240},{"name":"y2","type":"int","value":241},{"name":"next","type":"int","value":184},{"name":"prev","type":"int","value":182}],"polyline":[{"x":0,"y":0},{"x":1,"y":1}]},{"id":1029,"x":982,"y":241,"visible":true,"properties":[{"name":"layer","type":"int","value":1},{"name":"group","type":"int","value":49},{"name":"id","type":"int","value":184},{"name":"fh_layer","type":"int","value":1},{"name":"fh_group","type":"int","value":49},{"name":"fh_id","type":"int","value":184},{"name":"x1","type":"int","value":982},{"name":"x2","type":"int","value":998},{"name":"y1","type":"int","value":241},{"name":"y2","type":"int","value":240},{"name":"next","type":"int","value":185},{"name":"prev","type":"int","value":183}],"polyline":[{"x":0,"y":0},{"x":16,"y":-1}]},{"id":1030,"x":998,"y":240,"visible":true,"properties":[{"name":"layer","type":"int","value":1},{"name":"group","type":"int","value":49},{"name":"id","type":"int","value":185},{"name":"fh_layer","type":"int","value":1},{"name":"fh_group","type":"int","value":49},{"name":"fh_id","type":"int","value":185},{"name":"x1","type":"int","value":998},{"name":"x2","type":"int","value":1005},{"name":"y1","type":"int","value":240},{"name":"y2","type":"int","value":235},{"name":"next","type":"int","value":186},{"name":"prev","type":"int","value":184}],"polyline":[{"x":0,"y":0},{"x":7,"y":-5}]},{"id":1031,"x":1005,"y":235,"visible":true,"properties":[{"name":"layer","type":"int","value":1},{"name":"group","type":"int","value":49},{"name":"id","type":"int","value":186},{"name":"fh_layer","type":"int","value":1},{"name":"fh_group","type":"int","value":49},{"name":"fh_id","type":"int","value":186},{"name":"x1","type":"int","value":1005},{"name":"x2","type":"int","value":1028},{"name":"y1","type":"int","value":235},{"name":"y2","type":"int","value":236},{"name":"next","type":"int","value":187},{"name":"prev","type":"int","value":185}],"polyline":[{"x":0,"y":0},{"x":23,"y":1}]},{"id":1032,"x":1028,"y":236,"visible":true,"properties":[{"name":"layer","type":"int","value":1},{"name":"group","type":"int","value":49},{"name":"id","type":"int","value":187},{"name":"fh_layer","type":"int","value":1},{"name":"fh_group","type":"int","value":49},{"name":"fh_id","type":"int","value":187},{"name":"x1","type":"int","value":1028},{"name":"x2","type":"int","value":1037},{"name":"y1","type":"int","value":236},{"name":"y2","type":"int","value":233},{"name":"next","type":"int","value":188},{"name":"prev","type":"int","value":186}],"polyline":[{"x":0,"y":0},{"x":9,"y":-3}]},{"id":1033,"x":1037,"y":233,"visible":true,"properties":[{"name":"layer","type":"int","value":1},{"name":"group","type":"int","value":49},{"name":"id","type":"int","value":188},{"name":"fh_layer","type":"int","value":1},{"name":"fh_group","type":"int","value":49},{"name":"fh_id","type":"int","value":188},{"name":"x1","type":"int","value":1037},{"name":"x2","type":"int","value":1079},{"name":"y1","type":"int","value":233},{"name":"y2","type":"int","value":235},{"name":"next","type":"int","value":189},{"name":"prev","type":"int","value":187}],"polyline":[{"x":0,"y":0},{"x":42,"y":2}]},{"id":1034,"x":1079,"y":235,"visible":true,"properties":[{"name":"layer","type":"int","value":1},{"name":"group","type":"int","value":49},{"name":"id","type":"int","value":189},{"name":"fh_layer","type":"int","value":1},{"name":"fh_group","type":"int","value":49},{"name":"fh_id","type":"int","value":189},{"name":"x1","type":"int","value":1079},{"name":"x2","type":"int","value":1087},{"name":"y1","type":"int","value":235},{"name":"y2","type":"int","value":232},{"name":"next","type":"int","value":190},{"name":"prev","type":"int","value":188}],"polyline":[{"x":0,"y":0},{"x":8,"y":-3}]},{"id":1035,"x":1087,"y":232,"visible":true,"properties":[{"name":"layer","type":"int","value":1},{"name":"group","type":"int","value":49},{"name":"id","type":"int","value":190},{"name":"fh_layer","type":"int","value":1},{"name":"fh_group","type":"int","value":49},{"name":"fh_id","type":"int","value":190},{"name":"x1","type":"int","value":1087},{"name":"x2","type":"int","value":1113},{"name":"y1","type":"int","value":232},{"name":"y2","type":"int","value":237},{"name":"next","type":"int","value":0},{"name":"prev","type":"int","value":189}],"polyline":[{"x":0,"y":0},{"x":26,"y":5}]},{"id":1036,"x":368,"y":448,"visible":true,"properties":[{"name":"layer","type":"int","value":1},{"name":"group","type":"int","value":49},{"name":"id","type":"int","value":191},{"name":"fh_layer","type":"int","value":1},{"name":"fh_group","type":"int","value":49},{"name":"fh_id","type":"int","value":191},{"name":"x1","type":"int","value":368},{"name":"x2","type":"int","value":423},{"name":"y1","type":"int","value":448},{"name":"y2","type":"int","value":448},{"name":"next","type":"int","value":192},{"name":"prev","type":"int","value":199}],"polyline":[{"x":0,"y":0},{"x":55,"y":0}]},{"id":1037,"x":423,"y":448,"visible":true,"properties":[{"name":"layer","type":"int","value":1},{"name":"group","type":"int","value":49},{"name":"id","type":"int","value":192},{"name":"fh_layer","type":"int","value":1},{"name":"fh_group","type":"int","value":49},{"name":"fh_id","type":"int","value":192},{"name":"x1","type":"int","value":423},{"name":"x2","type":"int","value":439},{"name":"y1","type":"int","value":448},{"name":"y2","type":"int","value":444},{"name":"next","type":"int","value":193},{"name":"prev","type":"int","value":191}],"polyline":[{"x":0,"y":0},{"x":16,"y":-4}]},{"id":1038,"x":439,"y":444,"visible":true,"properties":[{"name":"layer","type":"int","value":1},{"name":"group","type":"int","value":49},{"name":"id","type":"int","value":193},{"name":"fh_layer","type":"int","value":1},{"name":"fh_group","type":"int","value":49},{"name":"fh_id","type":"int","value":193},{"name":"x1","type":"int","value":439},{"name":"x2","type":"int","value":491},{"name":"y1","type":"int","value":444},{"name":"y2","type":"int","value":444},{"name":"next","type":"int","value":194},{"name":"prev","type":"int","value":192}],"polyline":[{"x":0,"y":0},{"x":52,"y":0}]},{"id":1039,"x":491,"y":444,"visible":true,"properties":[{"name":"layer","type":"int","value":1},{"name":"group","type":"int","value":49},{"name":"id","type":"int","value":194},{"name":"fh_layer","type":"int","value":1},{"name":"fh_group","type":"int","value":49},{"name":"fh_id","type":"int","value":194},{"name":"x1","type":"int","value":491},{"name":"x2","type":"int","value":501},{"name":"y1","type":"int","value":444},{"name":"y2","type":"int","value":439},{"name":"next","type":"int","value":195},{"name":"prev","type":"int","value":193}],"polyline":[{"x":0,"y":0},{"x":10,"y":-5}]},{"id":1040,"x":501,"y":439,"visible":true,"properties":[{"name":"layer","type":"int","value":1},{"name":"group","type":"int","value":49},{"name":"id","type":"int","value":195},{"name":"fh_layer","type":"int","value":1},{"name":"fh_group","type":"int","value":49},{"name":"fh_id","type":"int","value":195},{"name":"x1","type":"int","value":501},{"name":"x2","type":"int","value":512},{"name":"y1","type":"int","value":439},{"name":"y2","type":"int","value":441},{"name":"next","type":"int","value":196},{"name":"prev","type":"int","value":194}],"polyline":[{"x":0,"y":0},{"x":11,"y":2}]},{"id":1041,"x":512,"y":441,"visible":true,"properties":[{"name":"layer","type":"int","value":1},{"name":"group","type":"int","value":49},{"name":"id","type":"int","value":196},{"name":"fh_layer","type":"int","value":1},{"name":"fh_group","type":"int","value":49},{"name":"fh_id","type":"int","value":196},{"name":"x1","type":"int","value":512},{"name":"x2","type":"int","value":527},{"name":"y1","type":"int","value":441},{"name":"y2","type":"int","value":434},{"name":"next","type":"int","value":157},{"name":"prev","type":"int","value":195}],"polyline":[{"x":0,"y":0},{"x":15,"y":-7}]},{"id":1042,"x":308,"y":457,"visible":true,"properties":[{"name":"layer","type":"int","value":1},{"name":"group","type":"int","value":49},{"name":"id","type":"int","value":197},{"name":"fh_layer","type":"int","value":1},{"name":"fh_group","type":"int","value":49},{"name":"fh_id","type":"int","value":197},{"name":"x1","type":"int","value":308},{"name":"x2","type":"int","value":352},{"name":"y1","type":"int","value":457},{"name":"y2","type":"int","value":456},{"name":"next","type":"int","value":198},{"name":"prev","type":"int","value":206}],"polyline":[{"x":0,"y":0},{"x":44,"y":-1}]},{"id":1043,"x":352,"y":456,"visible":true,"properties":[{"name":"layer","type":"int","value":1},{"name":"group","type":"int","value":49},{"name":"id","type":"int","value":198},{"name":"fh_layer","type":"int","value":1},{"name":"fh_group","type":"int","value":49},{"name":"fh_id","type":"int","value":198},{"name":"x1","type":"int","value":352},{"name":"x2","type":"int","value":355},{"name":"y1","type":"int","value":456},{"name":"y2","type":"int","value":457},{"name":"next","type":"int","value":199},{"name":"prev","type":"int","value":197}],"polyline":[{"x":0,"y":0},{"x":3,"y":1}]},{"id":1044,"x":355,"y":457,"visible":true,"properties":[{"name":"layer","type":"int","value":1},{"name":"group","type":"int","value":49},{"name":"id","type":"int","value":199},{"name":"fh_layer","type":"int","value":1},{"name":"fh_group","type":"int","value":49},{"name":"fh_id","type":"int","value":199},{"name":"x1","type":"int","value":355},{"name":"x2","type":"int","value":368},{"name":"y1","type":"int","value":457},{"name":"y2","type":"int","value":448},{"name":"next","type":"int","value":191},{"name":"prev","type":"int","value":198}],"polyline":[{"x":0,"y":0},{"x":13,"y":-9}]},{"id":1045,"x":154,"y":504,"visible":true,"properties":[{"name":"layer","type":"int","value":1},{"name":"group","type":"int","value":49},{"name":"id","type":"int","value":200},{"name":"fh_layer","type":"int","value":1},{"name":"fh_group","type":"int","value":49},{"name":"fh_id","type":"int","value":200},{"name":"x1","type":"int","value":154},{"name":"x2","type":"int","value":162},{"name":"y1","type":"int","value":504},{"name":"y2","type":"int","value":500},{"name":"next","type":"int","value":201},{"name":"prev","type":"int","value":293}],"polyline":[{"x":0,"y":0},{"x":8,"y":-4}]},{"id":1046,"x":162,"y":500,"visible":true,"properties":[{"name":"layer","type":"int","value":1},{"name":"group","type":"int","value":49},{"name":"id","type":"int","value":201},{"name":"fh_layer","type":"int","value":1},{"name":"fh_group","type":"int","value":49},{"name":"fh_id","type":"int","value":201},{"name":"x1","type":"int","value":162},{"name":"x2","type":"int","value":190},{"name":"y1","type":"int","value":500},{"name":"y2","type":"int","value":494},{"name":"next","type":"int","value":202},{"name":"prev","type":"int","value":200}],"polyline":[{"x":0,"y":0},{"x":28,"y":-6}]},{"id":1047,"x":190,"y":494,"visible":true,"properties":[{"name":"layer","type":"int","value":1},{"name":"group","type":"int","value":49},{"name":"id","type":"int","value":202},{"name":"fh_layer","type":"int","value":1},{"name":"fh_group","type":"int","value":49},{"name":"fh_id","type":"int","value":202},{"name":"x1","type":"int","value":190},{"name":"x2","type":"int","value":202},{"name":"y1","type":"int","value":494},{"name":"y2","type":"int","value":482},{"name":"next","type":"int","value":203},{"name":"prev","type":"int","value":201}],"polyline":[{"x":0,"y":0},{"x":12,"y":-12}]},{"id":1048,"x":202,"y":482,"visible":true,"properties":[{"name":"layer","type":"int","value":1},{"name":"group","type":"int","value":49},{"name":"id","type":"int","value":203},{"name":"fh_layer","type":"int","value":1},{"name":"fh_group","type":"int","value":49},{"name":"fh_id","type":"int","value":203},{"name":"x1","type":"int","value":202},{"name":"x2","type":"int","value":240},{"name":"y1","type":"int","value":482},{"name":"y2","type":"int","value":476},{"name":"next","type":"int","value":204},{"name":"prev","type":"int","value":202}],"polyline":[{"x":0,"y":0},{"x":38,"y":-6}]},{"id":1049,"x":240,"y":476,"visible":true,"properties":[{"name":"layer","type":"int","value":1},{"name":"group","type":"int","value":49},{"name":"id","type":"int","value":204},{"name":"fh_layer","type":"int","value":1},{"name":"fh_group","type":"int","value":49},{"name":"fh_id","type":"int","value":204},{"name":"x1","type":"int","value":240},{"name":"x2","type":"int","value":256},{"name":"y1","type":"int","value":476},{"name":"y2","type":"int","value":475},{"name":"next","type":"int","value":205},{"name":"prev","type":"int","value":203}],"polyline":[{"x":0,"y":0},{"x":16,"y":-1}]},{"id":1050,"x":256,"y":475,"visible":true,"properties":[{"name":"layer","type":"int","value":1},{"name":"group","type":"int","value":49},{"name":"id","type":"int","value":205},{"name":"fh_layer","type":"int","value":1},{"name":"fh_group","type":"int","value":49},{"name":"fh_id","type":"int","value":205},{"name":"x1","type":"int","value":256},{"name":"x2","type":"int","value":274},{"name":"y1","type":"int","value":475},{"name":"y2","type":"int","value":470},{"name":"next","type":"int","value":206},{"name":"prev","type":"int","value":204}],"polyline":[{"x":0,"y":0},{"x":18,"y":-5}]},{"id":1051,"x":274,"y":470,"visible":true,"properties":[{"name":"layer","type":"int","value":1},{"name":"group","type":"int","value":49},{"name":"id","type":"int","value":206},{"name":"fh_layer","type":"int","value":1},{"name":"fh_group","type":"int","value":49},{"name":"fh_id","type":"int","value":206},{"name":"x1","type":"int","value":274},{"name":"x2","type":"int","value":308},{"name":"y1","type":"int","value":470},{"name":"y2","type":"int","value":457},{"name":"next","type":"int","value":197},{"name":"prev","type":"int","value":205}],"polyline":[{"x":0,"y":0},{"x":34,"y":-13}]},{"id":1052,"x":744,"y":537,"visible":true,"properties":[{"name":"layer","type":"int","value":1},{"name":"group","type":"int","value":49},{"name":"id","type":"int","value":207},{"name":"fh_layer","type":"int","value":1},{"name":"fh_group","type":"int","value":49},{"name":"fh_id","type":"int","value":207},{"name":"x1","type":"int","value":744},{"name":"x2","type":"int","value":775},{"name":"y1","type":"int","value":537},{"name":"y2","type":"int","value":540},{"name":"next","type":"int","value":208},{"name":"prev","type":"int","value":156}],"polyline":[{"x":0,"y":0},{"x":31,"y":3}]},{"id":1053,"x":775,"y":540,"visible":true,"properties":[{"name":"layer","type":"int","value":1},{"name":"group","type":"int","value":49},{"name":"id","type":"int","value":208},{"name":"fh_layer","type":"int","value":1},{"name":"fh_group","type":"int","value":49},{"name":"fh_id","type":"int","value":208},{"name":"x1","type":"int","value":775},{"name":"x2","type":"int","value":802},{"name":"y1","type":"int","value":540},{"name":"y2","type":"int","value":552},{"name":"next","type":"int","value":209},{"name":"prev","type":"int","value":207}],"polyline":[{"x":0,"y":0},{"x":27,"y":12}]},{"id":1054,"x":802,"y":552,"visible":true,"properties":[{"name":"layer","type":"int","value":1},{"name":"group","type":"int","value":49},{"name":"id","type":"int","value":209},{"name":"fh_layer","type":"int","value":1},{"name":"fh_group","type":"int","value":49},{"name":"fh_id","type":"int","value":209},{"name":"x1","type":"int","value":802},{"name":"x2","type":"int","value":836},{"name":"y1","type":"int","value":552},{"name":"y2","type":"int","value":584},{"name":"next","type":"int","value":147},{"name":"prev","type":"int","value":208}],"polyline":[{"x":0,"y":0},{"x":34,"y":32}]},{"id":1055,"x":151,"y":196,"visible":true,"properties":[{"name":"layer","type":"int","value":1},{"name":"group","type":"int","value":49},{"name":"id","type":"int","value":210},{"name":"fh_layer","type":"int","value":1},{"name":"fh_group","type":"int","value":49},{"name":"fh_id","type":"int","value":210},{"name":"x1","type":"int","value":151},{"name":"x2","type":"int","value":177},{"name":"y1","type":"int","value":196},{"name":"y2","type":"int","value":206},{"name":"next","type":"int","value":211},{"name":"prev","type":"int","value":281}],"polyline":[{"x":0,"y":0},{"x":26,"y":10}]},{"id":1056,"x":177,"y":206,"visible":true,"properties":[{"name":"layer","type":"int","value":1},{"name":"group","type":"int","value":49},{"name":"id","type":"int","value":211},{"name":"fh_layer","type":"int","value":1},{"name":"fh_group","type":"int","value":49},{"name":"fh_id","type":"int","value":211},{"name":"x1","type":"int","value":177},{"name":"x2","type":"int","value":196},{"name":"y1","type":"int","value":206},{"name":"y2","type":"int","value":205},{"name":"next","type":"int","value":212},{"name":"prev","type":"int","value":210}],"polyline":[{"x":0,"y":0},{"x":19,"y":-1}]},{"id":1057,"x":196,"y":205,"visible":true,"properties":[{"name":"layer","type":"int","value":1},{"name":"group","type":"int","value":49},{"name":"id","type":"int","value":212},{"name":"fh_layer","type":"int","value":1},{"name":"fh_group","type":"int","value":49},{"name":"fh_id","type":"int","value":212},{"name":"x1","type":"int","value":196},{"name":"x2","type":"int","value":228},{"name":"y1","type":"int","value":205},{"name":"y2","type":"int","value":211},{"name":"next","type":"int","value":213},{"name":"prev","type":"int","value":211}],"polyline":[{"x":0,"y":0},{"x":32,"y":6}]},{"id":1058,"x":228,"y":211,"visible":true,"properties":[{"name":"layer","type":"int","value":1},{"name":"group","type":"int","value":49},{"name":"id","type":"int","value":213},{"name":"fh_layer","type":"int","value":1},{"name":"fh_group","type":"int","value":49},{"name":"fh_id","type":"int","value":213},{"name":"x1","type":"int","value":228},{"name":"x2","type":"int","value":249},{"name":"y1","type":"int","value":211},{"name":"y2","type":"int","value":226},{"name":"next","type":"int","value":214},{"name":"prev","type":"int","value":212}],"polyline":[{"x":0,"y":0},{"x":21,"y":15}]},{"id":1059,"x":249,"y":226,"visible":true,"properties":[{"name":"layer","type":"int","value":1},{"name":"group","type":"int","value":49},{"name":"id","type":"int","value":214},{"name":"fh_layer","type":"int","value":1},{"name":"fh_group","type":"int","value":49},{"name":"fh_id","type":"int","value":214},{"name":"x1","type":"int","value":249},{"name":"x2","type":"int","value":269},{"name":"y1","type":"int","value":226},{"name":"y2","type":"int","value":229},{"name":"next","type":"int","value":215},{"name":"prev","type":"int","value":213}],"polyline":[{"x":0,"y":0},{"x":20,"y":3}]},{"id":1060,"x":269,"y":229,"visible":true,"properties":[{"name":"layer","type":"int","value":1},{"name":"group","type":"int","value":49},{"name":"id","type":"int","value":215},{"name":"fh_layer","type":"int","value":1},{"name":"fh_group","type":"int","value":49},{"name":"fh_id","type":"int","value":215},{"name":"x1","type":"int","value":269},{"name":"x2","type":"int","value":288},{"name":"y1","type":"int","value":229},{"name":"y2","type":"int","value":242},{"name":"next","type":"int","value":216},{"name":"prev","type":"int","value":214}],"polyline":[{"x":0,"y":0},{"x":19,"y":13}]},{"id":1061,"x":288,"y":242,"visible":true,"properties":[{"name":"layer","type":"int","value":1},{"name":"group","type":"int","value":49},{"name":"id","type":"int","value":216},{"name":"fh_layer","type":"int","value":1},{"name":"fh_group","type":"int","value":49},{"name":"fh_id","type":"int","value":216},{"name":"x1","type":"int","value":288},{"name":"x2","type":"int","value":294},{"name":"y1","type":"int","value":242},{"name":"y2","type":"int","value":242},{"name":"next","type":"int","value":217},{"name":"prev","type":"int","value":215}],"polyline":[{"x":0,"y":0},{"x":6,"y":0}]},{"id":1062,"x":294,"y":242,"visible":true,"properties":[{"name":"layer","type":"int","value":1},{"name":"group","type":"int","value":49},{"name":"id","type":"int","value":217},{"name":"fh_layer","type":"int","value":1},{"name":"fh_group","type":"int","value":49},{"name":"fh_id","type":"int","value":217},{"name":"x1","type":"int","value":294},{"name":"x2","type":"int","value":348},{"name":"y1","type":"int","value":242},{"name":"y2","type":"int","value":251},{"name":"next","type":"int","value":218},{"name":"prev","type":"int","value":216}],"polyline":[{"x":0,"y":0},{"x":54,"y":9}]},{"id":1063,"x":348,"y":251,"visible":true,"properties":[{"name":"layer","type":"int","value":1},{"name":"group","type":"int","value":49},{"name":"id","type":"int","value":218},{"name":"fh_layer","type":"int","value":1},{"name":"fh_group","type":"int","value":49},{"name":"fh_id","type":"int","value":218},{"name":"x1","type":"int","value":348},{"name":"x2","type":"int","value":363},{"name":"y1","type":"int","value":251},{"name":"y2","type":"int","value":257},{"name":"next","type":"int","value":219},{"name":"prev","type":"int","value":217}],"polyline":[{"x":0,"y":0},{"x":15,"y":6}]},{"id":1064,"x":363,"y":257,"visible":true,"properties":[{"name":"layer","type":"int","value":1},{"name":"group","type":"int","value":49},{"name":"id","type":"int","value":219},{"name":"fh_layer","type":"int","value":1},{"name":"fh_group","type":"int","value":49},{"name":"fh_id","type":"int","value":219},{"name":"x1","type":"int","value":363},{"name":"x2","type":"int","value":380},{"name":"y1","type":"int","value":257},{"name":"y2","type":"int","value":253},{"name":"next","type":"int","value":220},{"name":"prev","type":"int","value":218}],"polyline":[{"x":0,"y":0},{"x":17,"y":-4}]},{"id":1065,"x":380,"y":253,"visible":true,"properties":[{"name":"layer","type":"int","value":1},{"name":"group","type":"int","value":49},{"name":"id","type":"int","value":220},{"name":"fh_layer","type":"int","value":1},{"name":"fh_group","type":"int","value":49},{"name":"fh_id","type":"int","value":220},{"name":"x1","type":"int","value":380},{"name":"x2","type":"int","value":434},{"name":"y1","type":"int","value":253},{"name":"y2","type":"int","value":262},{"name":"next","type":"int","value":221},{"name":"prev","type":"int","value":219}],"polyline":[{"x":0,"y":0},{"x":54,"y":9}]},{"id":1066,"x":434,"y":262,"visible":true,"properties":[{"name":"layer","type":"int","value":1},{"name":"group","type":"int","value":49},{"name":"id","type":"int","value":221},{"name":"fh_layer","type":"int","value":1},{"name":"fh_group","type":"int","value":49},{"name":"fh_id","type":"int","value":221},{"name":"x1","type":"int","value":434},{"name":"x2","type":"int","value":442},{"name":"y1","type":"int","value":262},{"name":"y2","type":"int","value":265},{"name":"next","type":"int","value":222},{"name":"prev","type":"int","value":220}],"polyline":[{"x":0,"y":0},{"x":8,"y":3}]},{"id":1067,"x":442,"y":265,"visible":true,"properties":[{"name":"layer","type":"int","value":1},{"name":"group","type":"int","value":49},{"name":"id","type":"int","value":222},{"name":"fh_layer","type":"int","value":1},{"name":"fh_group","type":"int","value":49},{"name":"fh_id","type":"int","value":222},{"name":"x1","type":"int","value":442},{"name":"x2","type":"int","value":451},{"name":"y1","type":"int","value":265},{"name":"y2","type":"int","value":262},{"name":"next","type":"int","value":223},{"name":"prev","type":"int","value":221}],"polyline":[{"x":0,"y":0},{"x":9,"y":-3}]},{"id":1068,"x":451,"y":262,"visible":true,"properties":[{"name":"layer","type":"int","value":1},{"name":"group","type":"int","value":49},{"name":"id","type":"int","value":223},{"name":"fh_layer","type":"int","value":1},{"name":"fh_group","type":"int","value":49},{"name":"fh_id","type":"int","value":223},{"name":"x1","type":"int","value":451},{"name":"x2","type":"int","value":480},{"name":"y1","type":"int","value":262},{"name":"y2","type":"int","value":266},{"name":"next","type":"int","value":224},{"name":"prev","type":"int","value":222}],"polyline":[{"x":0,"y":0},{"x":29,"y":4}]},{"id":1069,"x":480,"y":266,"visible":true,"properties":[{"name":"layer","type":"int","value":1},{"name":"group","type":"int","value":49},{"name":"id","type":"int","value":224},{"name":"fh_layer","type":"int","value":1},{"name":"fh_group","type":"int","value":49},{"name":"fh_id","type":"int","value":224},{"name":"x1","type":"int","value":480},{"name":"x2","type":"int","value":510},{"name":"y1","type":"int","value":266},{"name":"y2","type":"int","value":266},{"name":"next","type":"int","value":225},{"name":"prev","type":"int","value":223}],"polyline":[{"x":0,"y":0},{"x":30,"y":0}]},{"id":1070,"x":510,"y":266,"visible":true,"properties":[{"name":"layer","type":"int","value":1},{"name":"group","type":"int","value":49},{"name":"id","type":"int","value":225},{"name":"fh_layer","type":"int","value":1},{"name":"fh_group","type":"int","value":49},{"name":"fh_id","type":"int","value":225},{"name":"x1","type":"int","value":510},{"name":"x2","type":"int","value":521},{"name":"y1","type":"int","value":266},{"name":"y2","type":"int","value":264},{"name":"next","type":"int","value":226},{"name":"prev","type":"int","value":224}],"polyline":[{"x":0,"y":0},{"x":11,"y":-2}]},{"id":1071,"x":521,"y":264,"visible":true,"properties":[{"name":"layer","type":"int","value":1},{"name":"group","type":"int","value":49},{"name":"id","type":"int","value":226},{"name":"fh_layer","type":"int","value":1},{"name":"fh_group","type":"int","value":49},{"name":"fh_id","type":"int","value":226},{"name":"x1","type":"int","value":521},{"name":"x2","type":"int","value":524},{"name":"y1","type":"int","value":264},{"name":"y2","type":"int","value":264},{"name":"next","type":"int","value":227},{"name":"prev","type":"int","value":225}],"polyline":[{"x":0,"y":0},{"x":3,"y":0}]},{"id":1072,"x":524,"y":264,"visible":true,"properties":[{"name":"layer","type":"int","value":1},{"name":"group","type":"int","value":49},{"name":"id","type":"int","value":227},{"name":"fh_layer","type":"int","value":1},{"name":"fh_group","type":"int","value":49},{"name":"fh_id","type":"int","value":227},{"name":"x1","type":"int","value":524},{"name":"x2","type":"int","value":531},{"name":"y1","type":"int","value":264},{"name":"y2","type":"int","value":262},{"name":"next","type":"int","value":228},{"name":"prev","type":"int","value":226}],"polyline":[{"x":0,"y":0},{"x":7,"y":-2}]},{"id":1073,"x":531,"y":262,"visible":true,"properties":[{"name":"layer","type":"int","value":1},{"name":"group","type":"int","value":49},{"name":"id","type":"int","value":228},{"name":"fh_layer","type":"int","value":1},{"name":"fh_group","type":"int","value":49},{"name":"fh_id","type":"int","value":228},{"name":"x1","type":"int","value":531},{"name":"x2","type":"int","value":561},{"name":"y1","type":"int","value":262},{"name":"y2","type":"int","value":260},{"name":"next","type":"int","value":229},{"name":"prev","type":"int","value":227}],"polyline":[{"x":0,"y":0},{"x":30,"y":-2}]},{"id":1074,"x":561,"y":260,"visible":true,"properties":[{"name":"layer","type":"int","value":1},{"name":"group","type":"int","value":49},{"name":"id","type":"int","value":229},{"name":"fh_layer","type":"int","value":1},{"name":"fh_group","type":"int","value":49},{"name":"fh_id","type":"int","value":229},{"name":"x1","type":"int","value":561},{"name":"x2","type":"int","value":578},{"name":"y1","type":"int","value":260},{"name":"y2","type":"int","value":264},{"name":"next","type":"int","value":0},{"name":"prev","type":"int","value":228}],"polyline":[{"x":0,"y":0},{"x":17,"y":4}]},{"id":1075,"x":-145,"y":571,"visible":true,"properties":[{"name":"layer","type":"int","value":1},{"name":"group","type":"int","value":50},{"name":"id","type":"int","value":861},{"name":"fh_layer","type":"int","value":1},{"name":"fh_group","type":"int","value":50},{"name":"fh_id","type":"int","value":861},{"name":"x1","type":"int","value":-145},{"name":"x2","type":"int","value":-120},{"name":"y1","type":"int","value":571},{"name":"y2","type":"int","value":560},{"name":"next","type":"int","value":862},{"name":"prev","type":"int","value":0}],"polyline":[{"x":0,"y":0},{"x":25,"y":-11}]},{"id":1076,"x":-120,"y":560,"visible":true,"properties":[{"name":"layer","type":"int","value":1},{"name":"group","type":"int","value":50},{"name":"id","type":"int","value":862},{"name":"fh_layer","type":"int","value":1},{"name":"fh_group","type":"int","value":50},{"name":"fh_id","type":"int","value":862},{"name":"x1","type":"int","value":-120},{"name":"x2","type":"int","value":-62},{"name":"y1","type":"int","value":560},{"name":"y2","type":"int","value":558},{"name":"next","type":"int","value":294},{"name":"prev","type":"int","value":861}],"polyline":[{"x":0,"y":0},{"x":58,"y":-2}]},{"id":1077,"x":31,"y":517,"visible":true,"properties":[{"name":"layer","type":"int","value":1},{"name":"group","type":"int","value":52},{"name":"id","type":"int","value":289},{"name":"fh_layer","type":"int","value":1},{"name":"fh_group","type":"int","value":52},{"name":"fh_id","type":"int","value":289},{"name":"x1","type":"int","value":31},{"name":"x2","type":"int","value":61},{"name":"y1","type":"int","value":517},{"name":"y2","type":"int","value":515},{"name":"next","type":"int","value":290},{"name":"prev","type":"int","value":298}],"polyline":[{"x":0,"y":0},{"x":30,"y":-2}]},{"id":1078,"x":61,"y":515,"visible":true,"properties":[{"name":"layer","type":"int","value":1},{"name":"group","type":"int","value":52},{"name":"id","type":"int","value":290},{"name":"fh_layer","type":"int","value":1},{"name":"fh_group","type":"int","value":52},{"name":"fh_id","type":"int","value":290},{"name":"x1","type":"int","value":61},{"name":"x2","type":"int","value":62},{"name":"y1","type":"int","value":515},{"name":"y2","type":"int","value":515},{"name":"next","type":"int","value":303},{"name":"prev","type":"int","value":289}],"polyline":[{"x":0,"y":0},{"x":1,"y":0}]},{"id":1079,"x":63,"y":515,"visible":true,"properties":[{"name":"layer","type":"int","value":1},{"name":"group","type":"int","value":52},{"name":"id","type":"int","value":291},{"name":"fh_layer","type":"int","value":1},{"name":"fh_group","type":"int","value":52},{"name":"fh_id","type":"int","value":291},{"name":"x1","type":"int","value":63},{"name":"x2","type":"int","value":66},{"name":"y1","type":"int","value":515},{"name":"y2","type":"int","value":514},{"name":"next","type":"int","value":304},{"name":"prev","type":"int","value":302}],"polyline":[{"x":0,"y":0},{"x":3,"y":-1}]},{"id":1080,"x":83,"y":507,"visible":true,"properties":[{"name":"layer","type":"int","value":1},{"name":"group","type":"int","value":52},{"name":"id","type":"int","value":292},{"name":"fh_layer","type":"int","value":1},{"name":"fh_group","type":"int","value":52},{"name":"fh_id","type":"int","value":292},{"name":"x1","type":"int","value":83},{"name":"x2","type":"int","value":88},{"name":"y1","type":"int","value":507},{"name":"y2","type":"int","value":507},{"name":"next","type":"int","value":305},{"name":"prev","type":"int","value":304}],"polyline":[{"x":0,"y":0},{"x":5,"y":0}]},{"id":1081,"x":149,"y":504,"visible":true,"properties":[{"name":"layer","type":"int","value":1},{"name":"group","type":"int","value":52},{"name":"id","type":"int","value":293},{"name":"fh_layer","type":"int","value":1},{"name":"fh_group","type":"int","value":52},{"name":"fh_id","type":"int","value":293},{"name":"x1","type":"int","value":149},{"name":"x2","type":"int","value":154},{"name":"y1","type":"int","value":504},{"name":"y2","type":"int","value":504},{"name":"next","type":"int","value":200},{"name":"prev","type":"int","value":305}],"polyline":[{"x":0,"y":0},{"x":5,"y":0}]},{"id":1082,"x":-62,"y":558,"visible":true,"properties":[{"name":"layer","type":"int","value":1},{"name":"group","type":"int","value":52},{"name":"id","type":"int","value":294},{"name":"fh_layer","type":"int","value":1},{"name":"fh_group","type":"int","value":52},{"name":"fh_id","type":"int","value":294},{"name":"x1","type":"int","value":-62},{"name":"x2","type":"int","value":-41},{"name":"y1","type":"int","value":558},{"name":"y2","type":"int","value":543},{"name":"next","type":"int","value":295},{"name":"prev","type":"int","value":862}],"polyline":[{"x":0,"y":0},{"x":21,"y":-15}]},{"id":1083,"x":-41,"y":543,"visible":true,"properties":[{"name":"layer","type":"int","value":1},{"name":"group","type":"int","value":52},{"name":"id","type":"int","value":295},{"name":"fh_layer","type":"int","value":1},{"name":"fh_group","type":"int","value":52},{"name":"fh_id","type":"int","value":295},{"name":"x1","type":"int","value":-41},{"name":"x2","type":"int","value":-13},{"name":"y1","type":"int","value":543},{"name":"y2","type":"int","value":537},{"name":"next","type":"int","value":296},{"name":"prev","type":"int","value":294}],"polyline":[{"x":0,"y":0},{"x":28,"y":-6}]},{"id":1084,"x":-13,"y":537,"visible":true,"properties":[{"name":"layer","type":"int","value":1},{"name":"group","type":"int","value":52},{"name":"id","type":"int","value":296},{"name":"fh_layer","type":"int","value":1},{"name":"fh_group","type":"int","value":52},{"name":"fh_id","type":"int","value":296},{"name":"x1","type":"int","value":-13},{"name":"x2","type":"int","value":-1},{"name":"y1","type":"int","value":537},{"name":"y2","type":"int","value":525},{"name":"next","type":"int","value":297},{"name":"prev","type":"int","value":295}],"polyline":[{"x":0,"y":0},{"x":12,"y":-12}]},{"id":1085,"x":-1,"y":525,"visible":true,"properties":[{"name":"layer","type":"int","value":1},{"name":"group","type":"int","value":52},{"name":"id","type":"int","value":297},{"name":"fh_layer","type":"int","value":1},{"name":"fh_group","type":"int","value":52},{"name":"fh_id","type":"int","value":297},{"name":"x1","type":"int","value":-1},{"name":"x2","type":"int","value":18},{"name":"y1","type":"int","value":525},{"name":"y2","type":"int","value":523},{"name":"next","type":"int","value":298},{"name":"prev","type":"int","value":296}],"polyline":[{"x":0,"y":0},{"x":19,"y":-2}]},{"id":1086,"x":18,"y":523,"visible":true,"properties":[{"name":"layer","type":"int","value":1},{"name":"group","type":"int","value":52},{"name":"id","type":"int","value":298},{"name":"fh_layer","type":"int","value":1},{"name":"fh_group","type":"int","value":52},{"name":"fh_id","type":"int","value":298},{"name":"x1","type":"int","value":18},{"name":"x2","type":"int","value":31},{"name":"y1","type":"int","value":523},{"name":"y2","type":"int","value":517},{"name":"next","type":"int","value":289},{"name":"prev","type":"int","value":297}],"polyline":[{"x":0,"y":0},{"x":13,"y":-6}]},{"id":1087,"x":18,"y":523,"visible":true,"properties":[{"name":"layer","type":"int","value":1},{"name":"group","type":"int","value":52},{"name":"id","type":"int","value":299},{"name":"fh_layer","type":"int","value":1},{"name":"fh_group","type":"int","value":52},{"name":"fh_id","type":"int","value":299},{"name":"x1","type":"int","value":18},{"name":"x2","type":"int","value":37},{"name":"y1","type":"int","value":523},{"name":"y2","type":"int","value":519},{"name":"next","type":"int","value":300},{"name":"prev","type":"int","value":297}],"polyline":[{"x":0,"y":0},{"x":19,"y":-4}]},{"id":1088,"x":37,"y":519,"visible":true,"properties":[{"name":"layer","type":"int","value":1},{"name":"group","type":"int","value":52},{"name":"id","type":"int","value":300},{"name":"fh_layer","type":"int","value":1},{"name":"fh_group","type":"int","value":52},{"name":"fh_id","type":"int","value":300},{"name":"x1","type":"int","value":37},{"name":"x2","type":"int","value":53},{"name":"y1","type":"int","value":519},{"name":"y2","type":"int","value":518},{"name":"next","type":"int","value":301},{"name":"prev","type":"int","value":299}],"polyline":[{"x":0,"y":0},{"x":16,"y":-1}]},{"id":1089,"x":53,"y":518,"visible":true,"properties":[{"name":"layer","type":"int","value":1},{"name":"group","type":"int","value":52},{"name":"id","type":"int","value":301},{"name":"fh_layer","type":"int","value":1},{"name":"fh_group","type":"int","value":52},{"name":"fh_id","type":"int","value":301},{"name":"x1","type":"int","value":53},{"name":"x2","type":"int","value":62},{"name":"y1","type":"int","value":518},{"name":"y2","type":"int","value":515},{"name":"next","type":"int","value":303},{"name":"prev","type":"int","value":300}],"polyline":[{"x":0,"y":0},{"x":9,"y":-3}]},{"id":1090,"x":62,"y":515,"visible":true,"properties":[{"name":"layer","type":"int","value":1},{"name":"group","type":"int","value":52},{"name":"id","type":"int","value":302},{"name":"fh_layer","type":"int","value":1},{"name":"fh_group","type":"int","value":52},{"name":"fh_id","type":"int","value":302},{"name":"x1","type":"int","value":62},{"name":"x2","type":"int","value":63},{"name":"y1","type":"int","value":515},{"name":"y2","type":"int","value":515},{"name":"next","type":"int","value":291},{"name":"prev","type":"int","value":290}],"polyline":[{"x":0,"y":0},{"x":1,"y":0}]},{"id":1091,"x":62,"y":515,"visible":true,"properties":[{"name":"layer","type":"int","value":1},{"name":"group","type":"int","value":52},{"name":"id","type":"int","value":303},{"name":"fh_layer","type":"int","value":1},{"name":"fh_group","type":"int","value":52},{"name":"fh_id","type":"int","value":303},{"name":"x1","type":"int","value":62},{"name":"x2","type":"int","value":66},{"name":"y1","type":"int","value":515},{"name":"y2","type":"int","value":514},{"name":"next","type":"int","value":304},{"name":"prev","type":"int","value":290}],"polyline":[{"x":0,"y":0},{"x":4,"y":-1}]},{"id":1092,"x":66,"y":514,"visible":true,"properties":[{"name":"layer","type":"int","value":1},{"name":"group","type":"int","value":52},{"name":"id","type":"int","value":304},{"name":"fh_layer","type":"int","value":1},{"name":"fh_group","type":"int","value":52},{"name":"fh_id","type":"int","value":304},{"name":"x1","type":"int","value":66},{"name":"x2","type":"int","value":83},{"name":"y1","type":"int","value":514},{"name":"y2","type":"int","value":507},{"name":"next","type":"int","value":292},{"name":"prev","type":"int","value":303}],"polyline":[{"x":0,"y":0},{"x":17,"y":-7}]},{"id":1093,"x":88,"y":507,"visible":true,"properties":[{"name":"layer","type":"int","value":1},{"name":"group","type":"int","value":52},{"name":"id","type":"int","value":305},{"name":"fh_layer","type":"int","value":1},{"name":"fh_group","type":"int","value":52},{"name":"fh_id","type":"int","value":305},{"name":"x1","type":"int","value":88},{"name":"x2","type":"int","value":149},{"name":"y1","type":"int","value":507},{"name":"y2","type":"int","value":504},{"name":"next","type":"int","value":293},{"name":"prev","type":"int","value":292}],"polyline":[{"x":0,"y":0},{"x":61,"y":-3}]},{"id":1094,"x":69,"y":179,"visible":true,"properties":[{"name":"layer","type":"int","value":1},{"name":"group","type":"int","value":61},{"name":"id","type":"int","value":280},{"name":"fh_layer","type":"int","value":1},{"name":"fh_group","type":"int","value":61},{"name":"fh_id","type":"int","value":280},{"name":"x1","type":"int","value":69},{"name":"x2","type":"int","value":122},{"name":"y1","type":"int","value":179},{"name":"y2","type":"int","value":183},{"name":"next","type":"int","value":281},{"name":"prev","type":"int","value":288}],"polyline":[{"x":0,"y":0},{"x":53,"y":4}]},{"id":1095,"x":122,"y":183,"visible":true,"properties":[{"name":"layer","type":"int","value":1},{"name":"group","type":"int","value":61},{"name":"id","type":"int","value":281},{"name":"fh_layer","type":"int","value":1},{"name":"fh_group","type":"int","value":61},{"name":"fh_id","type":"int","value":281},{"name":"x1","type":"int","value":122},{"name":"x2","type":"int","value":151},{"name":"y1","type":"int","value":183},{"name":"y2","type":"int","value":196},{"name":"next","type":"int","value":210},{"name":"prev","type":"int","value":280}],"polyline":[{"x":0,"y":0},{"x":29,"y":13}]},{"id":1096,"x":-70,"y":138,"visible":true,"properties":[{"name":"layer","type":"int","value":1},{"name":"group","type":"int","value":61},{"name":"id","type":"int","value":282},{"name":"fh_layer","type":"int","value":1},{"name":"fh_group","type":"int","value":61},{"name":"fh_id","type":"int","value":282},{"name":"x1","type":"int","value":-70},{"name":"x2","type":"int","value":-39},{"name":"y1","type":"int","value":138},{"name":"y2","type":"int","value":149},{"name":"next","type":"int","value":283},{"name":"prev","type":"int","value":507}],"polyline":[{"x":0,"y":0},{"x":31,"y":11}]},{"id":1097,"x":-39,"y":149,"visible":true,"properties":[{"name":"layer","type":"int","value":1},{"name":"group","type":"int","value":61},{"name":"id","type":"int","value":283},{"name":"fh_layer","type":"int","value":1},{"name":"fh_group","type":"int","value":61},{"name":"fh_id","type":"int","value":283},{"name":"x1","type":"int","value":-39},{"name":"x2","type":"int","value":-20},{"name":"y1","type":"int","value":149},{"name":"y2","type":"int","value":148},{"name":"next","type":"int","value":284},{"name":"prev","type":"int","value":282}],"polyline":[{"x":0,"y":0},{"x":19,"y":-1}]},{"id":1098,"x":-20,"y":148,"visible":true,"properties":[{"name":"layer","type":"int","value":1},{"name":"group","type":"int","value":61},{"name":"id","type":"int","value":284},{"name":"fh_layer","type":"int","value":1},{"name":"fh_group","type":"int","value":61},{"name":"fh_id","type":"int","value":284},{"name":"x1","type":"int","value":-20},{"name":"x2","type":"int","value":12},{"name":"y1","type":"int","value":148},{"name":"y2","type":"int","value":154},{"name":"next","type":"int","value":285},{"name":"prev","type":"int","value":283}],"polyline":[{"x":0,"y":0},{"x":32,"y":6}]},{"id":1099,"x":12,"y":154,"visible":true,"properties":[{"name":"layer","type":"int","value":1},{"name":"group","type":"int","value":61},{"name":"id","type":"int","value":285},{"name":"fh_layer","type":"int","value":1},{"name":"fh_group","type":"int","value":61},{"name":"fh_id","type":"int","value":285},{"name":"x1","type":"int","value":12},{"name":"x2","type":"int","value":33},{"name":"y1","type":"int","value":154},{"name":"y2","type":"int","value":169},{"name":"next","type":"int","value":286},{"name":"prev","type":"int","value":284}],"polyline":[{"x":0,"y":0},{"x":21,"y":15}]},{"id":1100,"x":33,"y":169,"visible":true,"properties":[{"name":"layer","type":"int","value":1},{"name":"group","type":"int","value":61},{"name":"id","type":"int","value":286},{"name":"fh_layer","type":"int","value":1},{"name":"fh_group","type":"int","value":61},{"name":"fh_id","type":"int","value":286},{"name":"x1","type":"int","value":33},{"name":"x2","type":"int","value":53},{"name":"y1","type":"int","value":169},{"name":"y2","type":"int","value":172},{"name":"next","type":"int","value":287},{"name":"prev","type":"int","value":285}],"polyline":[{"x":0,"y":0},{"x":20,"y":3}]},{"id":1101,"x":53,"y":172,"visible":true,"properties":[{"name":"layer","type":"int","value":1},{"name":"group","type":"int","value":61},{"name":"id","type":"int","value":287},{"name":"fh_layer","type":"int","value":1},{"name":"fh_group","type":"int","value":61},{"name":"fh_id","type":"int","value":287},{"name":"x1","type":"int","value":53},{"name":"x2","type":"int","value":64},{"name":"y1","type":"int","value":172},{"name":"y2","type":"int","value":182},{"name":"next","type":"int","value":288},{"name":"prev","type":"int","value":286}],"polyline":[{"x":0,"y":0},{"x":11,"y":10}]},{"id":1102,"x":64,"y":182,"visible":true,"properties":[{"name":"layer","type":"int","value":1},{"name":"group","type":"int","value":61},{"name":"id","type":"int","value":288},{"name":"fh_layer","type":"int","value":1},{"name":"fh_group","type":"int","value":61},{"name":"fh_id","type":"int","value":288},{"name":"x1","type":"int","value":64},{"name":"x2","type":"int","value":69},{"name":"y1","type":"int","value":182},{"name":"y2","type":"int","value":179},{"name":"next","type":"int","value":280},{"name":"prev","type":"int","value":287}],"polyline":[{"x":0,"y":0},{"x":5,"y":-3}]},{"id":1103,"x":-334,"y":54,"visible":true,"properties":[{"name":"layer","type":"int","value":1},{"name":"group","type":"int","value":62},{"name":"id","type":"int","value":826},{"name":"fh_layer","type":"int","value":1},{"name":"fh_group","type":"int","value":62},{"name":"fh_id","type":"int","value":826},{"name":"x1","type":"int","value":-334},{"name":"x2","type":"int","value":-288},{"name":"y1","type":"int","value":54},{"name":"y2","type":"int","value":76},{"name":"next","type":"int","value":0},{"name":"prev","type":"int","value":832}],"polyline":[{"x":0,"y":0},{"x":46,"y":22}]},{"id":1104,"x":-477,"y":26,"visible":true,"properties":[{"name":"layer","type":"int","value":1},{"name":"group","type":"int","value":62},{"name":"id","type":"int","value":827},{"name":"fh_layer","type":"int","value":1},{"name":"fh_group","type":"int","value":62},{"name":"fh_id","type":"int","value":827},{"name":"x1","type":"int","value":-477},{"name":"x2","type":"int","value":-458},{"name":"y1","type":"int","value":26},{"name":"y2","type":"int","value":25},{"name":"next","type":"int","value":828},{"name":"prev","type":"int","value":835}],"polyline":[{"x":0,"y":0},{"x":19,"y":-1}]},{"id":1105,"x":-458,"y":25,"visible":true,"properties":[{"name":"layer","type":"int","value":1},{"name":"group","type":"int","value":62},{"name":"id","type":"int","value":828},{"name":"fh_layer","type":"int","value":1},{"name":"fh_group","type":"int","value":62},{"name":"fh_id","type":"int","value":828},{"name":"x1","type":"int","value":-458},{"name":"x2","type":"int","value":-426},{"name":"y1","type":"int","value":25},{"name":"y2","type":"int","value":31},{"name":"next","type":"int","value":829},{"name":"prev","type":"int","value":827}],"polyline":[{"x":0,"y":0},{"x":32,"y":6}]},{"id":1106,"x":-426,"y":31,"visible":true,"properties":[{"name":"layer","type":"int","value":1},{"name":"group","type":"int","value":62},{"name":"id","type":"int","value":829},{"name":"fh_layer","type":"int","value":1},{"name":"fh_group","type":"int","value":62},{"name":"fh_id","type":"int","value":829},{"name":"x1","type":"int","value":-426},{"name":"x2","type":"int","value":-405},{"name":"y1","type":"int","value":31},{"name":"y2","type":"int","value":46},{"name":"next","type":"int","value":830},{"name":"prev","type":"int","value":828}],"polyline":[{"x":0,"y":0},{"x":21,"y":15}]},{"id":1107,"x":-405,"y":46,"visible":true,"properties":[{"name":"layer","type":"int","value":1},{"name":"group","type":"int","value":62},{"name":"id","type":"int","value":830},{"name":"fh_layer","type":"int","value":1},{"name":"fh_group","type":"int","value":62},{"name":"fh_id","type":"int","value":830},{"name":"x1","type":"int","value":-405},{"name":"x2","type":"int","value":-385},{"name":"y1","type":"int","value":46},{"name":"y2","type":"int","value":49},{"name":"next","type":"int","value":831},{"name":"prev","type":"int","value":829}],"polyline":[{"x":0,"y":0},{"x":20,"y":3}]},{"id":1108,"x":-385,"y":49,"visible":true,"properties":[{"name":"layer","type":"int","value":1},{"name":"group","type":"int","value":62},{"name":"id","type":"int","value":831},{"name":"fh_layer","type":"int","value":1},{"name":"fh_group","type":"int","value":62},{"name":"fh_id","type":"int","value":831},{"name":"x1","type":"int","value":-385},{"name":"x2","type":"int","value":-383},{"name":"y1","type":"int","value":49},{"name":"y2","type":"int","value":50},{"name":"next","type":"int","value":832},{"name":"prev","type":"int","value":830}],"polyline":[{"x":0,"y":0},{"x":2,"y":1}]},{"id":1109,"x":-383,"y":50,"visible":true,"properties":[{"name":"layer","type":"int","value":1},{"name":"group","type":"int","value":62},{"name":"id","type":"int","value":832},{"name":"fh_layer","type":"int","value":1},{"name":"fh_group","type":"int","value":62},{"name":"fh_id","type":"int","value":832},{"name":"x1","type":"int","value":-383},{"name":"x2","type":"int","value":-334},{"name":"y1","type":"int","value":50},{"name":"y2","type":"int","value":54},{"name":"next","type":"int","value":826},{"name":"prev","type":"int","value":831}],"polyline":[{"x":0,"y":0},{"x":49,"y":4}]},{"id":1110,"x":-591,"y":-6,"visible":true,"properties":[{"name":"layer","type":"int","value":1},{"name":"group","type":"int","value":62},{"name":"id","type":"int","value":833},{"name":"fh_layer","type":"int","value":1},{"name":"fh_group","type":"int","value":62},{"name":"fh_id","type":"int","value":833},{"name":"x1","type":"int","value":-591},{"name":"x2","type":"int","value":-537},{"name":"y1","type":"int","value":-6},{"name":"y2","type":"int","value":3},{"name":"next","type":"int","value":834},{"name":"prev","type":"int","value":838}],"polyline":[{"x":0,"y":0},{"x":54,"y":9}]},{"id":1111,"x":-537,"y":3,"visible":true,"properties":[{"name":"layer","type":"int","value":1},{"name":"group","type":"int","value":62},{"name":"id","type":"int","value":834},{"name":"fh_layer","type":"int","value":1},{"name":"fh_group","type":"int","value":62},{"name":"fh_id","type":"int","value":834},{"name":"x1","type":"int","value":-537},{"name":"x2","type":"int","value":-498},{"name":"y1","type":"int","value":3},{"name":"y2","type":"int","value":18},{"name":"next","type":"int","value":835},{"name":"prev","type":"int","value":833}],"polyline":[{"x":0,"y":0},{"x":39,"y":15}]},{"id":1112,"x":-498,"y":18,"visible":true,"properties":[{"name":"layer","type":"int","value":1},{"name":"group","type":"int","value":62},{"name":"id","type":"int","value":835},{"name":"fh_layer","type":"int","value":1},{"name":"fh_group","type":"int","value":62},{"name":"fh_id","type":"int","value":835},{"name":"x1","type":"int","value":-498},{"name":"x2","type":"int","value":-477},{"name":"y1","type":"int","value":18},{"name":"y2","type":"int","value":26},{"name":"next","type":"int","value":827},{"name":"prev","type":"int","value":834}],"polyline":[{"x":0,"y":0},{"x":21,"y":8}]},{"id":1113,"x":-685,"y":-20,"visible":true,"properties":[{"name":"layer","type":"int","value":1},{"name":"group","type":"int","value":62},{"name":"id","type":"int","value":836},{"name":"fh_layer","type":"int","value":1},{"name":"fh_group","type":"int","value":62},{"name":"fh_id","type":"int","value":836},{"name":"x1","type":"int","value":-685},{"name":"x2","type":"int","value":-632},{"name":"y1","type":"int","value":-20},{"name":"y2","type":"int","value":-16},{"name":"next","type":"int","value":837},{"name":"prev","type":"int","value":841}],"polyline":[{"x":0,"y":0},{"x":53,"y":4}]},{"id":1114,"x":-632,"y":-16,"visible":true,"properties":[{"name":"layer","type":"int","value":1},{"name":"group","type":"int","value":62},{"name":"id","type":"int","value":837},{"name":"fh_layer","type":"int","value":1},{"name":"fh_group","type":"int","value":62},{"name":"fh_id","type":"int","value":837},{"name":"x1","type":"int","value":-632},{"name":"x2","type":"int","value":-603},{"name":"y1","type":"int","value":-16},{"name":"y2","type":"int","value":-2},{"name":"next","type":"int","value":838},{"name":"prev","type":"int","value":836}],"polyline":[{"x":0,"y":0},{"x":29,"y":14}]},{"id":1115,"x":-603,"y":-2,"visible":true,"properties":[{"name":"layer","type":"int","value":1},{"name":"group","type":"int","value":62},{"name":"id","type":"int","value":838},{"name":"fh_layer","type":"int","value":1},{"name":"fh_group","type":"int","value":62},{"name":"fh_id","type":"int","value":838},{"name":"x1","type":"int","value":-603},{"name":"x2","type":"int","value":-591},{"name":"y1","type":"int","value":-2},{"name":"y2","type":"int","value":-6},{"name":"next","type":"int","value":833},{"name":"prev","type":"int","value":837}],"polyline":[{"x":0,"y":0},{"x":12,"y":-4}]},{"id":1116,"x":-759,"y":-18,"visible":true,"properties":[{"name":"layer","type":"int","value":1},{"name":"group","type":"int","value":62},{"name":"id","type":"int","value":839},{"name":"fh_layer","type":"int","value":1},{"name":"fh_group","type":"int","value":62},{"name":"fh_id","type":"int","value":839},{"name":"x1","type":"int","value":-759},{"name":"x2","type":"int","value":-715},{"name":"y1","type":"int","value":-18},{"name":"y2","type":"int","value":-19},{"name":"next","type":"int","value":840},{"name":"prev","type":"int","value":850}],"polyline":[{"x":0,"y":0},{"x":44,"y":-1}]},{"id":1117,"x":-715,"y":-19,"visible":true,"properties":[{"name":"layer","type":"int","value":1},{"name":"group","type":"int","value":62},{"name":"id","type":"int","value":840},{"name":"fh_layer","type":"int","value":1},{"name":"fh_group","type":"int","value":62},{"name":"fh_id","type":"int","value":840},{"name":"x1","type":"int","value":-715},{"name":"x2","type":"int","value":-696},{"name":"y1","type":"int","value":-19},{"name":"y2","type":"int","value":-15},{"name":"next","type":"int","value":841},{"name":"prev","type":"int","value":839}],"polyline":[{"x":0,"y":0},{"x":19,"y":4}]},{"id":1118,"x":-696,"y":-15,"visible":true,"properties":[{"name":"layer","type":"int","value":1},{"name":"group","type":"int","value":62},{"name":"id","type":"int","value":841},{"name":"fh_layer","type":"int","value":1},{"name":"fh_group","type":"int","value":62},{"name":"fh_id","type":"int","value":841},{"name":"x1","type":"int","value":-696},{"name":"x2","type":"int","value":-685},{"name":"y1","type":"int","value":-15},{"name":"y2","type":"int","value":-20},{"name":"next","type":"int","value":836},{"name":"prev","type":"int","value":840}],"polyline":[{"x":0,"y":0},{"x":11,"y":-5}]},{"id":1119,"x":-905,"y":0,"visible":true,"properties":[{"name":"layer","type":"int","value":1},{"name":"group","type":"int","value":62},{"name":"id","type":"int","value":842},{"name":"fh_layer","type":"int","value":1},{"name":"fh_group","type":"int","value":62},{"name":"fh_id","type":"int","value":842},{"name":"x1","type":"int","value":-905},{"name":"x2","type":"int","value":-893},{"name":"y1","type":"int","value":0},{"name":"y2","type":"int","value":-8},{"name":"next","type":"int","value":843},{"name":"prev","type":"int","value":0}],"polyline":[{"x":0,"y":0},{"x":12,"y":-8}]},{"id":1120,"x":-893,"y":-8,"visible":true,"properties":[{"name":"layer","type":"int","value":1},{"name":"group","type":"int","value":62},{"name":"id","type":"int","value":843},{"name":"fh_layer","type":"int","value":1},{"name":"fh_group","type":"int","value":62},{"name":"fh_id","type":"int","value":843},{"name":"x1","type":"int","value":-893},{"name":"x2","type":"int","value":-876},{"name":"y1","type":"int","value":-8},{"name":"y2","type":"int","value":-8},{"name":"next","type":"int","value":844},{"name":"prev","type":"int","value":842}],"polyline":[{"x":0,"y":0},{"x":17,"y":0}]},{"id":1121,"x":-876,"y":-8,"visible":true,"properties":[{"name":"layer","type":"int","value":1},{"name":"group","type":"int","value":62},{"name":"id","type":"int","value":844},{"name":"fh_layer","type":"int","value":1},{"name":"fh_group","type":"int","value":62},{"name":"fh_id","type":"int","value":844},{"name":"x1","type":"int","value":-876},{"name":"x2","type":"int","value":-869},{"name":"y1","type":"int","value":-8},{"name":"y2","type":"int","value":-13},{"name":"next","type":"int","value":845},{"name":"prev","type":"int","value":843}],"polyline":[{"x":0,"y":0},{"x":7,"y":-5}]},{"id":1122,"x":-869,"y":-13,"visible":true,"properties":[{"name":"layer","type":"int","value":1},{"name":"group","type":"int","value":62},{"name":"id","type":"int","value":845},{"name":"fh_layer","type":"int","value":1},{"name":"fh_group","type":"int","value":62},{"name":"fh_id","type":"int","value":845},{"name":"x1","type":"int","value":-869},{"name":"x2","type":"int","value":-846},{"name":"y1","type":"int","value":-13},{"name":"y2","type":"int","value":-12},{"name":"next","type":"int","value":846},{"name":"prev","type":"int","value":844}],"polyline":[{"x":0,"y":0},{"x":23,"y":1}]},{"id":1123,"x":-846,"y":-12,"visible":true,"properties":[{"name":"layer","type":"int","value":1},{"name":"group","type":"int","value":62},{"name":"id","type":"int","value":846},{"name":"fh_layer","type":"int","value":1},{"name":"fh_group","type":"int","value":62},{"name":"fh_id","type":"int","value":846},{"name":"x1","type":"int","value":-846},{"name":"x2","type":"int","value":-837},{"name":"y1","type":"int","value":-12},{"name":"y2","type":"int","value":-15},{"name":"next","type":"int","value":847},{"name":"prev","type":"int","value":845}],"polyline":[{"x":0,"y":0},{"x":9,"y":-3}]},{"id":1124,"x":-837,"y":-15,"visible":true,"properties":[{"name":"layer","type":"int","value":1},{"name":"group","type":"int","value":62},{"name":"id","type":"int","value":847},{"name":"fh_layer","type":"int","value":1},{"name":"fh_group","type":"int","value":62},{"name":"fh_id","type":"int","value":847},{"name":"x1","type":"int","value":-837},{"name":"x2","type":"int","value":-795},{"name":"y1","type":"int","value":-15},{"name":"y2","type":"int","value":-13},{"name":"next","type":"int","value":848},{"name":"prev","type":"int","value":846}],"polyline":[{"x":0,"y":0},{"x":42,"y":2}]},{"id":1125,"x":-795,"y":-13,"visible":true,"properties":[{"name":"layer","type":"int","value":1},{"name":"group","type":"int","value":62},{"name":"id","type":"int","value":848},{"name":"fh_layer","type":"int","value":1},{"name":"fh_group","type":"int","value":62},{"name":"fh_id","type":"int","value":848},{"name":"x1","type":"int","value":-795},{"name":"x2","type":"int","value":-787},{"name":"y1","type":"int","value":-13},{"name":"y2","type":"int","value":-16},{"name":"next","type":"int","value":849},{"name":"prev","type":"int","value":847}],"polyline":[{"x":0,"y":0},{"x":8,"y":-3}]},{"id":1126,"x":-787,"y":-16,"visible":true,"properties":[{"name":"layer","type":"int","value":1},{"name":"group","type":"int","value":62},{"name":"id","type":"int","value":849},{"name":"fh_layer","type":"int","value":1},{"name":"fh_group","type":"int","value":62},{"name":"fh_id","type":"int","value":849},{"name":"x1","type":"int","value":-787},{"name":"x2","type":"int","value":-772},{"name":"y1","type":"int","value":-16},{"name":"y2","type":"int","value":-13},{"name":"next","type":"int","value":850},{"name":"prev","type":"int","value":848}],"polyline":[{"x":0,"y":0},{"x":15,"y":3}]},{"id":1127,"x":-772,"y":-13,"visible":true,"properties":[{"name":"layer","type":"int","value":1},{"name":"group","type":"int","value":62},{"name":"id","type":"int","value":850},{"name":"fh_layer","type":"int","value":1},{"name":"fh_group","type":"int","value":62},{"name":"fh_id","type":"int","value":850},{"name":"x1","type":"int","value":-772},{"name":"x2","type":"int","value":-759},{"name":"y1","type":"int","value":-13},{"name":"y2","type":"int","value":-18},{"name":"next","type":"int","value":839},{"name":"prev","type":"int","value":849}],"polyline":[{"x":0,"y":0},{"x":13,"y":-5}]},{"id":1128,"x":-598,"y":166,"visible":true,"properties":[{"name":"layer","type":"int","value":1},{"name":"group","type":"int","value":62},{"name":"id","type":"int","value":851},{"name":"fh_layer","type":"int","value":1},{"name":"fh_group","type":"int","value":62},{"name":"fh_id","type":"int","value":851},{"name":"x1","type":"int","value":-598},{"name":"x2","type":"int","value":-543},{"name":"y1","type":"int","value":166},{"name":"y2","type":"int","value":166},{"name":"next","type":"int","value":852},{"name":"prev","type":"int","value":860}],"polyline":[{"x":0,"y":0},{"x":55,"y":0}]},{"id":1129,"x":-543,"y":166,"visible":true,"properties":[{"name":"layer","type":"int","value":1},{"name":"group","type":"int","value":62},{"name":"id","type":"int","value":852},{"name":"fh_layer","type":"int","value":1},{"name":"fh_group","type":"int","value":62},{"name":"fh_id","type":"int","value":852},{"name":"x1","type":"int","value":-543},{"name":"x2","type":"int","value":-527},{"name":"y1","type":"int","value":166},{"name":"y2","type":"int","value":162},{"name":"next","type":"int","value":853},{"name":"prev","type":"int","value":851}],"polyline":[{"x":0,"y":0},{"x":16,"y":-4}]},{"id":1130,"x":-527,"y":162,"visible":true,"properties":[{"name":"layer","type":"int","value":1},{"name":"group","type":"int","value":62},{"name":"id","type":"int","value":853},{"name":"fh_layer","type":"int","value":1},{"name":"fh_group","type":"int","value":62},{"name":"fh_id","type":"int","value":853},{"name":"x1","type":"int","value":-527},{"name":"x2","type":"int","value":-475},{"name":"y1","type":"int","value":162},{"name":"y2","type":"int","value":162},{"name":"next","type":"int","value":854},{"name":"prev","type":"int","value":852}],"polyline":[{"x":0,"y":0},{"x":52,"y":0}]},{"id":1131,"x":-475,"y":162,"visible":true,"properties":[{"name":"layer","type":"int","value":1},{"name":"group","type":"int","value":62},{"name":"id","type":"int","value":854},{"name":"fh_layer","type":"int","value":1},{"name":"fh_group","type":"int","value":62},{"name":"fh_id","type":"int","value":854},{"name":"x1","type":"int","value":-475},{"name":"x2","type":"int","value":-465},{"name":"y1","type":"int","value":162},{"name":"y2","type":"int","value":157},{"name":"next","type":"int","value":855},{"name":"prev","type":"int","value":853}],"polyline":[{"x":0,"y":0},{"x":10,"y":-5}]},{"id":1132,"x":-465,"y":157,"visible":true,"properties":[{"name":"layer","type":"int","value":1},{"name":"group","type":"int","value":62},{"name":"id","type":"int","value":855},{"name":"fh_layer","type":"int","value":1},{"name":"fh_group","type":"int","value":62},{"name":"fh_id","type":"int","value":855},{"name":"x1","type":"int","value":-465},{"name":"x2","type":"int","value":-445},{"name":"y1","type":"int","value":157},{"name":"y2","type":"int","value":159},{"name":"next","type":"int","value":856},{"name":"prev","type":"int","value":854}],"polyline":[{"x":0,"y":0},{"x":20,"y":2}]},{"id":1133,"x":-445,"y":159,"visible":true,"properties":[{"name":"layer","type":"int","value":1},{"name":"group","type":"int","value":62},{"name":"id","type":"int","value":856},{"name":"fh_layer","type":"int","value":1},{"name":"fh_group","type":"int","value":62},{"name":"fh_id","type":"int","value":856},{"name":"x1","type":"int","value":-445},{"name":"x2","type":"int","value":-430},{"name":"y1","type":"int","value":159},{"name":"y2","type":"int","value":165},{"name":"next","type":"int","value":0},{"name":"prev","type":"int","value":855}],"polyline":[{"x":0,"y":0},{"x":15,"y":6}]},{"id":1134,"x":-405,"y":140,"visible":true,"properties":[{"name":"layer","type":"int","value":1},{"name":"group","type":"int","value":62},{"name":"id","type":"int","value":857},{"name":"fh_layer","type":"int","value":1},{"name":"fh_group","type":"int","value":62},{"name":"fh_id","type":"int","value":857},{"name":"x1","type":"int","value":-405},{"name":"x2","type":"int","value":-387},{"name":"y1","type":"int","value":140},{"name":"y2","type":"int","value":133},{"name":"next","type":"int","value":858},{"name":"prev","type":"int","value":0}],"polyline":[{"x":0,"y":0},{"x":18,"y":-7}]},{"id":1135,"x":-387,"y":133,"visible":true,"properties":[{"name":"layer","type":"int","value":1},{"name":"group","type":"int","value":62},{"name":"id","type":"int","value":858},{"name":"fh_layer","type":"int","value":1},{"name":"fh_group","type":"int","value":62},{"name":"fh_id","type":"int","value":858},{"name":"x1","type":"int","value":-387},{"name":"x2","type":"int","value":-357},{"name":"y1","type":"int","value":133},{"name":"y2","type":"int","value":131},{"name":"next","type":"int","value":859},{"name":"prev","type":"int","value":857}],"polyline":[{"x":0,"y":0},{"x":30,"y":-2}]},{"id":1136,"x":-357,"y":131,"visible":true,"properties":[{"name":"layer","type":"int","value":1},{"name":"group","type":"int","value":62},{"name":"id","type":"int","value":859},{"name":"fh_layer","type":"int","value":1},{"name":"fh_group","type":"int","value":62},{"name":"fh_id","type":"int","value":859},{"name":"x1","type":"int","value":-357},{"name":"x2","type":"int","value":-340},{"name":"y1","type":"int","value":131},{"name":"y2","type":"int","value":135},{"name":"next","type":"int","value":0},{"name":"prev","type":"int","value":858}],"polyline":[{"x":0,"y":0},{"x":17,"y":4}]},{"id":1137,"x":-607,"y":173,"visible":true,"properties":[{"name":"layer","type":"int","value":1},{"name":"group","type":"int","value":62},{"name":"id","type":"int","value":860},{"name":"fh_layer","type":"int","value":1},{"name":"fh_group","type":"int","value":62},{"name":"fh_id","type":"int","value":860},{"name":"x1","type":"int","value":-607},{"name":"x2","type":"int","value":-598},{"name":"y1","type":"int","value":173},{"name":"y2","type":"int","value":166},{"name":"next","type":"int","value":851},{"name":"prev","type":"int","value":521}],"polyline":[{"x":0,"y":0},{"x":9,"y":-7}]},{"id":1138,"x":-250,"y":37,"visible":true,"properties":[{"name":"layer","type":"int","value":1},{"name":"group","type":"int","value":64},{"name":"id","type":"int","value":819},{"name":"fh_layer","type":"int","value":1},{"name":"fh_group","type":"int","value":64},{"name":"fh_id","type":"int","value":819},{"name":"x1","type":"int","value":-250},{"name":"x2","type":"int","value":-225},{"name":"y1","type":"int","value":37},{"name":"y2","type":"int","value":20},{"name":"next","type":"int","value":820},{"name":"prev","type":"int","value":0}],"polyline":[{"x":0,"y":0},{"x":25,"y":-17}]},{"id":1139,"x":-225,"y":20,"visible":true,"properties":[{"name":"layer","type":"int","value":1},{"name":"group","type":"int","value":64},{"name":"id","type":"int","value":820},{"name":"fh_layer","type":"int","value":1},{"name":"fh_group","type":"int","value":64},{"name":"fh_id","type":"int","value":820},{"name":"x1","type":"int","value":-225},{"name":"x2","type":"int","value":-170},{"name":"y1","type":"int","value":20},{"name":"y2","type":"int","value":20},{"name":"next","type":"int","value":821},{"name":"prev","type":"int","value":819}],"polyline":[{"x":0,"y":0},{"x":55,"y":0}]},{"id":1140,"x":-170,"y":20,"visible":true,"properties":[{"name":"layer","type":"int","value":1},{"name":"group","type":"int","value":64},{"name":"id","type":"int","value":821},{"name":"fh_layer","type":"int","value":1},{"name":"fh_group","type":"int","value":64},{"name":"fh_id","type":"int","value":821},{"name":"x1","type":"int","value":-170},{"name":"x2","type":"int","value":-154},{"name":"y1","type":"int","value":20},{"name":"y2","type":"int","value":16},{"name":"next","type":"int","value":822},{"name":"prev","type":"int","value":820}],"polyline":[{"x":0,"y":0},{"x":16,"y":-4}]},{"id":1141,"x":-154,"y":16,"visible":true,"properties":[{"name":"layer","type":"int","value":1},{"name":"group","type":"int","value":64},{"name":"id","type":"int","value":822},{"name":"fh_layer","type":"int","value":1},{"name":"fh_group","type":"int","value":64},{"name":"fh_id","type":"int","value":822},{"name":"x1","type":"int","value":-154},{"name":"x2","type":"int","value":-132},{"name":"y1","type":"int","value":16},{"name":"y2","type":"int","value":16},{"name":"next","type":"int","value":811},{"name":"prev","type":"int","value":821}],"polyline":[{"x":0,"y":0},{"x":22,"y":0}]},{"id":1142,"x":-303,"y":117,"visible":true,"properties":[{"name":"layer","type":"int","value":1},{"name":"group","type":"int","value":64},{"name":"id","type":"int","value":823},{"name":"fh_layer","type":"int","value":1},{"name":"fh_group","type":"int","value":64},{"name":"fh_id","type":"int","value":823},{"name":"x1","type":"int","value":-303},{"name":"x2","type":"int","value":-285},{"name":"y1","type":"int","value":117},{"name":"y2","type":"int","value":110},{"name":"next","type":"int","value":824},{"name":"prev","type":"int","value":0}],"polyline":[{"x":0,"y":0},{"x":18,"y":-7}]},{"id":1143,"x":-285,"y":110,"visible":true,"properties":[{"name":"layer","type":"int","value":1},{"name":"group","type":"int","value":64},{"name":"id","type":"int","value":824},{"name":"fh_layer","type":"int","value":1},{"name":"fh_group","type":"int","value":64},{"name":"fh_id","type":"int","value":824},{"name":"x1","type":"int","value":-285},{"name":"x2","type":"int","value":-255},{"name":"y1","type":"int","value":110},{"name":"y2","type":"int","value":108},{"name":"next","type":"int","value":825},{"name":"prev","type":"int","value":823}],"polyline":[{"x":0,"y":0},{"x":30,"y":-2}]},{"id":1144,"x":-255,"y":108,"visible":true,"properties":[{"name":"layer","type":"int","value":1},{"name":"group","type":"int","value":64},{"name":"id","type":"int","value":825},{"name":"fh_layer","type":"int","value":1},{"name":"fh_group","type":"int","value":64},{"name":"fh_id","type":"int","value":825},{"name":"x1","type":"int","value":-255},{"name":"x2","type":"int","value":-238},{"name":"y1","type":"int","value":108},{"name":"y2","type":"int","value":112},{"name":"next","type":"int","value":0},{"name":"prev","type":"int","value":824}],"polyline":[{"x":0,"y":0},{"x":17,"y":4}]},{"id":1145,"x":486,"y":-95,"visible":true,"properties":[{"name":"layer","type":"int","value":1},{"name":"group","type":"int","value":66},{"name":"id","type":"int","value":751},{"name":"fh_layer","type":"int","value":1},{"name":"fh_group","type":"int","value":66},{"name":"fh_id","type":"int","value":751},{"name":"x1","type":"int","value":486},{"name":"x2","type":"int","value":550},{"name":"y1","type":"int","value":-95},{"name":"y2","type":"int","value":-91},{"name":"next","type":"int","value":752},{"name":"prev","type":"int","value":0}],"polyline":[{"x":0,"y":0},{"x":64,"y":4}]},{"id":1146,"x":550,"y":-91,"visible":true,"properties":[{"name":"layer","type":"int","value":1},{"name":"group","type":"int","value":66},{"name":"id","type":"int","value":752},{"name":"fh_layer","type":"int","value":1},{"name":"fh_group","type":"int","value":66},{"name":"fh_id","type":"int","value":752},{"name":"x1","type":"int","value":550},{"name":"x2","type":"int","value":592},{"name":"y1","type":"int","value":-91},{"name":"y2","type":"int","value":-94},{"name":"next","type":"int","value":762},{"name":"prev","type":"int","value":751}],"polyline":[{"x":0,"y":0},{"x":42,"y":-3}]},{"id":1147,"x":161,"y":-70,"visible":true,"properties":[{"name":"layer","type":"int","value":1},{"name":"group","type":"int","value":66},{"name":"id","type":"int","value":753},{"name":"fh_layer","type":"int","value":1},{"name":"fh_group","type":"int","value":66},{"name":"fh_id","type":"int","value":753},{"name":"x1","type":"int","value":161},{"name":"x2","type":"int","value":186},{"name":"y1","type":"int","value":-70},{"name":"y2","type":"int","value":-86},{"name":"next","type":"int","value":754},{"name":"prev","type":"int","value":0}],"polyline":[{"x":0,"y":0},{"x":25,"y":-16}]},{"id":1148,"x":186,"y":-86,"visible":true,"properties":[{"name":"layer","type":"int","value":1},{"name":"group","type":"int","value":66},{"name":"id","type":"int","value":754},{"name":"fh_layer","type":"int","value":1},{"name":"fh_group","type":"int","value":66},{"name":"fh_id","type":"int","value":754},{"name":"x1","type":"int","value":186},{"name":"x2","type":"int","value":239},{"name":"y1","type":"int","value":-86},{"name":"y2","type":"int","value":-85},{"name":"next","type":"int","value":755},{"name":"prev","type":"int","value":753}],"polyline":[{"x":0,"y":0},{"x":53,"y":1}]},{"id":1149,"x":239,"y":-85,"visible":true,"properties":[{"name":"layer","type":"int","value":1},{"name":"group","type":"int","value":66},{"name":"id","type":"int","value":755},{"name":"fh_layer","type":"int","value":1},{"name":"fh_group","type":"int","value":66},{"name":"fh_id","type":"int","value":755},{"name":"x1","type":"int","value":239},{"name":"x2","type":"int","value":276},{"name":"y1","type":"int","value":-85},{"name":"y2","type":"int","value":-92},{"name":"next","type":"int","value":756},{"name":"prev","type":"int","value":754}],"polyline":[{"x":0,"y":0},{"x":37,"y":-7}]},{"id":1150,"x":276,"y":-92,"visible":true,"properties":[{"name":"layer","type":"int","value":1},{"name":"group","type":"int","value":66},{"name":"id","type":"int","value":756},{"name":"fh_layer","type":"int","value":1},{"name":"fh_group","type":"int","value":66},{"name":"fh_id","type":"int","value":756},{"name":"x1","type":"int","value":276},{"name":"x2","type":"int","value":309},{"name":"y1","type":"int","value":-92},{"name":"y2","type":"int","value":-90},{"name":"next","type":"int","value":757},{"name":"prev","type":"int","value":755}],"polyline":[{"x":0,"y":0},{"x":33,"y":2}]},{"id":1151,"x":309,"y":-90,"visible":true,"properties":[{"name":"layer","type":"int","value":1},{"name":"group","type":"int","value":66},{"name":"id","type":"int","value":757},{"name":"fh_layer","type":"int","value":1},{"name":"fh_group","type":"int","value":66},{"name":"fh_id","type":"int","value":757},{"name":"x1","type":"int","value":309},{"name":"x2","type":"int","value":321},{"name":"y1","type":"int","value":-90},{"name":"y2","type":"int","value":-93},{"name":"next","type":"int","value":758},{"name":"prev","type":"int","value":756}],"polyline":[{"x":0,"y":0},{"x":12,"y":-3}]},{"id":1152,"x":321,"y":-93,"visible":true,"properties":[{"name":"layer","type":"int","value":1},{"name":"group","type":"int","value":66},{"name":"id","type":"int","value":758},{"name":"fh_layer","type":"int","value":1},{"name":"fh_group","type":"int","value":66},{"name":"fh_id","type":"int","value":758},{"name":"x1","type":"int","value":321},{"name":"x2","type":"int","value":336},{"name":"y1","type":"int","value":-93},{"name":"y2","type":"int","value":-93},{"name":"next","type":"int","value":759},{"name":"prev","type":"int","value":757}],"polyline":[{"x":0,"y":0},{"x":15,"y":0}]},{"id":1153,"x":336,"y":-93,"visible":true,"properties":[{"name":"layer","type":"int","value":1},{"name":"group","type":"int","value":66},{"name":"id","type":"int","value":759},{"name":"fh_layer","type":"int","value":1},{"name":"fh_group","type":"int","value":66},{"name":"fh_id","type":"int","value":759},{"name":"x1","type":"int","value":336},{"name":"x2","type":"int","value":357},{"name":"y1","type":"int","value":-93},{"name":"y2","type":"int","value":-98},{"name":"next","type":"int","value":760},{"name":"prev","type":"int","value":758}],"polyline":[{"x":0,"y":0},{"x":21,"y":-5}]},{"id":1154,"x":357,"y":-98,"visible":true,"properties":[{"name":"layer","type":"int","value":1},{"name":"group","type":"int","value":66},{"name":"id","type":"int","value":760},{"name":"fh_layer","type":"int","value":1},{"name":"fh_group","type":"int","value":66},{"name":"fh_id","type":"int","value":760},{"name":"x1","type":"int","value":357},{"name":"x2","type":"int","value":415},{"name":"y1","type":"int","value":-98},{"name":"y2","type":"int","value":-94},{"name":"next","type":"int","value":761},{"name":"prev","type":"int","value":759}],"polyline":[{"x":0,"y":0},{"x":58,"y":4}]},{"id":1155,"x":415,"y":-94,"visible":true,"properties":[{"name":"layer","type":"int","value":1},{"name":"group","type":"int","value":66},{"name":"id","type":"int","value":761},{"name":"fh_layer","type":"int","value":1},{"name":"fh_group","type":"int","value":66},{"name":"fh_id","type":"int","value":761},{"name":"x1","type":"int","value":415},{"name":"x2","type":"int","value":457},{"name":"y1","type":"int","value":-94},{"name":"y2","type":"int","value":-94},{"name":"next","type":"int","value":0},{"name":"prev","type":"int","value":760}],"polyline":[{"x":0,"y":0},{"x":42,"y":0}]},{"id":1156,"x":592,"y":-94,"visible":true,"properties":[{"name":"layer","type":"int","value":1},{"name":"group","type":"int","value":66},{"name":"id","type":"int","value":762},{"name":"fh_layer","type":"int","value":1},{"name":"fh_group","type":"int","value":66},{"name":"fh_id","type":"int","value":762},{"name":"x1","type":"int","value":592},{"name":"x2","type":"int","value":607},{"name":"y1","type":"int","value":-94},{"name":"y2","type":"int","value":-98},{"name":"next","type":"int","value":763},{"name":"prev","type":"int","value":752}],"polyline":[{"x":0,"y":0},{"x":15,"y":-4}]},{"id":1157,"x":607,"y":-98,"visible":true,"properties":[{"name":"layer","type":"int","value":1},{"name":"group","type":"int","value":66},{"name":"id","type":"int","value":763},{"name":"fh_layer","type":"int","value":1},{"name":"fh_group","type":"int","value":66},{"name":"fh_id","type":"int","value":763},{"name":"x1","type":"int","value":607},{"name":"x2","type":"int","value":661},{"name":"y1","type":"int","value":-98},{"name":"y2","type":"int","value":-89},{"name":"next","type":"int","value":764},{"name":"prev","type":"int","value":762}],"polyline":[{"x":0,"y":0},{"x":54,"y":9}]},{"id":1158,"x":661,"y":-89,"visible":true,"properties":[{"name":"layer","type":"int","value":1},{"name":"group","type":"int","value":66},{"name":"id","type":"int","value":764},{"name":"fh_layer","type":"int","value":1},{"name":"fh_group","type":"int","value":66},{"name":"fh_id","type":"int","value":764},{"name":"x1","type":"int","value":661},{"name":"x2","type":"int","value":699},{"name":"y1","type":"int","value":-89},{"name":"y2","type":"int","value":-74},{"name":"next","type":"int","value":765},{"name":"prev","type":"int","value":763}],"polyline":[{"x":0,"y":0},{"x":38,"y":15}]},{"id":1159,"x":699,"y":-74,"visible":true,"properties":[{"name":"layer","type":"int","value":1},{"name":"group","type":"int","value":66},{"name":"id","type":"int","value":765},{"name":"fh_layer","type":"int","value":1},{"name":"fh_group","type":"int","value":66},{"name":"fh_id","type":"int","value":765},{"name":"x1","type":"int","value":699},{"name":"x2","type":"int","value":722},{"name":"y1","type":"int","value":-74},{"name":"y2","type":"int","value":-46},{"name":"next","type":"int","value":766},{"name":"prev","type":"int","value":764}],"polyline":[{"x":0,"y":0},{"x":23,"y":28}]},{"id":1160,"x":722,"y":-46,"visible":true,"properties":[{"name":"layer","type":"int","value":1},{"name":"group","type":"int","value":66},{"name":"id","type":"int","value":766},{"name":"fh_layer","type":"int","value":1},{"name":"fh_group","type":"int","value":66},{"name":"fh_id","type":"int","value":766},{"name":"x1","type":"int","value":722},{"name":"x2","type":"int","value":748},{"name":"y1","type":"int","value":-46},{"name":"y2","type":"int","value":-28},{"name":"next","type":"int","value":767},{"name":"prev","type":"int","value":765}],"polyline":[{"x":0,"y":0},{"x":26,"y":18}]},{"id":1161,"x":748,"y":-28,"visible":true,"properties":[{"name":"layer","type":"int","value":1},{"name":"group","type":"int","value":66},{"name":"id","type":"int","value":767},{"name":"fh_layer","type":"int","value":1},{"name":"fh_group","type":"int","value":66},{"name":"fh_id","type":"int","value":767},{"name":"x1","type":"int","value":748},{"name":"x2","type":"int","value":758},{"name":"y1","type":"int","value":-28},{"name":"y2","type":"int","value":-18},{"name":"next","type":"int","value":768},{"name":"prev","type":"int","value":766}],"polyline":[{"x":0,"y":0},{"x":10,"y":10}]},{"id":1162,"x":758,"y":-18,"visible":true,"properties":[{"name":"layer","type":"int","value":1},{"name":"group","type":"int","value":66},{"name":"id","type":"int","value":768},{"name":"fh_layer","type":"int","value":1},{"name":"fh_group","type":"int","value":66},{"name":"fh_id","type":"int","value":768},{"name":"x1","type":"int","value":758},{"name":"x2","type":"int","value":781},{"name":"y1","type":"int","value":-18},{"name":"y2","type":"int","value":-7},{"name":"next","type":"int","value":769},{"name":"prev","type":"int","value":767}],"polyline":[{"x":0,"y":0},{"x":23,"y":11}]},{"id":1163,"x":781,"y":-7,"visible":true,"properties":[{"name":"layer","type":"int","value":1},{"name":"group","type":"int","value":66},{"name":"id","type":"int","value":769},{"name":"fh_layer","type":"int","value":1},{"name":"fh_group","type":"int","value":66},{"name":"fh_id","type":"int","value":769},{"name":"x1","type":"int","value":781},{"name":"x2","type":"int","value":803},{"name":"y1","type":"int","value":-7},{"name":"y2","type":"int","value":1},{"name":"next","type":"int","value":770},{"name":"prev","type":"int","value":768}],"polyline":[{"x":0,"y":0},{"x":22,"y":8}]},{"id":1164,"x":803,"y":1,"visible":true,"properties":[{"name":"layer","type":"int","value":1},{"name":"group","type":"int","value":66},{"name":"id","type":"int","value":770},{"name":"fh_layer","type":"int","value":1},{"name":"fh_group","type":"int","value":66},{"name":"fh_id","type":"int","value":770},{"name":"x1","type":"int","value":803},{"name":"x2","type":"int","value":828},{"name":"y1","type":"int","value":1},{"name":"y2","type":"int","value":9},{"name":"next","type":"int","value":771},{"name":"prev","type":"int","value":769}],"polyline":[{"x":0,"y":0},{"x":25,"y":8}]},{"id":1165,"x":828,"y":9,"visible":true,"properties":[{"name":"layer","type":"int","value":1},{"name":"group","type":"int","value":66},{"name":"id","type":"int","value":771},{"name":"fh_layer","type":"int","value":1},{"name":"fh_group","type":"int","value":66},{"name":"fh_id","type":"int","value":771},{"name":"x1","type":"int","value":828},{"name":"x2","type":"int","value":859},{"name":"y1","type":"int","value":9},{"name":"y2","type":"int","value":17},{"name":"next","type":"int","value":772},{"name":"prev","type":"int","value":770}],"polyline":[{"x":0,"y":0},{"x":31,"y":8}]},{"id":1166,"x":859,"y":17,"visible":true,"properties":[{"name":"layer","type":"int","value":1},{"name":"group","type":"int","value":66},{"name":"id","type":"int","value":772},{"name":"fh_layer","type":"int","value":1},{"name":"fh_group","type":"int","value":66},{"name":"fh_id","type":"int","value":772},{"name":"x1","type":"int","value":859},{"name":"x2","type":"int","value":870},{"name":"y1","type":"int","value":17},{"name":"y2","type":"int","value":19},{"name":"next","type":"int","value":773},{"name":"prev","type":"int","value":771}],"polyline":[{"x":0,"y":0},{"x":11,"y":2}]},{"id":1167,"x":870,"y":19,"visible":true,"properties":[{"name":"layer","type":"int","value":1},{"name":"group","type":"int","value":66},{"name":"id","type":"int","value":773},{"name":"fh_layer","type":"int","value":1},{"name":"fh_group","type":"int","value":66},{"name":"fh_id","type":"int","value":773},{"name":"x1","type":"int","value":870},{"name":"x2","type":"int","value":919},{"name":"y1","type":"int","value":19},{"name":"y2","type":"int","value":23},{"name":"next","type":"int","value":774},{"name":"prev","type":"int","value":772}],"polyline":[{"x":0,"y":0},{"x":49,"y":4}]},{"id":1168,"x":919,"y":23,"visible":true,"properties":[{"name":"layer","type":"int","value":1},{"name":"group","type":"int","value":66},{"name":"id","type":"int","value":774},{"name":"fh_layer","type":"int","value":1},{"name":"fh_group","type":"int","value":66},{"name":"fh_id","type":"int","value":774},{"name":"x1","type":"int","value":919},{"name":"x2","type":"int","value":954},{"name":"y1","type":"int","value":23},{"name":"y2","type":"int","value":39},{"name":"next","type":"int","value":775},{"name":"prev","type":"int","value":773}],"polyline":[{"x":0,"y":0},{"x":35,"y":16}]},{"id":1169,"x":954,"y":39,"visible":true,"properties":[{"name":"layer","type":"int","value":1},{"name":"group","type":"int","value":66},{"name":"id","type":"int","value":775},{"name":"fh_layer","type":"int","value":1},{"name":"fh_group","type":"int","value":66},{"name":"fh_id","type":"int","value":775},{"name":"x1","type":"int","value":954},{"name":"x2","type":"int","value":990},{"name":"y1","type":"int","value":39},{"name":"y2","type":"int","value":46},{"name":"next","type":"int","value":776},{"name":"prev","type":"int","value":774}],"polyline":[{"x":0,"y":0},{"x":36,"y":7}]},{"id":1170,"x":990,"y":46,"visible":true,"properties":[{"name":"layer","type":"int","value":1},{"name":"group","type":"int","value":66},{"name":"id","type":"int","value":776},{"name":"fh_layer","type":"int","value":1},{"name":"fh_group","type":"int","value":66},{"name":"fh_id","type":"int","value":776},{"name":"x1","type":"int","value":990},{"name":"x2","type":"int","value":1019},{"name":"y1","type":"int","value":46},{"name":"y2","type":"int","value":57},{"name":"next","type":"int","value":777},{"name":"prev","type":"int","value":775}],"polyline":[{"x":0,"y":0},{"x":29,"y":11}]},{"id":1171,"x":1019,"y":57,"visible":true,"properties":[{"name":"layer","type":"int","value":1},{"name":"group","type":"int","value":66},{"name":"id","type":"int","value":777},{"name":"fh_layer","type":"int","value":1},{"name":"fh_group","type":"int","value":66},{"name":"fh_id","type":"int","value":777},{"name":"x1","type":"int","value":1019},{"name":"x2","type":"int","value":1022},{"name":"y1","type":"int","value":57},{"name":"y2","type":"int","value":57},{"name":"next","type":"int","value":778},{"name":"prev","type":"int","value":776}],"polyline":[{"x":0,"y":0},{"x":3,"y":0}]},{"id":1172,"x":1022,"y":57,"visible":true,"properties":[{"name":"layer","type":"int","value":1},{"name":"group","type":"int","value":66},{"name":"id","type":"int","value":778},{"name":"fh_layer","type":"int","value":1},{"name":"fh_group","type":"int","value":66},{"name":"fh_id","type":"int","value":778},{"name":"x1","type":"int","value":1022},{"name":"x2","type":"int","value":1051},{"name":"y1","type":"int","value":57},{"name":"y2","type":"int","value":61},{"name":"next","type":"int","value":779},{"name":"prev","type":"int","value":777}],"polyline":[{"x":0,"y":0},{"x":29,"y":4}]},{"id":1173,"x":1051,"y":61,"visible":true,"properties":[{"name":"layer","type":"int","value":1},{"name":"group","type":"int","value":66},{"name":"id","type":"int","value":779},{"name":"fh_layer","type":"int","value":1},{"name":"fh_group","type":"int","value":66},{"name":"fh_id","type":"int","value":779},{"name":"x1","type":"int","value":1051},{"name":"x2","type":"int","value":1081},{"name":"y1","type":"int","value":61},{"name":"y2","type":"int","value":61},{"name":"next","type":"int","value":780},{"name":"prev","type":"int","value":778}],"polyline":[{"x":0,"y":0},{"x":30,"y":0}]},{"id":1174,"x":1081,"y":61,"visible":true,"properties":[{"name":"layer","type":"int","value":1},{"name":"group","type":"int","value":66},{"name":"id","type":"int","value":780},{"name":"fh_layer","type":"int","value":1},{"name":"fh_group","type":"int","value":66},{"name":"fh_id","type":"int","value":780},{"name":"x1","type":"int","value":1081},{"name":"x2","type":"int","value":1092},{"name":"y1","type":"int","value":61},{"name":"y2","type":"int","value":59},{"name":"next","type":"int","value":781},{"name":"prev","type":"int","value":779}],"polyline":[{"x":0,"y":0},{"x":11,"y":-2}]},{"id":1175,"x":1092,"y":59,"visible":true,"properties":[{"name":"layer","type":"int","value":1},{"name":"group","type":"int","value":66},{"name":"id","type":"int","value":781},{"name":"fh_layer","type":"int","value":1},{"name":"fh_group","type":"int","value":66},{"name":"fh_id","type":"int","value":781},{"name":"x1","type":"int","value":1092},{"name":"x2","type":"int","value":1124},{"name":"y1","type":"int","value":59},{"name":"y2","type":"int","value":66},{"name":"next","type":"int","value":0},{"name":"prev","type":"int","value":780}],"polyline":[{"x":0,"y":0},{"x":32,"y":7}]},{"id":1176,"x":902,"y":-9,"visible":true,"properties":[{"name":"layer","type":"int","value":1},{"name":"group","type":"int","value":66},{"name":"id","type":"int","value":782},{"name":"fh_layer","type":"int","value":1},{"name":"fh_group","type":"int","value":66},{"name":"fh_id","type":"int","value":782},{"name":"x1","type":"int","value":902},{"name":"x2","type":"int","value":947},{"name":"y1","type":"int","value":-9},{"name":"y2","type":"int","value":1},{"name":"next","type":"int","value":783},{"name":"prev","type":"int","value":0}],"polyline":[{"x":0,"y":0},{"x":45,"y":10}]},{"id":1177,"x":947,"y":1,"visible":true,"properties":[{"name":"layer","type":"int","value":1},{"name":"group","type":"int","value":66},{"name":"id","type":"int","value":783},{"name":"fh_layer","type":"int","value":1},{"name":"fh_group","type":"int","value":66},{"name":"fh_id","type":"int","value":783},{"name":"x1","type":"int","value":947},{"name":"x2","type":"int","value":1026},{"name":"y1","type":"int","value":1},{"name":"y2","type":"int","value":-6},{"name":"next","type":"int","value":0},{"name":"prev","type":"int","value":782}],"polyline":[{"x":0,"y":0},{"x":79,"y":-7}]},{"id":1178,"x":706,"y":-109,"visible":true,"properties":[{"name":"layer","type":"int","value":1},{"name":"group","type":"int","value":66},{"name":"id","type":"int","value":784},{"name":"fh_layer","type":"int","value":1},{"name":"fh_group","type":"int","value":66},{"name":"fh_id","type":"int","value":784},{"name":"x1","type":"int","value":706},{"name":"x2","type":"int","value":742},{"name":"y1","type":"int","value":-109},{"name":"y2","type":"int","value":-122},{"name":"next","type":"int","value":785},{"name":"prev","type":"int","value":0}],"polyline":[{"x":0,"y":0},{"x":36,"y":-13}]},{"id":1179,"x":742,"y":-122,"visible":true,"properties":[{"name":"layer","type":"int","value":1},{"name":"group","type":"int","value":66},{"name":"id","type":"int","value":785},{"name":"fh_layer","type":"int","value":1},{"name":"fh_group","type":"int","value":66},{"name":"fh_id","type":"int","value":785},{"name":"x1","type":"int","value":742},{"name":"x2","type":"int","value":771},{"name":"y1","type":"int","value":-122},{"name":"y2","type":"int","value":-118},{"name":"next","type":"int","value":786},{"name":"prev","type":"int","value":784}],"polyline":[{"x":0,"y":0},{"x":29,"y":4}]},{"id":1180,"x":771,"y":-118,"visible":true,"properties":[{"name":"layer","type":"int","value":1},{"name":"group","type":"int","value":66},{"name":"id","type":"int","value":786},{"name":"fh_layer","type":"int","value":1},{"name":"fh_group","type":"int","value":66},{"name":"fh_id","type":"int","value":786},{"name":"x1","type":"int","value":771},{"name":"x2","type":"int","value":793},{"name":"y1","type":"int","value":-118},{"name":"y2","type":"int","value":-118},{"name":"next","type":"int","value":802},{"name":"prev","type":"int","value":785}],"polyline":[{"x":0,"y":0},{"x":22,"y":0}]},{"id":1181,"x":1149,"y":-184,"visible":true,"properties":[{"name":"layer","type":"int","value":1},{"name":"group","type":"int","value":66},{"name":"id","type":"int","value":787},{"name":"fh_layer","type":"int","value":1},{"name":"fh_group","type":"int","value":66},{"name":"fh_id","type":"int","value":787},{"name":"x1","type":"int","value":1149},{"name":"x2","type":"int","value":1178},{"name":"y1","type":"int","value":-184},{"name":"y2","type":"int","value":-180},{"name":"next","type":"int","value":788},{"name":"prev","type":"int","value":793}],"polyline":[{"x":0,"y":0},{"x":29,"y":4}]},{"id":1182,"x":1178,"y":-180,"visible":true,"properties":[{"name":"layer","type":"int","value":1},{"name":"group","type":"int","value":66},{"name":"id","type":"int","value":788},{"name":"fh_layer","type":"int","value":1},{"name":"fh_group","type":"int","value":66},{"name":"fh_id","type":"int","value":788},{"name":"x1","type":"int","value":1178},{"name":"x2","type":"int","value":1208},{"name":"y1","type":"int","value":-180},{"name":"y2","type":"int","value":-180},{"name":"next","type":"int","value":789},{"name":"prev","type":"int","value":787}],"polyline":[{"x":0,"y":0},{"x":30,"y":0}]},{"id":1183,"x":1208,"y":-180,"visible":true,"properties":[{"name":"layer","type":"int","value":1},{"name":"group","type":"int","value":66},{"name":"id","type":"int","value":789},{"name":"fh_layer","type":"int","value":1},{"name":"fh_group","type":"int","value":66},{"name":"fh_id","type":"int","value":789},{"name":"x1","type":"int","value":1208},{"name":"x2","type":"int","value":1219},{"name":"y1","type":"int","value":-180},{"name":"y2","type":"int","value":-182},{"name":"next","type":"int","value":790},{"name":"prev","type":"int","value":788}],"polyline":[{"x":0,"y":0},{"x":11,"y":-2}]},{"id":1184,"x":1219,"y":-182,"visible":true,"properties":[{"name":"layer","type":"int","value":1},{"name":"group","type":"int","value":66},{"name":"id","type":"int","value":790},{"name":"fh_layer","type":"int","value":1},{"name":"fh_group","type":"int","value":66},{"name":"fh_id","type":"int","value":790},{"name":"x1","type":"int","value":1219},{"name":"x2","type":"int","value":1251},{"name":"y1","type":"int","value":-182},{"name":"y2","type":"int","value":-175},{"name":"next","type":"int","value":0},{"name":"prev","type":"int","value":789}],"polyline":[{"x":0,"y":0},{"x":32,"y":7}]},{"id":1185,"x":1063,"y":-176,"visible":true,"properties":[{"name":"layer","type":"int","value":1},{"name":"group","type":"int","value":66},{"name":"id","type":"int","value":791},{"name":"fh_layer","type":"int","value":1},{"name":"fh_group","type":"int","value":66},{"name":"fh_id","type":"int","value":791},{"name":"x1","type":"int","value":1063},{"name":"x2","type":"int","value":1129},{"name":"y1","type":"int","value":-176},{"name":"y2","type":"int","value":-179},{"name":"next","type":"int","value":792},{"name":"prev","type":"int","value":795}],"polyline":[{"x":0,"y":0},{"x":66,"y":-3}]},{"id":1186,"x":1129,"y":-179,"visible":true,"properties":[{"name":"layer","type":"int","value":1},{"name":"group","type":"int","value":66},{"name":"id","type":"int","value":792},{"name":"fh_layer","type":"int","value":1},{"name":"fh_group","type":"int","value":66},{"name":"fh_id","type":"int","value":792},{"name":"x1","type":"int","value":1129},{"name":"x2","type":"int","value":1133},{"name":"y1","type":"int","value":-179},{"name":"y2","type":"int","value":-178},{"name":"next","type":"int","value":793},{"name":"prev","type":"int","value":791}],"polyline":[{"x":0,"y":0},{"x":4,"y":1}]},{"id":1187,"x":1133,"y":-178,"visible":true,"properties":[{"name":"layer","type":"int","value":1},{"name":"group","type":"int","value":66},{"name":"id","type":"int","value":793},{"name":"fh_layer","type":"int","value":1},{"name":"fh_group","type":"int","value":66},{"name":"fh_id","type":"int","value":793},{"name":"x1","type":"int","value":1133},{"name":"x2","type":"int","value":1149},{"name":"y1","type":"int","value":-178},{"name":"y2","type":"int","value":-184},{"name":"next","type":"int","value":787},{"name":"prev","type":"int","value":792}],"polyline":[{"x":0,"y":0},{"x":16,"y":-6}]},{"id":1188,"x":1024,"y":-169,"visible":true,"properties":[{"name":"layer","type":"int","value":1},{"name":"group","type":"int","value":66},{"name":"id","type":"int","value":794},{"name":"fh_layer","type":"int","value":1},{"name":"fh_group","type":"int","value":66},{"name":"fh_id","type":"int","value":794},{"name":"x1","type":"int","value":1024},{"name":"x2","type":"int","value":1051},{"name":"y1","type":"int","value":-169},{"name":"y2","type":"int","value":-170},{"name":"next","type":"int","value":795},{"name":"prev","type":"int","value":801}],"polyline":[{"x":0,"y":0},{"x":27,"y":-1}]},{"id":1189,"x":1051,"y":-170,"visible":true,"properties":[{"name":"layer","type":"int","value":1},{"name":"group","type":"int","value":66},{"name":"id","type":"int","value":795},{"name":"fh_layer","type":"int","value":1},{"name":"fh_group","type":"int","value":66},{"name":"fh_id","type":"int","value":795},{"name":"x1","type":"int","value":1051},{"name":"x2","type":"int","value":1063},{"name":"y1","type":"int","value":-170},{"name":"y2","type":"int","value":-176},{"name":"next","type":"int","value":791},{"name":"prev","type":"int","value":794}],"polyline":[{"x":0,"y":0},{"x":12,"y":-6}]},{"id":1190,"x":902,"y":-155,"visible":true,"properties":[{"name":"layer","type":"int","value":1},{"name":"group","type":"int","value":66},{"name":"id","type":"int","value":796},{"name":"fh_layer","type":"int","value":1},{"name":"fh_group","type":"int","value":66},{"name":"fh_id","type":"int","value":796},{"name":"x1","type":"int","value":902},{"name":"x2","type":"int","value":938},{"name":"y1","type":"int","value":-155},{"name":"y2","type":"int","value":-168},{"name":"next","type":"int","value":797},{"name":"prev","type":"int","value":0}],"polyline":[{"x":0,"y":0},{"x":36,"y":-13}]},{"id":1191,"x":938,"y":-168,"visible":true,"properties":[{"name":"layer","type":"int","value":1},{"name":"group","type":"int","value":66},{"name":"id","type":"int","value":797},{"name":"fh_layer","type":"int","value":1},{"name":"fh_group","type":"int","value":66},{"name":"fh_id","type":"int","value":797},{"name":"x1","type":"int","value":938},{"name":"x2","type":"int","value":943},{"name":"y1","type":"int","value":-168},{"name":"y2","type":"int","value":-168},{"name":"next","type":"int","value":808},{"name":"prev","type":"int","value":796}],"polyline":[{"x":0,"y":0},{"x":5,"y":0}]},{"id":1192,"x":967,"y":-164,"visible":true,"properties":[{"name":"layer","type":"int","value":1},{"name":"group","type":"int","value":66},{"name":"id","type":"int","value":798},{"name":"fh_layer","type":"int","value":1},{"name":"fh_group","type":"int","value":66},{"name":"fh_id","type":"int","value":798},{"name":"x1","type":"int","value":967},{"name":"x2","type":"int","value":997},{"name":"y1","type":"int","value":-164},{"name":"y2","type":"int","value":-164},{"name":"next","type":"int","value":799},{"name":"prev","type":"int","value":808}],"polyline":[{"x":0,"y":0},{"x":30,"y":0}]},{"id":1193,"x":997,"y":-164,"visible":true,"properties":[{"name":"layer","type":"int","value":1},{"name":"group","type":"int","value":66},{"name":"id","type":"int","value":799},{"name":"fh_layer","type":"int","value":1},{"name":"fh_group","type":"int","value":66},{"name":"fh_id","type":"int","value":799},{"name":"x1","type":"int","value":997},{"name":"x2","type":"int","value":1008},{"name":"y1","type":"int","value":-164},{"name":"y2","type":"int","value":-166},{"name":"next","type":"int","value":800},{"name":"prev","type":"int","value":798}],"polyline":[{"x":0,"y":0},{"x":11,"y":-2}]},{"id":1194,"x":1008,"y":-166,"visible":true,"properties":[{"name":"layer","type":"int","value":1},{"name":"group","type":"int","value":66},{"name":"id","type":"int","value":800},{"name":"fh_layer","type":"int","value":1},{"name":"fh_group","type":"int","value":66},{"name":"fh_id","type":"int","value":800},{"name":"x1","type":"int","value":1008},{"name":"x2","type":"int","value":1013},{"name":"y1","type":"int","value":-166},{"name":"y2","type":"int","value":-164},{"name":"next","type":"int","value":801},{"name":"prev","type":"int","value":799}],"polyline":[{"x":0,"y":0},{"x":5,"y":2}]},{"id":1195,"x":1013,"y":-164,"visible":true,"properties":[{"name":"layer","type":"int","value":1},{"name":"group","type":"int","value":66},{"name":"id","type":"int","value":801},{"name":"fh_layer","type":"int","value":1},{"name":"fh_group","type":"int","value":66},{"name":"fh_id","type":"int","value":801},{"name":"x1","type":"int","value":1013},{"name":"x2","type":"int","value":1024},{"name":"y1","type":"int","value":-164},{"name":"y2","type":"int","value":-169},{"name":"next","type":"int","value":794},{"name":"prev","type":"int","value":800}],"polyline":[{"x":0,"y":0},{"x":11,"y":-5}]},{"id":1196,"x":793,"y":-118,"visible":true,"properties":[{"name":"layer","type":"int","value":1},{"name":"group","type":"int","value":66},{"name":"id","type":"int","value":802},{"name":"fh_layer","type":"int","value":1},{"name":"fh_group","type":"int","value":66},{"name":"fh_id","type":"int","value":802},{"name":"x1","type":"int","value":793},{"name":"x2","type":"int","value":811},{"name":"y1","type":"int","value":-118},{"name":"y2","type":"int","value":-130},{"name":"next","type":"int","value":803},{"name":"prev","type":"int","value":786}],"polyline":[{"x":0,"y":0},{"x":18,"y":-12}]},{"id":1197,"x":811,"y":-130,"visible":true,"properties":[{"name":"layer","type":"int","value":1},{"name":"group","type":"int","value":66},{"name":"id","type":"int","value":803},{"name":"fh_layer","type":"int","value":1},{"name":"fh_group","type":"int","value":66},{"name":"fh_id","type":"int","value":803},{"name":"x1","type":"int","value":811},{"name":"x2","type":"int","value":839},{"name":"y1","type":"int","value":-130},{"name":"y2","type":"int","value":-136},{"name":"next","type":"int","value":804},{"name":"prev","type":"int","value":802}],"polyline":[{"x":0,"y":0},{"x":28,"y":-6}]},{"id":1198,"x":839,"y":-136,"visible":true,"properties":[{"name":"layer","type":"int","value":1},{"name":"group","type":"int","value":66},{"name":"id","type":"int","value":804},{"name":"fh_layer","type":"int","value":1},{"name":"fh_group","type":"int","value":66},{"name":"fh_id","type":"int","value":804},{"name":"x1","type":"int","value":839},{"name":"x2","type":"int","value":851},{"name":"y1","type":"int","value":-136},{"name":"y2","type":"int","value":-148},{"name":"next","type":"int","value":805},{"name":"prev","type":"int","value":803}],"polyline":[{"x":0,"y":0},{"x":12,"y":-12}]},{"id":1199,"x":851,"y":-148,"visible":true,"properties":[{"name":"layer","type":"int","value":1},{"name":"group","type":"int","value":66},{"name":"id","type":"int","value":805},{"name":"fh_layer","type":"int","value":1},{"name":"fh_group","type":"int","value":66},{"name":"fh_id","type":"int","value":805},{"name":"x1","type":"int","value":851},{"name":"x2","type":"int","value":889},{"name":"y1","type":"int","value":-148},{"name":"y2","type":"int","value":-154},{"name":"next","type":"int","value":806},{"name":"prev","type":"int","value":804}],"polyline":[{"x":0,"y":0},{"x":38,"y":-6}]},{"id":1200,"x":889,"y":-154,"visible":true,"properties":[{"name":"layer","type":"int","value":1},{"name":"group","type":"int","value":66},{"name":"id","type":"int","value":806},{"name":"fh_layer","type":"int","value":1},{"name":"fh_group","type":"int","value":66},{"name":"fh_id","type":"int","value":806},{"name":"x1","type":"int","value":889},{"name":"x2","type":"int","value":905},{"name":"y1","type":"int","value":-154},{"name":"y2","type":"int","value":-155},{"name":"next","type":"int","value":807},{"name":"prev","type":"int","value":805}],"polyline":[{"x":0,"y":0},{"x":16,"y":-1}]},{"id":1201,"x":905,"y":-155,"visible":true,"properties":[{"name":"layer","type":"int","value":1},{"name":"group","type":"int","value":66},{"name":"id","type":"int","value":807},{"name":"fh_layer","type":"int","value":1},{"name":"fh_group","type":"int","value":66},{"name":"fh_id","type":"int","value":807},{"name":"x1","type":"int","value":905},{"name":"x2","type":"int","value":943},{"name":"y1","type":"int","value":-155},{"name":"y2","type":"int","value":-168},{"name":"next","type":"int","value":808},{"name":"prev","type":"int","value":806}],"polyline":[{"x":0,"y":0},{"x":38,"y":-13}]},{"id":1202,"x":943,"y":-168,"visible":true,"properties":[{"name":"layer","type":"int","value":1},{"name":"group","type":"int","value":66},{"name":"id","type":"int","value":808},{"name":"fh_layer","type":"int","value":1},{"name":"fh_group","type":"int","value":66},{"name":"fh_id","type":"int","value":808},{"name":"x1","type":"int","value":943},{"name":"x2","type":"int","value":967},{"name":"y1","type":"int","value":-168},{"name":"y2","type":"int","value":-164},{"name":"next","type":"int","value":798},{"name":"prev","type":"int","value":797}],"polyline":[{"x":0,"y":0},{"x":24,"y":4}]},{"id":1203,"x":18,"y":-36,"visible":true,"properties":[{"name":"layer","type":"int","value":1},{"name":"group","type":"int","value":70},{"name":"id","type":"int","value":809},{"name":"fh_layer","type":"int","value":1},{"name":"fh_group","type":"int","value":70},{"name":"fh_id","type":"int","value":809},{"name":"x1","type":"int","value":18},{"name":"x2","type":"int","value":23},{"name":"y1","type":"int","value":-36},{"name":"y2","type":"int","value":-36},{"name":"next","type":"int","value":818},{"name":"prev","type":"int","value":817}],"polyline":[{"x":0,"y":0},{"x":5,"y":0}]},{"id":1204,"x":84,"y":-39,"visible":true,"properties":[{"name":"layer","type":"int","value":1},{"name":"group","type":"int","value":70},{"name":"id","type":"int","value":810},{"name":"fh_layer","type":"int","value":1},{"name":"fh_group","type":"int","value":70},{"name":"fh_id","type":"int","value":810},{"name":"x1","type":"int","value":84},{"name":"x2","type":"int","value":122},{"name":"y1","type":"int","value":-39},{"name":"y2","type":"int","value":-32},{"name":"next","type":"int","value":0},{"name":"prev","type":"int","value":818}],"polyline":[{"x":0,"y":0},{"x":38,"y":7}]},{"id":1205,"x":-132,"y":16,"visible":true,"properties":[{"name":"layer","type":"int","value":1},{"name":"group","type":"int","value":70},{"name":"id","type":"int","value":811},{"name":"fh_layer","type":"int","value":1},{"name":"fh_group","type":"int","value":70},{"name":"fh_id","type":"int","value":811},{"name":"x1","type":"int","value":-132},{"name":"x2","type":"int","value":-110},{"name":"y1","type":"int","value":16},{"name":"y2","type":"int","value":1},{"name":"next","type":"int","value":812},{"name":"prev","type":"int","value":822}],"polyline":[{"x":0,"y":0},{"x":22,"y":-15}]},{"id":1206,"x":-110,"y":1,"visible":true,"properties":[{"name":"layer","type":"int","value":1},{"name":"group","type":"int","value":70},{"name":"id","type":"int","value":812},{"name":"fh_layer","type":"int","value":1},{"name":"fh_group","type":"int","value":70},{"name":"fh_id","type":"int","value":812},{"name":"x1","type":"int","value":-110},{"name":"x2","type":"int","value":-82},{"name":"y1","type":"int","value":1},{"name":"y2","type":"int","value":-5},{"name":"next","type":"int","value":813},{"name":"prev","type":"int","value":811}],"polyline":[{"x":0,"y":0},{"x":28,"y":-6}]},{"id":1207,"x":-82,"y":-5,"visible":true,"properties":[{"name":"layer","type":"int","value":1},{"name":"group","type":"int","value":70},{"name":"id","type":"int","value":813},{"name":"fh_layer","type":"int","value":1},{"name":"fh_group","type":"int","value":70},{"name":"fh_id","type":"int","value":813},{"name":"x1","type":"int","value":-82},{"name":"x2","type":"int","value":-70},{"name":"y1","type":"int","value":-5},{"name":"y2","type":"int","value":-17},{"name":"next","type":"int","value":814},{"name":"prev","type":"int","value":812}],"polyline":[{"x":0,"y":0},{"x":12,"y":-12}]},{"id":1208,"x":-70,"y":-17,"visible":true,"properties":[{"name":"layer","type":"int","value":1},{"name":"group","type":"int","value":70},{"name":"id","type":"int","value":814},{"name":"fh_layer","type":"int","value":1},{"name":"fh_group","type":"int","value":70},{"name":"fh_id","type":"int","value":814},{"name":"x1","type":"int","value":-70},{"name":"x2","type":"int","value":-32},{"name":"y1","type":"int","value":-17},{"name":"y2","type":"int","value":-23},{"name":"next","type":"int","value":815},{"name":"prev","type":"int","value":813}],"polyline":[{"x":0,"y":0},{"x":38,"y":-6}]},{"id":1209,"x":-32,"y":-23,"visible":true,"properties":[{"name":"layer","type":"int","value":1},{"name":"group","type":"int","value":70},{"name":"id","type":"int","value":815},{"name":"fh_layer","type":"int","value":1},{"name":"fh_group","type":"int","value":70},{"name":"fh_id","type":"int","value":815},{"name":"x1","type":"int","value":-32},{"name":"x2","type":"int","value":-16},{"name":"y1","type":"int","value":-23},{"name":"y2","type":"int","value":-24},{"name":"next","type":"int","value":816},{"name":"prev","type":"int","value":814}],"polyline":[{"x":0,"y":0},{"x":16,"y":-1}]},{"id":1210,"x":-16,"y":-24,"visible":true,"properties":[{"name":"layer","type":"int","value":1},{"name":"group","type":"int","value":70},{"name":"id","type":"int","value":816},{"name":"fh_layer","type":"int","value":1},{"name":"fh_group","type":"int","value":70},{"name":"fh_id","type":"int","value":816},{"name":"x1","type":"int","value":-16},{"name":"x2","type":"int","value":8},{"name":"y1","type":"int","value":-24},{"name":"y2","type":"int","value":-31},{"name":"next","type":"int","value":817},{"name":"prev","type":"int","value":815}],"polyline":[{"x":0,"y":0},{"x":24,"y":-7}]},{"id":1211,"x":8,"y":-31,"visible":true,"properties":[{"name":"layer","type":"int","value":1},{"name":"group","type":"int","value":70},{"name":"id","type":"int","value":817},{"name":"fh_layer","type":"int","value":1},{"name":"fh_group","type":"int","value":70},{"name":"fh_id","type":"int","value":817},{"name":"x1","type":"int","value":8},{"name":"x2","type":"int","value":18},{"name":"y1","type":"int","value":-31},{"name":"y2","type":"int","value":-36},{"name":"next","type":"int","value":809},{"name":"prev","type":"int","value":816}],"polyline":[{"x":0,"y":0},{"x":10,"y":-5}]},{"id":1212,"x":23,"y":-36,"visible":true,"properties":[{"name":"layer","type":"int","value":1},{"name":"group","type":"int","value":70},{"name":"id","type":"int","value":818},{"name":"fh_layer","type":"int","value":1},{"name":"fh_group","type":"int","value":70},{"name":"fh_id","type":"int","value":818},{"name":"x1","type":"int","value":23},{"name":"x2","type":"int","value":84},{"name":"y1","type":"int","value":-36},{"name":"y2","type":"int","value":-39},{"name":"next","type":"int","value":810},{"name":"prev","type":"int","value":809}],"polyline":[{"x":0,"y":0},{"x":61,"y":-3}]}],"properties":[]},{"id":37,"name":"ladderRope","type":"objectgroup","visible":true,"opacity":1,"draworder":"index","offsetx":0,"offsety":0,"parallaxx":1,"parallaxy":1,"objects":[{"id":1213,"x":-675,"y":1628,"visible":true,"properties":[{"name":"ladder_id","type":"int","value":1},{"name":"l","type":"int","value":1},{"name":"x","type":"int","value":-675},{"name":"uf","type":"int","value":1},{"name":"y1","type":"int","value":1628},{"name":"y2","type":"int","value":1813},{"name":"page","type":"int","value":2}],"polyline":[{"x":0,"y":0},{"x":0,"y":185}]},{"id":1214,"x":1027,"y":1141,"visible":true,"properties":[{"name":"ladder_id","type":"int","value":2},{"name":"l","type":"int","value":0},{"name":"x","type":"int","value":1027},{"name":"uf","type":"int","value":1},{"name":"y1","type":"int","value":1141},{"name":"y2","type":"int","value":1336},{"name":"page","type":"int","value":2}],"polyline":[{"x":0,"y":0},{"x":0,"y":195}]},{"id":1215,"x":1072,"y":63,"visible":true,"properties":[{"name":"ladder_id","type":"int","value":3},{"name":"l","type":"int","value":0},{"name":"x","type":"int","value":1072},{"name":"uf","type":"int","value":1},{"name":"y1","type":"int","value":63},{"name":"y2","type":"int","value":199},{"name":"page","type":"int","value":2}],"polyline":[{"x":0,"y":0},{"x":0,"y":136}]},{"id":1216,"x":-1383,"y":1090,"visible":true,"properties":[{"name":"ladder_id","type":"int","value":4},{"name":"l","type":"int","value":0},{"name":"x","type":"int","value":-1383},{"name":"uf","type":"int","value":1},{"name":"y1","type":"int","value":1090},{"name":"y2","type":"int","value":1285},{"name":"page","type":"int","value":2}],"polyline":[{"x":0,"y":0},{"x":0,"y":195}]},{"id":1217,"x":503,"y":268,"visible":true,"properties":[{"name":"ladder_id","type":"int","value":5},{"name":"l","type":"int","value":0},{"name":"x","type":"int","value":503},{"name":"uf","type":"int","value":1},{"name":"y1","type":"int","value":268},{"name":"y2","type":"int","value":404},{"name":"page","type":"int","value":2}],"polyline":[{"x":0,"y":0},{"x":0,"y":136}]},{"id":1218,"x":-624,"y":1625,"visible":true,"properties":[{"name":"ladder_id","type":"int","value":6},{"name":"l","type":"int","value":0},{"name":"x","type":"int","value":-624},{"name":"uf","type":"int","value":1},{"name":"y1","type":"int","value":1625},{"name":"y2","type":"int","value":1815},{"name":"page","type":"int","value":2}],"polyline":[{"x":0,"y":0},{"x":0,"y":190}]},{"id":1219,"x":-884,"y":880,"visible":true,"properties":[{"name":"ladder_id","type":"int","value":7},{"name":"l","type":"int","value":0},{"name":"x","type":"int","value":-884},{"name":"uf","type":"int","value":1},{"name":"y1","type":"int","value":880},{"name":"y2","type":"int","value":1136},{"name":"page","type":"int","value":2}],"polyline":[{"x":0,"y":0},{"x":0,"y":256}]}],"properties":[]},{"id":38,"name":"miniMap","type":"objectgroup","visible":true,"opacity":1,"draworder":"index","offsetx":0,"offsety":0,"parallaxx":1,"parallaxy":1,"objects":[{"id":1220,"x":2079,"y":448,"visible":true,"properties":[{"name":"mag","type":"int","value":4},{"name":"centerX","type":"int","value":2079},{"name":"centerY","type":"int","value":448},{"name":"canvas_path","type":"string","value":"../images/30496.png"},{"name":"canvas_width","type":"int","value":216},{"name":"canvas_height","type":"int","value":166},{"name":"canvas_origin_x","type":"int","value":0},{"name":"canvas_origin_y","type":"int","value":0}],"point":true}],"properties":[]}],"tilesets":[{"firstgid":1,"source":"../tilesets/bg_shineWood.tsj"},{"firstgid":20,"source":"../tilesets/obj_connect_rope_0.tsj"},{"firstgid":24,"source":"../tilesets/obj_connect_ladder_0.tsj"},{"firstgid":29,"source":"../tilesets/obj_acc2_shineWood_foot.tsj"},{"firstgid":53,"source":"../tilesets/obj_acc2_shineWood_nature.tsj"},{"firstgid":54,"source":"../tilesets/obj_guide_milepost_common.tsj"},{"firstgid":55,"source":"../tilesets/obj_guide_milepost_backcho.tsj"},{"firstgid":60,"source":"../tilesets/obj_acc2_shineWood_minidungeon.tsj"},{"firstgid":63,"source":"../tilesets/obj_acc2_shineWood_artificiality.tsj"},{"firstgid":65,"source":"../tilesets/portal_MapHelper.img_portal_game_pv.tsj"},{"firstgid":73,"source":"../tilesets/portal_MapHelper.img_portal_game_ph_default_portalContinue.tsj"}],"properties":[{"name":"bgm","type":"string","value":"Bgm01/MoonlightShadow"},{"name":"town","type":"int","value":0},{"name":"cloud","type":"int","value":0},{"name":"mapDesc","type":"string","value":""},{"name":"mapMark","type":"string","value":"Ellinia"},{"name":"mobRate","type":"float","value":1.4999983310699463},{"name":"version","type":"int","value":10},{"name":"moveLimit","type":"int","value":0},{"name":"returnMap","type":"int","value":101000000},{"name":"hideMinimap","type":"int","value":0},{"name":"onUserEnter","type":"string","value":"explorationPoint"},{"name":"forcedReturn","type":"int","value":999999999}]}