{"type":"map","orientation":"orthogonal","renderorder":"right-down","infinite":false,"tilewidth":1,"tileheight":1,"width":800,"height":600,"parallaxoriginx":-400,"parallaxoriginy":80,"nextlayerid":6,"nextobjectid":48,"layers":[{"id":1,"name":"layer_1_obj","type":"objectgroup","visible":true,"opacity":1,"draworder":"index","offsetx":0,"offsety":0,"parallaxx":1,"parallaxy":1,"objects":[{"id":1,"x":-400,"y":299,"visible":true,"properties":[{"name":"layer","type":"int","value":1},{"name":"resource_index","type":"int","value":0},{"name":"oS","type":"string","value":"shop"},{"name":"l0","type":"string","value":"shop"},{"name":"l1","type":"string","value":"hairshopGS"},{"name":"l2","type":"string","value":"0"},{"name":"z","type":"int","value":0},{"name":"zM","type":"int","value":0},{"name":"f","type":"int","value":0}],"gid":1,"width":800,"height":600},{"id":2,"x":-324,"y":-228,"visible":true,"properties":[{"name":"layer","type":"int","value":1},{"name":"resource_index","type":"int","value":1},{"name":"oS","type":"string","value":"shop"},{"name":"l0","type":"string","value":"shop"},{"name":"l1","type":"string","value":"hairshopGS"},{"name":"l2","type":"string","value":"7"},{"name":"z","type":"int","value":2},{"name":"zM","type":"int","value":0},{"name":"f","type":"int","value":0}],"gid":2,"width":647,"height":57},{"id":3,"x":19,"y":182,"visible":true,"properties":[{"name":"layer","type":"int","value":1},{"name":"resource_index","type":"int","value":2},{"name":"oS","type":"string","value":"shop"},{"name":"l0","type":"string","value":"shop"},{"name":"l1","type":"string","value":"hairshopGS"},{"name":"l2","type":"string","value":"4"},{"name":"z","type":"int","value":3},{"name":"zM","type":"int","value":0},{"name":"f","type":"int","value":0}],"gid":3,"width":115,"height":89}],"properties":[]},{"id":2,"name":"layer_3_obj","type":"objectgroup","visible":true,"opacity":1,"draworder":"index","offsetx":0,"offsety":0,"parallaxx":1,"parallaxy":1,"objects":[{"id":4,"x":267,"y":185,"visible":true,"properties":[{"name":"layer","type":"int","value":3},{"name":"resource_index","type":"int","value":0},{"name":"oS","type":"string","value":"shop"},{"name":"l0","type":"string","value":"shop"},{"name":"l1","type":"string","value":"hairshopGS"},{"name":"l2","type":"string","value":"5"},{"name":"z","type":"int","value":2},{"name":"zM","type":"int","value":1},{"name":"f","type":"int","value":0}],"gid":4,"width":119,"height":136},{"id":5,"x":-400,"y":299,"visible":true,"properties":[{"name":"layer","type":"int","value":3},{"name":"resource_index","type":"int","value":1},{"name":"oS","type":"string","value":"shop"},{"name":"l0","type":"string","value":"shop"},{"name":"l1","type":"string","value":"hairshopGS"},{"name":"l2","type":"string","value":"1"},{"name":"z","type":"int","value":4},{"name":"zM","type":"int","value":1},{"name":"f","type":"int","value":0}],"gid":5,"width":800,"height":120},{"id":6,"x":-400,"y":182,"visible":true,"properties":[{"name":"layer","type":"int","value":3},{"name":"resource_index","type":"int","value":2},{"name":"oS","type":"string","value":"shop"},{"name":"l0","type":"string","value":"shop"},{"name":"l1","type":"string","value":"hairshopGS"},{"name":"l2","type":"string","value":"2"},{"name":"z","type":"int","value":3},{"name":"zM","type":"int","value":1},{"name":"f","type":"int","value":0}],"gid":6,"width":800,"height":483},{"id":7,"x":-341,"y":-89,"visible":true,"properties":[{"name":"layer","type":"int","value":3},{"name":"resource_index","type":"int","value":3},{"name":"oS","type":"string","value":"shop"},{"name":"l0","type":"string","value":"shop"},{"name":"l1","type":"string","value":"hairshopGS"},{"name":"l2","type":"string","value":"3"},{"name":"z","type":"int","value":5},{"name":"zM","type":"int","value":1},{"name":"f","type":"int","value":0}],"gid":7,"width":684,"height":212},{"id":8,"x":-400,"y":299,"visible":true,"properties":[{"name":"layer","type":"int","value":3},{"name":"resource_index","type":"int","value":4},{"name":"oS","type":"string","value":"shop"},{"name":"l0","type":"string","value":"shop"},{"name":"l1","type":"string","value":"hairshopGS"},{"name":"l2","type":"string","value":"6"},{"name":"z","type":"int","value":7},{"name":"zM","type":"int","value":1},{"name":"f","type":"int","value":0}],"gid":8,"width":800,"height":600}],"properties":[]},{"id":3,"name":"portal","type":"objectgroup","visible":true,"opacity":1,"draworder":"index","offsetx":0,"offsety":0,"parallaxx":1,"parallaxy":1,"objects":[{"id":9,"x":301,"y":164,"visible":true,"properties":[{"name":"x","type":"int","value":301},{"name":"y","type":"int","value":164},{"name":"pn","type":"string","value":"sp"},{"name":"pt","type":"int","value":0},{"name":"tm","type":"int","value":999999999},{"name":"tn","type":"string","value":""},{"name":"portal_id","type":"int","value":0}],"point":true},{"id":10,"x":-348,"y":152,"visible":true,"properties":[{"name":"x","type":"int","value":-348},{"name":"y","type":"int","value":152},{"name":"pn","type":"string","value":"sp"},{"name":"pt","type":"int","value":0},{"name":"tm","type":"int","value":999999999},{"name":"tn","type":"string","value":""},{"name":"portal_id","type":"int","value":1}],"point":true},{"id":11,"x":183,"y":168,"visible":true,"properties":[{"name":"x","type":"int","value":183},{"name":"y","type":"int","value":168},{"name":"pn","type":"string","value":"sp"},{"name":"pt","type":"int","value":0},{"name":"tm","type":"int","value":999999999},{"name":"tn","type":"string","value":""},{"name":"portal_id","type":"int","value":2}],"point":true},{"id":12,"x":121,"y":163,"visible":true,"properties":[{"name":"x","type":"int","value":121},{"name":"y","type":"int","value":163},{"name":"pn","type":"string","value":"sp"},{"name":"pt","type":"int","value":0},{"name":"tm","type":"int","value":999999999},{"name":"tn","type":"string","value":""},{"name":"portal_id","type":"int","value":3}],"point":true},{"id":13,"x":-165,"y":152,"visible":true,"properties":[{"name":"x","type":"int","value":-165},{"name":"y","type":"int","value":152},{"name":"pn","type":"string","value":"sp"},{"name":"pt","type":"int","value":0},{"name":"tm","type":"int","value":999999999},{"name":"tn","type":"string","value":""},{"name":"portal_id","type":"int","value":4}],"point":true},{"id":14,"x":296,"y":188,"visible":true,"properties":[{"name":"x","type":"int","value":340},{"name":"y","type":"int","value":179},{"name":"pn","type":"string","value":"out00"},{"name":"pt","type":"int","value":2},{"name":"tm","type":"int","value":100000100},{"name":"tn","type":"string","value":"in05"},{"name":"portal_id","type":"int","value":5}],"gid":9,"width":89,"height":257}],"properties":[]},{"id":4,"name":"life","type":"objectgroup","visible":true,"opacity":1,"draworder":"index","offsetx":0,"offsety":0,"parallaxx":1,"parallaxy":1,"objects":[{"id":15,"x":7,"y":177,"visible":true,"properties":[{"name":"f","type":"int","value":0},{"name":"x","type":"int","value":7},{"name":"y","type":"int","value":177},{"name":"cy","type":"int","value":182},{"name":"fh","type":"int","value":29},{"name":"id","type":"int","value":1012103},{"name":"rx0","type":"int","value":-43},{"name":"rx1","type":"int","value":57},{"name":"type","type":"string","value":"n"},{"name":"mobTime","type":"int","value":0}],"point":true},{"id":16,"x":-212,"y":-28,"visible":true,"properties":[{"name":"f","type":"int","value":0},{"name":"x","type":"int","value":-212},{"name":"y","type":"int","value":-28},{"name":"cy","type":"int","value":-27},{"name":"fh","type":"int","value":17},{"name":"id","type":"int","value":1012104},{"name":"rx0","type":"int","value":-262},{"name":"rx1","type":"int","value":-162},{"name":"type","type":"string","value":"n"},{"name":"mobTime","type":"int","value":0}],"point":true},{"id":17,"x":225,"y":-98,"visible":true,"properties":[{"name":"f","type":"int","value":0},{"name":"x","type":"int","value":225},{"name":"y","type":"int","value":-98},{"name":"cy","type":"int","value":-94},{"name":"fh","type":"int","value":28},{"name":"id","type":"int","value":1012117},{"name":"rx0","type":"int","value":175},{"name":"rx1","type":"int","value":275},{"name":"hide","type":"int","value":0},{"name":"type","type":"string","value":"n"},{"name":"mobTime","type":"int","value":0}],"point":true}],"properties":[]},{"id":5,"name":"foothold","type":"objectgroup","visible":true,"opacity":1,"draworder":"index","offsetx":0,"offsety":0,"parallaxx":1,"parallaxy":1,"objects":[{"id":18,"x":205,"y":157,"visible":true,"properties":[{"name":"layer","type":"int","value":1},{"name":"group","type":"int","value":0},{"name":"id","type":"int","value":1},{"name":"fh_layer","type":"int","value":1},{"name":"fh_group","type":"int","value":0},{"name":"fh_id","type":"int","value":1},{"name":"x1","type":"int","value":205},{"name":"x2","type":"int","value":310},{"name":"y1","type":"int","value":157},{"name":"y2","type":"int","value":157},{"name":"next","type":"int","value":2},{"name":"prev","type":"int","value":0}],"polyline":[{"x":0,"y":0},{"x":105,"y":0}]},{"id":19,"x":310,"y":157,"visible":true,"properties":[{"name":"layer","type":"int","value":1},{"name":"group","type":"int","value":0},{"name":"id","type":"int","value":2},{"name":"fh_layer","type":"int","value":1},{"name":"fh_group","type":"int","value":0},{"name":"fh_id","type":"int","value":2},{"name":"x1","type":"int","value":310},{"name":"x2","type":"int","value":310},{"name":"y1","type":"int","value":157},{"name":"y2","type":"int","value":132},{"name":"next","type":"int","value":3},{"name":"prev","type":"int","value":1}],"polyline":[{"x":0,"y":0},{"x":0,"y":-25}]},{"id":20,"x":310,"y":132,"visible":true,"properties":[{"name":"layer","type":"int","value":1},{"name":"group","type":"int","value":0},{"name":"id","type":"int","value":3},{"name":"fh_layer","type":"int","value":1},{"name":"fh_group","type":"int","value":0},{"name":"fh_id","type":"int","value":3},{"name":"x1","type":"int","value":310},{"name":"x2","type":"int","value":333},{"name":"y1","type":"int","value":132},{"name":"y2","type":"int","value":132},{"name":"next","type":"int","value":4},{"name":"prev","type":"int","value":7}],"polyline":[{"x":0,"y":0},{"x":23,"y":0}]},{"id":21,"x":333,"y":132,"visible":true,"properties":[{"name":"layer","type":"int","value":1},{"name":"group","type":"int","value":0},{"name":"id","type":"int","value":4},{"name":"fh_layer","type":"int","value":1},{"name":"fh_group","type":"int","value":0},{"name":"fh_id","type":"int","value":4},{"name":"x1","type":"int","value":333},{"name":"x2","type":"int","value":333},{"name":"y1","type":"int","value":132},{"name":"y2","type":"int","value":107},{"name":"next","type":"int","value":5},{"name":"prev","type":"int","value":3}],"polyline":[{"x":0,"y":0},{"x":0,"y":-25}]},{"id":22,"x":333,"y":107,"visible":true,"properties":[{"name":"layer","type":"int","value":1},{"name":"group","type":"int","value":0},{"name":"id","type":"int","value":5},{"name":"fh_layer","type":"int","value":1},{"name":"fh_group","type":"int","value":0},{"name":"fh_id","type":"int","value":5},{"name":"x1","type":"int","value":333},{"name":"x2","type":"int","value":355},{"name":"y1","type":"int","value":107},{"name":"y2","type":"int","value":107},{"name":"next","type":"int","value":6},{"name":"prev","type":"int","value":8}],"polyline":[{"x":0,"y":0},{"x":22,"y":0}]},{"id":23,"x":355,"y":107,"visible":true,"properties":[{"name":"layer","type":"int","value":1},{"name":"group","type":"int","value":0},{"name":"id","type":"int","value":6},{"name":"fh_layer","type":"int","value":1},{"name":"fh_group","type":"int","value":0},{"name":"fh_id","type":"int","value":6},{"name":"x1","type":"int","value":355},{"name":"x2","type":"int","value":355},{"name":"y1","type":"int","value":107},{"name":"y2","type":"int","value":82},{"name":"next","type":"int","value":10},{"name":"prev","type":"int","value":5}],"polyline":[{"x":0,"y":0},{"x":0,"y":-25}]},{"id":24,"x":228,"y":132,"visible":true,"properties":[{"name":"layer","type":"int","value":1},{"name":"group","type":"int","value":0},{"name":"id","type":"int","value":7},{"name":"fh_layer","type":"int","value":1},{"name":"fh_group","type":"int","value":0},{"name":"fh_id","type":"int","value":7},{"name":"x1","type":"int","value":228},{"name":"x2","type":"int","value":310},{"name":"y1","type":"int","value":132},{"name":"y2","type":"int","value":132},{"name":"next","type":"int","value":3},{"name":"prev","type":"int","value":0}],"polyline":[{"x":0,"y":0},{"x":82,"y":0}]},{"id":25,"x":249,"y":107,"visible":true,"properties":[{"name":"layer","type":"int","value":1},{"name":"group","type":"int","value":0},{"name":"id","type":"int","value":8},{"name":"fh_layer","type":"int","value":1},{"name":"fh_group","type":"int","value":0},{"name":"fh_id","type":"int","value":8},{"name":"x1","type":"int","value":249},{"name":"x2","type":"int","value":333},{"name":"y1","type":"int","value":107},{"name":"y2","type":"int","value":107},{"name":"next","type":"int","value":5},{"name":"prev","type":"int","value":0}],"polyline":[{"x":0,"y":0},{"x":84,"y":0}]},{"id":26,"x":272,"y":82,"visible":true,"properties":[{"name":"layer","type":"int","value":1},{"name":"group","type":"int","value":0},{"name":"id","type":"int","value":9},{"name":"fh_layer","type":"int","value":1},{"name":"fh_group","type":"int","value":0},{"name":"fh_id","type":"int","value":9},{"name":"x1","type":"int","value":272},{"name":"x2","type":"int","value":355},{"name":"y1","type":"int","value":82},{"name":"y2","type":"int","value":82},{"name":"next","type":"int","value":10},{"name":"prev","type":"int","value":0}],"polyline":[{"x":0,"y":0},{"x":83,"y":0}]},{"id":27,"x":355,"y":82,"visible":true,"properties":[{"name":"layer","type":"int","value":1},{"name":"group","type":"int","value":0},{"name":"id","type":"int","value":10},{"name":"fh_layer","type":"int","value":1},{"name":"fh_group","type":"int","value":0},{"name":"fh_id","type":"int","value":10},{"name":"x1","type":"int","value":355},{"name":"x2","type":"int","value":372},{"name":"y1","type":"int","value":82},{"name":"y2","type":"int","value":82},{"name":"next","type":"int","value":11},{"name":"prev","type":"int","value":9}],"polyline":[{"x":0,"y":0},{"x":17,"y":0}]},{"id":28,"x":372,"y":82,"visible":true,"properties":[{"name":"layer","type":"int","value":1},{"name":"group","type":"int","value":0},{"name":"id","type":"int","value":11},{"name":"fh_layer","type":"int","value":1},{"name":"fh_group","type":"int","value":0},{"name":"fh_id","type":"int","value":11},{"name":"x1","type":"int","value":372},{"name":"x2","type":"int","value":372},{"name":"y1","type":"int","value":82},{"name":"y2","type":"int","value":-288},{"name":"next","type":"int","value":0},{"name":"prev","type":"int","value":10}],"polyline":[{"x":0,"y":0},{"x":0,"y":-370}]},{"id":29,"x":126,"y":107,"visible":true,"properties":[{"name":"layer","type":"int","value":1},{"name":"group","type":"int","value":0},{"name":"id","type":"int","value":12},{"name":"fh_layer","type":"int","value":1},{"name":"fh_group","type":"int","value":0},{"name":"fh_id","type":"int","value":12},{"name":"x1","type":"int","value":126},{"name":"x2","type":"int","value":175},{"name":"y1","type":"int","value":107},{"name":"y2","type":"int","value":107},{"name":"next","type":"int","value":0},{"name":"prev","type":"int","value":0}],"polyline":[{"x":0,"y":0},{"x":49,"y":0}]},{"id":30,"x":126,"y":58,"visible":true,"properties":[{"name":"layer","type":"int","value":1},{"name":"group","type":"int","value":0},{"name":"id","type":"int","value":13},{"name":"fh_layer","type":"int","value":1},{"name":"fh_group","type":"int","value":0},{"name":"fh_id","type":"int","value":13},{"name":"x1","type":"int","value":126},{"name":"x2","type":"int","value":175},{"name":"y1","type":"int","value":58},{"name":"y2","type":"int","value":58},{"name":"next","type":"int","value":0},{"name":"prev","type":"int","value":0}],"polyline":[{"x":0,"y":0},{"x":49,"y":0}]},{"id":31,"x":128,"y":7,"visible":true,"properties":[{"name":"layer","type":"int","value":1},{"name":"group","type":"int","value":0},{"name":"id","type":"int","value":14},{"name":"fh_layer","type":"int","value":1},{"name":"fh_group","type":"int","value":0},{"name":"fh_id","type":"int","value":14},{"name":"x1","type":"int","value":128},{"name":"x2","type":"int","value":172},{"name":"y1","type":"int","value":7},{"name":"y2","type":"int","value":7},{"name":"next","type":"int","value":0},{"name":"prev","type":"int","value":0}],"polyline":[{"x":0,"y":0},{"x":44,"y":0}]},{"id":32,"x":-133,"y":-33,"visible":true,"properties":[{"name":"layer","type":"int","value":1},{"name":"group","type":"int","value":0},{"name":"id","type":"int","value":15},{"name":"fh_layer","type":"int","value":1},{"name":"fh_group","type":"int","value":0},{"name":"fh_id","type":"int","value":15},{"name":"x1","type":"int","value":-133},{"name":"x2","type":"int","value":130},{"name":"y1","type":"int","value":-33},{"name":"y2","type":"int","value":-33},{"name":"next","type":"int","value":0},{"name":"prev","type":"int","value":0}],"polyline":[{"x":0,"y":0},{"x":263,"y":0}]},{"id":33,"x":-305,"y":-179,"visible":true,"properties":[{"name":"layer","type":"int","value":1},{"name":"group","type":"int","value":0},{"name":"id","type":"int","value":16},{"name":"fh_layer","type":"int","value":1},{"name":"fh_group","type":"int","value":0},{"name":"fh_id","type":"int","value":16},{"name":"x1","type":"int","value":-305},{"name":"x2","type":"int","value":-305},{"name":"y1","type":"int","value":-179},{"name":"y2","type":"int","value":-27},{"name":"next","type":"int","value":17},{"name":"prev","type":"int","value":0}],"polyline":[{"x":0,"y":0},{"x":0,"y":152}]},{"id":34,"x":-305,"y":-27,"visible":true,"properties":[{"name":"layer","type":"int","value":1},{"name":"group","type":"int","value":0},{"name":"id","type":"int","value":17},{"name":"fh_layer","type":"int","value":1},{"name":"fh_group","type":"int","value":0},{"name":"fh_id","type":"int","value":17},{"name":"x1","type":"int","value":-305},{"name":"x2","type":"int","value":-184},{"name":"y1","type":"int","value":-27},{"name":"y2","type":"int","value":-27},{"name":"next","type":"int","value":0},{"name":"prev","type":"int","value":16}],"polyline":[{"x":0,"y":0},{"x":121,"y":0}]},{"id":35,"x":-236,"y":157,"visible":true,"properties":[{"name":"layer","type":"int","value":1},{"name":"group","type":"int","value":0},{"name":"id","type":"int","value":18},{"name":"fh_layer","type":"int","value":1},{"name":"fh_group","type":"int","value":0},{"name":"fh_id","type":"int","value":18},{"name":"x1","type":"int","value":-236},{"name":"x2","type":"int","value":-198},{"name":"y1","type":"int","value":157},{"name":"y2","type":"int","value":157},{"name":"next","type":"int","value":0},{"name":"prev","type":"int","value":0}],"polyline":[{"x":0,"y":0},{"x":38,"y":0}]},{"id":36,"x":-247,"y":94,"visible":true,"properties":[{"name":"layer","type":"int","value":1},{"name":"group","type":"int","value":0},{"name":"id","type":"int","value":19},{"name":"fh_layer","type":"int","value":1},{"name":"fh_group","type":"int","value":0},{"name":"fh_id","type":"int","value":19},{"name":"x1","type":"int","value":-247},{"name":"x2","type":"int","value":-238},{"name":"y1","type":"int","value":94},{"name":"y2","type":"int","value":94},{"name":"next","type":"int","value":20},{"name":"prev","type":"int","value":0}],"polyline":[{"x":0,"y":0},{"x":9,"y":0}]},{"id":37,"x":-238,"y":94,"visible":true,"properties":[{"name":"layer","type":"int","value":1},{"name":"group","type":"int","value":0},{"name":"id","type":"int","value":20},{"name":"fh_layer","type":"int","value":1},{"name":"fh_group","type":"int","value":0},{"name":"fh_id","type":"int","value":20},{"name":"x1","type":"int","value":-238},{"name":"x2","type":"int","value":-235},{"name":"y1","type":"int","value":94},{"name":"y2","type":"int","value":98},{"name":"next","type":"int","value":21},{"name":"prev","type":"int","value":19}],"polyline":[{"x":0,"y":0},{"x":3,"y":4}]},{"id":38,"x":-235,"y":98,"visible":true,"properties":[{"name":"layer","type":"int","value":1},{"name":"group","type":"int","value":0},{"name":"id","type":"int","value":21},{"name":"fh_layer","type":"int","value":1},{"name":"fh_group","type":"int","value":0},{"name":"fh_id","type":"int","value":21},{"name":"x1","type":"int","value":-235},{"name":"x2","type":"int","value":-231},{"name":"y1","type":"int","value":98},{"name":"y2","type":"int","value":98},{"name":"next","type":"int","value":22},{"name":"prev","type":"int","value":20}],"polyline":[{"x":0,"y":0},{"x":4,"y":0}]},{"id":39,"x":-231,"y":98,"visible":true,"properties":[{"name":"layer","type":"int","value":1},{"name":"group","type":"int","value":0},{"name":"id","type":"int","value":22},{"name":"fh_layer","type":"int","value":1},{"name":"fh_group","type":"int","value":0},{"name":"fh_id","type":"int","value":22},{"name":"x1","type":"int","value":-231},{"name":"x2","type":"int","value":-229},{"name":"y1","type":"int","value":98},{"name":"y2","type":"int","value":96},{"name":"next","type":"int","value":23},{"name":"prev","type":"int","value":21}],"polyline":[{"x":0,"y":0},{"x":2,"y":-2}]},{"id":40,"x":-229,"y":96,"visible":true,"properties":[{"name":"layer","type":"int","value":1},{"name":"group","type":"int","value":0},{"name":"id","type":"int","value":23},{"name":"fh_layer","type":"int","value":1},{"name":"fh_group","type":"int","value":0},{"name":"fh_id","type":"int","value":23},{"name":"x1","type":"int","value":-229},{"name":"x2","type":"int","value":-212},{"name":"y1","type":"int","value":96},{"name":"y2","type":"int","value":96},{"name":"next","type":"int","value":24},{"name":"prev","type":"int","value":22}],"polyline":[{"x":0,"y":0},{"x":17,"y":0}]},{"id":41,"x":-212,"y":96,"visible":true,"properties":[{"name":"layer","type":"int","value":1},{"name":"group","type":"int","value":0},{"name":"id","type":"int","value":24},{"name":"fh_layer","type":"int","value":1},{"name":"fh_group","type":"int","value":0},{"name":"fh_id","type":"int","value":24},{"name":"x1","type":"int","value":-212},{"name":"x2","type":"int","value":-211},{"name":"y1","type":"int","value":96},{"name":"y2","type":"int","value":98},{"name":"next","type":"int","value":25},{"name":"prev","type":"int","value":23}],"polyline":[{"x":0,"y":0},{"x":1,"y":2}]},{"id":42,"x":-211,"y":98,"visible":true,"properties":[{"name":"layer","type":"int","value":1},{"name":"group","type":"int","value":0},{"name":"id","type":"int","value":25},{"name":"fh_layer","type":"int","value":1},{"name":"fh_group","type":"int","value":0},{"name":"fh_id","type":"int","value":25},{"name":"x1","type":"int","value":-211},{"name":"x2","type":"int","value":-207},{"name":"y1","type":"int","value":98},{"name":"y2","type":"int","value":98},{"name":"next","type":"int","value":26},{"name":"prev","type":"int","value":24}],"polyline":[{"x":0,"y":0},{"x":4,"y":0}]},{"id":43,"x":-207,"y":98,"visible":true,"properties":[{"name":"layer","type":"int","value":1},{"name":"group","type":"int","value":0},{"name":"id","type":"int","value":26},{"name":"fh_layer","type":"int","value":1},{"name":"fh_group","type":"int","value":0},{"name":"fh_id","type":"int","value":26},{"name":"x1","type":"int","value":-207},{"name":"x2","type":"int","value":-205},{"name":"y1","type":"int","value":98},{"name":"y2","type":"int","value":94},{"name":"next","type":"int","value":27},{"name":"prev","type":"int","value":25}],"polyline":[{"x":0,"y":0},{"x":2,"y":-4}]},{"id":44,"x":-205,"y":94,"visible":true,"properties":[{"name":"layer","type":"int","value":1},{"name":"group","type":"int","value":0},{"name":"id","type":"int","value":27},{"name":"fh_layer","type":"int","value":1},{"name":"fh_group","type":"int","value":0},{"name":"fh_id","type":"int","value":27},{"name":"x1","type":"int","value":-205},{"name":"x2","type":"int","value":-199},{"name":"y1","type":"int","value":94},{"name":"y2","type":"int","value":94},{"name":"next","type":"int","value":0},{"name":"prev","type":"int","value":26}],"polyline":[{"x":0,"y":0},{"x":6,"y":0}]},{"id":45,"x":185,"y":-94,"visible":true,"properties":[{"name":"layer","type":"int","value":1},{"name":"group","type":"int","value":0},{"name":"id","type":"int","value":28},{"name":"fh_layer","type":"int","value":1},{"name":"fh_group","type":"int","value":0},{"name":"fh_id","type":"int","value":28},{"name":"x1","type":"int","value":185},{"name":"x2","type":"int","value":306},{"name":"y1","type":"int","value":-94},{"name":"y2","type":"int","value":-94},{"name":"next","type":"int","value":0},{"name":"prev","type":"int","value":0}],"polyline":[{"x":0,"y":0},{"x":121,"y":0}]},{"id":46,"x":-400,"y":182,"visible":true,"properties":[{"name":"layer","type":"int","value":3},{"name":"group","type":"int","value":1},{"name":"id","type":"int","value":29},{"name":"fh_layer","type":"int","value":3},{"name":"fh_group","type":"int","value":1},{"name":"fh_id","type":"int","value":29},{"name":"x1","type":"int","value":-400},{"name":"x2","type":"int","value":400},{"name":"y1","type":"int","value":182},{"name":"y2","type":"int","value":182},{"name":"next","type":"int","value":0},{"name":"prev","type":"int","value":0}],"polyline":[{"x":0,"y":0},{"x":800,"y":0}]},{"id":47,"x":-70,"y":128,"visible":true,"properties":[{"name":"layer","type":"int","value":3},{"name":"group","type":"int","value":1},{"name":"id","type":"int","value":30},{"name":"fh_layer","type":"int","value":3},{"name":"fh_group","type":"int","value":1},{"name":"fh_id","type":"int","value":30},{"name":"x1","type":"int","value":-70},{"name":"x2","type":"int","value":-38},{"name":"y1","type":"int","value":128},{"name":"y2","type":"int","value":128},{"name":"next","type":"int","value":0},{"name":"prev","type":"int","value":0}],"polyline":[{"x":0,"y":0},{"x":32,"y":0}]}],"properties":[]}],"tilesets":[{"firstgid":1,"source":"../tilesets/obj_shop_shop_hairshopGS.tsj"},{"firstgid":9,"source":"../tilesets/portal_MapHelper.img_portal_game_pv.tsj"}],"properties":[{"name":"bgm","type":"string","value":"Bgm00/FloralLife"},{"name":"town","type":"int","value":1},{"name":"VRTop","type":"int","value":-300},{"name":"cloud","type":"int","value":0},{"name":"VRLeft","type":"int","value":-400},{"name":"VRRight","type":"int","value":400},{"name":"mapDesc","type":"string","value":""},{"name":"mapMark","type":"string","value":"Henesys"},{"name":"mobRate","type":"float","value":1},{"name":"version","type":"int","value":10},{"name":"VRBottom","type":"int","value":300},{"name":"moveLimit","type":"int","value":0},{"name":"returnMap","type":"int","value":100000000},{"name":"hideMinimap","type":"int","value":0},{"name":"forcedReturn","type":"int","value":999999999}]}