{"type":"map","orientation":"orthogonal","renderorder":"right-down","infinite":false,"tilewidth":1,"tileheight":1,"width":975,"height":2615,"parallaxoriginx":-400,"parallaxoriginy":80,"nextlayerid":23,"nextobjectid":87,"layers":[{"id":1,"name":"background_back_0","type":"imagelayer","visible":true,"opacity":1,"image":"../images/27988.png","imagewidth":303,"imageheight":180,"offsetx":-213,"offsety":-67,"repeatx":true,"repeaty":true,"parallaxx":0.02,"parallaxy":0.1,"properties":[{"name":"a","type":"int","value":255},{"name":"f","type":"int","value":0},{"name":"x","type":"int","value":-13},{"name":"y","type":"int","value":3},{"name":"bS","type":"string","value":"shineWood"},{"name":"cx","type":"int","value":0},{"name":"cy","type":"int","value":0},{"name":"no","type":"int","value":0},{"name":"rx","type":"int","value":-2},{"name":"ry","type":"int","value":-10},{"name":"ani","type":"int","value":0},{"name":"type","type":"int","value":3},{"name":"front","type":"int","value":0}]},{"id":2,"name":"background_back_1","type":"imagelayer","visible":true,"opacity":1,"image":"../images/27989.png","imagewidth":469,"imageheight":647,"offsetx":29,"offsety":-494,"repeatx":false,"repeaty":true,"parallaxx":0.03,"parallaxy":0.15,"properties":[{"name":"a","type":"int","value":255},{"name":"f","type":"int","value":0},{"name":"x","type":"int","value":241},{"name":"y","type":"int","value":-79},{"name":"bS","type":"string","value":"shineWood"},{"name":"cx","type":"int","value":0},{"name":"cy","type":"int","value":0},{"name":"no","type":"int","value":1},{"name":"rx","type":"int","value":-3},{"name":"ry","type":"int","value":-15},{"name":"ani","type":"int","value":0},{"name":"type","type":"int","value":2},{"name":"front","type":"int","value":0}]},{"id":3,"name":"background_back_2","type":"imagelayer","visible":true,"opacity":1,"image":"../images/27990.png","imagewidth":392,"imageheight":600,"offsetx":-523,"offsety":-454,"repeatx":false,"repeaty":true,"parallaxx":0.03,"parallaxy":0.15,"properties":[{"name":"a","type":"int","value":255},{"name":"f","type":"int","value":0},{"name":"x","type":"int","value":-297},{"name":"y","type":"int","value":-45},{"name":"bS","type":"string","value":"shineWood"},{"name":"cx","type":"int","value":0},{"name":"cy","type":"int","value":0},{"name":"no","type":"int","value":2},{"name":"rx","type":"int","value":-3},{"name":"ry","type":"int","value":-15},{"name":"ani","type":"int","value":0},{"name":"type","type":"int","value":2},{"name":"front","type":"int","value":0}]},{"id":4,"name":"background_back_3","type":"imagelayer","visible":true,"opacity":1,"image":"../images/27995.png","imagewidth":180,"imageheight":392,"offsetx":38,"offsety":12,"repeatx":true,"repeaty":true,"parallaxx":0.15,"parallaxy":0.23,"properties":[{"name":"a","type":"int","value":255},{"name":"f","type":"int","value":0},{"name":"x","type":"int","value":128},{"name":"y","type":"int","value":128},{"name":"bS","type":"string","value":"shineWood"},{"name":"cx","type":"int","value":400},{"name":"cy","type":"int","value":0},{"name":"no","type":"int","value":7},{"name":"rx","type":"int","value":-15},{"name":"ry","type":"int","value":-23},{"name":"ani","type":"int","value":0},{"name":"type","type":"int","value":3},{"name":"front","type":"int","value":0}]},{"id":5,"name":"background_back_4","type":"imagelayer","visible":true,"opacity":1,"image":"../images/27993.png","imagewidth":195,"imageheight":392,"offsetx":-528,"offsety":-122,"repeatx":true,"repeaty":true,"parallaxx":0.18,"parallaxy":0.25,"properties":[{"name":"a","type":"int","value":255},{"name":"f","type":"int","value":0},{"name":"x","type":"int","value":-431},{"name":"y","type":"int","value":-6},{"name":"bS","type":"string","value":"shineWood"},{"name":"cx","type":"int","value":600},{"name":"cy","type":"int","value":0},{"name":"no","type":"int","value":5},{"name":"rx","type":"int","value":-18},{"name":"ry","type":"int","value":-25},{"name":"ani","type":"int","value":0},{"name":"type","type":"int","value":3},{"name":"front","type":"int","value":0}]},{"id":6,"name":"background_back_5","type":"imagelayer","visible":true,"opacity":1,"image":"../images/27994.png","imagewidth":191,"imageheight":392,"offsetx":-252,"offsety":251,"repeatx":false,"repeaty":true,"parallaxx":0.2,"parallaxy":0.25,"properties":[{"name":"a","type":"int","value":255},{"name":"f","type":"int","value":0},{"name":"x","type":"int","value":-157},{"name":"y","type":"int","value":367},{"name":"bS","type":"string","value":"shineWood"},{"name":"cx","type":"int","value":550},{"name":"cy","type":"int","value":0},{"name":"no","type":"int","value":6},{"name":"rx","type":"int","value":-20},{"name":"ry","type":"int","value":-25},{"name":"ani","type":"int","value":0},{"name":"type","type":"int","value":2},{"name":"front","type":"int","value":0}]},{"id":7,"name":"background_back_6","type":"imagelayer","visible":true,"opacity":1,"image":"../images/27998.png","imagewidth":205,"imageheight":602,"offsetx":-331,"offsety":-155,"repeatx":true,"repeaty":true,"parallaxx":0.25,"parallaxy":0.3,"properties":[{"name":"a","type":"int","value":255},{"name":"f","type":"int","value":0},{"name":"x","type":"int","value":-229},{"name":"y","type":"int","value":66},{"name":"bS","type":"string","value":"shineWood"},{"name":"cx","type":"int","value":500},{"name":"cy","type":"int","value":0},{"name":"no","type":"int","value":10},{"name":"rx","type":"int","value":-25},{"name":"ry","type":"int","value":-30},{"name":"ani","type":"int","value":0},{"name":"type","type":"int","value":3},{"name":"front","type":"int","value":0}]},{"id":8,"name":"background_back_7","type":"imagelayer","visible":true,"opacity":1,"image":"../images/27998.png","imagewidth":205,"imageheight":602,"offsetx":-618,"offsety":-444,"repeatx":true,"repeaty":true,"parallaxx":0.23,"parallaxy":0.28,"properties":[{"name":"a","type":"int","value":255},{"name":"f","type":"int","value":0},{"name":"x","type":"int","value":-516},{"name":"y","type":"int","value":-223},{"name":"bS","type":"string","value":"shineWood"},{"name":"cx","type":"int","value":450},{"name":"cy","type":"int","value":0},{"name":"no","type":"int","value":10},{"name":"rx","type":"int","value":-23},{"name":"ry","type":"int","value":-28},{"name":"ani","type":"int","value":0},{"name":"type","type":"int","value":3},{"name":"front","type":"int","value":0}]},{"id":9,"name":"background_back_8","type":"imagelayer","visible":true,"opacity":1,"image":"../images/28004.png","imagewidth":265,"imageheight":265,"offsetx":-568,"offsety":-561,"repeatx":true,"repeaty":true,"parallaxx":0.31,"parallaxy":0.31,"properties":[{"name":"a","type":"int","value":255},{"name":"f","type":"int","value":0},{"name":"x","type":"int","value":-434},{"name":"y","type":"int","value":-507},{"name":"bS","type":"string","value":"shineWood"},{"name":"cx","type":"int","value":548},{"name":"cy","type":"int","value":548},{"name":"no","type":"int","value":16},{"name":"rx","type":"int","value":-31},{"name":"ry","type":"int","value":-31},{"name":"ani","type":"int","value":0},{"name":"type","type":"int","value":3},{"name":"front","type":"int","value":0},{"name":"a0","type":"int","value":235}]},{"id":10,"name":"background_back_9","type":"imagelayer","visible":true,"opacity":1,"image":"../images/28004.png","imagewidth":265,"imageheight":265,"offsetx":-431,"offsety":-424,"repeatx":true,"repeaty":true,"parallaxx":0.31,"parallaxy":0.31,"properties":[{"name":"a","type":"int","value":255},{"name":"f","type":"int","value":0},{"name":"x","type":"int","value":-297},{"name":"y","type":"int","value":-370},{"name":"bS","type":"string","value":"shineWood"},{"name":"cx","type":"int","value":548},{"name":"cy","type":"int","value":548},{"name":"no","type":"int","value":16},{"name":"rx","type":"int","value":-31},{"name":"ry","type":"int","value":-31},{"name":"ani","type":"int","value":0},{"name":"type","type":"int","value":3},{"name":"front","type":"int","value":0},{"name":"a0","type":"int","value":235}]},{"id":11,"name":"background_back_10","type":"imagelayer","visible":true,"opacity":1,"image":"../images/28004.png","imagewidth":265,"imageheight":265,"offsetx":-294,"offsety":-287,"repeatx":true,"repeaty":true,"parallaxx":0.31,"parallaxy":0.31,"properties":[{"name":"a","type":"int","value":255},{"name":"f","type":"int","value":0},{"name":"x","type":"int","value":-160},{"name":"y","type":"int","value":-233},{"name":"bS","type":"string","value":"shineWood"},{"name":"cx","type":"int","value":548},{"name":"cy","type":"int","value":548},{"name":"no","type":"int","value":16},{"name":"rx","type":"int","value":-31},{"name":"ry","type":"int","value":-31},{"name":"ani","type":"int","value":0},{"name":"type","type":"int","value":3},{"name":"front","type":"int","value":0},{"name":"a0","type":"int","value":235}]},{"id":12,"name":"background_back_11","type":"imagelayer","visible":true,"opacity":1,"image":"../images/28004.png","imagewidth":265,"imageheight":265,"offsetx":-157,"offsety":-150,"repeatx":true,"repeaty":true,"parallaxx":0.31,"parallaxy":0.31,"properties":[{"name":"a","type":"int","value":255},{"name":"f","type":"int","value":0},{"name":"x","type":"int","value":-23},{"name":"y","type":"int","value":-96},{"name":"bS","type":"string","value":"shineWood"},{"name":"cx","type":"int","value":548},{"name":"cy","type":"int","value":548},{"name":"no","type":"int","value":16},{"name":"rx","type":"int","value":-31},{"name":"ry","type":"int","value":-31},{"name":"ani","type":"int","value":0},{"name":"type","type":"int","value":3},{"name":"front","type":"int","value":0},{"name":"a0","type":"int","value":235}]},{"id":13,"name":"background_back_12","type":"imagelayer","visible":true,"opacity":1,"image":"../images/28000.png","imagewidth":295,"imageheight":602,"offsetx":270,"offsety":-524,"repeatx":false,"repeaty":true,"parallaxx":0.35,"parallaxy":0.35,"properties":[{"name":"a","type":"int","value":255},{"name":"f","type":"int","value":0},{"name":"x","type":"int","value":417},{"name":"y","type":"int","value":-303},{"name":"bS","type":"string","value":"shineWood"},{"name":"cx","type":"int","value":0},{"name":"cy","type":"int","value":0},{"name":"no","type":"int","value":12},{"name":"rx","type":"int","value":-35},{"name":"ry","type":"int","value":-35},{"name":"ani","type":"int","value":0},{"name":"type","type":"int","value":2},{"name":"front","type":"int","value":0}]},{"id":14,"name":"background_back_13","type":"imagelayer","visible":true,"opacity":1,"image":"../images/28003.png","imagewidth":275,"imageheight":400,"offsetx":-1519,"offsety":-134,"repeatx":false,"repeaty":true,"parallaxx":1,"parallaxy":1,"properties":[{"name":"a","type":"int","value":255},{"name":"f","type":"int","value":0},{"name":"x","type":"int","value":-1382},{"name":"y","type":"int","value":-14},{"name":"bS","type":"string","value":"shineWood"},{"name":"cx","type":"int","value":0},{"name":"cy","type":"int","value":0},{"name":"no","type":"int","value":15},{"name":"rx","type":"int","value":-100},{"name":"ry","type":"int","value":-100},{"name":"ani","type":"int","value":0},{"name":"type","type":"int","value":2},{"name":"front","type":"int","value":0}]},{"id":15,"name":"background_back_14","type":"imagelayer","visible":true,"opacity":1,"image":"../images/28003.png","imagewidth":275,"imageheight":400,"offsetx":63,"offsety":-205,"repeatx":false,"repeaty":true,"parallaxx":1,"parallaxy":1,"properties":[{"name":"a","type":"int","value":255},{"name":"f","type":"int","value":0},{"name":"x","type":"int","value":200},{"name":"y","type":"int","value":-85},{"name":"bS","type":"string","value":"shineWood"},{"name":"cx","type":"int","value":0},{"name":"cy","type":"int","value":0},{"name":"no","type":"int","value":15},{"name":"rx","type":"int","value":-100},{"name":"ry","type":"int","value":-100},{"name":"ani","type":"int","value":0},{"name":"type","type":"int","value":2},{"name":"front","type":"int","value":0}]},{"id":16,"name":"layer_2_obj","type":"objectgroup","visible":true,"opacity":1,"draworder":"index","offsetx":0,"offsety":0,"parallaxx":1,"parallaxy":1,"objects":[{"id":1,"x":-359,"y":61,"visible":true,"properties":[{"name":"layer","type":"int","value":2},{"name":"resource_index","type":"int","value":0},{"name":"oS","type":"string","value":"acc2"},{"name":"l0","type":"string","value":"shineWood"},{"name":"l1","type":"string","value":"artificiality"},{"name":"l2","type":"string","value":"1"},{"name":"z","type":"int","value":9},{"name":"zM","type":"int","value":3},{"name":"f","type":"int","value":0}],"gid":68,"width":75,"height":90}],"properties":[]},{"id":17,"name":"layer_3_obj","type":"objectgroup","visible":true,"opacity":1,"draworder":"index","offsetx":0,"offsety":0,"parallaxx":1,"parallaxy":1,"objects":[{"id":26,"x":195,"y":71,"visible":true,"properties":[{"name":"layer","type":"int","value":3},{"name":"resource_index","type":"int","value":0},{"name":"oS","type":"string","value":"acc2"},{"name":"l0","type":"string","value":"shineWood"},{"name":"l1","type":"string","value":"foot"},{"name":"l2","type":"string","value":"0"},{"name":"z","type":"int","value":8},{"name":"zM","type":"int","value":1},{"name":"f","type":"int","value":0}],"gid":46,"width":206,"height":110},{"id":27,"x":-1,"y":101,"visible":true,"properties":[{"name":"layer","type":"int","value":3},{"name":"resource_index","type":"int","value":1},{"name":"oS","type":"string","value":"acc2"},{"name":"l0","type":"string","value":"shineWood"},{"name":"l1","type":"string","value":"foot"},{"name":"l2","type":"string","value":"7"},{"name":"z","type":"int","value":9},{"name":"zM","type":"int","value":1},{"name":"f","type":"int","value":0}],"gid":50,"width":233,"height":147},{"id":28,"x":-96,"y":151,"visible":true,"properties":[{"name":"layer","type":"int","value":3},{"name":"resource_index","type":"int","value":2},{"name":"oS","type":"string","value":"acc2"},{"name":"l0","type":"string","value":"shineWood"},{"name":"l1","type":"string","value":"foot"},{"name":"l2","type":"string","value":"1"},{"name":"z","type":"int","value":10},{"name":"zM","type":"int","value":1},{"name":"f","type":"int","value":0}],"gid":38,"width":149,"height":86},{"id":29,"x":63,"y":91,"visible":true,"properties":[{"name":"layer","type":"int","value":3},{"name":"resource_index","type":"int","value":3},{"name":"oS","type":"string","value":"acc2"},{"name":"l0","type":"string","value":"shineWood"},{"name":"l1","type":"string","value":"minidungeon"},{"name":"l2","type":"string","value":"2"},{"name":"z","type":"int","value":5},{"name":"zM","type":"int","value":1},{"name":"f","type":"int","value":0}],"gid":66,"width":275,"height":345},{"id":30,"x":-423,"y":94,"visible":true,"properties":[{"name":"layer","type":"int","value":3},{"name":"resource_index","type":"int","value":4},{"name":"oS","type":"string","value":"acc2"},{"name":"l0","type":"string","value":"shineWood"},{"name":"l1","type":"string","value":"foot"},{"name":"l2","type":"string","value":"2"},{"name":"z","type":"int","value":9},{"name":"zM","type":"int","value":2},{"name":"f","type":"int","value":0}],"gid":39,"width":149,"height":63}],"properties":[]},{"id":18,"name":"layer_3_tile","type":"objectgroup","visible":true,"opacity":1,"draworder":"index","offsetx":0,"offsety":0,"parallaxx":1,"parallaxy":1,"objects":[{"id":2,"x":0,"y":2125,"visible":true,"properties":[{"name":"layer","type":"int","value":3},{"name":"resource_index","type":"int","value":0},{"name":"u","type":"string","value":"enH1"},{"name":"no","type":"int","value":0},{"name":"zM","type":"int","value":0}],"gid":34,"width":90,"height":25},{"id":3,"x":0,"y":2100,"visible":true,"properties":[{"name":"layer","type":"int","value":3},{"name":"resource_index","type":"int","value":1},{"name":"u","type":"string","value":"enH0"},{"name":"no","type":"int","value":0},{"name":"zM","type":"int","value":0}],"gid":35,"width":90,"height":25},{"id":4,"x":360,"y":2100,"visible":true,"properties":[{"name":"layer","type":"int","value":3},{"name":"resource_index","type":"int","value":2},{"name":"u","type":"string","value":"enH0"},{"name":"no","type":"int","value":0},{"name":"zM","type":"int","value":0}],"gid":35,"width":90,"height":25},{"id":5,"x":360,"y":2125,"visible":true,"properties":[{"name":"layer","type":"int","value":3},{"name":"resource_index","type":"int","value":3},{"name":"u","type":"string","value":"enH1"},{"name":"no","type":"int","value":0},{"name":"zM","type":"int","value":0}],"gid":34,"width":90,"height":25},{"id":6,"x":-180,"y":2125,"visible":true,"properties":[{"name":"layer","type":"int","value":3},{"name":"resource_index","type":"int","value":4},{"name":"u","type":"string","value":"enH1"},{"name":"no","type":"int","value":0},{"name":"zM","type":"int","value":0}],"gid":34,"width":90,"height":25},{"id":7,"x":-180,"y":2100,"visible":true,"properties":[{"name":"layer","type":"int","value":3},{"name":"resource_index","type":"int","value":5},{"name":"u","type":"string","value":"enH0"},{"name":"no","type":"int","value":0},{"name":"zM","type":"int","value":0}],"gid":35,"width":90,"height":25},{"id":8,"x":270,"y":2125,"visible":true,"properties":[{"name":"layer","type":"int","value":3},{"name":"resource_index","type":"int","value":6},{"name":"u","type":"string","value":"enH1"},{"name":"no","type":"int","value":0},{"name":"zM","type":"int","value":0}],"gid":34,"width":90,"height":25},{"id":9,"x":270,"y":2100,"visible":true,"properties":[{"name":"layer","type":"int","value":3},{"name":"resource_index","type":"int","value":7},{"name":"u","type":"string","value":"enH0"},{"name":"no","type":"int","value":0},{"name":"zM","type":"int","value":0}],"gid":35,"width":90,"height":25},{"id":10,"x":-270,"y":2100,"visible":true,"properties":[{"name":"layer","type":"int","value":3},{"name":"resource_index","type":"int","value":8},{"name":"u","type":"string","value":"enH0"},{"name":"no","type":"int","value":0},{"name":"zM","type":"int","value":0}],"gid":35,"width":90,"height":25},{"id":11,"x":-270,"y":2125,"visible":true,"properties":[{"name":"layer","type":"int","value":3},{"name":"resource_index","type":"int","value":9},{"name":"u","type":"string","value":"enH1"},{"name":"no","type":"int","value":0},{"name":"zM","type":"int","value":0}],"gid":34,"width":90,"height":25},{"id":12,"x":-360,"y":2125,"visible":true,"properties":[{"name":"layer","type":"int","value":3},{"name":"resource_index","type":"int","value":10},{"name":"u","type":"string","value":"enH1"},{"name":"no","type":"int","value":0},{"name":"zM","type":"int","value":0}],"gid":34,"width":90,"height":25},{"id":13,"x":-360,"y":2100,"visible":true,"properties":[{"name":"layer","type":"int","value":3},{"name":"resource_index","type":"int","value":11},{"name":"u","type":"string","value":"enH0"},{"name":"no","type":"int","value":0},{"name":"zM","type":"int","value":0}],"gid":35,"width":90,"height":25},{"id":14,"x":-90,"y":2100,"visible":true,"properties":[{"name":"layer","type":"int","value":3},{"name":"resource_index","type":"int","value":12},{"name":"u","type":"string","value":"enH0"},{"name":"no","type":"int","value":0},{"name":"zM","type":"int","value":0}],"gid":35,"width":90,"height":25},{"id":15,"x":-90,"y":2125,"visible":true,"properties":[{"name":"layer","type":"int","value":3},{"name":"resource_index","type":"int","value":13},{"name":"u","type":"string","value":"enH1"},{"name":"no","type":"int","value":0},{"name":"zM","type":"int","value":0}],"gid":34,"width":90,"height":25},{"id":16,"x":-450,"y":2125,"visible":true,"properties":[{"name":"layer","type":"int","value":3},{"name":"resource_index","type":"int","value":14},{"name":"u","type":"string","value":"enH1"},{"name":"no","type":"int","value":0},{"name":"zM","type":"int","value":0}],"gid":34,"width":90,"height":25},{"id":17,"x":-450,"y":2100,"visible":true,"properties":[{"name":"layer","type":"int","value":3},{"name":"resource_index","type":"int","value":15},{"name":"u","type":"string","value":"enH0"},{"name":"no","type":"int","value":0},{"name":"zM","type":"int","value":0}],"gid":35,"width":90,"height":25},{"id":18,"x":-540,"y":2125,"visible":true,"properties":[{"name":"layer","type":"int","value":3},{"name":"resource_index","type":"int","value":16},{"name":"u","type":"string","value":"enH1"},{"name":"no","type":"int","value":0},{"name":"zM","type":"int","value":0}],"gid":34,"width":90,"height":25},{"id":19,"x":-540,"y":2100,"visible":true,"properties":[{"name":"layer","type":"int","value":3},{"name":"resource_index","type":"int","value":17},{"name":"u","type":"string","value":"enH0"},{"name":"no","type":"int","value":0},{"name":"zM","type":"int","value":0}],"gid":35,"width":90,"height":25},{"id":20,"x":-565,"y":2125,"visible":true,"properties":[{"name":"layer","type":"int","value":3},{"name":"resource_index","type":"int","value":18},{"name":"u","type":"string","value":"edD"},{"name":"no","type":"int","value":0},{"name":"zM","type":"int","value":0}],"gid":36,"width":50,"height":25},{"id":21,"x":-565,"y":2100,"visible":true,"properties":[{"name":"layer","type":"int","value":3},{"name":"resource_index","type":"int","value":19},{"name":"u","type":"string","value":"edU"},{"name":"no","type":"int","value":0},{"name":"zM","type":"int","value":0}],"gid":37,"width":50,"height":25},{"id":22,"x":90,"y":2100,"visible":true,"properties":[{"name":"layer","type":"int","value":3},{"name":"resource_index","type":"int","value":20},{"name":"u","type":"string","value":"enH0"},{"name":"no","type":"int","value":0},{"name":"zM","type":"int","value":0}],"gid":35,"width":90,"height":25},{"id":23,"x":90,"y":2125,"visible":true,"properties":[{"name":"layer","type":"int","value":3},{"name":"resource_index","type":"int","value":21},{"name":"u","type":"string","value":"enH1"},{"name":"no","type":"int","value":0},{"name":"zM","type":"int","value":0}],"gid":34,"width":90,"height":25},{"id":24,"x":180,"y":2100,"visible":true,"properties":[{"name":"layer","type":"int","value":3},{"name":"resource_index","type":"int","value":22},{"name":"u","type":"string","value":"enH0"},{"name":"no","type":"int","value":0},{"name":"zM","type":"int","value":0}],"gid":35,"width":90,"height":25},{"id":25,"x":180,"y":2125,"visible":true,"properties":[{"name":"layer","type":"int","value":3},{"name":"resource_index","type":"int","value":23},{"name":"u","type":"string","value":"enH1"},{"name":"no","type":"int","value":0},{"name":"zM","type":"int","value":0}],"gid":34,"width":90,"height":25}],"properties":[]},{"id":19,"name":"portal","type":"objectgroup","visible":true,"opacity":1,"draworder":"index","offsetx":0,"offsety":0,"parallaxx":1,"parallaxy":1,"objects":[{"id":31,"x":324,"y":-59,"visible":true,"properties":[{"name":"x","type":"int","value":324},{"name":"y","type":"int","value":-59},{"name":"pn","type":"string","value":"sp"},{"name":"pt","type":"int","value":0},{"name":"tm","type":"int","value":999999999},{"name":"tn","type":"string","value":""},{"name":"portal_id","type":"int","value":0}],"point":true},{"id":32,"x":182,"y":-44,"visible":true,"properties":[{"name":"x","type":"int","value":226},{"name":"y","type":"int","value":-53},{"name":"pn","type":"string","value":"under00"},{"name":"pt","type":"int","value":2},{"name":"tm","type":"int","value":101010102},{"name":"tn","type":"string","value":"top00"},{"name":"delay","type":"int","value":0},{"name":"script","type":"string","value":""},{"name":"onlyOnce","type":"int","value":0},{"name":"hideTooltip","type":"int","value":0},{"name":"portal_id","type":"int","value":1}],"gid":79,"width":89,"height":257},{"id":33,"x":-542,"y":2058,"visible":true,"properties":[{"name":"x","type":"int","value":-542},{"name":"y","type":"int","value":2058},{"name":"pn","type":"string","value":"goSleepy0"},{"name":"pt","type":"int","value":3},{"name":"tm","type":"int","value":105040300},{"name":"tn","type":"string","value":"jumpSP"},{"name":"portal_id","type":"int","value":2}],"point":true},{"id":34,"x":-454,"y":2058,"visible":true,"properties":[{"name":"x","type":"int","value":-454},{"name":"y","type":"int","value":2058},{"name":"pn","type":"string","value":"goSleepy1"},{"name":"pt","type":"int","value":3},{"name":"tm","type":"int","value":105040300},{"name":"tn","type":"string","value":"jumpSP"},{"name":"portal_id","type":"int","value":3}],"point":true},{"id":35,"x":-366,"y":2058,"visible":true,"properties":[{"name":"x","type":"int","value":-366},{"name":"y","type":"int","value":2058},{"name":"pn","type":"string","value":"goSleepy2"},{"name":"pt","type":"int","value":3},{"name":"tm","type":"int","value":105040300},{"name":"tn","type":"string","value":"jumpSP"},{"name":"portal_id","type":"int","value":4}],"point":true},{"id":36,"x":-278,"y":2058,"visible":true,"properties":[{"name":"x","type":"int","value":-278},{"name":"y","type":"int","value":2058},{"name":"pn","type":"string","value":"goSleepy3"},{"name":"pt","type":"int","value":3},{"name":"tm","type":"int","value":105040300},{"name":"tn","type":"string","value":"jumpSP"},{"name":"portal_id","type":"int","value":5}],"point":true},{"id":37,"x":-190,"y":2058,"visible":true,"properties":[{"name":"x","type":"int","value":-190},{"name":"y","type":"int","value":2058},{"name":"pn","type":"string","value":"goSleepy4"},{"name":"pt","type":"int","value":3},{"name":"tm","type":"int","value":105040300},{"name":"tn","type":"string","value":"jumpSP"},{"name":"portal_id","type":"int","value":6}],"point":true},{"id":38,"x":-102,"y":2058,"visible":true,"properties":[{"name":"x","type":"int","value":-102},{"name":"y","type":"int","value":2058},{"name":"pn","type":"string","value":"goSleepy5"},{"name":"pt","type":"int","value":3},{"name":"tm","type":"int","value":105040300},{"name":"tn","type":"string","value":"jumpSP"},{"name":"portal_id","type":"int","value":7}],"point":true},{"id":39,"x":-14,"y":2058,"visible":true,"properties":[{"name":"x","type":"int","value":-14},{"name":"y","type":"int","value":2058},{"name":"pn","type":"string","value":"goSleepy6"},{"name":"pt","type":"int","value":3},{"name":"tm","type":"int","value":105040300},{"name":"tn","type":"string","value":"jumpSP"},{"name":"portal_id","type":"int","value":8}],"point":true},{"id":40,"x":74,"y":2058,"visible":true,"properties":[{"name":"x","type":"int","value":74},{"name":"y","type":"int","value":2058},{"name":"pn","type":"string","value":"goSleepy7"},{"name":"pt","type":"int","value":3},{"name":"tm","type":"int","value":105040300},{"name":"tn","type":"string","value":"jumpSP"},{"name":"portal_id","type":"int","value":9}],"point":true},{"id":41,"x":162,"y":2058,"visible":true,"properties":[{"name":"x","type":"int","value":162},{"name":"y","type":"int","value":2058},{"name":"pn","type":"string","value":"goSleepy8"},{"name":"pt","type":"int","value":3},{"name":"tm","type":"int","value":105040300},{"name":"tn","type":"string","value":"jumpSP"},{"name":"portal_id","type":"int","value":10}],"point":true},{"id":42,"x":250,"y":2058,"visible":true,"properties":[{"name":"x","type":"int","value":250},{"name":"y","type":"int","value":2058},{"name":"pn","type":"string","value":"goSleepy9"},{"name":"pt","type":"int","value":3},{"name":"tm","type":"int","value":105040300},{"name":"tn","type":"string","value":"jumpSP"},{"name":"portal_id","type":"int","value":11}],"point":true},{"id":43,"x":338,"y":2058,"visible":true,"properties":[{"name":"x","type":"int","value":338},{"name":"y","type":"int","value":2058},{"name":"pn","type":"string","value":"goSleepy10"},{"name":"pt","type":"int","value":3},{"name":"tm","type":"int","value":105040300},{"name":"tn","type":"string","value":"jumpSP"},{"name":"portal_id","type":"int","value":12}],"point":true},{"id":44,"x":426,"y":2058,"visible":true,"properties":[{"name":"x","type":"int","value":426},{"name":"y","type":"int","value":2058},{"name":"pn","type":"string","value":"goSleepy11"},{"name":"pt","type":"int","value":3},{"name":"tm","type":"int","value":105040300},{"name":"tn","type":"string","value":"jumpSP"},{"name":"portal_id","type":"int","value":13}],"point":true},{"id":45,"x":-13,"y":61,"visible":true,"properties":[{"name":"x","type":"int","value":-13},{"name":"y","type":"int","value":61},{"name":"pn","type":"string","value":"highposition"},{"name":"pt","type":"int","value":9},{"name":"tm","type":"int","value":999999999},{"name":"tn","type":"string","value":""},{"name":"delay","type":"int","value":500},{"name":"script","type":"string","value":"highposition"},{"name":"onlyOnce","type":"int","value":1},{"name":"hideTooltip","type":"int","value":0},{"name":"horizontalImpact","type":"int","value":0},{"name":"portal_id","type":"int","value":14}],"point":true}],"properties":[]},{"id":20,"name":"life","type":"objectgroup","visible":true,"opacity":1,"draworder":"index","offsetx":0,"offsety":0,"parallaxx":1,"parallaxy":1,"objects":[{"id":46,"x":-66,"y":69,"visible":true,"properties":[{"name":"f","type":"int","value":0},{"name":"x","type":"int","value":-66},{"name":"y","type":"int","value":69},{"name":"cy","type":"int","value":103},{"name":"fh","type":"int","value":29},{"name":"id","type":"int","value":1032111},{"name":"rx0","type":"int","value":-66},{"name":"rx1","type":"int","value":-16},{"name":"hide","type":"int","value":1},{"name":"type","type":"string","value":"n"},{"name":"mobTime","type":"int","value":0}],"point":true}],"properties":[]},{"id":21,"name":"foothold","type":"objectgroup","visible":true,"opacity":1,"draworder":"index","offsetx":0,"offsety":0,"parallaxx":1,"parallaxy":1,"objects":[{"id":47,"x":0,"y":2075,"visible":true,"properties":[{"name":"layer","type":"int","value":3},{"name":"group","type":"int","value":0},{"name":"id","type":"int","value":1},{"name":"fh_layer","type":"int","value":3},{"name":"fh_group","type":"int","value":0},{"name":"fh_id","type":"int","value":1},{"name":"x1","type":"int","value":0},{"name":"x2","type":"int","value":90},{"name":"y1","type":"int","value":2075},{"name":"y2","type":"int","value":2075},{"name":"next","type":"int","value":13},{"name":"prev","type":"int","value":7}],"polyline":[{"x":0,"y":0},{"x":90,"y":0}]},{"id":48,"x":360,"y":2075,"visible":true,"properties":[{"name":"layer","type":"int","value":3},{"name":"group","type":"int","value":0},{"name":"id","type":"int","value":2},{"name":"fh_layer","type":"int","value":3},{"name":"fh_group","type":"int","value":0},{"name":"fh_id","type":"int","value":2},{"name":"x1","type":"int","value":360},{"name":"x2","type":"int","value":450},{"name":"y1","type":"int","value":2075},{"name":"y2","type":"int","value":2075},{"name":"next","type":"int","value":0},{"name":"prev","type":"int","value":4}],"polyline":[{"x":0,"y":0},{"x":90,"y":0}]},{"id":49,"x":-180,"y":2075,"visible":true,"properties":[{"name":"layer","type":"int","value":3},{"name":"group","type":"int","value":0},{"name":"id","type":"int","value":3},{"name":"fh_layer","type":"int","value":3},{"name":"fh_group","type":"int","value":0},{"name":"fh_id","type":"int","value":3},{"name":"x1","type":"int","value":-180},{"name":"x2","type":"int","value":-90},{"name":"y1","type":"int","value":2075},{"name":"y2","type":"int","value":2075},{"name":"next","type":"int","value":7},{"name":"prev","type":"int","value":5}],"polyline":[{"x":0,"y":0},{"x":90,"y":0}]},{"id":50,"x":270,"y":2075,"visible":true,"properties":[{"name":"layer","type":"int","value":3},{"name":"group","type":"int","value":0},{"name":"id","type":"int","value":4},{"name":"fh_layer","type":"int","value":3},{"name":"fh_group","type":"int","value":0},{"name":"fh_id","type":"int","value":4},{"name":"x1","type":"int","value":270},{"name":"x2","type":"int","value":360},{"name":"y1","type":"int","value":2075},{"name":"y2","type":"int","value":2075},{"name":"next","type":"int","value":2},{"name":"prev","type":"int","value":14}],"polyline":[{"x":0,"y":0},{"x":90,"y":0}]},{"id":51,"x":-270,"y":2075,"visible":true,"properties":[{"name":"layer","type":"int","value":3},{"name":"group","type":"int","value":0},{"name":"id","type":"int","value":5},{"name":"fh_layer","type":"int","value":3},{"name":"fh_group","type":"int","value":0},{"name":"fh_id","type":"int","value":5},{"name":"x1","type":"int","value":-270},{"name":"x2","type":"int","value":-180},{"name":"y1","type":"int","value":2075},{"name":"y2","type":"int","value":2075},{"name":"next","type":"int","value":3},{"name":"prev","type":"int","value":6}],"polyline":[{"x":0,"y":0},{"x":90,"y":0}]},{"id":52,"x":-360,"y":2075,"visible":true,"properties":[{"name":"layer","type":"int","value":3},{"name":"group","type":"int","value":0},{"name":"id","type":"int","value":6},{"name":"fh_layer","type":"int","value":3},{"name":"fh_group","type":"int","value":0},{"name":"fh_id","type":"int","value":6},{"name":"x1","type":"int","value":-360},{"name":"x2","type":"int","value":-270},{"name":"y1","type":"int","value":2075},{"name":"y2","type":"int","value":2075},{"name":"next","type":"int","value":5},{"name":"prev","type":"int","value":8}],"polyline":[{"x":0,"y":0},{"x":90,"y":0}]},{"id":53,"x":-90,"y":2075,"visible":true,"properties":[{"name":"layer","type":"int","value":3},{"name":"group","type":"int","value":0},{"name":"id","type":"int","value":7},{"name":"fh_layer","type":"int","value":3},{"name":"fh_group","type":"int","value":0},{"name":"fh_id","type":"int","value":7},{"name":"x1","type":"int","value":-90},{"name":"x2","type":"int","value":0},{"name":"y1","type":"int","value":2075},{"name":"y2","type":"int","value":2075},{"name":"next","type":"int","value":1},{"name":"prev","type":"int","value":3}],"polyline":[{"x":0,"y":0},{"x":90,"y":0}]},{"id":54,"x":-450,"y":2075,"visible":true,"properties":[{"name":"layer","type":"int","value":3},{"name":"group","type":"int","value":0},{"name":"id","type":"int","value":8},{"name":"fh_layer","type":"int","value":3},{"name":"fh_group","type":"int","value":0},{"name":"fh_id","type":"int","value":8},{"name":"x1","type":"int","value":-450},{"name":"x2","type":"int","value":-360},{"name":"y1","type":"int","value":2075},{"name":"y2","type":"int","value":2075},{"name":"next","type":"int","value":6},{"name":"prev","type":"int","value":12}],"polyline":[{"x":0,"y":0},{"x":90,"y":0}]},{"id":55,"x":-540,"y":2075,"visible":true,"properties":[{"name":"layer","type":"int","value":3},{"name":"group","type":"int","value":0},{"name":"id","type":"int","value":9},{"name":"fh_layer","type":"int","value":3},{"name":"fh_group","type":"int","value":0},{"name":"fh_id","type":"int","value":9},{"name":"x1","type":"int","value":-540},{"name":"x2","type":"int","value":-501},{"name":"y1","type":"int","value":2075},{"name":"y2","type":"int","value":2075},{"name":"next","type":"int","value":12},{"name":"prev","type":"int","value":11}],"polyline":[{"x":0,"y":0},{"x":39,"y":0}]},{"id":56,"x":-579,"y":2100,"visible":true,"properties":[{"name":"layer","type":"int","value":3},{"name":"group","type":"int","value":0},{"name":"id","type":"int","value":10},{"name":"fh_layer","type":"int","value":3},{"name":"fh_group","type":"int","value":0},{"name":"fh_id","type":"int","value":10},{"name":"x1","type":"int","value":-579},{"name":"x2","type":"int","value":-579},{"name":"y1","type":"int","value":2100},{"name":"y2","type":"int","value":2075},{"name":"next","type":"int","value":11},{"name":"prev","type":"int","value":0}],"polyline":[{"x":0,"y":0},{"x":0,"y":-25}]},{"id":57,"x":-579,"y":2075,"visible":true,"properties":[{"name":"layer","type":"int","value":3},{"name":"group","type":"int","value":0},{"name":"id","type":"int","value":11},{"name":"fh_layer","type":"int","value":3},{"name":"fh_group","type":"int","value":0},{"name":"fh_id","type":"int","value":11},{"name":"x1","type":"int","value":-579},{"name":"x2","type":"int","value":-540},{"name":"y1","type":"int","value":2075},{"name":"y2","type":"int","value":2075},{"name":"next","type":"int","value":9},{"name":"prev","type":"int","value":10}],"polyline":[{"x":0,"y":0},{"x":39,"y":0}]},{"id":58,"x":-501,"y":2075,"visible":true,"properties":[{"name":"layer","type":"int","value":3},{"name":"group","type":"int","value":0},{"name":"id","type":"int","value":12},{"name":"fh_layer","type":"int","value":3},{"name":"fh_group","type":"int","value":0},{"name":"fh_id","type":"int","value":12},{"name":"x1","type":"int","value":-501},{"name":"x2","type":"int","value":-450},{"name":"y1","type":"int","value":2075},{"name":"y2","type":"int","value":2075},{"name":"next","type":"int","value":8},{"name":"prev","type":"int","value":9}],"polyline":[{"x":0,"y":0},{"x":51,"y":0}]},{"id":59,"x":90,"y":2075,"visible":true,"properties":[{"name":"layer","type":"int","value":3},{"name":"group","type":"int","value":0},{"name":"id","type":"int","value":13},{"name":"fh_layer","type":"int","value":3},{"name":"fh_group","type":"int","value":0},{"name":"fh_id","type":"int","value":13},{"name":"x1","type":"int","value":90},{"name":"x2","type":"int","value":180},{"name":"y1","type":"int","value":2075},{"name":"y2","type":"int","value":2075},{"name":"next","type":"int","value":14},{"name":"prev","type":"int","value":1}],"polyline":[{"x":0,"y":0},{"x":90,"y":0}]},{"id":60,"x":180,"y":2075,"visible":true,"properties":[{"name":"layer","type":"int","value":3},{"name":"group","type":"int","value":0},{"name":"id","type":"int","value":14},{"name":"fh_layer","type":"int","value":3},{"name":"fh_group","type":"int","value":0},{"name":"fh_id","type":"int","value":14},{"name":"x1","type":"int","value":180},{"name":"x2","type":"int","value":270},{"name":"y1","type":"int","value":2075},{"name":"y2","type":"int","value":2075},{"name":"next","type":"int","value":4},{"name":"prev","type":"int","value":13}],"polyline":[{"x":0,"y":0},{"x":90,"y":0}]},{"id":61,"x":226,"y":-10,"visible":true,"properties":[{"name":"layer","type":"int","value":3},{"name":"group","type":"int","value":1},{"name":"id","type":"int","value":15},{"name":"fh_layer","type":"int","value":3},{"name":"fh_group","type":"int","value":1},{"name":"fh_id","type":"int","value":15},{"name":"x1","type":"int","value":226},{"name":"x2","type":"int","value":281},{"name":"y1","type":"int","value":-10},{"name":"y2","type":"int","value":-10},{"name":"next","type":"int","value":16},{"name":"prev","type":"int","value":28}],"polyline":[{"x":0,"y":0},{"x":55,"y":0}]},{"id":62,"x":281,"y":-10,"visible":true,"properties":[{"name":"layer","type":"int","value":3},{"name":"group","type":"int","value":1},{"name":"id","type":"int","value":16},{"name":"fh_layer","type":"int","value":3},{"name":"fh_group","type":"int","value":1},{"name":"fh_id","type":"int","value":16},{"name":"x1","type":"int","value":281},{"name":"x2","type":"int","value":297},{"name":"y1","type":"int","value":-10},{"name":"y2","type":"int","value":-14},{"name":"next","type":"int","value":17},{"name":"prev","type":"int","value":15}],"polyline":[{"x":0,"y":0},{"x":16,"y":-4}]},{"id":63,"x":297,"y":-14,"visible":true,"properties":[{"name":"layer","type":"int","value":3},{"name":"group","type":"int","value":1},{"name":"id","type":"int","value":17},{"name":"fh_layer","type":"int","value":3},{"name":"fh_group","type":"int","value":1},{"name":"fh_id","type":"int","value":17},{"name":"x1","type":"int","value":297},{"name":"x2","type":"int","value":349},{"name":"y1","type":"int","value":-14},{"name":"y2","type":"int","value":-14},{"name":"next","type":"int","value":18},{"name":"prev","type":"int","value":16}],"polyline":[{"x":0,"y":0},{"x":52,"y":0}]},{"id":64,"x":349,"y":-14,"visible":true,"properties":[{"name":"layer","type":"int","value":3},{"name":"group","type":"int","value":1},{"name":"id","type":"int","value":18},{"name":"fh_layer","type":"int","value":3},{"name":"fh_group","type":"int","value":1},{"name":"fh_id","type":"int","value":18},{"name":"x1","type":"int","value":349},{"name":"x2","type":"int","value":359},{"name":"y1","type":"int","value":-14},{"name":"y2","type":"int","value":-19},{"name":"next","type":"int","value":19},{"name":"prev","type":"int","value":17}],"polyline":[{"x":0,"y":0},{"x":10,"y":-5}]},{"id":65,"x":359,"y":-19,"visible":true,"properties":[{"name":"layer","type":"int","value":3},{"name":"group","type":"int","value":1},{"name":"id","type":"int","value":19},{"name":"fh_layer","type":"int","value":3},{"name":"fh_group","type":"int","value":1},{"name":"fh_id","type":"int","value":19},{"name":"x1","type":"int","value":359},{"name":"x2","type":"int","value":379},{"name":"y1","type":"int","value":-19},{"name":"y2","type":"int","value":-17},{"name":"next","type":"int","value":20},{"name":"prev","type":"int","value":18}],"polyline":[{"x":0,"y":0},{"x":20,"y":2}]},{"id":66,"x":379,"y":-17,"visible":true,"properties":[{"name":"layer","type":"int","value":3},{"name":"group","type":"int","value":1},{"name":"id","type":"int","value":20},{"name":"fh_layer","type":"int","value":3},{"name":"fh_group","type":"int","value":1},{"name":"fh_id","type":"int","value":20},{"name":"x1","type":"int","value":379},{"name":"x2","type":"int","value":394},{"name":"y1","type":"int","value":-17},{"name":"y2","type":"int","value":-11},{"name":"next","type":"int","value":0},{"name":"prev","type":"int","value":19}],"polyline":[{"x":0,"y":0},{"x":15,"y":6}]},{"id":67,"x":53,"y":91,"visible":true,"properties":[{"name":"layer","type":"int","value":3},{"name":"group","type":"int","value":1},{"name":"id","type":"int","value":21},{"name":"fh_layer","type":"int","value":3},{"name":"fh_group","type":"int","value":1},{"name":"fh_id","type":"int","value":21},{"name":"x1","type":"int","value":53},{"name":"x2","type":"int","value":76},{"name":"y1","type":"int","value":91},{"name":"y2","type":"int","value":85},{"name":"next","type":"int","value":22},{"name":"prev","type":"int","value":32}],"polyline":[{"x":0,"y":0},{"x":23,"y":-6}]},{"id":68,"x":76,"y":85,"visible":true,"properties":[{"name":"layer","type":"int","value":3},{"name":"group","type":"int","value":1},{"name":"id","type":"int","value":22},{"name":"fh_layer","type":"int","value":3},{"name":"fh_group","type":"int","value":1},{"name":"fh_id","type":"int","value":22},{"name":"x1","type":"int","value":76},{"name":"x2","type":"int","value":107},{"name":"y1","type":"int","value":85},{"name":"y2","type":"int","value":75},{"name":"next","type":"int","value":23},{"name":"prev","type":"int","value":21}],"polyline":[{"x":0,"y":0},{"x":31,"y":-10}]},{"id":69,"x":107,"y":75,"visible":true,"properties":[{"name":"layer","type":"int","value":3},{"name":"group","type":"int","value":1},{"name":"id","type":"int","value":23},{"name":"fh_layer","type":"int","value":3},{"name":"fh_group","type":"int","value":1},{"name":"fh_id","type":"int","value":23},{"name":"x1","type":"int","value":107},{"name":"x2","type":"int","value":127},{"name":"y1","type":"int","value":75},{"name":"y2","type":"int","value":67},{"name":"next","type":"int","value":24},{"name":"prev","type":"int","value":22}],"polyline":[{"x":0,"y":0},{"x":20,"y":-8}]},{"id":70,"x":127,"y":67,"visible":true,"properties":[{"name":"layer","type":"int","value":3},{"name":"group","type":"int","value":1},{"name":"id","type":"int","value":24},{"name":"fh_layer","type":"int","value":3},{"name":"fh_group","type":"int","value":1},{"name":"fh_id","type":"int","value":24},{"name":"x1","type":"int","value":127},{"name":"x2","type":"int","value":147},{"name":"y1","type":"int","value":67},{"name":"y2","type":"int","value":57},{"name":"next","type":"int","value":25},{"name":"prev","type":"int","value":23}],"polyline":[{"x":0,"y":0},{"x":20,"y":-10}]},{"id":71,"x":147,"y":57,"visible":true,"properties":[{"name":"layer","type":"int","value":3},{"name":"group","type":"int","value":1},{"name":"id","type":"int","value":25},{"name":"fh_layer","type":"int","value":3},{"name":"fh_group","type":"int","value":1},{"name":"fh_id","type":"int","value":25},{"name":"x1","type":"int","value":147},{"name":"x2","type":"int","value":173},{"name":"y1","type":"int","value":57},{"name":"y2","type":"int","value":39},{"name":"next","type":"int","value":26},{"name":"prev","type":"int","value":24}],"polyline":[{"x":0,"y":0},{"x":26,"y":-18}]},{"id":72,"x":173,"y":39,"visible":true,"properties":[{"name":"layer","type":"int","value":3},{"name":"group","type":"int","value":1},{"name":"id","type":"int","value":26},{"name":"fh_layer","type":"int","value":3},{"name":"fh_group","type":"int","value":1},{"name":"fh_id","type":"int","value":26},{"name":"x1","type":"int","value":173},{"name":"x2","type":"int","value":195},{"name":"y1","type":"int","value":39},{"name":"y2","type":"int","value":20},{"name":"next","type":"int","value":27},{"name":"prev","type":"int","value":25}],"polyline":[{"x":0,"y":0},{"x":22,"y":-19}]},{"id":73,"x":195,"y":20,"visible":true,"properties":[{"name":"layer","type":"int","value":3},{"name":"group","type":"int","value":1},{"name":"id","type":"int","value":27},{"name":"fh_layer","type":"int","value":3},{"name":"fh_group","type":"int","value":1},{"name":"fh_id","type":"int","value":27},{"name":"x1","type":"int","value":195},{"name":"x2","type":"int","value":215},{"name":"y1","type":"int","value":20},{"name":"y2","type":"int","value":-2},{"name":"next","type":"int","value":28},{"name":"prev","type":"int","value":26}],"polyline":[{"x":0,"y":0},{"x":20,"y":-22}]},{"id":74,"x":215,"y":-2,"visible":true,"properties":[{"name":"layer","type":"int","value":3},{"name":"group","type":"int","value":1},{"name":"id","type":"int","value":28},{"name":"fh_layer","type":"int","value":3},{"name":"fh_group","type":"int","value":1},{"name":"fh_id","type":"int","value":28},{"name":"x1","type":"int","value":215},{"name":"x2","type":"int","value":226},{"name":"y1","type":"int","value":-2},{"name":"y2","type":"int","value":-10},{"name":"next","type":"int","value":15},{"name":"prev","type":"int","value":27}],"polyline":[{"x":0,"y":0},{"x":11,"y":-8}]},{"id":75,"x":-77,"y":107,"visible":true,"properties":[{"name":"layer","type":"int","value":3},{"name":"group","type":"int","value":1},{"name":"id","type":"int","value":29},{"name":"fh_layer","type":"int","value":3},{"name":"fh_group","type":"int","value":1},{"name":"fh_id","type":"int","value":29},{"name":"x1","type":"int","value":-77},{"name":"x2","type":"int","value":-52},{"name":"y1","type":"int","value":107},{"name":"y2","type":"int","value":96},{"name":"next","type":"int","value":30},{"name":"prev","type":"int","value":0}],"polyline":[{"x":0,"y":0},{"x":25,"y":-11}]},{"id":76,"x":-52,"y":96,"visible":true,"properties":[{"name":"layer","type":"int","value":3},{"name":"group","type":"int","value":1},{"name":"id","type":"int","value":30},{"name":"fh_layer","type":"int","value":3},{"name":"fh_group","type":"int","value":1},{"name":"fh_id","type":"int","value":30},{"name":"x1","type":"int","value":-52},{"name":"x2","type":"int","value":14},{"name":"y1","type":"int","value":96},{"name":"y2","type":"int","value":93},{"name":"next","type":"int","value":31},{"name":"prev","type":"int","value":29}],"polyline":[{"x":0,"y":0},{"x":66,"y":-3}]},{"id":77,"x":14,"y":93,"visible":true,"properties":[{"name":"layer","type":"int","value":3},{"name":"group","type":"int","value":1},{"name":"id","type":"int","value":31},{"name":"fh_layer","type":"int","value":3},{"name":"fh_group","type":"int","value":1},{"name":"fh_id","type":"int","value":31},{"name":"x1","type":"int","value":14},{"name":"x2","type":"int","value":28},{"name":"y1","type":"int","value":93},{"name":"y2","type":"int","value":96},{"name":"next","type":"int","value":32},{"name":"prev","type":"int","value":30}],"polyline":[{"x":0,"y":0},{"x":14,"y":3}]},{"id":78,"x":28,"y":96,"visible":true,"properties":[{"name":"layer","type":"int","value":3},{"name":"group","type":"int","value":1},{"name":"id","type":"int","value":32},{"name":"fh_layer","type":"int","value":3},{"name":"fh_group","type":"int","value":1},{"name":"fh_id","type":"int","value":32},{"name":"x1","type":"int","value":28},{"name":"x2","type":"int","value":53},{"name":"y1","type":"int","value":96},{"name":"y2","type":"int","value":91},{"name":"next","type":"int","value":21},{"name":"prev","type":"int","value":31}],"polyline":[{"x":0,"y":0},{"x":25,"y":-5}]},{"id":79,"x":159,"y":-51,"visible":true,"properties":[{"name":"layer","type":"int","value":3},{"name":"group","type":"int","value":1},{"name":"id","type":"int","value":33},{"name":"fh_layer","type":"int","value":3},{"name":"fh_group","type":"int","value":1},{"name":"fh_id","type":"int","value":33},{"name":"x1","type":"int","value":159},{"name":"x2","type":"int","value":223},{"name":"y1","type":"int","value":-51},{"name":"y2","type":"int","value":-47},{"name":"next","type":"int","value":34},{"name":"prev","type":"int","value":0}],"polyline":[{"x":0,"y":0},{"x":64,"y":4}]},{"id":80,"x":223,"y":-47,"visible":true,"properties":[{"name":"layer","type":"int","value":3},{"name":"group","type":"int","value":1},{"name":"id","type":"int","value":34},{"name":"fh_layer","type":"int","value":3},{"name":"fh_group","type":"int","value":1},{"name":"fh_id","type":"int","value":34},{"name":"x1","type":"int","value":223},{"name":"x2","type":"int","value":279},{"name":"y1","type":"int","value":-47},{"name":"y2","type":"int","value":-51},{"name":"next","type":"int","value":0},{"name":"prev","type":"int","value":33}],"polyline":[{"x":0,"y":0},{"x":56,"y":-4}]},{"id":81,"x":-412,"y":65,"visible":true,"properties":[{"name":"layer","type":"int","value":3},{"name":"group","type":"int","value":2},{"name":"id","type":"int","value":35},{"name":"fh_layer","type":"int","value":3},{"name":"fh_group","type":"int","value":2},{"name":"fh_id","type":"int","value":35},{"name":"x1","type":"int","value":-412},{"name":"x2","type":"int","value":-376},{"name":"y1","type":"int","value":65},{"name":"y2","type":"int","value":52},{"name":"next","type":"int","value":36},{"name":"prev","type":"int","value":0}],"polyline":[{"x":0,"y":0},{"x":36,"y":-13}]},{"id":82,"x":-376,"y":52,"visible":true,"properties":[{"name":"layer","type":"int","value":3},{"name":"group","type":"int","value":2},{"name":"id","type":"int","value":36},{"name":"fh_layer","type":"int","value":3},{"name":"fh_group","type":"int","value":2},{"name":"fh_id","type":"int","value":36},{"name":"x1","type":"int","value":-376},{"name":"x2","type":"int","value":-347},{"name":"y1","type":"int","value":52},{"name":"y2","type":"int","value":56},{"name":"next","type":"int","value":37},{"name":"prev","type":"int","value":35}],"polyline":[{"x":0,"y":0},{"x":29,"y":4}]},{"id":83,"x":-347,"y":56,"visible":true,"properties":[{"name":"layer","type":"int","value":3},{"name":"group","type":"int","value":2},{"name":"id","type":"int","value":37},{"name":"fh_layer","type":"int","value":3},{"name":"fh_group","type":"int","value":2},{"name":"fh_id","type":"int","value":37},{"name":"x1","type":"int","value":-347},{"name":"x2","type":"int","value":-317},{"name":"y1","type":"int","value":56},{"name":"y2","type":"int","value":56},{"name":"next","type":"int","value":38},{"name":"prev","type":"int","value":36}],"polyline":[{"x":0,"y":0},{"x":30,"y":0}]},{"id":84,"x":-317,"y":56,"visible":true,"properties":[{"name":"layer","type":"int","value":3},{"name":"group","type":"int","value":2},{"name":"id","type":"int","value":38},{"name":"fh_layer","type":"int","value":3},{"name":"fh_group","type":"int","value":2},{"name":"fh_id","type":"int","value":38},{"name":"x1","type":"int","value":-317},{"name":"x2","type":"int","value":-306},{"name":"y1","type":"int","value":56},{"name":"y2","type":"int","value":54},{"name":"next","type":"int","value":39},{"name":"prev","type":"int","value":37}],"polyline":[{"x":0,"y":0},{"x":11,"y":-2}]},{"id":85,"x":-306,"y":54,"visible":true,"properties":[{"name":"layer","type":"int","value":3},{"name":"group","type":"int","value":2},{"name":"id","type":"int","value":39},{"name":"fh_layer","type":"int","value":3},{"name":"fh_group","type":"int","value":2},{"name":"fh_id","type":"int","value":39},{"name":"x1","type":"int","value":-306},{"name":"x2","type":"int","value":-274},{"name":"y1","type":"int","value":54},{"name":"y2","type":"int","value":61},{"name":"next","type":"int","value":0},{"name":"prev","type":"int","value":38}],"polyline":[{"x":0,"y":0},{"x":32,"y":7}]}],"properties":[]},{"id":22,"name":"miniMap","type":"objectgroup","visible":true,"opacity":1,"draworder":"index","offsetx":0,"offsety":0,"parallaxx":1,"parallaxy":1,"objects":[{"id":86,"x":613,"y":404,"visible":true,"properties":[{"name":"mag","type":"int","value":4},{"name":"centerX","type":"int","value":613},{"name":"centerY","type":"int","value":404},{"name":"canvas_path","type":"string","value":"../images/30739.png"},{"name":"canvas_width","type":"int","value":69},{"name":"canvas_height","type":"int","value":161},{"name":"canvas_origin_x","type":"int","value":0},{"name":"canvas_origin_y","type":"int","value":0}],"point":true}],"properties":[]}],"tilesets":[{"firstgid":1,"source":"../tilesets/bg_shineWood.tsj"},{"firstgid":34,"source":"../tilesets/tile_blackTile.tsj"},{"firstgid":38,"source":"../tilesets/obj_acc2_shineWood_foot.tsj"},{"firstgid":64,"source":"../tilesets/obj_acc2_shineWood_minidungeon.tsj"},{"firstgid":68,"source":"../tilesets/obj_acc2_shineWood_artificiality.tsj"},{"firstgid":79,"source":"../tilesets/portal_MapHelper.img_portal_game_pv.tsj"}],"properties":[{"name":"bgm","type":"string","value":"Bgm01/MoonlightShadow"},{"name":"fly","type":"int","value":0},{"name":"swim","type":"int","value":0},{"name":"town","type":"int","value":0},{"name":"VRTop","type":"int","value":-540},{"name":"cloud","type":"int","value":0},{"name":"VRLeft","type":"int","value":-580},{"name":"VRRight","type":"int","value":395},{"name":"mapDesc","type":"string","value":""},{"name":"mapMark","type":"string","value":"Ellinia"},{"name":"mobRate","type":"float","value":1.1999982595443726},{"name":"version","type":"int","value":10},{"name":"VRBottom","type":"int","value":2075},{"name":"moveLimit","type":"int","value":0},{"name":"returnMap","type":"int","value":101000000},{"name":"fieldLimit","type":"int","value":0},{"name":"hideMinimap","type":"int","value":0},{"name":"onUserEnter","type":"string","value":"explorationPoint"},{"name":"forcedReturn","type":"int","value":999999999},{"name":"onFirstUserEnter","type":"string","value":""}]}