{"type":"map","orientation":"orthogonal","renderorder":"right-down","infinite":false,"tilewidth":1,"tileheight":1,"width":800,"height":790,"parallaxoriginx":-400,"parallaxoriginy":80,"nextlayerid":8,"nextobjectid":52,"layers":[{"id":1,"name":"layer_1_obj","type":"objectgroup","visible":true,"opacity":1,"draworder":"index","offsetx":0,"offsety":0,"parallaxx":1,"parallaxy":1,"objects":[{"id":1,"x":-385,"y":190,"visible":true,"properties":[{"name":"layer","type":"int","value":1},{"name":"resource_index","type":"int","value":0},{"name":"oS","type":"string","value":"shop2"},{"name":"l0","type":"string","value":"shop"},{"name":"l1","type":"string","value":"repairMC"},{"name":"l2","type":"string","value":"0"},{"name":"z","type":"int","value":3},{"name":"zM","type":"int","value":1},{"name":"f","type":"int","value":0}],"gid":1,"width":746,"height":630},{"id":2,"x":-36,"y":-75,"visible":true,"properties":[{"name":"layer","type":"int","value":1},{"name":"resource_index","type":"int","value":1},{"name":"oS","type":"string","value":"shop2"},{"name":"l0","type":"string","value":"shop"},{"name":"l1","type":"string","value":"repairMC"},{"name":"l2","type":"string","value":"3"},{"name":"z","type":"int","value":4},{"name":"zM","type":"int","value":1},{"name":"f","type":"int","value":0}],"gid":2,"width":373,"height":57},{"id":3,"x":-50,"y":-10,"visible":true,"properties":[{"name":"layer","type":"int","value":1},{"name":"resource_index","type":"int","value":2},{"name":"oS","type":"string","value":"shop2"},{"name":"l0","type":"string","value":"shop"},{"name":"l1","type":"string","value":"repairMC"},{"name":"l2","type":"string","value":"2"},{"name":"z","type":"int","value":5},{"name":"zM","type":"int","value":1},{"name":"f","type":"int","value":0}],"gid":3,"width":400,"height":133}],"properties":[]},{"id":2,"name":"layer_2_obj","type":"objectgroup","visible":true,"opacity":1,"draworder":"index","offsetx":0,"offsety":0,"parallaxx":1,"parallaxy":1,"objects":[{"id":4,"x":-126,"y":-50,"visible":true,"properties":[{"name":"layer","type":"int","value":2},{"name":"resource_index","type":"int","value":0},{"name":"oS","type":"string","value":"shop2"},{"name":"l0","type":"string","value":"shop"},{"name":"l1","type":"string","value":"repairMC"},{"name":"l2","type":"string","value":"4"},{"name":"z","type":"int","value":3},{"name":"zM","type":"int","value":3},{"name":"f","type":"int","value":0}],"gid":4,"width":47,"height":86},{"id":5,"x":-167,"y":104,"visible":true,"properties":[{"name":"layer","type":"int","value":2},{"name":"resource_index","type":"int","value":1},{"name":"oS","type":"string","value":"shop2"},{"name":"l0","type":"string","value":"shop"},{"name":"l1","type":"string","value":"repairMC"},{"name":"l2","type":"string","value":"6"},{"name":"z","type":"int","value":3},{"name":"zM","type":"int","value":2},{"name":"f","type":"int","value":0}],"gid":5,"width":47,"height":120},{"id":6,"x":105,"y":-197,"visible":true,"properties":[{"name":"layer","type":"int","value":2},{"name":"resource_index","type":"int","value":2},{"name":"oS","type":"string","value":"shop2"},{"name":"l0","type":"string","value":"shop"},{"name":"l1","type":"string","value":"repairMC"},{"name":"l2","type":"string","value":"5"},{"name":"z","type":"int","value":3},{"name":"zM","type":"int","value":5},{"name":"f","type":"int","value":0}],"gid":6,"width":47,"height":110},{"id":7,"x":-278,"y":-170,"visible":true,"properties":[{"name":"layer","type":"int","value":2},{"name":"resource_index","type":"int","value":3},{"name":"oS","type":"string","value":"shop2"},{"name":"l0","type":"string","value":"shop"},{"name":"l1","type":"string","value":"repairMC"},{"name":"l2","type":"string","value":"4"},{"name":"z","type":"int","value":3},{"name":"zM","type":"int","value":4},{"name":"f","type":"int","value":0}],"gid":4,"width":47,"height":86}],"properties":[]},{"id":3,"name":"layer_3_obj","type":"objectgroup","visible":true,"opacity":1,"draworder":"index","offsetx":0,"offsety":0,"parallaxx":1,"parallaxy":1,"objects":[{"id":8,"x":-400,"y":299,"visible":true,"properties":[{"name":"layer","type":"int","value":3},{"name":"resource_index","type":"int","value":0},{"name":"oS","type":"string","value":"shop2"},{"name":"l0","type":"string","value":"shop"},{"name":"l1","type":"string","value":"repairMC"},{"name":"l2","type":"string","value":"1"},{"name":"z","type":"int","value":3},{"name":"zM","type":"int","value":0},{"name":"f","type":"int","value":0}],"gid":7,"width":800,"height":790}],"properties":[]},{"id":4,"name":"portal","type":"objectgroup","visible":true,"opacity":1,"draworder":"index","offsetx":0,"offsety":0,"parallaxx":1,"parallaxy":1,"objects":[{"id":9,"x":127,"y":-194,"visible":true,"properties":[{"name":"x","type":"int","value":127},{"name":"y","type":"int","value":-194},{"name":"pn","type":"string","value":"sp"},{"name":"pt","type":"int","value":0},{"name":"tm","type":"int","value":999999999},{"name":"tn","type":"string","value":""},{"name":"portal_id","type":"int","value":0}],"point":true},{"id":10,"x":225,"y":-215,"visible":true,"properties":[{"name":"x","type":"int","value":225},{"name":"y","type":"int","value":-215},{"name":"pn","type":"string","value":"sp"},{"name":"pt","type":"int","value":0},{"name":"tm","type":"int","value":999999999},{"name":"tn","type":"string","value":""},{"name":"portal_id","type":"int","value":1}],"point":true},{"id":11,"x":27,"y":-316,"visible":true,"properties":[{"name":"x","type":"int","value":27},{"name":"y","type":"int","value":-316},{"name":"pn","type":"string","value":"sp"},{"name":"pt","type":"int","value":0},{"name":"tm","type":"int","value":999999999},{"name":"tn","type":"string","value":""},{"name":"portal_id","type":"int","value":2}],"point":true},{"id":12,"x":-116,"y":-258,"visible":true,"properties":[{"name":"x","type":"int","value":-116},{"name":"y","type":"int","value":-258},{"name":"pn","type":"string","value":"sp"},{"name":"pt","type":"int","value":0},{"name":"tm","type":"int","value":999999999},{"name":"tn","type":"string","value":""},{"name":"portal_id","type":"int","value":3}],"point":true},{"id":13,"x":-199,"y":-134,"visible":true,"properties":[{"name":"x","type":"int","value":-199},{"name":"y","type":"int","value":-134},{"name":"pn","type":"string","value":"sp"},{"name":"pt","type":"int","value":0},{"name":"tm","type":"int","value":999999999},{"name":"tn","type":"string","value":""},{"name":"portal_id","type":"int","value":4}],"point":true},{"id":14,"x":-212,"y":-17,"visible":true,"properties":[{"name":"x","type":"int","value":-212},{"name":"y","type":"int","value":-17},{"name":"pn","type":"string","value":"sp"},{"name":"pt","type":"int","value":0},{"name":"tm","type":"int","value":999999999},{"name":"tn","type":"string","value":""},{"name":"portal_id","type":"int","value":5}],"point":true},{"id":15,"x":-161,"y":166,"visible":true,"properties":[{"name":"x","type":"int","value":-161},{"name":"y","type":"int","value":166},{"name":"pn","type":"string","value":"sp"},{"name":"pt","type":"int","value":0},{"name":"tm","type":"int","value":999999999},{"name":"tn","type":"string","value":""},{"name":"portal_id","type":"int","value":6}],"point":true},{"id":16,"x":10,"y":143,"visible":true,"properties":[{"name":"x","type":"int","value":10},{"name":"y","type":"int","value":143},{"name":"pn","type":"string","value":"sp"},{"name":"pt","type":"int","value":0},{"name":"tm","type":"int","value":999999999},{"name":"tn","type":"string","value":""},{"name":"portal_id","type":"int","value":7}],"point":true},{"id":17,"x":131,"y":157,"visible":true,"properties":[{"name":"x","type":"int","value":131},{"name":"y","type":"int","value":157},{"name":"pn","type":"string","value":"sp"},{"name":"pt","type":"int","value":0},{"name":"tm","type":"int","value":999999999},{"name":"tn","type":"string","value":""},{"name":"portal_id","type":"int","value":8}],"point":true},{"id":18,"x":278,"y":-248,"visible":true,"properties":[{"name":"x","type":"int","value":278},{"name":"y","type":"int","value":-248},{"name":"pn","type":"string","value":"out00"},{"name":"pt","type":"int","value":1},{"name":"tm","type":"int","value":103000000},{"name":"tn","type":"string","value":"in06"},{"name":"portal_id","type":"int","value":9}],"point":true},{"id":19,"x":60,"y":-202,"visible":true,"properties":[{"name":"x","type":"int","value":60},{"name":"y","type":"int","value":-202},{"name":"pn","type":"string","value":"out01"},{"name":"pt","type":"int","value":1},{"name":"tm","type":"int","value":103000000},{"name":"tn","type":"string","value":"in06_1"},{"name":"portal_id","type":"int","value":10}],"point":true}],"properties":[]},{"id":5,"name":"life","type":"objectgroup","visible":true,"opacity":1,"draworder":"index","offsetx":0,"offsety":0,"parallaxx":1,"parallaxy":1,"objects":[{"id":20,"x":132,"y":29,"visible":true,"properties":[{"name":"f","type":"int","value":0},{"name":"x","type":"int","value":132},{"name":"y","type":"int","value":29},{"name":"cy","type":"int","value":33},{"name":"fh","type":"int","value":27},{"name":"id","type":"int","value":1052003},{"name":"rx0","type":"int","value":82},{"name":"rx1","type":"int","value":182},{"name":"type","type":"string","value":"n"},{"name":"mobTime","type":"int","value":0}],"point":true}],"properties":[]},{"id":6,"name":"foothold","type":"objectgroup","visible":true,"opacity":1,"draworder":"index","offsetx":0,"offsety":0,"parallaxx":1,"parallaxy":1,"objects":[{"id":21,"x":-35,"y":-182,"visible":true,"properties":[{"name":"layer","type":"int","value":1},{"name":"group","type":"int","value":1},{"name":"id","type":"int","value":1},{"name":"fh_layer","type":"int","value":1},{"name":"fh_group","type":"int","value":1},{"name":"fh_id","type":"int","value":1},{"name":"x1","type":"int","value":-35},{"name":"x2","type":"int","value":351},{"name":"y1","type":"int","value":-182},{"name":"y2","type":"int","value":-182},{"name":"next","type":"int","value":0},{"name":"prev","type":"int","value":0}],"polyline":[{"x":0,"y":0},{"x":386,"y":0}]},{"id":22,"x":169,"y":-206,"visible":true,"properties":[{"name":"layer","type":"int","value":1},{"name":"group","type":"int","value":1},{"name":"id","type":"int","value":2},{"name":"fh_layer","type":"int","value":1},{"name":"fh_group","type":"int","value":1},{"name":"fh_id","type":"int","value":2},{"name":"x1","type":"int","value":169},{"name":"x2","type":"int","value":296},{"name":"y1","type":"int","value":-206},{"name":"y2","type":"int","value":-206},{"name":"next","type":"int","value":0},{"name":"prev","type":"int","value":0}],"polyline":[{"x":0,"y":0},{"x":127,"y":0}]},{"id":23,"x":190,"y":-227,"visible":true,"properties":[{"name":"layer","type":"int","value":1},{"name":"group","type":"int","value":1},{"name":"id","type":"int","value":3},{"name":"fh_layer","type":"int","value":1},{"name":"fh_group","type":"int","value":1},{"name":"fh_id","type":"int","value":3},{"name":"x1","type":"int","value":190},{"name":"x2","type":"int","value":317},{"name":"y1","type":"int","value":-227},{"name":"y2","type":"int","value":-227},{"name":"next","type":"int","value":0},{"name":"prev","type":"int","value":0}],"polyline":[{"x":0,"y":0},{"x":127,"y":0}]},{"id":24,"x":211,"y":-248,"visible":true,"properties":[{"name":"layer","type":"int","value":1},{"name":"group","type":"int","value":1},{"name":"id","type":"int","value":4},{"name":"fh_layer","type":"int","value":1},{"name":"fh_group","type":"int","value":1},{"name":"fh_id","type":"int","value":4},{"name":"x1","type":"int","value":211},{"name":"x2","type":"int","value":338},{"name":"y1","type":"int","value":-248},{"name":"y2","type":"int","value":-248},{"name":"next","type":"int","value":0},{"name":"prev","type":"int","value":0}],"polyline":[{"x":0,"y":0},{"x":127,"y":0}]},{"id":25,"x":28,"y":-203,"visible":true,"properties":[{"name":"layer","type":"int","value":1},{"name":"group","type":"int","value":1},{"name":"id","type":"int","value":5},{"name":"fh_layer","type":"int","value":1},{"name":"fh_group","type":"int","value":1},{"name":"fh_id","type":"int","value":5},{"name":"x1","type":"int","value":28},{"name":"x2","type":"int","value":90},{"name":"y1","type":"int","value":-203},{"name":"y2","type":"int","value":-203},{"name":"next","type":"int","value":0},{"name":"prev","type":"int","value":0}],"polyline":[{"x":0,"y":0},{"x":62,"y":0}]},{"id":26,"x":-117,"y":-299,"visible":true,"properties":[{"name":"layer","type":"int","value":1},{"name":"group","type":"int","value":1},{"name":"id","type":"int","value":6},{"name":"fh_layer","type":"int","value":1},{"name":"fh_group","type":"int","value":1},{"name":"fh_id","type":"int","value":6},{"name":"x1","type":"int","value":-117},{"name":"x2","type":"int","value":181},{"name":"y1","type":"int","value":-299},{"name":"y2","type":"int","value":-299},{"name":"next","type":"int","value":0},{"name":"prev","type":"int","value":0}],"polyline":[{"x":0,"y":0},{"x":298,"y":0}]},{"id":27,"x":-84,"y":-362,"visible":true,"properties":[{"name":"layer","type":"int","value":1},{"name":"group","type":"int","value":1},{"name":"id","type":"int","value":7},{"name":"fh_layer","type":"int","value":1},{"name":"fh_group","type":"int","value":1},{"name":"fh_id","type":"int","value":7},{"name":"x1","type":"int","value":-84},{"name":"x2","type":"int","value":2},{"name":"y1","type":"int","value":-362},{"name":"y2","type":"int","value":-362},{"name":"next","type":"int","value":0},{"name":"prev","type":"int","value":0}],"polyline":[{"x":0,"y":0},{"x":86,"y":0}]},{"id":28,"x":31,"y":-350,"visible":true,"properties":[{"name":"layer","type":"int","value":1},{"name":"group","type":"int","value":1},{"name":"id","type":"int","value":8},{"name":"fh_layer","type":"int","value":1},{"name":"fh_group","type":"int","value":1},{"name":"fh_id","type":"int","value":8},{"name":"x1","type":"int","value":31},{"name":"x2","type":"int","value":125},{"name":"y1","type":"int","value":-350},{"name":"y2","type":"int","value":-350},{"name":"next","type":"int","value":0},{"name":"prev","type":"int","value":0}],"polyline":[{"x":0,"y":0},{"x":94,"y":0}]},{"id":29,"x":48,"y":-390,"visible":true,"properties":[{"name":"layer","type":"int","value":1},{"name":"group","type":"int","value":1},{"name":"id","type":"int","value":9},{"name":"fh_layer","type":"int","value":1},{"name":"fh_group","type":"int","value":1},{"name":"fh_id","type":"int","value":9},{"name":"x1","type":"int","value":48},{"name":"x2","type":"int","value":120},{"name":"y1","type":"int","value":-390},{"name":"y2","type":"int","value":-390},{"name":"next","type":"int","value":0},{"name":"prev","type":"int","value":0}],"polyline":[{"x":0,"y":0},{"x":72,"y":0}]},{"id":30,"x":-336,"y":-248,"visible":true,"properties":[{"name":"layer","type":"int","value":1},{"name":"group","type":"int","value":1},{"name":"id","type":"int","value":10},{"name":"fh_layer","type":"int","value":1},{"name":"fh_group","type":"int","value":1},{"name":"fh_id","type":"int","value":10},{"name":"x1","type":"int","value":-336},{"name":"x2","type":"int","value":-60},{"name":"y1","type":"int","value":-248},{"name":"y2","type":"int","value":-248},{"name":"next","type":"int","value":0},{"name":"prev","type":"int","value":0}],"polyline":[{"x":0,"y":0},{"x":276,"y":0}]},{"id":31,"x":-334,"y":-370,"visible":true,"properties":[{"name":"layer","type":"int","value":1},{"name":"group","type":"int","value":1},{"name":"id","type":"int","value":11},{"name":"fh_layer","type":"int","value":1},{"name":"fh_group","type":"int","value":1},{"name":"fh_id","type":"int","value":11},{"name":"x1","type":"int","value":-334},{"name":"x2","type":"int","value":-234},{"name":"y1","type":"int","value":-370},{"name":"y2","type":"int","value":-370},{"name":"next","type":"int","value":0},{"name":"prev","type":"int","value":0}],"polyline":[{"x":0,"y":0},{"x":100,"y":0}]},{"id":32,"x":-223,"y":-370,"visible":true,"properties":[{"name":"layer","type":"int","value":1},{"name":"group","type":"int","value":1},{"name":"id","type":"int","value":12},{"name":"fh_layer","type":"int","value":1},{"name":"fh_group","type":"int","value":1},{"name":"fh_id","type":"int","value":12},{"name":"x1","type":"int","value":-223},{"name":"x2","type":"int","value":-123},{"name":"y1","type":"int","value":-370},{"name":"y2","type":"int","value":-370},{"name":"next","type":"int","value":0},{"name":"prev","type":"int","value":0}],"polyline":[{"x":0,"y":0},{"x":100,"y":0}]},{"id":33,"x":-334,"y":-312,"visible":true,"properties":[{"name":"layer","type":"int","value":1},{"name":"group","type":"int","value":1},{"name":"id","type":"int","value":13},{"name":"fh_layer","type":"int","value":1},{"name":"fh_group","type":"int","value":1},{"name":"fh_id","type":"int","value":13},{"name":"x1","type":"int","value":-334},{"name":"x2","type":"int","value":-234},{"name":"y1","type":"int","value":-312},{"name":"y2","type":"int","value":-312},{"name":"next","type":"int","value":0},{"name":"prev","type":"int","value":0}],"polyline":[{"x":0,"y":0},{"x":100,"y":0}]},{"id":34,"x":-223,"y":-312,"visible":true,"properties":[{"name":"layer","type":"int","value":1},{"name":"group","type":"int","value":1},{"name":"id","type":"int","value":14},{"name":"fh_layer","type":"int","value":1},{"name":"fh_group","type":"int","value":1},{"name":"fh_id","type":"int","value":14},{"name":"x1","type":"int","value":-223},{"name":"x2","type":"int","value":-123},{"name":"y1","type":"int","value":-312},{"name":"y2","type":"int","value":-312},{"name":"next","type":"int","value":0},{"name":"prev","type":"int","value":0}],"polyline":[{"x":0,"y":0},{"x":100,"y":0}]},{"id":35,"x":-337,"y":-501,"visible":true,"properties":[{"name":"layer","type":"int","value":1},{"name":"group","type":"int","value":1},{"name":"id","type":"int","value":15},{"name":"fh_layer","type":"int","value":1},{"name":"fh_group","type":"int","value":1},{"name":"fh_id","type":"int","value":15},{"name":"x1","type":"int","value":-337},{"name":"x2","type":"int","value":-337},{"name":"y1","type":"int","value":-501},{"name":"y2","type":"int","value":180},{"name":"next","type":"int","value":16},{"name":"prev","type":"int","value":0}],"polyline":[{"x":0,"y":0},{"x":0,"y":681}]},{"id":36,"x":-337,"y":180,"visible":true,"properties":[{"name":"layer","type":"int","value":1},{"name":"group","type":"int","value":1},{"name":"id","type":"int","value":16},{"name":"fh_layer","type":"int","value":1},{"name":"fh_group","type":"int","value":1},{"name":"fh_id","type":"int","value":16},{"name":"x1","type":"int","value":-337},{"name":"x2","type":"int","value":352},{"name":"y1","type":"int","value":180},{"name":"y2","type":"int","value":180},{"name":"next","type":"int","value":17},{"name":"prev","type":"int","value":15}],"polyline":[{"x":0,"y":0},{"x":689,"y":0}]},{"id":37,"x":352,"y":180,"visible":true,"properties":[{"name":"layer","type":"int","value":1},{"name":"group","type":"int","value":1},{"name":"id","type":"int","value":17},{"name":"fh_layer","type":"int","value":1},{"name":"fh_group","type":"int","value":1},{"name":"fh_id","type":"int","value":17},{"name":"x1","type":"int","value":352},{"name":"x2","type":"int","value":352},{"name":"y1","type":"int","value":180},{"name":"y2","type":"int","value":-425},{"name":"next","type":"int","value":0},{"name":"prev","type":"int","value":16}],"polyline":[{"x":0,"y":0},{"x":0,"y":-605}]},{"id":38,"x":-336,"y":-128,"visible":true,"properties":[{"name":"layer","type":"int","value":1},{"name":"group","type":"int","value":1},{"name":"id","type":"int","value":18},{"name":"fh_layer","type":"int","value":1},{"name":"fh_group","type":"int","value":1},{"name":"fh_id","type":"int","value":18},{"name":"x1","type":"int","value":-336},{"name":"x2","type":"int","value":-60},{"name":"y1","type":"int","value":-128},{"name":"y2","type":"int","value":-128},{"name":"next","type":"int","value":0},{"name":"prev","type":"int","value":0}],"polyline":[{"x":0,"y":0},{"x":276,"y":0}]},{"id":39,"x":-336,"y":-8,"visible":true,"properties":[{"name":"layer","type":"int","value":1},{"name":"group","type":"int","value":1},{"name":"id","type":"int","value":19},{"name":"fh_layer","type":"int","value":1},{"name":"fh_group","type":"int","value":1},{"name":"fh_id","type":"int","value":19},{"name":"x1","type":"int","value":-336},{"name":"x2","type":"int","value":-60},{"name":"y1","type":"int","value":-8},{"name":"y2","type":"int","value":-8},{"name":"next","type":"int","value":0},{"name":"prev","type":"int","value":0}],"polyline":[{"x":0,"y":0},{"x":276,"y":0}]},{"id":40,"x":-332,"y":-181,"visible":true,"properties":[{"name":"layer","type":"int","value":1},{"name":"group","type":"int","value":1},{"name":"id","type":"int","value":20},{"name":"fh_layer","type":"int","value":1},{"name":"fh_group","type":"int","value":1},{"name":"fh_id","type":"int","value":20},{"name":"x1","type":"int","value":-332},{"name":"x2","type":"int","value":-295},{"name":"y1","type":"int","value":-181},{"name":"y2","type":"int","value":-181},{"name":"next","type":"int","value":0},{"name":"prev","type":"int","value":0}],"polyline":[{"x":0,"y":0},{"x":37,"y":0}]},{"id":41,"x":-313,"y":-72,"visible":true,"properties":[{"name":"layer","type":"int","value":1},{"name":"group","type":"int","value":1},{"name":"id","type":"int","value":21},{"name":"fh_layer","type":"int","value":1},{"name":"fh_group","type":"int","value":1},{"name":"fh_id","type":"int","value":21},{"name":"x1","type":"int","value":-313},{"name":"x2","type":"int","value":-240},{"name":"y1","type":"int","value":-72},{"name":"y2","type":"int","value":-72},{"name":"next","type":"int","value":0},{"name":"prev","type":"int","value":0}],"polyline":[{"x":0,"y":0},{"x":73,"y":0}]},{"id":42,"x":-227,"y":-42,"visible":true,"properties":[{"name":"layer","type":"int","value":1},{"name":"group","type":"int","value":1},{"name":"id","type":"int","value":22},{"name":"fh_layer","type":"int","value":1},{"name":"fh_group","type":"int","value":1},{"name":"fh_id","type":"int","value":22},{"name":"x1","type":"int","value":-227},{"name":"x2","type":"int","value":-171},{"name":"y1","type":"int","value":-42},{"name":"y2","type":"int","value":-42},{"name":"next","type":"int","value":0},{"name":"prev","type":"int","value":0}],"polyline":[{"x":0,"y":0},{"x":56,"y":0}]},{"id":43,"x":-171,"y":-38,"visible":true,"properties":[{"name":"layer","type":"int","value":1},{"name":"group","type":"int","value":1},{"name":"id","type":"int","value":23},{"name":"fh_layer","type":"int","value":1},{"name":"fh_group","type":"int","value":1},{"name":"fh_id","type":"int","value":23},{"name":"x1","type":"int","value":-171},{"name":"x2","type":"int","value":-130},{"name":"y1","type":"int","value":-38},{"name":"y2","type":"int","value":-38},{"name":"next","type":"int","value":0},{"name":"prev","type":"int","value":0}],"polyline":[{"x":0,"y":0},{"x":41,"y":0}]},{"id":44,"x":-322,"y":130,"visible":true,"properties":[{"name":"layer","type":"int","value":1},{"name":"group","type":"int","value":1},{"name":"id","type":"int","value":24},{"name":"fh_layer","type":"int","value":1},{"name":"fh_group","type":"int","value":1},{"name":"fh_id","type":"int","value":24},{"name":"x1","type":"int","value":-322},{"name":"x2","type":"int","value":-193},{"name":"y1","type":"int","value":130},{"name":"y2","type":"int","value":130},{"name":"next","type":"int","value":0},{"name":"prev","type":"int","value":0}],"polyline":[{"x":0,"y":0},{"x":129,"y":0}]},{"id":45,"x":-296,"y":79,"visible":true,"properties":[{"name":"layer","type":"int","value":1},{"name":"group","type":"int","value":1},{"name":"id","type":"int","value":25},{"name":"fh_layer","type":"int","value":1},{"name":"fh_group","type":"int","value":1},{"name":"fh_id","type":"int","value":25},{"name":"x1","type":"int","value":-296},{"name":"x2","type":"int","value":-213},{"name":"y1","type":"int","value":79},{"name":"y2","type":"int","value":79},{"name":"next","type":"int","value":0},{"name":"prev","type":"int","value":0}],"polyline":[{"x":0,"y":0},{"x":83,"y":0}]},{"id":46,"x":-33,"y":157,"visible":true,"properties":[{"name":"layer","type":"int","value":1},{"name":"group","type":"int","value":1},{"name":"id","type":"int","value":26},{"name":"fh_layer","type":"int","value":1},{"name":"fh_group","type":"int","value":1},{"name":"fh_id","type":"int","value":26},{"name":"x1","type":"int","value":-33},{"name":"x2","type":"int","value":60},{"name":"y1","type":"int","value":157},{"name":"y2","type":"int","value":157},{"name":"next","type":"int","value":0},{"name":"prev","type":"int","value":0}],"polyline":[{"x":0,"y":0},{"x":93,"y":0}]},{"id":47,"x":76,"y":33,"visible":true,"properties":[{"name":"layer","type":"int","value":1},{"name":"group","type":"int","value":1},{"name":"id","type":"int","value":27},{"name":"fh_layer","type":"int","value":1},{"name":"fh_group","type":"int","value":1},{"name":"fh_id","type":"int","value":27},{"name":"x1","type":"int","value":76},{"name":"x2","type":"int","value":224},{"name":"y1","type":"int","value":33},{"name":"y2","type":"int","value":33},{"name":"next","type":"int","value":0},{"name":"prev","type":"int","value":0}],"polyline":[{"x":0,"y":0},{"x":148,"y":0}]}],"properties":[]},{"id":7,"name":"ladderRope","type":"objectgroup","visible":true,"opacity":1,"draworder":"index","offsetx":0,"offsety":0,"parallaxx":1,"parallaxy":1,"objects":[{"id":48,"x":-99,"y":-126,"visible":true,"properties":[{"name":"ladder_id","type":"int","value":1},{"name":"l","type":"int","value":1},{"name":"x","type":"int","value":-99},{"name":"uf","type":"int","value":1},{"name":"y1","type":"int","value":-126},{"name":"y2","type":"int","value":-14},{"name":"page","type":"int","value":2}],"polyline":[{"x":0,"y":0},{"x":0,"y":112}]},{"id":49,"x":-140,"y":-6,"visible":true,"properties":[{"name":"ladder_id","type":"int","value":2},{"name":"l","type":"int","value":1},{"name":"x","type":"int","value":-140},{"name":"uf","type":"int","value":1},{"name":"y1","type":"int","value":-6},{"name":"y2","type":"int","value":140},{"name":"page","type":"int","value":2}],"polyline":[{"x":0,"y":0},{"x":0,"y":146}]},{"id":50,"x":132,"y":-297,"visible":true,"properties":[{"name":"ladder_id","type":"int","value":3},{"name":"l","type":"int","value":1},{"name":"x","type":"int","value":132},{"name":"uf","type":"int","value":1},{"name":"y1","type":"int","value":-297},{"name":"y2","type":"int","value":-184},{"name":"page","type":"int","value":2}],"polyline":[{"x":0,"y":0},{"x":0,"y":113}]},{"id":51,"x":-251,"y":-246,"visible":true,"properties":[{"name":"ladder_id","type":"int","value":4},{"name":"l","type":"int","value":1},{"name":"x","type":"int","value":-251},{"name":"uf","type":"int","value":1},{"name":"y1","type":"int","value":-246},{"name":"y2","type":"int","value":-134},{"name":"page","type":"int","value":2}],"polyline":[{"x":0,"y":0},{"x":0,"y":112}]}],"properties":[]}],"tilesets":[{"firstgid":1,"source":"../tilesets/obj_shop2_shop_repairMC.tsj"}],"properties":[{"name":"bgm","type":"string","value":"Bgm01/BadGuys"},{"name":"town","type":"int","value":1},{"name":"VRTop","type":"int","value":-490},{"name":"cloud","type":"int","value":0},{"name":"VRLeft","type":"int","value":-400},{"name":"VRRight","type":"int","value":400},{"name":"mapDesc","type":"string","value":""},{"name":"mapMark","type":"string","value":"KerningCity"},{"name":"mobRate","type":"float","value":1},{"name":"version","type":"int","value":10},{"name":"VRBottom","type":"int","value":300},{"name":"returnMap","type":"int","value":103000000},{"name":"forcedReturn","type":"int","value":999999999}]}