{"type":"map","orientation":"orthogonal","renderorder":"right-down","infinite":false,"tilewidth":1,"tileheight":1,"width":800,"height":600,"parallaxoriginx":-400,"parallaxoriginy":80,"nextlayerid":9,"nextobjectid":49,"layers":[{"id":1,"name":"layer_0_obj","type":"objectgroup","visible":true,"opacity":1,"draworder":"index","offsetx":0,"offsety":0,"parallaxx":1,"parallaxy":1,"objects":[{"id":1,"x":-358,"y":223,"visible":true,"properties":[{"name":"layer","type":"int","value":0},{"name":"resource_index","type":"int","value":0},{"name":"oS","type":"string","value":"shop"},{"name":"l0","type":"string","value":"shop"},{"name":"l1","type":"string","value":"hairshopMC"},{"name":"l2","type":"string","value":"0"},{"name":"z","type":"int","value":3},{"name":"zM","type":"int","value":1},{"name":"f","type":"int","value":0}],"gid":1,"width":713,"height":449},{"id":2,"x":-324,"y":-106,"visible":true,"properties":[{"name":"layer","type":"int","value":0},{"name":"resource_index","type":"int","value":1},{"name":"oS","type":"string","value":"shop"},{"name":"l0","type":"string","value":"shop"},{"name":"l1","type":"string","value":"hairshopMC"},{"name":"l2","type":"string","value":"7"},{"name":"z","type":"int","value":4},{"name":"zM","type":"int","value":1},{"name":"f","type":"int","value":0}],"gid":2,"width":54,"height":56}],"properties":[]},{"id":2,"name":"layer_1_obj","type":"objectgroup","visible":true,"opacity":1,"draworder":"index","offsetx":0,"offsety":0,"parallaxx":1,"parallaxy":1,"objects":[{"id":3,"x":234,"y":6,"visible":true,"properties":[{"name":"layer","type":"int","value":1},{"name":"resource_index","type":"int","value":0},{"name":"oS","type":"string","value":"shop"},{"name":"l0","type":"string","value":"shop"},{"name":"l1","type":"string","value":"hairshopMC"},{"name":"l2","type":"string","value":"6"},{"name":"z","type":"int","value":3},{"name":"zM","type":"int","value":4},{"name":"f","type":"int","value":0}],"gid":3,"width":58,"height":25},{"id":4,"x":-56,"y":185,"visible":true,"properties":[{"name":"layer","type":"int","value":1},{"name":"resource_index","type":"int","value":1},{"name":"oS","type":"string","value":"shop"},{"name":"l0","type":"string","value":"shop"},{"name":"l1","type":"string","value":"hairshopMC"},{"name":"l2","type":"string","value":"1"},{"name":"z","type":"int","value":3},{"name":"zM","type":"int","value":2},{"name":"f","type":"int","value":0}],"gid":4,"width":193,"height":135},{"id":5,"x":-337,"y":-35,"visible":true,"properties":[{"name":"layer","type":"int","value":1},{"name":"resource_index","type":"int","value":2},{"name":"oS","type":"string","value":"shop"},{"name":"l0","type":"string","value":"shop"},{"name":"l1","type":"string","value":"hairshopMC"},{"name":"l2","type":"string","value":"4"},{"name":"z","type":"int","value":5},{"name":"zM","type":"int","value":5},{"name":"f","type":"int","value":0}],"gid":5,"width":96,"height":140},{"id":6,"x":-323,"y":-89,"visible":true,"properties":[{"name":"layer","type":"int","value":1},{"name":"resource_index","type":"int","value":3},{"name":"oS","type":"string","value":"shop"},{"name":"l0","type":"string","value":"shop"},{"name":"l1","type":"string","value":"hairshopMC"},{"name":"l2","type":"string","value":"8"},{"name":"z","type":"int","value":3},{"name":"zM","type":"int","value":5},{"name":"f","type":"int","value":0}],"gid":6,"width":659,"height":80}],"properties":[]},{"id":3,"name":"layer_2_obj","type":"objectgroup","visible":true,"opacity":1,"draworder":"index","offsetx":0,"offsety":0,"parallaxx":1,"parallaxy":1,"objects":[{"id":7,"x":-163,"y":184,"visible":true,"properties":[{"name":"layer","type":"int","value":2},{"name":"resource_index","type":"int","value":0},{"name":"oS","type":"string","value":"shop"},{"name":"l0","type":"string","value":"shop"},{"name":"l1","type":"string","value":"hairshopMC"},{"name":"l2","type":"string","value":"2"},{"name":"z","type":"int","value":3},{"name":"zM","type":"int","value":3},{"name":"f","type":"int","value":0}],"gid":7,"width":303,"height":261}],"properties":[]},{"id":4,"name":"layer_3_obj","type":"objectgroup","visible":true,"opacity":1,"draworder":"index","offsetx":0,"offsety":0,"parallaxx":1,"parallaxy":1,"objects":[{"id":8,"x":-401,"y":302,"visible":true,"properties":[{"name":"layer","type":"int","value":3},{"name":"resource_index","type":"int","value":0},{"name":"oS","type":"string","value":"shop"},{"name":"l0","type":"string","value":"shop"},{"name":"l1","type":"string","value":"hairshopMC"},{"name":"l2","type":"string","value":"3"},{"name":"z","type":"int","value":3},{"name":"zM","type":"int","value":0},{"name":"f","type":"int","value":0}],"gid":8,"width":800,"height":600},{"id":9,"x":155,"y":-22,"visible":true,"properties":[{"name":"layer","type":"int","value":3},{"name":"resource_index","type":"int","value":1},{"name":"oS","type":"string","value":"shop"},{"name":"l0","type":"string","value":"shop"},{"name":"l1","type":"string","value":"hairshopMC"},{"name":"l2","type":"string","value":"5"},{"name":"z","type":"int","value":4},{"name":"zM","type":"int","value":0},{"name":"f","type":"int","value":0}],"gid":9,"width":43,"height":92}],"properties":[]},{"id":5,"name":"portal","type":"objectgroup","visible":true,"opacity":1,"draworder":"index","offsetx":0,"offsety":0,"parallaxx":1,"parallaxy":1,"objects":[{"id":10,"x":-180,"y":-35,"visible":true,"properties":[{"name":"x","type":"int","value":-180},{"name":"y","type":"int","value":-35},{"name":"pn","type":"string","value":"sp"},{"name":"pt","type":"int","value":0},{"name":"tm","type":"int","value":999999999},{"name":"tn","type":"string","value":""},{"name":"portal_id","type":"int","value":0}],"point":true},{"id":11,"x":-124,"y":-44,"visible":true,"properties":[{"name":"x","type":"int","value":-124},{"name":"y","type":"int","value":-44},{"name":"pn","type":"string","value":"sp"},{"name":"pt","type":"int","value":0},{"name":"tm","type":"int","value":999999999},{"name":"tn","type":"string","value":""},{"name":"portal_id","type":"int","value":1}],"point":true},{"id":12,"x":-75,"y":-47,"visible":true,"properties":[{"name":"x","type":"int","value":-75},{"name":"y","type":"int","value":-47},{"name":"pn","type":"string","value":"sp"},{"name":"pt","type":"int","value":0},{"name":"tm","type":"int","value":999999999},{"name":"tn","type":"string","value":""},{"name":"portal_id","type":"int","value":2}],"point":true},{"id":13,"x":-241,"y":194,"visible":true,"properties":[{"name":"x","type":"int","value":-197},{"name":"y","type":"int","value":185},{"name":"pn","type":"string","value":"out00"},{"name":"pt","type":"int","value":2},{"name":"tm","type":"int","value":103000000},{"name":"tn","type":"string","value":"in05"},{"name":"portal_id","type":"int","value":3}],"gid":10,"width":89,"height":257}],"properties":[]},{"id":6,"name":"life","type":"objectgroup","visible":true,"opacity":1,"draworder":"index","offsetx":0,"offsety":0,"parallaxx":1,"parallaxy":1,"objects":[{"id":14,"x":-38,"y":183,"visible":true,"properties":[{"name":"f","type":"int","value":0},{"name":"x","type":"int","value":-38},{"name":"y","type":"int","value":183},{"name":"cy","type":"int","value":184},{"name":"fh","type":"int","value":31},{"name":"id","type":"int","value":1052100},{"name":"rx0","type":"int","value":-88},{"name":"rx1","type":"int","value":12},{"name":"type","type":"string","value":"n"},{"name":"mobTime","type":"int","value":0}],"point":true},{"id":15,"x":-72,"y":-12,"visible":true,"properties":[{"name":"f","type":"int","value":0},{"name":"x","type":"int","value":-72},{"name":"y","type":"int","value":-12},{"name":"cy","type":"int","value":-10},{"name":"fh","type":"int","value":14},{"name":"id","type":"int","value":1052101},{"name":"rx0","type":"int","value":-122},{"name":"rx1","type":"int","value":-22},{"name":"type","type":"string","value":"n"},{"name":"mobTime","type":"int","value":0}],"point":true}],"properties":[]},{"id":7,"name":"foothold","type":"objectgroup","visible":true,"opacity":1,"draworder":"index","offsetx":0,"offsety":0,"parallaxx":1,"parallaxy":1,"objects":[{"id":16,"x":257,"y":-72,"visible":true,"properties":[{"name":"layer","type":"int","value":0},{"name":"group","type":"int","value":1},{"name":"id","type":"int","value":1},{"name":"fh_layer","type":"int","value":0},{"name":"fh_group","type":"int","value":1},{"name":"fh_id","type":"int","value":1},{"name":"x1","type":"int","value":257},{"name":"x2","type":"int","value":257},{"name":"y1","type":"int","value":-72},{"name":"y2","type":"int","value":4},{"name":"next","type":"int","value":2},{"name":"prev","type":"int","value":0}],"polyline":[{"x":0,"y":0},{"x":0,"y":76}]},{"id":17,"x":257,"y":4,"visible":true,"properties":[{"name":"layer","type":"int","value":0},{"name":"group","type":"int","value":1},{"name":"id","type":"int","value":2},{"name":"fh_layer","type":"int","value":0},{"name":"fh_group","type":"int","value":1},{"name":"fh_id","type":"int","value":2},{"name":"x1","type":"int","value":257},{"name":"x2","type":"int","value":285},{"name":"y1","type":"int","value":4},{"name":"y2","type":"int","value":4},{"name":"next","type":"int","value":0},{"name":"prev","type":"int","value":1}],"polyline":[{"x":0,"y":0},{"x":28,"y":0}]},{"id":18,"x":301,"y":19,"visible":true,"properties":[{"name":"layer","type":"int","value":1},{"name":"group","type":"int","value":4},{"name":"id","type":"int","value":3},{"name":"fh_layer","type":"int","value":1},{"name":"fh_group","type":"int","value":4},{"name":"fh_id","type":"int","value":3},{"name":"x1","type":"int","value":301},{"name":"x2","type":"int","value":333},{"name":"y1","type":"int","value":19},{"name":"y2","type":"int","value":19},{"name":"next","type":"int","value":4},{"name":"prev","type":"int","value":0}],"polyline":[{"x":0,"y":0},{"x":32,"y":0}]},{"id":19,"x":333,"y":19,"visible":true,"properties":[{"name":"layer","type":"int","value":1},{"name":"group","type":"int","value":4},{"name":"id","type":"int","value":4},{"name":"fh_layer","type":"int","value":1},{"name":"fh_group","type":"int","value":4},{"name":"fh_id","type":"int","value":4},{"name":"x1","type":"int","value":333},{"name":"x2","type":"int","value":333},{"name":"y1","type":"int","value":19},{"name":"y2","type":"int","value":-76},{"name":"next","type":"int","value":0},{"name":"prev","type":"int","value":3}],"polyline":[{"x":0,"y":0},{"x":0,"y":-95}]},{"id":20,"x":180,"y":163,"visible":true,"properties":[{"name":"layer","type":"int","value":2},{"name":"group","type":"int","value":3},{"name":"id","type":"int","value":5},{"name":"fh_layer","type":"int","value":2},{"name":"fh_group","type":"int","value":3},{"name":"fh_id","type":"int","value":5},{"name":"x1","type":"int","value":180},{"name":"x2","type":"int","value":265},{"name":"y1","type":"int","value":163},{"name":"y2","type":"int","value":163},{"name":"next","type":"int","value":0},{"name":"prev","type":"int","value":0}],"polyline":[{"x":0,"y":0},{"x":85,"y":0}]},{"id":21,"x":201,"y":142,"visible":true,"properties":[{"name":"layer","type":"int","value":2},{"name":"group","type":"int","value":3},{"name":"id","type":"int","value":6},{"name":"fh_layer","type":"int","value":2},{"name":"fh_group","type":"int","value":3},{"name":"fh_id","type":"int","value":6},{"name":"x1","type":"int","value":201},{"name":"x2","type":"int","value":283},{"name":"y1","type":"int","value":142},{"name":"y2","type":"int","value":142},{"name":"next","type":"int","value":0},{"name":"prev","type":"int","value":0}],"polyline":[{"x":0,"y":0},{"x":82,"y":0}]},{"id":22,"x":222,"y":121,"visible":true,"properties":[{"name":"layer","type":"int","value":2},{"name":"group","type":"int","value":3},{"name":"id","type":"int","value":7},{"name":"fh_layer","type":"int","value":2},{"name":"fh_group","type":"int","value":3},{"name":"fh_id","type":"int","value":7},{"name":"x1","type":"int","value":222},{"name":"x2","type":"int","value":304},{"name":"y1","type":"int","value":121},{"name":"y2","type":"int","value":121},{"name":"next","type":"int","value":0},{"name":"prev","type":"int","value":0}],"polyline":[{"x":0,"y":0},{"x":82,"y":0}]},{"id":23,"x":243,"y":100,"visible":true,"properties":[{"name":"layer","type":"int","value":2},{"name":"group","type":"int","value":3},{"name":"id","type":"int","value":8},{"name":"fh_layer","type":"int","value":2},{"name":"fh_group","type":"int","value":3},{"name":"fh_id","type":"int","value":8},{"name":"x1","type":"int","value":243},{"name":"x2","type":"int","value":330},{"name":"y1","type":"int","value":100},{"name":"y2","type":"int","value":100},{"name":"next","type":"int","value":0},{"name":"prev","type":"int","value":0}],"polyline":[{"x":0,"y":0},{"x":87,"y":0}]},{"id":24,"x":224,"y":79,"visible":true,"properties":[{"name":"layer","type":"int","value":2},{"name":"group","type":"int","value":3},{"name":"id","type":"int","value":9},{"name":"fh_layer","type":"int","value":2},{"name":"fh_group","type":"int","value":3},{"name":"fh_id","type":"int","value":9},{"name":"x1","type":"int","value":224},{"name":"x2","type":"int","value":309},{"name":"y1","type":"int","value":79},{"name":"y2","type":"int","value":79},{"name":"next","type":"int","value":0},{"name":"prev","type":"int","value":0}],"polyline":[{"x":0,"y":0},{"x":85,"y":0}]},{"id":25,"x":203,"y":58,"visible":true,"properties":[{"name":"layer","type":"int","value":2},{"name":"group","type":"int","value":3},{"name":"id","type":"int","value":10},{"name":"fh_layer","type":"int","value":2},{"name":"fh_group","type":"int","value":3},{"name":"fh_id","type":"int","value":10},{"name":"x1","type":"int","value":203},{"name":"x2","type":"int","value":289},{"name":"y1","type":"int","value":58},{"name":"y2","type":"int","value":58},{"name":"next","type":"int","value":0},{"name":"prev","type":"int","value":0}],"polyline":[{"x":0,"y":0},{"x":86,"y":0}]},{"id":26,"x":182,"y":37,"visible":true,"properties":[{"name":"layer","type":"int","value":2},{"name":"group","type":"int","value":3},{"name":"id","type":"int","value":11},{"name":"fh_layer","type":"int","value":2},{"name":"fh_group","type":"int","value":3},{"name":"fh_id","type":"int","value":11},{"name":"x1","type":"int","value":182},{"name":"x2","type":"int","value":268},{"name":"y1","type":"int","value":37},{"name":"y2","type":"int","value":37},{"name":"next","type":"int","value":0},{"name":"prev","type":"int","value":0}],"polyline":[{"x":0,"y":0},{"x":86,"y":0}]},{"id":27,"x":161,"y":16,"visible":true,"properties":[{"name":"layer","type":"int","value":2},{"name":"group","type":"int","value":3},{"name":"id","type":"int","value":12},{"name":"fh_layer","type":"int","value":2},{"name":"fh_group","type":"int","value":3},{"name":"fh_id","type":"int","value":12},{"name":"x1","type":"int","value":161},{"name":"x2","type":"int","value":247},{"name":"y1","type":"int","value":16},{"name":"y2","type":"int","value":16},{"name":"next","type":"int","value":0},{"name":"prev","type":"int","value":0}],"polyline":[{"x":0,"y":0},{"x":86,"y":0}]},{"id":28,"x":139,"y":-5,"visible":true,"properties":[{"name":"layer","type":"int","value":2},{"name":"group","type":"int","value":3},{"name":"id","type":"int","value":13},{"name":"fh_layer","type":"int","value":2},{"name":"fh_group","type":"int","value":3},{"name":"fh_id","type":"int","value":13},{"name":"x1","type":"int","value":139},{"name":"x2","type":"int","value":227},{"name":"y1","type":"int","value":-5},{"name":"y2","type":"int","value":-5},{"name":"next","type":"int","value":0},{"name":"prev","type":"int","value":0}],"polyline":[{"x":0,"y":0},{"x":88,"y":0}]},{"id":29,"x":-242,"y":-10,"visible":true,"properties":[{"name":"layer","type":"int","value":2},{"name":"group","type":"int","value":3},{"name":"id","type":"int","value":14},{"name":"fh_layer","type":"int","value":2},{"name":"fh_group","type":"int","value":3},{"name":"fh_id","type":"int","value":14},{"name":"x1","type":"int","value":-242},{"name":"x2","type":"int","value":141},{"name":"y1","type":"int","value":-10},{"name":"y2","type":"int","value":-10},{"name":"next","type":"int","value":0},{"name":"prev","type":"int","value":0}],"polyline":[{"x":0,"y":0},{"x":383,"y":0}]},{"id":30,"x":-250,"y":-67,"visible":true,"properties":[{"name":"layer","type":"int","value":2},{"name":"group","type":"int","value":3},{"name":"id","type":"int","value":15},{"name":"fh_layer","type":"int","value":2},{"name":"fh_group","type":"int","value":3},{"name":"fh_id","type":"int","value":15},{"name":"x1","type":"int","value":-250},{"name":"x2","type":"int","value":-150},{"name":"y1","type":"int","value":-67},{"name":"y2","type":"int","value":-67},{"name":"next","type":"int","value":0},{"name":"prev","type":"int","value":0}],"polyline":[{"x":0,"y":0},{"x":100,"y":0}]},{"id":31,"x":-241,"y":-125,"visible":true,"properties":[{"name":"layer","type":"int","value":2},{"name":"group","type":"int","value":3},{"name":"id","type":"int","value":16},{"name":"fh_layer","type":"int","value":2},{"name":"fh_group","type":"int","value":3},{"name":"fh_id","type":"int","value":16},{"name":"x1","type":"int","value":-241},{"name":"x2","type":"int","value":-150},{"name":"y1","type":"int","value":-125},{"name":"y2","type":"int","value":-125},{"name":"next","type":"int","value":0},{"name":"prev","type":"int","value":0}],"polyline":[{"x":0,"y":0},{"x":91,"y":0}]},{"id":32,"x":-133,"y":-106,"visible":true,"properties":[{"name":"layer","type":"int","value":2},{"name":"group","type":"int","value":3},{"name":"id","type":"int","value":17},{"name":"fh_layer","type":"int","value":2},{"name":"fh_group","type":"int","value":3},{"name":"fh_id","type":"int","value":17},{"name":"x1","type":"int","value":-133},{"name":"x2","type":"int","value":201},{"name":"y1","type":"int","value":-106},{"name":"y2","type":"int","value":-106},{"name":"next","type":"int","value":18},{"name":"prev","type":"int","value":0}],"polyline":[{"x":0,"y":0},{"x":334,"y":0}]},{"id":33,"x":201,"y":-106,"visible":true,"properties":[{"name":"layer","type":"int","value":2},{"name":"group","type":"int","value":3},{"name":"id","type":"int","value":18},{"name":"fh_layer","type":"int","value":2},{"name":"fh_group","type":"int","value":3},{"name":"fh_id","type":"int","value":18},{"name":"x1","type":"int","value":201},{"name":"x2","type":"int","value":201},{"name":"y1","type":"int","value":-106},{"name":"y2","type":"int","value":-272},{"name":"next","type":"int","value":0},{"name":"prev","type":"int","value":17}],"polyline":[{"x":0,"y":0},{"x":0,"y":-166}]},{"id":34,"x":-142,"y":155,"visible":true,"properties":[{"name":"layer","type":"int","value":2},{"name":"group","type":"int","value":3},{"name":"id","type":"int","value":19},{"name":"fh_layer","type":"int","value":2},{"name":"fh_group","type":"int","value":3},{"name":"fh_id","type":"int","value":19},{"name":"x1","type":"int","value":-142},{"name":"x2","type":"int","value":-135},{"name":"y1","type":"int","value":155},{"name":"y2","type":"int","value":152},{"name":"next","type":"int","value":20},{"name":"prev","type":"int","value":0}],"polyline":[{"x":0,"y":0},{"x":7,"y":-3}]},{"id":35,"x":-135,"y":152,"visible":true,"properties":[{"name":"layer","type":"int","value":2},{"name":"group","type":"int","value":3},{"name":"id","type":"int","value":20},{"name":"fh_layer","type":"int","value":2},{"name":"fh_group","type":"int","value":3},{"name":"fh_id","type":"int","value":20},{"name":"x1","type":"int","value":-135},{"name":"x2","type":"int","value":-101},{"name":"y1","type":"int","value":152},{"name":"y2","type":"int","value":152},{"name":"next","type":"int","value":0},{"name":"prev","type":"int","value":19}],"polyline":[{"x":0,"y":0},{"x":34,"y":0}]},{"id":36,"x":0,"y":156,"visible":true,"properties":[{"name":"layer","type":"int","value":2},{"name":"group","type":"int","value":3},{"name":"id","type":"int","value":21},{"name":"fh_layer","type":"int","value":2},{"name":"fh_group","type":"int","value":3},{"name":"fh_id","type":"int","value":21},{"name":"x1","type":"int","value":0},{"name":"x2","type":"int","value":7},{"name":"y1","type":"int","value":156},{"name":"y2","type":"int","value":153},{"name":"next","type":"int","value":22},{"name":"prev","type":"int","value":0}],"polyline":[{"x":0,"y":0},{"x":7,"y":-3}]},{"id":37,"x":7,"y":153,"visible":true,"properties":[{"name":"layer","type":"int","value":2},{"name":"group","type":"int","value":3},{"name":"id","type":"int","value":22},{"name":"fh_layer","type":"int","value":2},{"name":"fh_group","type":"int","value":3},{"name":"fh_id","type":"int","value":22},{"name":"x1","type":"int","value":7},{"name":"x2","type":"int","value":41},{"name":"y1","type":"int","value":153},{"name":"y2","type":"int","value":153},{"name":"next","type":"int","value":0},{"name":"prev","type":"int","value":21}],"polyline":[{"x":0,"y":0},{"x":34,"y":0}]},{"id":38,"x":-147,"y":-43,"visible":true,"properties":[{"name":"layer","type":"int","value":2},{"name":"group","type":"int","value":3},{"name":"id","type":"int","value":23},{"name":"fh_layer","type":"int","value":2},{"name":"fh_group","type":"int","value":3},{"name":"fh_id","type":"int","value":23},{"name":"x1","type":"int","value":-147},{"name":"x2","type":"int","value":-140},{"name":"y1","type":"int","value":-43},{"name":"y2","type":"int","value":-46},{"name":"next","type":"int","value":24},{"name":"prev","type":"int","value":0}],"polyline":[{"x":0,"y":0},{"x":7,"y":-3}]},{"id":39,"x":-140,"y":-46,"visible":true,"properties":[{"name":"layer","type":"int","value":2},{"name":"group","type":"int","value":3},{"name":"id","type":"int","value":24},{"name":"fh_layer","type":"int","value":2},{"name":"fh_group","type":"int","value":3},{"name":"fh_id","type":"int","value":24},{"name":"x1","type":"int","value":-140},{"name":"x2","type":"int","value":-106},{"name":"y1","type":"int","value":-46},{"name":"y2","type":"int","value":-46},{"name":"next","type":"int","value":0},{"name":"prev","type":"int","value":23}],"polyline":[{"x":0,"y":0},{"x":34,"y":0}]},{"id":40,"x":-45,"y":-43,"visible":true,"properties":[{"name":"layer","type":"int","value":2},{"name":"group","type":"int","value":3},{"name":"id","type":"int","value":25},{"name":"fh_layer","type":"int","value":2},{"name":"fh_group","type":"int","value":3},{"name":"fh_id","type":"int","value":25},{"name":"x1","type":"int","value":-45},{"name":"x2","type":"int","value":-38},{"name":"y1","type":"int","value":-43},{"name":"y2","type":"int","value":-46},{"name":"next","type":"int","value":26},{"name":"prev","type":"int","value":0}],"polyline":[{"x":0,"y":0},{"x":7,"y":-3}]},{"id":41,"x":-38,"y":-46,"visible":true,"properties":[{"name":"layer","type":"int","value":2},{"name":"group","type":"int","value":3},{"name":"id","type":"int","value":26},{"name":"fh_layer","type":"int","value":2},{"name":"fh_group","type":"int","value":3},{"name":"fh_id","type":"int","value":26},{"name":"x1","type":"int","value":-38},{"name":"x2","type":"int","value":-4},{"name":"y1","type":"int","value":-46},{"name":"y2","type":"int","value":-46},{"name":"next","type":"int","value":0},{"name":"prev","type":"int","value":25}],"polyline":[{"x":0,"y":0},{"x":34,"y":0}]},{"id":42,"x":57,"y":-43,"visible":true,"properties":[{"name":"layer","type":"int","value":2},{"name":"group","type":"int","value":3},{"name":"id","type":"int","value":27},{"name":"fh_layer","type":"int","value":2},{"name":"fh_group","type":"int","value":3},{"name":"fh_id","type":"int","value":27},{"name":"x1","type":"int","value":57},{"name":"x2","type":"int","value":64},{"name":"y1","type":"int","value":-43},{"name":"y2","type":"int","value":-46},{"name":"next","type":"int","value":28},{"name":"prev","type":"int","value":0}],"polyline":[{"x":0,"y":0},{"x":7,"y":-3}]},{"id":43,"x":64,"y":-46,"visible":true,"properties":[{"name":"layer","type":"int","value":2},{"name":"group","type":"int","value":3},{"name":"id","type":"int","value":28},{"name":"fh_layer","type":"int","value":2},{"name":"fh_group","type":"int","value":3},{"name":"fh_id","type":"int","value":28},{"name":"x1","type":"int","value":64},{"name":"x2","type":"int","value":98},{"name":"y1","type":"int","value":-46},{"name":"y2","type":"int","value":-46},{"name":"next","type":"int","value":0},{"name":"prev","type":"int","value":27}],"polyline":[{"x":0,"y":0},{"x":34,"y":0}]},{"id":44,"x":-266,"y":160,"visible":true,"properties":[{"name":"layer","type":"int","value":2},{"name":"group","type":"int","value":3},{"name":"id","type":"int","value":29},{"name":"fh_layer","type":"int","value":2},{"name":"fh_group","type":"int","value":3},{"name":"fh_id","type":"int","value":29},{"name":"x1","type":"int","value":-266},{"name":"x2","type":"int","value":-214},{"name":"y1","type":"int","value":160},{"name":"y2","type":"int","value":160},{"name":"next","type":"int","value":0},{"name":"prev","type":"int","value":0}],"polyline":[{"x":0,"y":0},{"x":52,"y":0}]},{"id":45,"x":-339,"y":-130,"visible":true,"properties":[{"name":"layer","type":"int","value":3},{"name":"group","type":"int","value":0},{"name":"id","type":"int","value":30},{"name":"fh_layer","type":"int","value":3},{"name":"fh_group","type":"int","value":0},{"name":"fh_id","type":"int","value":30},{"name":"x1","type":"int","value":-339},{"name":"x2","type":"int","value":-339},{"name":"y1","type":"int","value":-130},{"name":"y2","type":"int","value":184},{"name":"next","type":"int","value":31},{"name":"prev","type":"int","value":0}],"polyline":[{"x":0,"y":0},{"x":0,"y":314}]},{"id":46,"x":-339,"y":184,"visible":true,"properties":[{"name":"layer","type":"int","value":3},{"name":"group","type":"int","value":0},{"name":"id","type":"int","value":31},{"name":"fh_layer","type":"int","value":3},{"name":"fh_group","type":"int","value":0},{"name":"fh_id","type":"int","value":31},{"name":"x1","type":"int","value":-339},{"name":"x2","type":"int","value":340},{"name":"y1","type":"int","value":184},{"name":"y2","type":"int","value":184},{"name":"next","type":"int","value":32},{"name":"prev","type":"int","value":30}],"polyline":[{"x":0,"y":0},{"x":679,"y":0}]},{"id":47,"x":340,"y":184,"visible":true,"properties":[{"name":"layer","type":"int","value":3},{"name":"group","type":"int","value":0},{"name":"id","type":"int","value":32},{"name":"fh_layer","type":"int","value":3},{"name":"fh_group","type":"int","value":0},{"name":"fh_id","type":"int","value":32},{"name":"x1","type":"int","value":340},{"name":"x2","type":"int","value":340},{"name":"y1","type":"int","value":184},{"name":"y2","type":"int","value":-178},{"name":"next","type":"int","value":0},{"name":"prev","type":"int","value":31}],"polyline":[{"x":0,"y":0},{"x":0,"y":-362}]}],"properties":[]},{"id":8,"name":"ladderRope","type":"objectgroup","visible":true,"opacity":1,"draworder":"index","offsetx":0,"offsety":0,"parallaxx":1,"parallaxy":1,"objects":[{"id":48,"x":174,"y":-104,"visible":true,"properties":[{"name":"ladder_id","type":"int","value":1},{"name":"l","type":"int","value":1},{"name":"x","type":"int","value":174},{"name":"uf","type":"int","value":1},{"name":"y1","type":"int","value":-104},{"name":"y2","type":"int","value":-7},{"name":"page","type":"int","value":3}],"polyline":[{"x":0,"y":0},{"x":0,"y":97}]}],"properties":[]}],"tilesets":[{"firstgid":1,"source":"../tilesets/obj_shop_shop_hairshopMC.tsj"},{"firstgid":10,"source":"../tilesets/portal_MapHelper.img_portal_game_pv.tsj"}],"properties":[{"name":"bgm","type":"string","value":"Bgm01/BadGuys"},{"name":"town","type":"int","value":1},{"name":"VRTop","type":"int","value":-300},{"name":"cloud","type":"int","value":0},{"name":"VRLeft","type":"int","value":-400},{"name":"VRRight","type":"int","value":400},{"name":"mapMark","type":"string","value":"KerningCity"},{"name":"mobRate","type":"float","value":1},{"name":"version","type":"int","value":10},{"name":"VRBottom","type":"int","value":300},{"name":"returnMap","type":"int","value":103000000},{"name":"forcedReturn","type":"int","value":999999999}]}