{"type":"map","orientation":"orthogonal","renderorder":"right-down","infinite":false,"tilewidth":1,"tileheight":1,"width":800,"height":600,"parallaxoriginx":-400,"parallaxoriginy":80,"nextlayerid":8,"nextobjectid":31,"layers":[{"id":1,"name":"layer_0_obj","type":"objectgroup","visible":true,"opacity":1,"draworder":"index","offsetx":0,"offsety":0,"parallaxx":1,"parallaxy":1,"objects":[{"id":1,"x":-402,"y":300,"visible":true,"properties":[{"name":"layer","type":"int","value":0},{"name":"resource_index","type":"int","value":0},{"name":"oS","type":"string","value":"shop2"},{"name":"l0","type":"string","value":"shop"},{"name":"l1","type":"string","value":"subwayMC"},{"name":"l2","type":"string","value":"0"},{"name":"z","type":"int","value":0},{"name":"zM","type":"int","value":1},{"name":"f","type":"int","value":0}],"gid":1,"width":800,"height":600}],"properties":[]},{"id":2,"name":"layer_1_obj","type":"objectgroup","visible":true,"opacity":1,"draworder":"index","offsetx":0,"offsety":0,"parallaxx":1,"parallaxy":1,"objects":[{"id":2,"x":-403,"y":193,"visible":true,"properties":[{"name":"layer","type":"int","value":1},{"name":"resource_index","type":"int","value":0},{"name":"oS","type":"string","value":"shop2"},{"name":"l0","type":"string","value":"shop"},{"name":"l1","type":"string","value":"subwayMC"},{"name":"l2","type":"string","value":"1"},{"name":"z","type":"int","value":3},{"name":"zM","type":"int","value":2},{"name":"f","type":"int","value":0}],"gid":2,"width":578,"height":406},{"id":3,"x":127,"y":189,"visible":true,"properties":[{"name":"layer","type":"int","value":1},{"name":"resource_index","type":"int","value":1},{"name":"oS","type":"string","value":"shop2"},{"name":"l0","type":"string","value":"shop"},{"name":"l1","type":"string","value":"subwayMC"},{"name":"l2","type":"string","value":"6"},{"name":"z","type":"int","value":4},{"name":"zM","type":"int","value":0},{"name":"f","type":"int","value":0}],"gid":3,"width":111,"height":63},{"id":4,"x":215,"y":189,"visible":true,"properties":[{"name":"layer","type":"int","value":1},{"name":"resource_index","type":"int","value":2},{"name":"oS","type":"string","value":"shop2"},{"name":"l0","type":"string","value":"shop"},{"name":"l1","type":"string","value":"subwayMC"},{"name":"l2","type":"string","value":"6"},{"name":"z","type":"int","value":5},{"name":"zM","type":"int","value":0},{"name":"f","type":"int","value":0}],"gid":3,"width":111,"height":63}],"properties":[]},{"id":3,"name":"layer_2_obj","type":"objectgroup","visible":true,"opacity":1,"draworder":"index","offsetx":0,"offsety":0,"parallaxx":1,"parallaxy":1,"objects":[{"id":5,"x":-403,"y":191,"visible":true,"properties":[{"name":"layer","type":"int","value":2},{"name":"resource_index","type":"int","value":0},{"name":"oS","type":"string","value":"shop2"},{"name":"l0","type":"string","value":"shop"},{"name":"l1","type":"string","value":"subwayMC"},{"name":"l2","type":"string","value":"3"},{"name":"z","type":"int","value":3},{"name":"zM","type":"int","value":3},{"name":"f","type":"int","value":0}],"gid":4,"width":304,"height":199},{"id":6,"x":178,"y":-139,"visible":true,"properties":[{"name":"layer","type":"int","value":2},{"name":"resource_index","type":"int","value":1},{"name":"oS","type":"string","value":"insideGL"},{"name":"l0","type":"string","value":"inside1"},{"name":"l1","type":"string","value":"front"},{"name":"l2","type":"string","value":"8"},{"name":"z","type":"int","value":9},{"name":"zM","type":"int","value":0},{"name":"f","type":"int","value":0}],"gid":6,"width":131,"height":77}],"properties":[]},{"id":4,"name":"layer_3_obj","type":"objectgroup","visible":true,"opacity":1,"draworder":"index","offsetx":0,"offsety":0,"parallaxx":1,"parallaxy":1,"objects":[{"id":7,"x":-403,"y":304,"visible":true,"properties":[{"name":"layer","type":"int","value":3},{"name":"resource_index","type":"int","value":0},{"name":"oS","type":"string","value":"shop2"},{"name":"l0","type":"string","value":"shop"},{"name":"l1","type":"string","value":"subwayMC"},{"name":"l2","type":"string","value":"4"},{"name":"z","type":"int","value":3},{"name":"zM","type":"int","value":0},{"name":"f","type":"int","value":0}],"gid":5,"width":800,"height":600}],"properties":[]},{"id":5,"name":"portal","type":"objectgroup","visible":true,"opacity":1,"draworder":"index","offsetx":0,"offsety":0,"parallaxx":1,"parallaxy":1,"objects":[{"id":8,"x":-250,"y":-180,"visible":true,"properties":[{"name":"x","type":"int","value":-250},{"name":"y","type":"int","value":-180},{"name":"pn","type":"string","value":"sp"},{"name":"pt","type":"int","value":0},{"name":"tm","type":"int","value":999999999},{"name":"tn","type":"string","value":""},{"name":"portal_id","type":"int","value":0}],"point":true},{"id":9,"x":-256,"y":-156,"visible":true,"properties":[{"name":"x","type":"int","value":-212},{"name":"y","type":"int","value":-165},{"name":"pn","type":"string","value":"out00"},{"name":"pt","type":"int","value":2},{"name":"tm","type":"int","value":103000000},{"name":"tn","type":"string","value":"sub00"},{"name":"portal_id","type":"int","value":1}],"gid":7,"width":89,"height":257},{"id":10,"x":200,"y":187,"visible":true,"properties":[{"name":"x","type":"int","value":200},{"name":"y","type":"int","value":187},{"name":"pn","type":"string","value":"in00"},{"name":"pt","type":"int","value":7},{"name":"tm","type":"int","value":999999999},{"name":"tn","type":"string","value":""},{"name":"delay","type":"int","value":0},{"name":"script","type":"string","value":"subway_in2"},{"name":"onlyOnce","type":"int","value":0},{"name":"hideTooltip","type":"int","value":0},{"name":"horizontalImpact","type":"int","value":0},{"name":"portal_id","type":"int","value":2}],"point":true}],"properties":[]},{"id":6,"name":"life","type":"objectgroup","visible":true,"opacity":1,"draworder":"index","offsetx":0,"offsety":0,"parallaxx":1,"parallaxy":1,"objects":[{"id":11,"x":71,"y":187,"visible":true,"properties":[{"name":"f","type":"int","value":0},{"name":"x","type":"int","value":71},{"name":"y","type":"int","value":187},{"name":"cy","type":"int","value":187},{"name":"fh","type":"int","value":16},{"name":"id","type":"int","value":1052006},{"name":"rx0","type":"int","value":21},{"name":"rx1","type":"int","value":121},{"name":"type","type":"string","value":"n"},{"name":"mobTime","type":"int","value":0}],"point":true},{"id":12,"x":355,"y":187,"visible":true,"properties":[{"name":"f","type":"int","value":0},{"name":"x","type":"int","value":355},{"name":"y","type":"int","value":187},{"name":"cy","type":"int","value":187},{"name":"fh","type":"int","value":16},{"name":"id","type":"int","value":1052007},{"name":"rx0","type":"int","value":305},{"name":"rx1","type":"int","value":369},{"name":"type","type":"string","value":"n"},{"name":"mobTime","type":"int","value":0}],"point":true},{"id":13,"x":-311,"y":182,"visible":true,"properties":[{"name":"f","type":"int","value":1},{"name":"x","type":"int","value":-311},{"name":"y","type":"int","value":182},{"name":"cy","type":"int","value":187},{"name":"fh","type":"int","value":16},{"name":"id","type":"int","value":9201057},{"name":"rx0","type":"int","value":-361},{"name":"rx1","type":"int","value":-261},{"name":"hide","type":"int","value":0},{"name":"type","type":"string","value":"n"},{"name":"mobTime","type":"int","value":0}],"point":true}],"properties":[]},{"id":7,"name":"foothold","type":"objectgroup","visible":true,"opacity":1,"draworder":"index","offsetx":0,"offsety":0,"parallaxx":1,"parallaxy":1,"objects":[{"id":14,"x":-389,"y":-43,"visible":true,"properties":[{"name":"layer","type":"int","value":1},{"name":"group","type":"int","value":2},{"name":"id","type":"int","value":1},{"name":"fh_layer","type":"int","value":1},{"name":"fh_group","type":"int","value":2},{"name":"fh_id","type":"int","value":1},{"name":"x1","type":"int","value":-389},{"name":"x2","type":"int","value":-280},{"name":"y1","type":"int","value":-43},{"name":"y2","type":"int","value":-43},{"name":"next","type":"int","value":0},{"name":"prev","type":"int","value":0}],"polyline":[{"x":0,"y":0},{"x":109,"y":0}]},{"id":15,"x":-376,"y":-73,"visible":true,"properties":[{"name":"layer","type":"int","value":1},{"name":"group","type":"int","value":2},{"name":"id","type":"int","value":2},{"name":"fh_layer","type":"int","value":1},{"name":"fh_group","type":"int","value":2},{"name":"fh_id","type":"int","value":2},{"name":"x1","type":"int","value":-376},{"name":"x2","type":"int","value":-253},{"name":"y1","type":"int","value":-73},{"name":"y2","type":"int","value":-73},{"name":"next","type":"int","value":0},{"name":"prev","type":"int","value":0}],"polyline":[{"x":0,"y":0},{"x":123,"y":0}]},{"id":16,"x":-347,"y":-103,"visible":true,"properties":[{"name":"layer","type":"int","value":1},{"name":"group","type":"int","value":2},{"name":"id","type":"int","value":3},{"name":"fh_layer","type":"int","value":1},{"name":"fh_group","type":"int","value":2},{"name":"fh_id","type":"int","value":3},{"name":"x1","type":"int","value":-347},{"name":"x2","type":"int","value":-224},{"name":"y1","type":"int","value":-103},{"name":"y2","type":"int","value":-103},{"name":"next","type":"int","value":0},{"name":"prev","type":"int","value":0}],"polyline":[{"x":0,"y":0},{"x":123,"y":0}]},{"id":17,"x":-319,"y":-133,"visible":true,"properties":[{"name":"layer","type":"int","value":1},{"name":"group","type":"int","value":2},{"name":"id","type":"int","value":4},{"name":"fh_layer","type":"int","value":1},{"name":"fh_group","type":"int","value":2},{"name":"fh_id","type":"int","value":4},{"name":"x1","type":"int","value":-319},{"name":"x2","type":"int","value":-196},{"name":"y1","type":"int","value":-133},{"name":"y2","type":"int","value":-133},{"name":"next","type":"int","value":0},{"name":"prev","type":"int","value":0}],"polyline":[{"x":0,"y":0},{"x":123,"y":0}]},{"id":18,"x":-292,"y":-163,"visible":true,"properties":[{"name":"layer","type":"int","value":1},{"name":"group","type":"int","value":2},{"name":"id","type":"int","value":5},{"name":"fh_layer","type":"int","value":1},{"name":"fh_group","type":"int","value":2},{"name":"fh_id","type":"int","value":5},{"name":"x1","type":"int","value":-292},{"name":"x2","type":"int","value":-161},{"name":"y1","type":"int","value":-163},{"name":"y2","type":"int","value":-163},{"name":"next","type":"int","value":6},{"name":"prev","type":"int","value":0}],"polyline":[{"x":0,"y":0},{"x":131,"y":0}]},{"id":19,"x":-161,"y":-163,"visible":true,"properties":[{"name":"layer","type":"int","value":1},{"name":"group","type":"int","value":2},{"name":"id","type":"int","value":6},{"name":"fh_layer","type":"int","value":1},{"name":"fh_group","type":"int","value":2},{"name":"fh_id","type":"int","value":6},{"name":"x1","type":"int","value":-161},{"name":"x2","type":"int","value":-161},{"name":"y1","type":"int","value":-163},{"name":"y2","type":"int","value":-296},{"name":"next","type":"int","value":0},{"name":"prev","type":"int","value":5}],"polyline":[{"x":0,"y":0},{"x":0,"y":-133}]},{"id":20,"x":-167,"y":-13,"visible":true,"properties":[{"name":"layer","type":"int","value":1},{"name":"group","type":"int","value":2},{"name":"id","type":"int","value":7},{"name":"fh_layer","type":"int","value":1},{"name":"fh_group","type":"int","value":2},{"name":"fh_id","type":"int","value":7},{"name":"x1","type":"int","value":-167},{"name":"x2","type":"int","value":175},{"name":"y1","type":"int","value":-13},{"name":"y2","type":"int","value":-13},{"name":"next","type":"int","value":0},{"name":"prev","type":"int","value":0}],"polyline":[{"x":0,"y":0},{"x":342,"y":0}]},{"id":21,"x":-394,"y":-6,"visible":true,"properties":[{"name":"layer","type":"int","value":2},{"name":"group","type":"int","value":3},{"name":"id","type":"int","value":8},{"name":"fh_layer","type":"int","value":2},{"name":"fh_group","type":"int","value":3},{"name":"fh_id","type":"int","value":8},{"name":"x1","type":"int","value":-394},{"name":"x2","type":"int","value":-231},{"name":"y1","type":"int","value":-6},{"name":"y2","type":"int","value":-6},{"name":"next","type":"int","value":0},{"name":"prev","type":"int","value":0}],"polyline":[{"x":0,"y":0},{"x":163,"y":0}]},{"id":22,"x":-380,"y":22,"visible":true,"properties":[{"name":"layer","type":"int","value":2},{"name":"group","type":"int","value":3},{"name":"id","type":"int","value":9},{"name":"fh_layer","type":"int","value":2},{"name":"fh_group","type":"int","value":3},{"name":"fh_id","type":"int","value":9},{"name":"x1","type":"int","value":-380},{"name":"x2","type":"int","value":-208},{"name":"y1","type":"int","value":22},{"name":"y2","type":"int","value":22},{"name":"next","type":"int","value":0},{"name":"prev","type":"int","value":0}],"polyline":[{"x":0,"y":0},{"x":172,"y":0}]},{"id":23,"x":-359,"y":50,"visible":true,"properties":[{"name":"layer","type":"int","value":2},{"name":"group","type":"int","value":3},{"name":"id","type":"int","value":10},{"name":"fh_layer","type":"int","value":2},{"name":"fh_group","type":"int","value":3},{"name":"fh_id","type":"int","value":10},{"name":"x1","type":"int","value":-359},{"name":"x2","type":"int","value":-187},{"name":"y1","type":"int","value":50},{"name":"y2","type":"int","value":50},{"name":"next","type":"int","value":0},{"name":"prev","type":"int","value":0}],"polyline":[{"x":0,"y":0},{"x":172,"y":0}]},{"id":24,"x":-337,"y":78,"visible":true,"properties":[{"name":"layer","type":"int","value":2},{"name":"group","type":"int","value":3},{"name":"id","type":"int","value":11},{"name":"fh_layer","type":"int","value":2},{"name":"fh_group","type":"int","value":3},{"name":"fh_id","type":"int","value":11},{"name":"x1","type":"int","value":-337},{"name":"x2","type":"int","value":-165},{"name":"y1","type":"int","value":78},{"name":"y2","type":"int","value":78},{"name":"next","type":"int","value":0},{"name":"prev","type":"int","value":0}],"polyline":[{"x":0,"y":0},{"x":172,"y":0}]},{"id":25,"x":-314,"y":106,"visible":true,"properties":[{"name":"layer","type":"int","value":2},{"name":"group","type":"int","value":3},{"name":"id","type":"int","value":12},{"name":"fh_layer","type":"int","value":2},{"name":"fh_group","type":"int","value":3},{"name":"fh_id","type":"int","value":12},{"name":"x1","type":"int","value":-314},{"name":"x2","type":"int","value":-142},{"name":"y1","type":"int","value":106},{"name":"y2","type":"int","value":106},{"name":"next","type":"int","value":0},{"name":"prev","type":"int","value":0}],"polyline":[{"x":0,"y":0},{"x":172,"y":0}]},{"id":26,"x":-293,"y":134,"visible":true,"properties":[{"name":"layer","type":"int","value":2},{"name":"group","type":"int","value":3},{"name":"id","type":"int","value":13},{"name":"fh_layer","type":"int","value":2},{"name":"fh_group","type":"int","value":3},{"name":"fh_id","type":"int","value":13},{"name":"x1","type":"int","value":-293},{"name":"x2","type":"int","value":-121},{"name":"y1","type":"int","value":134},{"name":"y2","type":"int","value":134},{"name":"next","type":"int","value":0},{"name":"prev","type":"int","value":0}],"polyline":[{"x":0,"y":0},{"x":172,"y":0}]},{"id":27,"x":-270,"y":162,"visible":true,"properties":[{"name":"layer","type":"int","value":2},{"name":"group","type":"int","value":3},{"name":"id","type":"int","value":14},{"name":"fh_layer","type":"int","value":2},{"name":"fh_group","type":"int","value":3},{"name":"fh_id","type":"int","value":14},{"name":"x1","type":"int","value":-270},{"name":"x2","type":"int","value":-98},{"name":"y1","type":"int","value":162},{"name":"y2","type":"int","value":162},{"name":"next","type":"int","value":0},{"name":"prev","type":"int","value":0}],"polyline":[{"x":0,"y":0},{"x":172,"y":0}]},{"id":28,"x":-399,"y":-295,"visible":true,"properties":[{"name":"layer","type":"int","value":3},{"name":"group","type":"int","value":0},{"name":"id","type":"int","value":15},{"name":"fh_layer","type":"int","value":3},{"name":"fh_group","type":"int","value":0},{"name":"fh_id","type":"int","value":15},{"name":"x1","type":"int","value":-399},{"name":"x2","type":"int","value":-399},{"name":"y1","type":"int","value":-295},{"name":"y2","type":"int","value":187},{"name":"next","type":"int","value":16},{"name":"prev","type":"int","value":0}],"polyline":[{"x":0,"y":0},{"x":0,"y":482}]},{"id":29,"x":-399,"y":187,"visible":true,"properties":[{"name":"layer","type":"int","value":3},{"name":"group","type":"int","value":0},{"name":"id","type":"int","value":16},{"name":"fh_layer","type":"int","value":3},{"name":"fh_group","type":"int","value":0},{"name":"fh_id","type":"int","value":16},{"name":"x1","type":"int","value":-399},{"name":"x2","type":"int","value":389},{"name":"y1","type":"int","value":187},{"name":"y2","type":"int","value":187},{"name":"next","type":"int","value":17},{"name":"prev","type":"int","value":15}],"polyline":[{"x":0,"y":0},{"x":788,"y":0}]},{"id":30,"x":389,"y":187,"visible":true,"properties":[{"name":"layer","type":"int","value":3},{"name":"group","type":"int","value":0},{"name":"id","type":"int","value":17},{"name":"fh_layer","type":"int","value":3},{"name":"fh_group","type":"int","value":0},{"name":"fh_id","type":"int","value":17},{"name":"x1","type":"int","value":389},{"name":"x2","type":"int","value":389},{"name":"y1","type":"int","value":187},{"name":"y2","type":"int","value":-296},{"name":"next","type":"int","value":0},{"name":"prev","type":"int","value":16}],"polyline":[{"x":0,"y":0},{"x":0,"y":-483}]}],"properties":[]}],"tilesets":[{"firstgid":1,"source":"../tilesets/obj_shop2_shop_subwayMC.tsj"},{"firstgid":6,"source":"../tilesets/obj_insideGL_inside1_front.tsj"},{"firstgid":7,"source":"../tilesets/portal_MapHelper.img_portal_game_pv.tsj"}],"properties":[{"name":"bgm","type":"string","value":"Bgm03/Subway"},{"name":"town","type":"int","value":0},{"name":"VRTop","type":"int","value":-300},{"name":"cloud","type":"int","value":0},{"name":"VRLeft","type":"int","value":-400},{"name":"VRRight","type":"int","value":400},{"name":"mapDesc","type":"string","value":""},{"name":"mapMark","type":"string","value":"KerningCity"},{"name":"mobRate","type":"float","value":1},{"name":"version","type":"int","value":10},{"name":"VRBottom","type":"int","value":300},{"name":"moveLimit","type":"int","value":0},{"name":"returnMap","type":"int","value":103000000},{"name":"hideMinimap","type":"int","value":0},{"name":"forcedReturn","type":"int","value":999999999}]}