{"type":"map","orientation":"orthogonal","renderorder":"right-down","infinite":false,"tilewidth":1,"tileheight":1,"width":780,"height":589,"parallaxoriginx":-400,"parallaxoriginy":80,"nextlayerid":6,"nextobjectid":23,"layers":[{"id":1,"name":"layer_5_obj","type":"objectgroup","visible":true,"opacity":1,"draworder":"index","offsetx":0,"offsety":0,"parallaxx":1,"parallaxy":1,"objects":[{"id":1,"x":-381,"y":122,"visible":true,"properties":[{"name":"layer","type":"int","value":5},{"name":"resource_index","type":"int","value":0},{"name":"oS","type":"string","value":"insideGS"},{"name":"l0","type":"string","value":"house_info"},{"name":"l1","type":"string","value":"basic"},{"name":"l2","type":"string","value":"0"},{"name":"z","type":"int","value":6},{"name":"zM","type":"int","value":0},{"name":"f","type":"int","value":0}],"gid":12,"width":770,"height":480},{"id":2,"x":-399,"y":236,"visible":true,"properties":[{"name":"layer","type":"int","value":5},{"name":"resource_index","type":"int","value":1},{"name":"oS","type":"string","value":"insideGS"},{"name":"l0","type":"string","value":"house_info"},{"name":"l1","type":"string","value":"basic"},{"name":"l2","type":"string","value":"3"},{"name":"z","type":"int","value":10},{"name":"zM","type":"int","value":0},{"name":"f","type":"int","value":0}],"gid":13,"width":797,"height":117},{"id":3,"x":206,"y":192,"visible":true,"properties":[{"name":"layer","type":"int","value":5},{"name":"resource_index","type":"int","value":2},{"name":"oS","type":"string","value":"insideGS"},{"name":"l0","type":"string","value":"house_info"},{"name":"l1","type":"string","value":"acc"},{"name":"l2","type":"string","value":"0"},{"name":"z","type":"int","value":9},{"name":"zM","type":"int","value":0},{"name":"f","type":"int","value":0}],"gid":1,"width":163,"height":433},{"id":4,"x":-98,"y":45,"visible":true,"properties":[{"name":"layer","type":"int","value":5},{"name":"resource_index","type":"int","value":3},{"name":"oS","type":"string","value":"insideGS"},{"name":"l0","type":"string","value":"house_info"},{"name":"l1","type":"string","value":"acc"},{"name":"l2","type":"string","value":"1"},{"name":"z","type":"int","value":9},{"name":"zM","type":"int","value":0},{"name":"f","type":"int","value":0}],"gid":2,"width":198,"height":164},{"id":5,"x":-348,"y":-55,"visible":true,"properties":[{"name":"layer","type":"int","value":5},{"name":"resource_index","type":"int","value":4},{"name":"oS","type":"string","value":"insideGS"},{"name":"l0","type":"string","value":"house_info"},{"name":"l1","type":"string","value":"acc"},{"name":"l2","type":"string","value":"5"},{"name":"z","type":"int","value":9},{"name":"zM","type":"int","value":0},{"name":"f","type":"int","value":0}],"gid":3,"width":124,"height":103},{"id":6,"x":-347,"y":126,"visible":true,"properties":[{"name":"layer","type":"int","value":5},{"name":"resource_index","type":"int","value":5},{"name":"oS","type":"string","value":"insideGS"},{"name":"l0","type":"string","value":"house_info"},{"name":"l1","type":"string","value":"acc"},{"name":"l2","type":"string","value":"6"},{"name":"z","type":"int","value":9},{"name":"zM","type":"int","value":0},{"name":"f","type":"int","value":0}],"gid":4,"width":104,"height":102},{"id":7,"x":68,"y":121,"visible":true,"properties":[{"name":"layer","type":"int","value":5},{"name":"resource_index","type":"int","value":6},{"name":"oS","type":"string","value":"insideGS"},{"name":"l0","type":"string","value":"house_info"},{"name":"l1","type":"string","value":"acc"},{"name":"l2","type":"string","value":"7"},{"name":"z","type":"int","value":9},{"name":"zM","type":"int","value":0},{"name":"f","type":"int","value":0}],"gid":5,"width":33,"height":28},{"id":8,"x":-353,"y":67,"visible":true,"properties":[{"name":"layer","type":"int","value":5},{"name":"resource_index","type":"int","value":7},{"name":"oS","type":"string","value":"insideGS"},{"name":"l0","type":"string","value":"house_info"},{"name":"l1","type":"string","value":"acc"},{"name":"l2","type":"string","value":"8"},{"name":"z","type":"int","value":9},{"name":"zM","type":"int","value":0},{"name":"f","type":"int","value":0}],"gid":6,"width":45,"height":108},{"id":9,"x":-240,"y":67,"visible":true,"properties":[{"name":"layer","type":"int","value":5},{"name":"resource_index","type":"int","value":8},{"name":"oS","type":"string","value":"insideGS"},{"name":"l0","type":"string","value":"house_info"},{"name":"l1","type":"string","value":"acc"},{"name":"l2","type":"string","value":"10"},{"name":"z","type":"int","value":9},{"name":"zM","type":"int","value":0},{"name":"f","type":"int","value":0}],"gid":7,"width":45,"height":108},{"id":10,"x":-361,"y":43,"visible":true,"properties":[{"name":"layer","type":"int","value":5},{"name":"resource_index","type":"int","value":9},{"name":"oS","type":"string","value":"insideGS"},{"name":"l0","type":"string","value":"house_info"},{"name":"l1","type":"string","value":"acc"},{"name":"l2","type":"string","value":"11"},{"name":"z","type":"int","value":10},{"name":"zM","type":"int","value":0},{"name":"f","type":"int","value":0}],"gid":8,"width":64,"height":64},{"id":11,"x":-249,"y":44,"visible":true,"properties":[{"name":"layer","type":"int","value":5},{"name":"resource_index","type":"int","value":10},{"name":"oS","type":"string","value":"insideGS"},{"name":"l0","type":"string","value":"house_info"},{"name":"l1","type":"string","value":"acc"},{"name":"l2","type":"string","value":"11"},{"name":"z","type":"int","value":10},{"name":"zM","type":"int","value":0},{"name":"f","type":"int","value":0}],"gid":8,"width":64,"height":64},{"id":12,"x":135,"y":122,"visible":true,"properties":[{"name":"layer","type":"int","value":5},{"name":"resource_index","type":"int","value":11},{"name":"oS","type":"string","value":"insideGS"},{"name":"l0","type":"string","value":"house_info"},{"name":"l1","type":"string","value":"acc"},{"name":"l2","type":"string","value":"4"},{"name":"z","type":"int","value":8},{"name":"zM","type":"int","value":0},{"name":"f","type":"int","value":0}],"gid":9,"width":142,"height":111},{"id":13,"x":-75,"y":122,"visible":true,"properties":[{"name":"layer","type":"int","value":5},{"name":"resource_index","type":"int","value":12},{"name":"oS","type":"string","value":"insideGS"},{"name":"l0","type":"string","value":"house_info"},{"name":"l1","type":"string","value":"acc"},{"name":"l2","type":"string","value":"3"},{"name":"z","type":"int","value":9},{"name":"zM","type":"int","value":0},{"name":"f","type":"int","value":0}],"gid":10,"width":140,"height":90},{"id":14,"x":-175,"y":128,"visible":true,"properties":[{"name":"layer","type":"int","value":5},{"name":"resource_index","type":"int","value":13},{"name":"oS","type":"string","value":"insideGS"},{"name":"l0","type":"string","value":"house_info"},{"name":"l1","type":"string","value":"acc"},{"name":"l2","type":"string","value":"2"},{"name":"z","type":"int","value":9},{"name":"zM","type":"int","value":0},{"name":"f","type":"int","value":0}],"gid":11,"width":107,"height":178}],"properties":[]},{"id":2,"name":"layer_6_obj","type":"objectgroup","visible":true,"opacity":1,"draworder":"index","offsetx":0,"offsety":0,"parallaxx":1,"parallaxy":1,"objects":[{"id":15,"x":-391,"y":-122,"visible":true,"properties":[{"name":"layer","type":"int","value":6},{"name":"resource_index","type":"int","value":0},{"name":"oS","type":"string","value":"insideGS"},{"name":"l0","type":"string","value":"house_info"},{"name":"l1","type":"string","value":"basic"},{"name":"l2","type":"string","value":"1"},{"name":"z","type":"int","value":9},{"name":"zM","type":"int","value":3},{"name":"f","type":"int","value":0}],"gid":14,"width":192,"height":235},{"id":16,"x":-391,"y":121,"visible":true,"properties":[{"name":"layer","type":"int","value":6},{"name":"resource_index","type":"int","value":1},{"name":"oS","type":"string","value":"insideGS"},{"name":"l0","type":"string","value":"house_info"},{"name":"l1","type":"string","value":"basic"},{"name":"l2","type":"string","value":"2"},{"name":"z","type":"int","value":9},{"name":"zM","type":"int","value":1},{"name":"f","type":"int","value":0}],"gid":15,"width":60,"height":243},{"id":17,"x":114,"y":-123,"visible":true,"properties":[{"name":"layer","type":"int","value":6},{"name":"resource_index","type":"int","value":2},{"name":"oS","type":"string","value":"insideGS"},{"name":"l0","type":"string","value":"house_info"},{"name":"l1","type":"string","value":"basic"},{"name":"l2","type":"string","value":"5"},{"name":"z","type":"int","value":9},{"name":"zM","type":"int","value":4},{"name":"f","type":"int","value":0}],"gid":16,"width":275,"height":233},{"id":18,"x":329,"y":121,"visible":true,"properties":[{"name":"layer","type":"int","value":6},{"name":"resource_index","type":"int","value":3},{"name":"oS","type":"string","value":"insideGS"},{"name":"l0","type":"string","value":"house_info"},{"name":"l1","type":"string","value":"basic"},{"name":"l2","type":"string","value":"4"},{"name":"z","type":"int","value":9},{"name":"zM","type":"int","value":2},{"name":"f","type":"int","value":0}],"gid":17,"width":60,"height":244}],"properties":[]},{"id":3,"name":"portal","type":"objectgroup","visible":true,"opacity":1,"draworder":"index","offsetx":0,"offsety":0,"parallaxx":1,"parallaxy":1,"objects":[{"id":19,"x":-141,"y":74,"visible":true,"properties":[{"name":"x","type":"int","value":-141},{"name":"y","type":"int","value":74},{"name":"pn","type":"string","value":"sp"},{"name":"pt","type":"int","value":0},{"name":"tm","type":"int","value":999999999},{"name":"tn","type":"string","value":""},{"name":"horizontalImpact","type":"int","value":0},{"name":"portal_id","type":"int","value":0}],"point":true},{"id":20,"x":-316,"y":126,"visible":true,"properties":[{"name":"x","type":"int","value":-272},{"name":"y","type":"int","value":117},{"name":"pn","type":"string","value":"out00"},{"name":"pt","type":"int","value":2},{"name":"tm","type":"int","value":104000000},{"name":"tn","type":"string","value":"in03"},{"name":"horizontalImpact","type":"int","value":0},{"name":"portal_id","type":"int","value":1}],"gid":18,"width":89,"height":257}],"properties":[]},{"id":4,"name":"life","type":"objectgroup","visible":true,"opacity":1,"draworder":"index","offsetx":0,"offsety":0,"parallaxx":1,"parallaxy":1,"objects":[{"id":21,"x":122,"y":118,"visible":true,"properties":[{"name":"f","type":"int","value":0},{"name":"x","type":"int","value":122},{"name":"y","type":"int","value":118},{"name":"cy","type":"int","value":120},{"name":"fh","type":"int","value":1},{"name":"id","type":"int","value":1002104},{"name":"rx0","type":"int","value":72},{"name":"rx1","type":"int","value":172},{"name":"hide","type":"int","value":0},{"name":"type","type":"string","value":"n"},{"name":"mobTime","type":"int","value":0}],"point":true}],"properties":[]},{"id":5,"name":"foothold","type":"objectgroup","visible":true,"opacity":1,"draworder":"index","offsetx":0,"offsety":0,"parallaxx":1,"parallaxy":1,"objects":[{"id":22,"x":-402,"y":120,"visible":true,"properties":[{"name":"layer","type":"int","value":5},{"name":"group","type":"int","value":0},{"name":"id","type":"int","value":1},{"name":"fh_layer","type":"int","value":5},{"name":"fh_group","type":"int","value":0},{"name":"fh_id","type":"int","value":1},{"name":"x1","type":"int","value":-402},{"name":"x2","type":"int","value":400},{"name":"y1","type":"int","value":120},{"name":"y2","type":"int","value":120},{"name":"next","type":"int","value":0},{"name":"prev","type":"int","value":0}],"polyline":[{"x":0,"y":0},{"x":802,"y":0}]}],"properties":[]}],"tilesets":[{"firstgid":1,"source":"../tilesets/obj_insideGS_house_info_acc.tsj"},{"firstgid":12,"source":"../tilesets/obj_insideGS_house_info_basic.tsj"},{"firstgid":18,"source":"../tilesets/portal_MapHelper.img_portal_game_pv.tsj"}],"properties":[{"name":"bgm","type":"string","value":"Bgm02/AboveTheTreetops"},{"name":"fly","type":"int","value":0},{"name":"swim","type":"int","value":0},{"name":"town","type":"int","value":1},{"name":"VRTop","type":"int","value":-359},{"name":"cloud","type":"int","value":0},{"name":"VRLeft","type":"int","value":-390},{"name":"VRRight","type":"int","value":390},{"name":"mapMark","type":"string","value":"Rith"},{"name":"mobRate","type":"float","value":1},{"name":"version","type":"int","value":10},{"name":"VRBottom","type":"int","value":230},{"name":"noMapCmd","type":"int","value":0},{"name":"returnMap","type":"int","value":104000000},{"name":"fieldLimit","type":"int","value":0},{"name":"hideMinimap","type":"int","value":0},{"name":"onUserEnter","type":"string","value":""},{"name":"forcedReturn","type":"int","value":999999999},{"name":"onFirstUserEnter","type":"string","value":""}]}