{"type":"map","orientation":"orthogonal","renderorder":"right-down","infinite":false,"tilewidth":1,"tileheight":1,"width":800,"height":741,"parallaxoriginx":-400,"parallaxoriginy":80,"nextlayerid":7,"nextobjectid":73,"layers":[{"id":1,"name":"layer_1_obj","type":"objectgroup","visible":true,"opacity":1,"draworder":"index","offsetx":0,"offsety":0,"parallaxx":1,"parallaxy":1,"objects":[{"id":1,"x":-400,"y":253,"visible":true,"properties":[{"name":"layer","type":"int","value":1},{"name":"resource_index","type":"int","value":0},{"name":"oS","type":"string","value":"hotel"},{"name":"l0","type":"string","value":"hotel"},{"name":"l1","type":"string","value":"hotelSW2"},{"name":"l2","type":"string","value":"0"},{"name":"z","type":"int","value":0},{"name":"zM","type":"int","value":0},{"name":"f","type":"int","value":0}],"gid":1,"width":800,"height":750},{"id":2,"x":-389,"y":254,"visible":true,"properties":[{"name":"layer","type":"int","value":1},{"name":"resource_index","type":"int","value":1},{"name":"oS","type":"string","value":"hotel"},{"name":"l0","type":"string","value":"hotel"},{"name":"l1","type":"string","value":"hotelSW2"},{"name":"l2","type":"string","value":"1"},{"name":"z","type":"int","value":3},{"name":"zM","type":"int","value":0},{"name":"f","type":"int","value":0}],"gid":2,"width":750,"height":750},{"id":3,"x":-28,"y":116,"visible":true,"properties":[{"name":"layer","type":"int","value":1},{"name":"resource_index","type":"int","value":2},{"name":"oS","type":"string","value":"hotel"},{"name":"l0","type":"string","value":"hotel"},{"name":"l1","type":"string","value":"hotelSW2"},{"name":"l2","type":"string","value":"9"},{"name":"z","type":"int","value":3},{"name":"zM","type":"int","value":0},{"name":"f","type":"int","value":0}],"gid":3,"width":67,"height":121}],"properties":[]},{"id":2,"name":"layer_2_obj","type":"objectgroup","visible":true,"opacity":1,"draworder":"index","offsetx":0,"offsety":0,"parallaxx":1,"parallaxy":1,"objects":[{"id":4,"x":-349,"y":186,"visible":true,"properties":[{"name":"layer","type":"int","value":2},{"name":"resource_index","type":"int","value":0},{"name":"oS","type":"string","value":"hotel"},{"name":"l0","type":"string","value":"hotel"},{"name":"l1","type":"string","value":"hotelSW2"},{"name":"l2","type":"string","value":"2"},{"name":"z","type":"int","value":3},{"name":"zM","type":"int","value":3},{"name":"f","type":"int","value":0}],"gid":4,"width":698,"height":81},{"id":5,"x":-383,"y":121,"visible":true,"properties":[{"name":"layer","type":"int","value":2},{"name":"resource_index","type":"int","value":1},{"name":"oS","type":"string","value":"hotel"},{"name":"l0","type":"string","value":"hotel"},{"name":"l1","type":"string","value":"hotelSW2"},{"name":"l2","type":"string","value":"8"},{"name":"z","type":"int","value":2},{"name":"zM","type":"int","value":3},{"name":"f","type":"int","value":0}],"gid":5,"width":289,"height":143}],"properties":[]},{"id":3,"name":"layer_3_obj","type":"objectgroup","visible":true,"opacity":1,"draworder":"index","offsetx":0,"offsety":0,"parallaxx":1,"parallaxy":1,"objects":[{"id":6,"x":-400,"y":253,"visible":true,"properties":[{"name":"layer","type":"int","value":3},{"name":"resource_index","type":"int","value":0},{"name":"oS","type":"string","value":"hotel"},{"name":"l0","type":"string","value":"hotel"},{"name":"l1","type":"string","value":"hotelSW2"},{"name":"l2","type":"string","value":"3"},{"name":"z","type":"int","value":6},{"name":"zM","type":"int","value":1},{"name":"f","type":"int","value":0}],"gid":6,"width":113,"height":750},{"id":7,"x":170,"y":-373,"visible":true,"properties":[{"name":"layer","type":"int","value":3},{"name":"resource_index","type":"int","value":1},{"name":"oS","type":"string","value":"hotel"},{"name":"l0","type":"string","value":"hotel"},{"name":"l1","type":"string","value":"hotelSW2"},{"name":"l2","type":"string","value":"5"},{"name":"z","type":"int","value":3},{"name":"zM","type":"int","value":2},{"name":"f","type":"int","value":0}],"gid":7,"width":233,"height":123},{"id":8,"x":-369,"y":-90,"visible":true,"properties":[{"name":"layer","type":"int","value":3},{"name":"resource_index","type":"int","value":2},{"name":"oS","type":"string","value":"hotel"},{"name":"l0","type":"string","value":"hotel"},{"name":"l1","type":"string","value":"hotelSW2"},{"name":"l2","type":"string","value":"4"},{"name":"z","type":"int","value":3},{"name":"zM","type":"int","value":1},{"name":"f","type":"int","value":0}],"gid":8,"width":193,"height":145},{"id":9,"x":-339,"y":-256,"visible":true,"properties":[{"name":"layer","type":"int","value":3},{"name":"resource_index","type":"int","value":3},{"name":"oS","type":"string","value":"hotel"},{"name":"l0","type":"string","value":"hotel"},{"name":"l1","type":"string","value":"hotelSW2"},{"name":"l2","type":"string","value":"6"},{"name":"z","type":"int","value":3},{"name":"zM","type":"int","value":1},{"name":"f","type":"int","value":0}],"gid":9,"width":127,"height":160},{"id":10,"x":177,"y":-156,"visible":true,"properties":[{"name":"layer","type":"int","value":3},{"name":"resource_index","type":"int","value":4},{"name":"oS","type":"string","value":"hotel"},{"name":"l0","type":"string","value":"hotel"},{"name":"l1","type":"string","value":"hotelSW2"},{"name":"l2","type":"string","value":"7"},{"name":"z","type":"int","value":3},{"name":"zM","type":"int","value":4},{"name":"f","type":"int","value":0}],"gid":10,"width":165,"height":119},{"id":11,"x":291,"y":253,"visible":true,"properties":[{"name":"layer","type":"int","value":3},{"name":"resource_index","type":"int","value":5},{"name":"oS","type":"string","value":"hotel"},{"name":"l0","type":"string","value":"hotel"},{"name":"l1","type":"string","value":"hotelSW2"},{"name":"l2","type":"string","value":"3"},{"name":"z","type":"int","value":9},{"name":"zM","type":"int","value":2},{"name":"f","type":"int","value":1}],"gid":6,"width":113,"height":750}],"properties":[]},{"id":4,"name":"portal","type":"objectgroup","visible":true,"opacity":1,"draworder":"index","offsetx":0,"offsety":0,"parallaxx":1,"parallaxy":1,"objects":[{"id":12,"x":-121,"y":70,"visible":true,"properties":[{"name":"x","type":"int","value":-121},{"name":"y","type":"int","value":70},{"name":"pn","type":"string","value":"sp"},{"name":"pt","type":"int","value":0},{"name":"tm","type":"int","value":999999999},{"name":"tn","type":"string","value":""},{"name":"portal_id","type":"int","value":0}],"point":true},{"id":13,"x":-57,"y":68,"visible":true,"properties":[{"name":"x","type":"int","value":-57},{"name":"y","type":"int","value":68},{"name":"pn","type":"string","value":"sp"},{"name":"pt","type":"int","value":0},{"name":"tm","type":"int","value":999999999},{"name":"tn","type":"string","value":""},{"name":"portal_id","type":"int","value":1}],"point":true},{"id":14,"x":11,"y":61,"visible":true,"properties":[{"name":"x","type":"int","value":11},{"name":"y","type":"int","value":61},{"name":"pn","type":"string","value":"sp"},{"name":"pt","type":"int","value":0},{"name":"tm","type":"int","value":999999999},{"name":"tn","type":"string","value":""},{"name":"portal_id","type":"int","value":2}],"point":true},{"id":15,"x":-27,"y":-210,"visible":true,"properties":[{"name":"x","type":"int","value":-27},{"name":"y","type":"int","value":-210},{"name":"pn","type":"string","value":"st00"},{"name":"pt","type":"int","value":1},{"name":"tm","type":"int","value":999999999},{"name":"tn","type":"string","value":""},{"name":"portal_id","type":"int","value":3}],"point":true},{"id":16,"x":230,"y":116,"visible":true,"properties":[{"name":"x","type":"int","value":274},{"name":"y","type":"int","value":107},{"name":"pn","type":"string","value":"out00"},{"name":"pt","type":"int","value":2},{"name":"tm","type":"int","value":105040300},{"name":"tn","type":"string","value":"in01"},{"name":"portal_id","type":"int","value":4}],"gid":11,"width":89,"height":257}],"properties":[]},{"id":5,"name":"life","type":"objectgroup","visible":true,"opacity":1,"draworder":"index","offsetx":0,"offsety":0,"parallaxx":1,"parallaxy":1,"objects":[{"id":17,"x":-247,"y":55,"visible":true,"properties":[{"name":"f","type":"int","value":1},{"name":"x","type":"int","value":-247},{"name":"y","type":"int","value":55},{"name":"cy","type":"int","value":57},{"name":"fh","type":"int","value":1},{"name":"id","type":"int","value":1061100},{"name":"rx0","type":"int","value":-297},{"name":"rx1","type":"int","value":-197},{"name":"type","type":"string","value":"n"},{"name":"mobTime","type":"int","value":0}],"point":true}],"properties":[]},{"id":6,"name":"foothold","type":"objectgroup","visible":true,"opacity":1,"draworder":"index","offsetx":0,"offsety":0,"parallaxx":1,"parallaxy":1,"objects":[{"id":18,"x":-292,"y":57,"visible":true,"properties":[{"name":"layer","type":"int","value":1},{"name":"group","type":"int","value":0},{"name":"id","type":"int","value":1},{"name":"fh_layer","type":"int","value":1},{"name":"fh_group","type":"int","value":0},{"name":"fh_id","type":"int","value":1},{"name":"x1","type":"int","value":-292},{"name":"x2","type":"int","value":-226},{"name":"y1","type":"int","value":57},{"name":"y2","type":"int","value":57},{"name":"next","type":"int","value":2},{"name":"prev","type":"int","value":4}],"polyline":[{"x":0,"y":0},{"x":66,"y":0}]},{"id":19,"x":-226,"y":57,"visible":true,"properties":[{"name":"layer","type":"int","value":1},{"name":"group","type":"int","value":0},{"name":"id","type":"int","value":2},{"name":"fh_layer","type":"int","value":1},{"name":"fh_group","type":"int","value":0},{"name":"fh_id","type":"int","value":2},{"name":"x1","type":"int","value":-226},{"name":"x2","type":"int","value":-226},{"name":"y1","type":"int","value":57},{"name":"y2","type":"int","value":-19},{"name":"next","type":"int","value":3},{"name":"prev","type":"int","value":1}],"polyline":[{"x":0,"y":0},{"x":0,"y":-76}]},{"id":20,"x":-226,"y":-19,"visible":true,"properties":[{"name":"layer","type":"int","value":1},{"name":"group","type":"int","value":0},{"name":"id","type":"int","value":3},{"name":"fh_layer","type":"int","value":1},{"name":"fh_group","type":"int","value":0},{"name":"fh_id","type":"int","value":3},{"name":"x1","type":"int","value":-226},{"name":"x2","type":"int","value":-292},{"name":"y1","type":"int","value":-19},{"name":"y2","type":"int","value":-19},{"name":"next","type":"int","value":4},{"name":"prev","type":"int","value":2}],"polyline":[{"x":0,"y":0},{"x":-66,"y":0}]},{"id":21,"x":-292,"y":-19,"visible":true,"properties":[{"name":"layer","type":"int","value":1},{"name":"group","type":"int","value":0},{"name":"id","type":"int","value":4},{"name":"fh_layer","type":"int","value":1},{"name":"fh_group","type":"int","value":0},{"name":"fh_id","type":"int","value":4},{"name":"x1","type":"int","value":-292},{"name":"x2","type":"int","value":-292},{"name":"y1","type":"int","value":-19},{"name":"y2","type":"int","value":57},{"name":"next","type":"int","value":1},{"name":"prev","type":"int","value":3}],"polyline":[{"x":0,"y":0},{"x":0,"y":76}]},{"id":22,"x":-326,"y":-488,"visible":true,"properties":[{"name":"layer","type":"int","value":1},{"name":"group","type":"int","value":0},{"name":"id","type":"int","value":5},{"name":"fh_layer","type":"int","value":1},{"name":"fh_group","type":"int","value":0},{"name":"fh_id","type":"int","value":5},{"name":"x1","type":"int","value":-326},{"name":"x2","type":"int","value":-326},{"name":"y1","type":"int","value":-488},{"name":"y2","type":"int","value":-207},{"name":"next","type":"int","value":6},{"name":"prev","type":"int","value":0}],"polyline":[{"x":0,"y":0},{"x":0,"y":281}]},{"id":23,"x":-326,"y":-207,"visible":true,"properties":[{"name":"layer","type":"int","value":1},{"name":"group","type":"int","value":0},{"name":"id","type":"int","value":6},{"name":"fh_layer","type":"int","value":1},{"name":"fh_group","type":"int","value":0},{"name":"fh_id","type":"int","value":6},{"name":"x1","type":"int","value":-326},{"name":"x2","type":"int","value":-191},{"name":"y1","type":"int","value":-207},{"name":"y2","type":"int","value":-207},{"name":"next","type":"int","value":7},{"name":"prev","type":"int","value":5}],"polyline":[{"x":0,"y":0},{"x":135,"y":0}]},{"id":24,"x":-191,"y":-207,"visible":true,"properties":[{"name":"layer","type":"int","value":1},{"name":"group","type":"int","value":0},{"name":"id","type":"int","value":7},{"name":"fh_layer","type":"int","value":1},{"name":"fh_group","type":"int","value":0},{"name":"fh_id","type":"int","value":7},{"name":"x1","type":"int","value":-191},{"name":"x2","type":"int","value":-145},{"name":"y1","type":"int","value":-207},{"name":"y2","type":"int","value":-204},{"name":"next","type":"int","value":8},{"name":"prev","type":"int","value":6}],"polyline":[{"x":0,"y":0},{"x":46,"y":3}]},{"id":25,"x":-145,"y":-204,"visible":true,"properties":[{"name":"layer","type":"int","value":1},{"name":"group","type":"int","value":0},{"name":"id","type":"int","value":8},{"name":"fh_layer","type":"int","value":1},{"name":"fh_group","type":"int","value":0},{"name":"fh_id","type":"int","value":8},{"name":"x1","type":"int","value":-145},{"name":"x2","type":"int","value":-108},{"name":"y1","type":"int","value":-204},{"name":"y2","type":"int","value":-208},{"name":"next","type":"int","value":9},{"name":"prev","type":"int","value":7}],"polyline":[{"x":0,"y":0},{"x":37,"y":-4}]},{"id":26,"x":-108,"y":-208,"visible":true,"properties":[{"name":"layer","type":"int","value":1},{"name":"group","type":"int","value":0},{"name":"id","type":"int","value":9},{"name":"fh_layer","type":"int","value":1},{"name":"fh_group","type":"int","value":0},{"name":"fh_id","type":"int","value":9},{"name":"x1","type":"int","value":-108},{"name":"x2","type":"int","value":165},{"name":"y1","type":"int","value":-208},{"name":"y2","type":"int","value":-207},{"name":"next","type":"int","value":0},{"name":"prev","type":"int","value":8}],"polyline":[{"x":0,"y":0},{"x":273,"y":1}]},{"id":27,"x":68,"y":-172,"visible":true,"properties":[{"name":"layer","type":"int","value":1},{"name":"group","type":"int","value":0},{"name":"id","type":"int","value":10},{"name":"fh_layer","type":"int","value":1},{"name":"fh_group","type":"int","value":0},{"name":"fh_id","type":"int","value":10},{"name":"x1","type":"int","value":68},{"name":"x2","type":"int","value":89},{"name":"y1","type":"int","value":-172},{"name":"y2","type":"int","value":-174},{"name":"next","type":"int","value":11},{"name":"prev","type":"int","value":0}],"polyline":[{"x":0,"y":0},{"x":21,"y":-2}]},{"id":28,"x":89,"y":-174,"visible":true,"properties":[{"name":"layer","type":"int","value":1},{"name":"group","type":"int","value":0},{"name":"id","type":"int","value":11},{"name":"fh_layer","type":"int","value":1},{"name":"fh_group","type":"int","value":0},{"name":"fh_id","type":"int","value":11},{"name":"x1","type":"int","value":89},{"name":"x2","type":"int","value":102},{"name":"y1","type":"int","value":-174},{"name":"y2","type":"int","value":-171},{"name":"next","type":"int","value":12},{"name":"prev","type":"int","value":10}],"polyline":[{"x":0,"y":0},{"x":13,"y":3}]},{"id":29,"x":102,"y":-171,"visible":true,"properties":[{"name":"layer","type":"int","value":1},{"name":"group","type":"int","value":0},{"name":"id","type":"int","value":12},{"name":"fh_layer","type":"int","value":1},{"name":"fh_group","type":"int","value":0},{"name":"fh_id","type":"int","value":12},{"name":"x1","type":"int","value":102},{"name":"x2","type":"int","value":167},{"name":"y1","type":"int","value":-171},{"name":"y2","type":"int","value":-176},{"name":"next","type":"int","value":13},{"name":"prev","type":"int","value":11}],"polyline":[{"x":0,"y":0},{"x":65,"y":-5}]},{"id":30,"x":167,"y":-176,"visible":true,"properties":[{"name":"layer","type":"int","value":1},{"name":"group","type":"int","value":0},{"name":"id","type":"int","value":13},{"name":"fh_layer","type":"int","value":1},{"name":"fh_group","type":"int","value":0},{"name":"fh_id","type":"int","value":13},{"name":"x1","type":"int","value":167},{"name":"x2","type":"int","value":179},{"name":"y1","type":"int","value":-176},{"name":"y2","type":"int","value":-181},{"name":"next","type":"int","value":14},{"name":"prev","type":"int","value":12}],"polyline":[{"x":0,"y":0},{"x":12,"y":-5}]},{"id":31,"x":179,"y":-181,"visible":true,"properties":[{"name":"layer","type":"int","value":1},{"name":"group","type":"int","value":0},{"name":"id","type":"int","value":14},{"name":"fh_layer","type":"int","value":1},{"name":"fh_group","type":"int","value":0},{"name":"fh_id","type":"int","value":14},{"name":"x1","type":"int","value":179},{"name":"x2","type":"int","value":188},{"name":"y1","type":"int","value":-181},{"name":"y2","type":"int","value":-176},{"name":"next","type":"int","value":0},{"name":"prev","type":"int","value":13}],"polyline":[{"x":0,"y":0},{"x":9,"y":5}]},{"id":32,"x":121,"y":-144,"visible":true,"properties":[{"name":"layer","type":"int","value":1},{"name":"group","type":"int","value":0},{"name":"id","type":"int","value":15},{"name":"fh_layer","type":"int","value":1},{"name":"fh_group","type":"int","value":0},{"name":"fh_id","type":"int","value":15},{"name":"x1","type":"int","value":121},{"name":"x2","type":"int","value":136},{"name":"y1","type":"int","value":-144},{"name":"y2","type":"int","value":-148},{"name":"next","type":"int","value":16},{"name":"prev","type":"int","value":0}],"polyline":[{"x":0,"y":0},{"x":15,"y":-4}]},{"id":33,"x":136,"y":-148,"visible":true,"properties":[{"name":"layer","type":"int","value":1},{"name":"group","type":"int","value":0},{"name":"id","type":"int","value":16},{"name":"fh_layer","type":"int","value":1},{"name":"fh_group","type":"int","value":0},{"name":"fh_id","type":"int","value":16},{"name":"x1","type":"int","value":136},{"name":"x2","type":"int","value":154},{"name":"y1","type":"int","value":-148},{"name":"y2","type":"int","value":-144},{"name":"next","type":"int","value":17},{"name":"prev","type":"int","value":15}],"polyline":[{"x":0,"y":0},{"x":18,"y":4}]},{"id":34,"x":154,"y":-144,"visible":true,"properties":[{"name":"layer","type":"int","value":1},{"name":"group","type":"int","value":0},{"name":"id","type":"int","value":17},{"name":"fh_layer","type":"int","value":1},{"name":"fh_group","type":"int","value":0},{"name":"fh_id","type":"int","value":17},{"name":"x1","type":"int","value":154},{"name":"x2","type":"int","value":201},{"name":"y1","type":"int","value":-144},{"name":"y2","type":"int","value":-149},{"name":"next","type":"int","value":18},{"name":"prev","type":"int","value":16}],"polyline":[{"x":0,"y":0},{"x":47,"y":-5}]},{"id":35,"x":201,"y":-149,"visible":true,"properties":[{"name":"layer","type":"int","value":1},{"name":"group","type":"int","value":0},{"name":"id","type":"int","value":18},{"name":"fh_layer","type":"int","value":1},{"name":"fh_group","type":"int","value":0},{"name":"fh_id","type":"int","value":18},{"name":"x1","type":"int","value":201},{"name":"x2","type":"int","value":214},{"name":"y1","type":"int","value":-149},{"name":"y2","type":"int","value":-156},{"name":"next","type":"int","value":19},{"name":"prev","type":"int","value":17}],"polyline":[{"x":0,"y":0},{"x":13,"y":-7}]},{"id":36,"x":214,"y":-156,"visible":true,"properties":[{"name":"layer","type":"int","value":1},{"name":"group","type":"int","value":0},{"name":"id","type":"int","value":19},{"name":"fh_layer","type":"int","value":1},{"name":"fh_group","type":"int","value":0},{"name":"fh_id","type":"int","value":19},{"name":"x1","type":"int","value":214},{"name":"x2","type":"int","value":226},{"name":"y1","type":"int","value":-156},{"name":"y2","type":"int","value":-152},{"name":"next","type":"int","value":0},{"name":"prev","type":"int","value":18}],"polyline":[{"x":0,"y":0},{"x":12,"y":4}]},{"id":37,"x":184,"y":-112,"visible":true,"properties":[{"name":"layer","type":"int","value":1},{"name":"group","type":"int","value":0},{"name":"id","type":"int","value":20},{"name":"fh_layer","type":"int","value":1},{"name":"fh_group","type":"int","value":0},{"name":"fh_id","type":"int","value":20},{"name":"x1","type":"int","value":184},{"name":"x2","type":"int","value":199},{"name":"y1","type":"int","value":-112},{"name":"y2","type":"int","value":-117},{"name":"next","type":"int","value":21},{"name":"prev","type":"int","value":0}],"polyline":[{"x":0,"y":0},{"x":15,"y":-5}]},{"id":38,"x":199,"y":-117,"visible":true,"properties":[{"name":"layer","type":"int","value":1},{"name":"group","type":"int","value":0},{"name":"id","type":"int","value":21},{"name":"fh_layer","type":"int","value":1},{"name":"fh_group","type":"int","value":0},{"name":"fh_id","type":"int","value":21},{"name":"x1","type":"int","value":199},{"name":"x2","type":"int","value":213},{"name":"y1","type":"int","value":-117},{"name":"y2","type":"int","value":-114},{"name":"next","type":"int","value":22},{"name":"prev","type":"int","value":20}],"polyline":[{"x":0,"y":0},{"x":14,"y":3}]},{"id":39,"x":213,"y":-114,"visible":true,"properties":[{"name":"layer","type":"int","value":1},{"name":"group","type":"int","value":0},{"name":"id","type":"int","value":22},{"name":"fh_layer","type":"int","value":1},{"name":"fh_group","type":"int","value":0},{"name":"fh_id","type":"int","value":22},{"name":"x1","type":"int","value":213},{"name":"x2","type":"int","value":269},{"name":"y1","type":"int","value":-114},{"name":"y2","type":"int","value":-118},{"name":"next","type":"int","value":23},{"name":"prev","type":"int","value":21}],"polyline":[{"x":0,"y":0},{"x":56,"y":-4}]},{"id":40,"x":269,"y":-118,"visible":true,"properties":[{"name":"layer","type":"int","value":1},{"name":"group","type":"int","value":0},{"name":"id","type":"int","value":23},{"name":"fh_layer","type":"int","value":1},{"name":"fh_group","type":"int","value":0},{"name":"fh_id","type":"int","value":23},{"name":"x1","type":"int","value":269},{"name":"x2","type":"int","value":278},{"name":"y1","type":"int","value":-118},{"name":"y2","type":"int","value":-125},{"name":"next","type":"int","value":24},{"name":"prev","type":"int","value":22}],"polyline":[{"x":0,"y":0},{"x":9,"y":-7}]},{"id":41,"x":278,"y":-125,"visible":true,"properties":[{"name":"layer","type":"int","value":1},{"name":"group","type":"int","value":0},{"name":"id","type":"int","value":24},{"name":"fh_layer","type":"int","value":1},{"name":"fh_group","type":"int","value":0},{"name":"fh_id","type":"int","value":24},{"name":"x1","type":"int","value":278},{"name":"x2","type":"int","value":288},{"name":"y1","type":"int","value":-125},{"name":"y2","type":"int","value":-122},{"name":"next","type":"int","value":0},{"name":"prev","type":"int","value":23}],"polyline":[{"x":0,"y":0},{"x":10,"y":3}]},{"id":42,"x":195,"y":-90,"visible":true,"properties":[{"name":"layer","type":"int","value":1},{"name":"group","type":"int","value":0},{"name":"id","type":"int","value":25},{"name":"fh_layer","type":"int","value":1},{"name":"fh_group","type":"int","value":0},{"name":"fh_id","type":"int","value":25},{"name":"x1","type":"int","value":195},{"name":"x2","type":"int","value":255},{"name":"y1","type":"int","value":-90},{"name":"y2","type":"int","value":-84},{"name":"next","type":"int","value":26},{"name":"prev","type":"int","value":0}],"polyline":[{"x":0,"y":0},{"x":60,"y":6}]},{"id":43,"x":255,"y":-84,"visible":true,"properties":[{"name":"layer","type":"int","value":1},{"name":"group","type":"int","value":0},{"name":"id","type":"int","value":26},{"name":"fh_layer","type":"int","value":1},{"name":"fh_group","type":"int","value":0},{"name":"fh_id","type":"int","value":26},{"name":"x1","type":"int","value":255},{"name":"x2","type":"int","value":324},{"name":"y1","type":"int","value":-84},{"name":"y2","type":"int","value":-91},{"name":"next","type":"int","value":27},{"name":"prev","type":"int","value":25}],"polyline":[{"x":0,"y":0},{"x":69,"y":-7}]},{"id":44,"x":324,"y":-91,"visible":true,"properties":[{"name":"layer","type":"int","value":1},{"name":"group","type":"int","value":0},{"name":"id","type":"int","value":27},{"name":"fh_layer","type":"int","value":1},{"name":"fh_group","type":"int","value":0},{"name":"fh_id","type":"int","value":27},{"name":"x1","type":"int","value":324},{"name":"x2","type":"int","value":324},{"name":"y1","type":"int","value":-91},{"name":"y2","type":"int","value":-411},{"name":"next","type":"int","value":0},{"name":"prev","type":"int","value":26}],"polyline":[{"x":0,"y":0},{"x":0,"y":-320}]},{"id":45,"x":162,"y":-55,"visible":true,"properties":[{"name":"layer","type":"int","value":1},{"name":"group","type":"int","value":0},{"name":"id","type":"int","value":28},{"name":"fh_layer","type":"int","value":1},{"name":"fh_group","type":"int","value":0},{"name":"fh_id","type":"int","value":28},{"name":"x1","type":"int","value":162},{"name":"x2","type":"int","value":173},{"name":"y1","type":"int","value":-55},{"name":"y2","type":"int","value":-56},{"name":"next","type":"int","value":29},{"name":"prev","type":"int","value":0}],"polyline":[{"x":0,"y":0},{"x":11,"y":-1}]},{"id":46,"x":173,"y":-56,"visible":true,"properties":[{"name":"layer","type":"int","value":1},{"name":"group","type":"int","value":0},{"name":"id","type":"int","value":29},{"name":"fh_layer","type":"int","value":1},{"name":"fh_group","type":"int","value":0},{"name":"fh_id","type":"int","value":29},{"name":"x1","type":"int","value":173},{"name":"x2","type":"int","value":182},{"name":"y1","type":"int","value":-56},{"name":"y2","type":"int","value":-53},{"name":"next","type":"int","value":30},{"name":"prev","type":"int","value":28}],"polyline":[{"x":0,"y":0},{"x":9,"y":3}]},{"id":47,"x":182,"y":-53,"visible":true,"properties":[{"name":"layer","type":"int","value":1},{"name":"group","type":"int","value":0},{"name":"id","type":"int","value":30},{"name":"fh_layer","type":"int","value":1},{"name":"fh_group","type":"int","value":0},{"name":"fh_id","type":"int","value":30},{"name":"x1","type":"int","value":182},{"name":"x2","type":"int","value":219},{"name":"y1","type":"int","value":-53},{"name":"y2","type":"int","value":-53},{"name":"next","type":"int","value":31},{"name":"prev","type":"int","value":29}],"polyline":[{"x":0,"y":0},{"x":37,"y":0}]},{"id":48,"x":219,"y":-53,"visible":true,"properties":[{"name":"layer","type":"int","value":1},{"name":"group","type":"int","value":0},{"name":"id","type":"int","value":31},{"name":"fh_layer","type":"int","value":1},{"name":"fh_group","type":"int","value":0},{"name":"fh_id","type":"int","value":31},{"name":"x1","type":"int","value":219},{"name":"x2","type":"int","value":227},{"name":"y1","type":"int","value":-53},{"name":"y2","type":"int","value":-57},{"name":"next","type":"int","value":32},{"name":"prev","type":"int","value":30}],"polyline":[{"x":0,"y":0},{"x":8,"y":-4}]},{"id":49,"x":227,"y":-57,"visible":true,"properties":[{"name":"layer","type":"int","value":1},{"name":"group","type":"int","value":0},{"name":"id","type":"int","value":32},{"name":"fh_layer","type":"int","value":1},{"name":"fh_group","type":"int","value":0},{"name":"fh_id","type":"int","value":32},{"name":"x1","type":"int","value":227},{"name":"x2","type":"int","value":234},{"name":"y1","type":"int","value":-57},{"name":"y2","type":"int","value":-52},{"name":"next","type":"int","value":0},{"name":"prev","type":"int","value":31}],"polyline":[{"x":0,"y":0},{"x":7,"y":5}]},{"id":50,"x":132,"y":-20,"visible":true,"properties":[{"name":"layer","type":"int","value":1},{"name":"group","type":"int","value":0},{"name":"id","type":"int","value":33},{"name":"fh_layer","type":"int","value":1},{"name":"fh_group","type":"int","value":0},{"name":"fh_id","type":"int","value":33},{"name":"x1","type":"int","value":132},{"name":"x2","type":"int","value":145},{"name":"y1","type":"int","value":-20},{"name":"y2","type":"int","value":-23},{"name":"next","type":"int","value":34},{"name":"prev","type":"int","value":0}],"polyline":[{"x":0,"y":0},{"x":13,"y":-3}]},{"id":51,"x":145,"y":-23,"visible":true,"properties":[{"name":"layer","type":"int","value":1},{"name":"group","type":"int","value":0},{"name":"id","type":"int","value":34},{"name":"fh_layer","type":"int","value":1},{"name":"fh_group","type":"int","value":0},{"name":"fh_id","type":"int","value":34},{"name":"x1","type":"int","value":145},{"name":"x2","type":"int","value":152},{"name":"y1","type":"int","value":-23},{"name":"y2","type":"int","value":-18},{"name":"next","type":"int","value":35},{"name":"prev","type":"int","value":33}],"polyline":[{"x":0,"y":0},{"x":7,"y":5}]},{"id":52,"x":152,"y":-18,"visible":true,"properties":[{"name":"layer","type":"int","value":1},{"name":"group","type":"int","value":0},{"name":"id","type":"int","value":35},{"name":"fh_layer","type":"int","value":1},{"name":"fh_group","type":"int","value":0},{"name":"fh_id","type":"int","value":35},{"name":"x1","type":"int","value":152},{"name":"x2","type":"int","value":179},{"name":"y1","type":"int","value":-18},{"name":"y2","type":"int","value":-15},{"name":"next","type":"int","value":36},{"name":"prev","type":"int","value":34}],"polyline":[{"x":0,"y":0},{"x":27,"y":3}]},{"id":53,"x":179,"y":-15,"visible":true,"properties":[{"name":"layer","type":"int","value":1},{"name":"group","type":"int","value":0},{"name":"id","type":"int","value":36},{"name":"fh_layer","type":"int","value":1},{"name":"fh_group","type":"int","value":0},{"name":"fh_id","type":"int","value":36},{"name":"x1","type":"int","value":179},{"name":"x2","type":"int","value":189},{"name":"y1","type":"int","value":-15},{"name":"y2","type":"int","value":-18},{"name":"next","type":"int","value":37},{"name":"prev","type":"int","value":35}],"polyline":[{"x":0,"y":0},{"x":10,"y":-3}]},{"id":54,"x":189,"y":-18,"visible":true,"properties":[{"name":"layer","type":"int","value":1},{"name":"group","type":"int","value":0},{"name":"id","type":"int","value":37},{"name":"fh_layer","type":"int","value":1},{"name":"fh_group","type":"int","value":0},{"name":"fh_id","type":"int","value":37},{"name":"x1","type":"int","value":189},{"name":"x2","type":"int","value":200},{"name":"y1","type":"int","value":-18},{"name":"y2","type":"int","value":-13},{"name":"next","type":"int","value":0},{"name":"prev","type":"int","value":36}],"polyline":[{"x":0,"y":0},{"x":11,"y":5}]},{"id":55,"x":98,"y":20,"visible":true,"properties":[{"name":"layer","type":"int","value":1},{"name":"group","type":"int","value":0},{"name":"id","type":"int","value":38},{"name":"fh_layer","type":"int","value":1},{"name":"fh_group","type":"int","value":0},{"name":"fh_id","type":"int","value":38},{"name":"x1","type":"int","value":98},{"name":"x2","type":"int","value":108},{"name":"y1","type":"int","value":20},{"name":"y2","type":"int","value":20},{"name":"next","type":"int","value":39},{"name":"prev","type":"int","value":0}],"polyline":[{"x":0,"y":0},{"x":10,"y":0}]},{"id":56,"x":108,"y":20,"visible":true,"properties":[{"name":"layer","type":"int","value":1},{"name":"group","type":"int","value":0},{"name":"id","type":"int","value":39},{"name":"fh_layer","type":"int","value":1},{"name":"fh_group","type":"int","value":0},{"name":"fh_id","type":"int","value":39},{"name":"x1","type":"int","value":108},{"name":"x2","type":"int","value":129},{"name":"y1","type":"int","value":20},{"name":"y2","type":"int","value":24},{"name":"next","type":"int","value":40},{"name":"prev","type":"int","value":38}],"polyline":[{"x":0,"y":0},{"x":21,"y":4}]},{"id":57,"x":129,"y":24,"visible":true,"properties":[{"name":"layer","type":"int","value":1},{"name":"group","type":"int","value":0},{"name":"id","type":"int","value":40},{"name":"fh_layer","type":"int","value":1},{"name":"fh_group","type":"int","value":0},{"name":"fh_id","type":"int","value":40},{"name":"x1","type":"int","value":129},{"name":"x2","type":"int","value":151},{"name":"y1","type":"int","value":24},{"name":"y2","type":"int","value":22},{"name":"next","type":"int","value":41},{"name":"prev","type":"int","value":39}],"polyline":[{"x":0,"y":0},{"x":22,"y":-2}]},{"id":58,"x":151,"y":22,"visible":true,"properties":[{"name":"layer","type":"int","value":1},{"name":"group","type":"int","value":0},{"name":"id","type":"int","value":41},{"name":"fh_layer","type":"int","value":1},{"name":"fh_group","type":"int","value":0},{"name":"fh_id","type":"int","value":41},{"name":"x1","type":"int","value":151},{"name":"x2","type":"int","value":165},{"name":"y1","type":"int","value":22},{"name":"y2","type":"int","value":28},{"name":"next","type":"int","value":0},{"name":"prev","type":"int","value":40}],"polyline":[{"x":0,"y":0},{"x":14,"y":6}]},{"id":59,"x":70,"y":61,"visible":true,"properties":[{"name":"layer","type":"int","value":1},{"name":"group","type":"int","value":0},{"name":"id","type":"int","value":42},{"name":"fh_layer","type":"int","value":1},{"name":"fh_group","type":"int","value":0},{"name":"fh_id","type":"int","value":42},{"name":"x1","type":"int","value":70},{"name":"x2","type":"int","value":78},{"name":"y1","type":"int","value":61},{"name":"y2","type":"int","value":60},{"name":"next","type":"int","value":43},{"name":"prev","type":"int","value":0}],"polyline":[{"x":0,"y":0},{"x":8,"y":-1}]},{"id":60,"x":78,"y":60,"visible":true,"properties":[{"name":"layer","type":"int","value":1},{"name":"group","type":"int","value":0},{"name":"id","type":"int","value":43},{"name":"fh_layer","type":"int","value":1},{"name":"fh_group","type":"int","value":0},{"name":"fh_id","type":"int","value":43},{"name":"x1","type":"int","value":78},{"name":"x2","type":"int","value":87},{"name":"y1","type":"int","value":60},{"name":"y2","type":"int","value":62},{"name":"next","type":"int","value":44},{"name":"prev","type":"int","value":42}],"polyline":[{"x":0,"y":0},{"x":9,"y":2}]},{"id":61,"x":87,"y":62,"visible":true,"properties":[{"name":"layer","type":"int","value":1},{"name":"group","type":"int","value":0},{"name":"id","type":"int","value":44},{"name":"fh_layer","type":"int","value":1},{"name":"fh_group","type":"int","value":0},{"name":"fh_id","type":"int","value":44},{"name":"x1","type":"int","value":87},{"name":"x2","type":"int","value":119},{"name":"y1","type":"int","value":62},{"name":"y2","type":"int","value":63},{"name":"next","type":"int","value":45},{"name":"prev","type":"int","value":43}],"polyline":[{"x":0,"y":0},{"x":32,"y":1}]},{"id":62,"x":119,"y":63,"visible":true,"properties":[{"name":"layer","type":"int","value":1},{"name":"group","type":"int","value":0},{"name":"id","type":"int","value":45},{"name":"fh_layer","type":"int","value":1},{"name":"fh_group","type":"int","value":0},{"name":"fh_id","type":"int","value":45},{"name":"x1","type":"int","value":119},{"name":"x2","type":"int","value":127},{"name":"y1","type":"int","value":63},{"name":"y2","type":"int","value":62},{"name":"next","type":"int","value":46},{"name":"prev","type":"int","value":44}],"polyline":[{"x":0,"y":0},{"x":8,"y":-1}]},{"id":63,"x":127,"y":62,"visible":true,"properties":[{"name":"layer","type":"int","value":1},{"name":"group","type":"int","value":0},{"name":"id","type":"int","value":46},{"name":"fh_layer","type":"int","value":1},{"name":"fh_group","type":"int","value":0},{"name":"fh_id","type":"int","value":46},{"name":"x1","type":"int","value":127},{"name":"x2","type":"int","value":140},{"name":"y1","type":"int","value":62},{"name":"y2","type":"int","value":69},{"name":"next","type":"int","value":0},{"name":"prev","type":"int","value":45}],"polyline":[{"x":0,"y":0},{"x":13,"y":7}]},{"id":64,"x":-21,"y":-70,"visible":true,"properties":[{"name":"layer","type":"int","value":1},{"name":"group","type":"int","value":0},{"name":"id","type":"int","value":47},{"name":"fh_layer","type":"int","value":1},{"name":"fh_group","type":"int","value":0},{"name":"fh_id","type":"int","value":47},{"name":"x1","type":"int","value":-21},{"name":"x2","type":"int","value":69},{"name":"y1","type":"int","value":-70},{"name":"y2","type":"int","value":-69},{"name":"next","type":"int","value":0},{"name":"prev","type":"int","value":0}],"polyline":[{"x":0,"y":0},{"x":90,"y":1}]},{"id":65,"x":-143,"y":-19,"visible":true,"properties":[{"name":"layer","type":"int","value":1},{"name":"group","type":"int","value":0},{"name":"id","type":"int","value":48},{"name":"fh_layer","type":"int","value":1},{"name":"fh_group","type":"int","value":0},{"name":"fh_id","type":"int","value":48},{"name":"x1","type":"int","value":-143},{"name":"x2","type":"int","value":-62},{"name":"y1","type":"int","value":-19},{"name":"y2","type":"int","value":-18},{"name":"next","type":"int","value":0},{"name":"prev","type":"int","value":0}],"polyline":[{"x":0,"y":0},{"x":81,"y":1}]},{"id":66,"x":-341,"y":-491,"visible":true,"properties":[{"name":"layer","type":"int","value":2},{"name":"group","type":"int","value":3},{"name":"id","type":"int","value":49},{"name":"fh_layer","type":"int","value":2},{"name":"fh_group","type":"int","value":3},{"name":"fh_id","type":"int","value":49},{"name":"x1","type":"int","value":-341},{"name":"x2","type":"int","value":-341},{"name":"y1","type":"int","value":-491},{"name":"y2","type":"int","value":111},{"name":"next","type":"int","value":50},{"name":"prev","type":"int","value":0}],"polyline":[{"x":0,"y":0},{"x":0,"y":602}]},{"id":67,"x":-341,"y":111,"visible":true,"properties":[{"name":"layer","type":"int","value":2},{"name":"group","type":"int","value":3},{"name":"id","type":"int","value":50},{"name":"fh_layer","type":"int","value":2},{"name":"fh_group","type":"int","value":3},{"name":"fh_id","type":"int","value":50},{"name":"x1","type":"int","value":-341},{"name":"x2","type":"int","value":335},{"name":"y1","type":"int","value":111},{"name":"y2","type":"int","value":108},{"name":"next","type":"int","value":51},{"name":"prev","type":"int","value":49}],"polyline":[{"x":0,"y":0},{"x":676,"y":-3}]},{"id":68,"x":335,"y":108,"visible":true,"properties":[{"name":"layer","type":"int","value":2},{"name":"group","type":"int","value":3},{"name":"id","type":"int","value":51},{"name":"fh_layer","type":"int","value":2},{"name":"fh_group","type":"int","value":3},{"name":"fh_id","type":"int","value":51},{"name":"x1","type":"int","value":335},{"name":"x2","type":"int","value":335},{"name":"y1","type":"int","value":108},{"name":"y2","type":"int","value":-491},{"name":"next","type":"int","value":0},{"name":"prev","type":"int","value":50}],"polyline":[{"x":0,"y":0},{"x":0,"y":-599}]},{"id":69,"x":-214,"y":60,"visible":true,"properties":[{"name":"layer","type":"int","value":2},{"name":"group","type":"int","value":3},{"name":"id","type":"int","value":52},{"name":"fh_layer","type":"int","value":2},{"name":"fh_group","type":"int","value":3},{"name":"fh_id","type":"int","value":52},{"name":"x1","type":"int","value":-214},{"name":"x2","type":"int","value":-308},{"name":"y1","type":"int","value":60},{"name":"y2","type":"int","value":60},{"name":"next","type":"int","value":53},{"name":"prev","type":"int","value":55}],"polyline":[{"x":0,"y":0},{"x":-94,"y":0}]},{"id":70,"x":-308,"y":60,"visible":true,"properties":[{"name":"layer","type":"int","value":2},{"name":"group","type":"int","value":3},{"name":"id","type":"int","value":53},{"name":"fh_layer","type":"int","value":2},{"name":"fh_group","type":"int","value":3},{"name":"fh_id","type":"int","value":53},{"name":"x1","type":"int","value":-308},{"name":"x2","type":"int","value":-308},{"name":"y1","type":"int","value":60},{"name":"y2","type":"int","value":-32},{"name":"next","type":"int","value":54},{"name":"prev","type":"int","value":52}],"polyline":[{"x":0,"y":0},{"x":0,"y":-92}]},{"id":71,"x":-308,"y":-32,"visible":true,"properties":[{"name":"layer","type":"int","value":2},{"name":"group","type":"int","value":3},{"name":"id","type":"int","value":54},{"name":"fh_layer","type":"int","value":2},{"name":"fh_group","type":"int","value":3},{"name":"fh_id","type":"int","value":54},{"name":"x1","type":"int","value":-308},{"name":"x2","type":"int","value":-214},{"name":"y1","type":"int","value":-32},{"name":"y2","type":"int","value":-32},{"name":"next","type":"int","value":55},{"name":"prev","type":"int","value":53}],"polyline":[{"x":0,"y":0},{"x":94,"y":0}]},{"id":72,"x":-214,"y":-32,"visible":true,"properties":[{"name":"layer","type":"int","value":2},{"name":"group","type":"int","value":3},{"name":"id","type":"int","value":55},{"name":"fh_layer","type":"int","value":2},{"name":"fh_group","type":"int","value":3},{"name":"fh_id","type":"int","value":55},{"name":"x1","type":"int","value":-214},{"name":"x2","type":"int","value":-214},{"name":"y1","type":"int","value":-32},{"name":"y2","type":"int","value":60},{"name":"next","type":"int","value":52},{"name":"prev","type":"int","value":54}],"polyline":[{"x":0,"y":0},{"x":0,"y":92}]}],"properties":[]}],"tilesets":[{"firstgid":1,"source":"../tilesets/obj_hotel_hotel_hotelSW2.tsj"},{"firstgid":11,"source":"../tilesets/portal_MapHelper.img_portal_game_pv.tsj"}],"properties":[{"name":"bgm","type":"string","value":"Bgm00/SleepyWood"},{"name":"swim","type":"int","value":0},{"name":"town","type":"int","value":0},{"name":"VRTop","type":"int","value":-494},{"name":"cloud","type":"int","value":0},{"name":"VRLeft","type":"int","value":-400},{"name":"VRRight","type":"int","value":400},{"name":"mapDesc","type":"string","value":""},{"name":"mapMark","type":"string","value":"Dungeon"},{"name":"mobRate","type":"float","value":1},{"name":"version","type":"int","value":10},{"name":"VRBottom","type":"int","value":247},{"name":"returnMap","type":"int","value":105040300},{"name":"fieldLimit","type":"int","value":0},{"name":"hideMinimap","type":"int","value":0},{"name":"forcedReturn","type":"int","value":999999999}]}