{"type":"map","orientation":"orthogonal","renderorder":"right-down","infinite":false,"tilewidth":1,"tileheight":1,"width":3528,"height":5795,"parallaxoriginx":-400,"parallaxoriginy":80,"nextlayerid":16,"nextobjectid":1780,"layers":[{"id":1,"name":"background_back_0","type":"imagelayer","visible":true,"opacity":1,"image":"../images/29276.png","imagewidth":842,"imageheight":340,"offsetx":-421,"offsety":-90,"repeatx":true,"repeaty":true,"parallaxx":0,"parallaxy":0,"properties":[{"name":"a","type":"int","value":255},{"name":"f","type":"int","value":0},{"name":"x","type":"int","value":0},{"name":"y","type":"int","value":0},{"name":"bS","type":"string","value":"darkWood"},{"name":"cx","type":"int","value":0},{"name":"cy","type":"int","value":0},{"name":"no","type":"int","value":0},{"name":"rx","type":"int","value":0},{"name":"ry","type":"int","value":0},{"name":"ani","type":"int","value":0},{"name":"type","type":"int","value":3},{"name":"front","type":"int","value":0}]},{"id":2,"name":"background_back_1","type":"imagelayer","visible":true,"opacity":1,"image":"../images/29277.png","imagewidth":150,"imageheight":476,"offsetx":78,"offsety":-151,"repeatx":true,"repeaty":true,"parallaxx":0.05,"parallaxy":0.03,"properties":[{"name":"a","type":"int","value":255},{"name":"f","type":"int","value":0},{"name":"x","type":"int","value":153},{"name":"y","type":"int","value":7},{"name":"bS","type":"string","value":"darkWood"},{"name":"cx","type":"int","value":200},{"name":"cy","type":"int","value":0},{"name":"no","type":"int","value":1},{"name":"rx","type":"int","value":-5},{"name":"ry","type":"int","value":-3},{"name":"ani","type":"int","value":0},{"name":"type","type":"int","value":3},{"name":"front","type":"int","value":0}]},{"id":3,"name":"background_back_2","type":"imagelayer","visible":true,"opacity":1,"image":"../images/29278.png","imagewidth":151,"imageheight":476,"offsetx":44,"offsety":-165,"repeatx":true,"repeaty":true,"parallaxx":0.1,"parallaxy":-0.07,"properties":[{"name":"a","type":"int","value":255},{"name":"f","type":"int","value":0},{"name":"x","type":"int","value":119},{"name":"y","type":"int","value":-7},{"name":"bS","type":"string","value":"darkWood"},{"name":"cx","type":"int","value":0},{"name":"cy","type":"int","value":0},{"name":"no","type":"int","value":2},{"name":"rx","type":"int","value":-10},{"name":"ry","type":"int","value":7},{"name":"ani","type":"int","value":0},{"name":"type","type":"int","value":3},{"name":"front","type":"int","value":0}]},{"id":4,"name":"background_back_3","type":"imagelayer","visible":true,"opacity":1,"image":"../images/29281.png","imagewidth":99,"imageheight":520,"offsetx":193,"offsety":-198,"repeatx":true,"repeaty":true,"parallaxx":0.2,"parallaxy":0.15,"properties":[{"name":"a","type":"int","value":255},{"name":"f","type":"int","value":0},{"name":"x","type":"int","value":242},{"name":"y","type":"int","value":-18},{"name":"bS","type":"string","value":"darkWood"},{"name":"cx","type":"int","value":450},{"name":"cy","type":"int","value":0},{"name":"no","type":"int","value":5},{"name":"rx","type":"int","value":-20},{"name":"ry","type":"int","value":-15},{"name":"ani","type":"int","value":0},{"name":"type","type":"int","value":3},{"name":"front","type":"int","value":0}]},{"id":5,"name":"background_back_4","type":"imagelayer","visible":true,"opacity":1,"image":"../images/29282.png","imagewidth":130,"imageheight":520,"offsetx":-80,"offsety":-230,"repeatx":true,"repeaty":true,"parallaxx":0.18,"parallaxy":0.2,"properties":[{"name":"a","type":"int","value":255},{"name":"f","type":"int","value":0},{"name":"x","type":"int","value":-15},{"name":"y","type":"int","value":-50},{"name":"bS","type":"string","value":"darkWood"},{"name":"cx","type":"int","value":480},{"name":"cy","type":"int","value":0},{"name":"no","type":"int","value":6},{"name":"rx","type":"int","value":-18},{"name":"ry","type":"int","value":-20},{"name":"ani","type":"int","value":0},{"name":"type","type":"int","value":3},{"name":"front","type":"int","value":0}]},{"id":6,"name":"layer_0_obj","type":"objectgroup","visible":true,"opacity":1,"draworder":"index","offsetx":0,"offsety":0,"parallaxx":1,"parallaxy":1,"objects":[{"id":1,"x":-1217,"y":-1816,"visible":true,"properties":[{"name":"layer","type":"int","value":0},{"name":"resource_index","type":"int","value":0},{"name":"oS","type":"string","value":"guide"},{"name":"l0","type":"string","value":"midForest"},{"name":"l1","type":"string","value":"wood"},{"name":"l2","type":"string","value":"0"},{"name":"z","type":"int","value":9},{"name":"zM","type":"int","value":0},{"name":"f","type":"int","value":0}],"gid":52,"width":84,"height":144},{"id":2,"x":-277,"y":-2536,"visible":true,"properties":[{"name":"layer","type":"int","value":0},{"name":"resource_index","type":"int","value":1},{"name":"oS","type":"string","value":"guide"},{"name":"l0","type":"string","value":"midForest"},{"name":"l1","type":"string","value":"wood"},{"name":"l2","type":"string","value":"0"},{"name":"z","type":"int","value":9},{"name":"zM","type":"int","value":0},{"name":"f","type":"int","value":1}],"gid":52,"width":84,"height":144}],"properties":[]},{"id":7,"name":"layer_1_obj","type":"objectgroup","visible":true,"opacity":1,"draworder":"index","offsetx":0,"offsety":0,"parallaxx":1,"parallaxy":1,"objects":[{"id":876,"x":-61,"y":-1276,"visible":true,"properties":[{"name":"layer","type":"int","value":1},{"name":"resource_index","type":"int","value":0},{"name":"oS","type":"string","value":"acc1"},{"name":"l0","type":"string","value":"darkWood"},{"name":"l1","type":"string","value":"nature"},{"name":"l2","type":"string","value":"9"},{"name":"z","type":"int","value":2},{"name":"zM","type":"int","value":120},{"name":"f","type":"int","value":0}],"gid":31,"width":138,"height":97},{"id":877,"x":-1593,"y":-1816,"visible":true,"properties":[{"name":"layer","type":"int","value":1},{"name":"resource_index","type":"int","value":1},{"name":"oS","type":"string","value":"houseDW"},{"name":"l0","type":"string","value":"house2"},{"name":"l1","type":"string","value":"basic"},{"name":"l2","type":"string","value":"0"},{"name":"z","type":"int","value":3},{"name":"zM","type":"int","value":146},{"name":"f","type":"int","value":0}],"gid":53,"width":317,"height":309},{"id":878,"x":-1623,"y":-2080,"visible":true,"properties":[{"name":"layer","type":"int","value":1},{"name":"resource_index","type":"int","value":2},{"name":"oS","type":"string","value":"houseDW"},{"name":"l0","type":"string","value":"house2"},{"name":"l1","type":"string","value":"basic"},{"name":"l2","type":"string","value":"1"},{"name":"z","type":"int","value":2},{"name":"zM","type":"int","value":146},{"name":"f","type":"int","value":0}],"gid":54,"width":227,"height":226},{"id":879,"x":-1566,"y":-1862,"visible":true,"properties":[{"name":"layer","type":"int","value":1},{"name":"resource_index","type":"int","value":3},{"name":"oS","type":"string","value":"houseDW"},{"name":"l0","type":"string","value":"house2"},{"name":"l1","type":"string","value":"deco"},{"name":"l2","type":"string","value":"0"},{"name":"z","type":"int","value":4},{"name":"zM","type":"int","value":146},{"name":"f","type":"int","value":0}],"gid":29,"width":236,"height":245},{"id":880,"x":-401,"y":-2055,"visible":true,"properties":[{"name":"layer","type":"int","value":1},{"name":"resource_index","type":"int","value":4},{"name":"oS","type":"string","value":"acc1"},{"name":"l0","type":"string","value":"darkWood"},{"name":"l1","type":"string","value":"nature"},{"name":"l2","type":"string","value":"16"},{"name":"z","type":"int","value":2},{"name":"zM","type":"int","value":159},{"name":"f","type":"int","value":0}],"gid":37,"width":234,"height":47},{"id":881,"x":-118,"y":162,"visible":true,"properties":[{"name":"layer","type":"int","value":1},{"name":"resource_index","type":"int","value":5},{"name":"oS","type":"string","value":"acc1"},{"name":"l0","type":"string","value":"darkWood"},{"name":"l1","type":"string","value":"nature"},{"name":"l2","type":"string","value":"21"},{"name":"z","type":"int","value":3},{"name":"zM","type":"int","value":0},{"name":"f","type":"int","value":0}],"gid":38,"width":189,"height":104},{"id":882,"x":-235,"y":163,"visible":true,"properties":[{"name":"layer","type":"int","value":1},{"name":"resource_index","type":"int","value":6},{"name":"oS","type":"string","value":"acc1"},{"name":"l0","type":"string","value":"darkWood"},{"name":"l1","type":"string","value":"artificiality"},{"name":"l2","type":"string","value":"0"},{"name":"z","type":"int","value":1},{"name":"zM","type":"int","value":0},{"name":"f","type":"int","value":0}],"gid":56,"width":215,"height":146},{"id":883,"x":50,"y":-2033,"visible":true,"properties":[{"name":"layer","type":"int","value":1},{"name":"resource_index","type":"int","value":7},{"name":"oS","type":"string","value":"acc1"},{"name":"l0","type":"string","value":"darkWood"},{"name":"l1","type":"string","value":"nature"},{"name":"l2","type":"string","value":"15"},{"name":"z","type":"int","value":1},{"name":"zM","type":"int","value":159},{"name":"f","type":"int","value":0}],"gid":39,"width":65,"height":105},{"id":884,"x":34,"y":-295,"visible":true,"properties":[{"name":"layer","type":"int","value":1},{"name":"resource_index","type":"int","value":8},{"name":"oS","type":"string","value":"acc1"},{"name":"l0","type":"string","value":"darkWood"},{"name":"l1","type":"string","value":"artificiality"},{"name":"l2","type":"string","value":"10"},{"name":"z","type":"int","value":0},{"name":"zM","type":"int","value":31},{"name":"f","type":"int","value":0}],"gid":57,"width":219,"height":488},{"id":885,"x":-277,"y":163,"visible":true,"properties":[{"name":"layer","type":"int","value":1},{"name":"resource_index","type":"int","value":9},{"name":"oS","type":"string","value":"acc1"},{"name":"l0","type":"string","value":"darkWood"},{"name":"l1","type":"string","value":"nature"},{"name":"l2","type":"string","value":"21"},{"name":"z","type":"int","value":2},{"name":"zM","type":"int","value":0},{"name":"f","type":"int","value":0}],"gid":38,"width":189,"height":104},{"id":886,"x":-622,"y":-129,"visible":true,"properties":[{"name":"layer","type":"int","value":1},{"name":"resource_index","type":"int","value":10},{"name":"oS","type":"string","value":"acc1"},{"name":"l0","type":"string","value":"darkWood"},{"name":"l1","type":"string","value":"nature"},{"name":"l2","type":"string","value":"17"},{"name":"z","type":"int","value":3},{"name":"zM","type":"int","value":21},{"name":"f","type":"int","value":0}],"gid":36,"width":97,"height":47},{"id":887,"x":-32,"y":-2056,"visible":true,"properties":[{"name":"layer","type":"int","value":1},{"name":"resource_index","type":"int","value":11},{"name":"oS","type":"string","value":"acc1"},{"name":"l0","type":"string","value":"darkWood"},{"name":"l1","type":"string","value":"nature"},{"name":"l2","type":"string","value":"15"},{"name":"z","type":"int","value":1},{"name":"zM","type":"int","value":159},{"name":"f","type":"int","value":0}],"gid":39,"width":65,"height":105},{"id":888,"x":-143,"y":-1056,"visible":true,"properties":[{"name":"layer","type":"int","value":1},{"name":"resource_index","type":"int","value":12},{"name":"oS","type":"string","value":"acc1"},{"name":"l0","type":"string","value":"darkWood"},{"name":"l1","type":"string","value":"nature"},{"name":"l2","type":"string","value":"28"},{"name":"z","type":"int","value":3},{"name":"zM","type":"int","value":108},{"name":"f","type":"int","value":0}],"gid":40,"width":228,"height":150},{"id":889,"x":-71,"y":-2057,"visible":true,"properties":[{"name":"layer","type":"int","value":1},{"name":"resource_index","type":"int","value":13},{"name":"oS","type":"string","value":"acc1"},{"name":"l0","type":"string","value":"darkWood"},{"name":"l1","type":"string","value":"nature"},{"name":"l2","type":"string","value":"15"},{"name":"z","type":"int","value":2},{"name":"zM","type":"int","value":159},{"name":"f","type":"int","value":0}],"gid":39,"width":65,"height":105},{"id":890,"x":-126,"y":-2057,"visible":true,"properties":[{"name":"layer","type":"int","value":1},{"name":"resource_index","type":"int","value":14},{"name":"oS","type":"string","value":"acc1"},{"name":"l0","type":"string","value":"darkWood"},{"name":"l1","type":"string","value":"nature"},{"name":"l2","type":"string","value":"16"},{"name":"z","type":"int","value":3},{"name":"zM","type":"int","value":159},{"name":"f","type":"int","value":0}],"gid":37,"width":234,"height":47},{"id":891,"x":70,"y":-2056,"visible":true,"properties":[{"name":"layer","type":"int","value":1},{"name":"resource_index","type":"int","value":15},{"name":"oS","type":"string","value":"acc1"},{"name":"l0","type":"string","value":"darkWood"},{"name":"l1","type":"string","value":"nature"},{"name":"l2","type":"string","value":"12"},{"name":"z","type":"int","value":4},{"name":"zM","type":"int","value":159},{"name":"f","type":"int","value":0}],"gid":41,"width":107,"height":165},{"id":892,"x":-1351,"y":-436,"visible":true,"properties":[{"name":"layer","type":"int","value":1},{"name":"resource_index","type":"int","value":16},{"name":"oS","type":"string","value":"acc1"},{"name":"l0","type":"string","value":"darkWood"},{"name":"l1","type":"string","value":"artificiality"},{"name":"l2","type":"string","value":"5"},{"name":"z","type":"int","value":3},{"name":"zM","type":"int","value":43},{"name":"f","type":"int","value":0}],"gid":58,"width":339,"height":272},{"id":893,"x":-733,"y":-2294,"visible":true,"properties":[{"name":"layer","type":"int","value":1},{"name":"resource_index","type":"int","value":17},{"name":"oS","type":"string","value":"acc1"},{"name":"l0","type":"string","value":"darkWood"},{"name":"l1","type":"string","value":"nature"},{"name":"l2","type":"string","value":"17"},{"name":"z","type":"int","value":3},{"name":"zM","type":"int","value":163},{"name":"f","type":"int","value":0}],"gid":36,"width":97,"height":47},{"id":894,"x":-1709,"y":-616,"visible":true,"properties":[{"name":"layer","type":"int","value":1},{"name":"resource_index","type":"int","value":18},{"name":"oS","type":"string","value":"acc1"},{"name":"l0","type":"string","value":"darkWood"},{"name":"l1","type":"string","value":"nature"},{"name":"l2","type":"string","value":"19"},{"name":"z","type":"int","value":3},{"name":"zM","type":"int","value":69},{"name":"f","type":"int","value":0}],"gid":42,"width":70,"height":43},{"id":895,"x":-1452,"y":-2119,"visible":true,"properties":[{"name":"layer","type":"int","value":1},{"name":"resource_index","type":"int","value":19},{"name":"oS","type":"string","value":"house"},{"name":"l0","type":"string","value":"darkWood"},{"name":"l1","type":"string","value":"chimney"},{"name":"l2","type":"string","value":"0"},{"name":"z","type":"int","value":4},{"name":"zM","type":"int","value":146},{"name":"f","type":"int","value":0}],"gid":55,"width":112,"height":187},{"id":896,"x":-1337,"y":-1931,"visible":true,"properties":[{"name":"layer","type":"int","value":1},{"name":"resource_index","type":"int","value":20},{"name":"oS","type":"string","value":"house"},{"name":"l0","type":"string","value":"darkWood"},{"name":"l1","type":"string","value":"lamp"},{"name":"l2","type":"string","value":"0"},{"name":"z","type":"int","value":1},{"name":"zM","type":"int","value":146},{"name":"f","type":"int","value":0}],"gid":27,"width":65,"height":69},{"id":897,"x":184,"y":-2058,"visible":true,"properties":[{"name":"layer","type":"int","value":1},{"name":"resource_index","type":"int","value":21},{"name":"oS","type":"string","value":"acc1"},{"name":"l0","type":"string","value":"darkWood"},{"name":"l1","type":"string","value":"nature"},{"name":"l2","type":"string","value":"15"},{"name":"z","type":"int","value":2},{"name":"zM","type":"int","value":159},{"name":"f","type":"int","value":0}],"gid":39,"width":65,"height":105},{"id":898,"x":-153,"y":-1267,"visible":true,"properties":[{"name":"layer","type":"int","value":1},{"name":"resource_index","type":"int","value":22},{"name":"oS","type":"string","value":"acc1"},{"name":"l0","type":"string","value":"darkWood"},{"name":"l1","type":"string","value":"nature"},{"name":"l2","type":"string","value":"20"},{"name":"z","type":"int","value":1},{"name":"zM","type":"int","value":120},{"name":"f","type":"int","value":0}],"gid":30,"width":149,"height":67},{"id":899,"x":15,"y":-1269,"visible":true,"properties":[{"name":"layer","type":"int","value":1},{"name":"resource_index","type":"int","value":23},{"name":"oS","type":"string","value":"acc1"},{"name":"l0","type":"string","value":"darkWood"},{"name":"l1","type":"string","value":"nature"},{"name":"l2","type":"string","value":"20"},{"name":"z","type":"int","value":3},{"name":"zM","type":"int","value":120},{"name":"f","type":"int","value":0}],"gid":30,"width":149,"height":67},{"id":900,"x":248,"y":-679,"visible":true,"properties":[{"name":"layer","type":"int","value":1},{"name":"resource_index","type":"int","value":24},{"name":"oS","type":"string","value":"acc1"},{"name":"l0","type":"string","value":"grassySoil"},{"name":"l1","type":"string","value":"artificiality"},{"name":"l2","type":"string","value":"10"},{"name":"z","type":"int","value":3},{"name":"zM","type":"int","value":31},{"name":"f","type":"int","value":0}],"gid":90,"width":52,"height":52},{"id":901,"x":-113,"y":-2043,"visible":true,"properties":[{"name":"layer","type":"int","value":1},{"name":"resource_index","type":"int","value":25},{"name":"oS","type":"string","value":"acc1"},{"name":"l0","type":"string","value":"darkWood"},{"name":"l1","type":"string","value":"nature"},{"name":"l2","type":"string","value":"15"},{"name":"z","type":"int","value":2},{"name":"zM","type":"int","value":159},{"name":"f","type":"int","value":0}],"gid":39,"width":65,"height":105},{"id":902,"x":-232,"y":-446,"visible":true,"properties":[{"name":"layer","type":"int","value":1},{"name":"resource_index","type":"int","value":26},{"name":"oS","type":"string","value":"acc1"},{"name":"l0","type":"string","value":"darkWood"},{"name":"l1","type":"string","value":"artificiality"},{"name":"l2","type":"string","value":"11"},{"name":"z","type":"int","value":5},{"name":"zM","type":"int","value":61},{"name":"f","type":"int","value":0}],"gid":59,"width":242,"height":235},{"id":903,"x":-19,"y":165,"visible":true,"properties":[{"name":"layer","type":"int","value":1},{"name":"resource_index","type":"int","value":27},{"name":"oS","type":"string","value":"acc1"},{"name":"l0","type":"string","value":"darkWood"},{"name":"l1","type":"string","value":"artificiality"},{"name":"l2","type":"string","value":"6"},{"name":"z","type":"int","value":4},{"name":"zM","type":"int","value":0},{"name":"f","type":"int","value":0}],"gid":60,"width":280,"height":322},{"id":904,"x":-424,"y":-313,"visible":true,"properties":[{"name":"layer","type":"int","value":1},{"name":"resource_index","type":"int","value":28},{"name":"oS","type":"string","value":"acc1"},{"name":"l0","type":"string","value":"darkWood"},{"name":"l1","type":"string","value":"nature"},{"name":"l2","type":"string","value":"21"},{"name":"z","type":"int","value":1},{"name":"zM","type":"int","value":31},{"name":"f","type":"int","value":0}],"gid":38,"width":189,"height":104},{"id":905,"x":-208,"y":-1100,"visible":true,"properties":[{"name":"layer","type":"int","value":1},{"name":"resource_index","type":"int","value":29},{"name":"oS","type":"string","value":"acc1"},{"name":"l0","type":"string","value":"darkWood"},{"name":"l1","type":"string","value":"nature"},{"name":"l2","type":"string","value":"29"},{"name":"z","type":"int","value":3},{"name":"zM","type":"int","value":108},{"name":"f","type":"int","value":0}],"gid":43,"width":77,"height":88},{"id":906,"x":-1559,"y":-1823,"visible":true,"properties":[{"name":"layer","type":"int","value":1},{"name":"resource_index","type":"int","value":30},{"name":"oS","type":"string","value":"acc1"},{"name":"l0","type":"string","value":"darkWood"},{"name":"l1","type":"string","value":"nature"},{"name":"l2","type":"string","value":"15"},{"name":"z","type":"int","value":2},{"name":"zM","type":"int","value":146},{"name":"f","type":"int","value":0}],"gid":39,"width":65,"height":105},{"id":907,"x":139,"y":-2056,"visible":true,"properties":[{"name":"layer","type":"int","value":1},{"name":"resource_index","type":"int","value":31},{"name":"oS","type":"string","value":"acc1"},{"name":"l0","type":"string","value":"darkWood"},{"name":"l1","type":"string","value":"nature"},{"name":"l2","type":"string","value":"15"},{"name":"z","type":"int","value":3},{"name":"zM","type":"int","value":159},{"name":"f","type":"int","value":0}],"gid":39,"width":65,"height":105},{"id":908,"x":-20,"y":-1636,"visible":true,"properties":[{"name":"layer","type":"int","value":1},{"name":"resource_index","type":"int","value":32},{"name":"oS","type":"string","value":"acc1"},{"name":"l0","type":"string","value":"darkWood"},{"name":"l1","type":"string","value":"nature"},{"name":"l2","type":"string","value":"17"},{"name":"z","type":"int","value":3},{"name":"zM","type":"int","value":134},{"name":"f","type":"int","value":0}],"gid":36,"width":97,"height":47},{"id":909,"x":-553,"y":-1816,"visible":true,"properties":[{"name":"layer","type":"int","value":1},{"name":"resource_index","type":"int","value":33},{"name":"oS","type":"string","value":"acc1"},{"name":"l0","type":"string","value":"darkWood"},{"name":"l1","type":"string","value":"nature"},{"name":"l2","type":"string","value":"18"},{"name":"z","type":"int","value":3},{"name":"zM","type":"int","value":156},{"name":"f","type":"int","value":0}],"gid":44,"width":112,"height":43},{"id":910,"x":-151,"y":-2023,"visible":true,"properties":[{"name":"layer","type":"int","value":1},{"name":"resource_index","type":"int","value":34},{"name":"oS","type":"string","value":"acc1"},{"name":"l0","type":"string","value":"darkWood"},{"name":"l1","type":"string","value":"nature"},{"name":"l2","type":"string","value":"15"},{"name":"z","type":"int","value":2},{"name":"zM","type":"int","value":159},{"name":"f","type":"int","value":0}],"gid":39,"width":65,"height":105},{"id":911,"x":-1285,"y":-1336,"visible":true,"properties":[{"name":"layer","type":"int","value":1},{"name":"resource_index","type":"int","value":35},{"name":"oS","type":"string","value":"acc1"},{"name":"l0","type":"string","value":"darkWood"},{"name":"l1","type":"string","value":"nature"},{"name":"l2","type":"string","value":"14"},{"name":"z","type":"int","value":3},{"name":"zM","type":"int","value":122},{"name":"f","type":"int","value":0}],"gid":45,"width":142,"height":157},{"id":912,"x":-1190,"y":-1336,"visible":true,"properties":[{"name":"layer","type":"int","value":1},{"name":"resource_index","type":"int","value":36},{"name":"oS","type":"string","value":"acc1"},{"name":"l0","type":"string","value":"darkWood"},{"name":"l1","type":"string","value":"nature"},{"name":"l2","type":"string","value":"13"},{"name":"z","type":"int","value":2},{"name":"zM","type":"int","value":122},{"name":"f","type":"int","value":0}],"gid":46,"width":116,"height":155},{"id":913,"x":-1134,"y":-1337,"visible":true,"properties":[{"name":"layer","type":"int","value":1},{"name":"resource_index","type":"int","value":37},{"name":"oS","type":"string","value":"acc1"},{"name":"l0","type":"string","value":"darkWood"},{"name":"l1","type":"string","value":"nature"},{"name":"l2","type":"string","value":"13"},{"name":"z","type":"int","value":1},{"name":"zM","type":"int","value":122},{"name":"f","type":"int","value":0}],"gid":46,"width":116,"height":155},{"id":914,"x":-1027,"y":-1338,"visible":true,"properties":[{"name":"layer","type":"int","value":1},{"name":"resource_index","type":"int","value":38},{"name":"oS","type":"string","value":"acc1"},{"name":"l0","type":"string","value":"darkWood"},{"name":"l1","type":"string","value":"nature"},{"name":"l2","type":"string","value":"13"},{"name":"z","type":"int","value":2},{"name":"zM","type":"int","value":122},{"name":"f","type":"int","value":0}],"gid":46,"width":116,"height":155},{"id":915,"x":-1092,"y":-1333,"visible":true,"properties":[{"name":"layer","type":"int","value":1},{"name":"resource_index","type":"int","value":39},{"name":"oS","type":"string","value":"acc1"},{"name":"l0","type":"string","value":"darkWood"},{"name":"l1","type":"string","value":"nature"},{"name":"l2","type":"string","value":"14"},{"name":"z","type":"int","value":3},{"name":"zM","type":"int","value":122},{"name":"f","type":"int","value":0}],"gid":45,"width":142,"height":157},{"id":916,"x":-1314,"y":-1333,"visible":true,"properties":[{"name":"layer","type":"int","value":1},{"name":"resource_index","type":"int","value":40},{"name":"oS","type":"string","value":"acc1"},{"name":"l0","type":"string","value":"darkWood"},{"name":"l1","type":"string","value":"nature"},{"name":"l2","type":"string","value":"13"},{"name":"z","type":"int","value":2},{"name":"zM","type":"int","value":122},{"name":"f","type":"int","value":0}],"gid":46,"width":116,"height":155},{"id":917,"x":-901,"y":-1337,"visible":true,"properties":[{"name":"layer","type":"int","value":1},{"name":"resource_index","type":"int","value":41},{"name":"oS","type":"string","value":"acc1"},{"name":"l0","type":"string","value":"darkWood"},{"name":"l1","type":"string","value":"nature"},{"name":"l2","type":"string","value":"13"},{"name":"z","type":"int","value":3},{"name":"zM","type":"int","value":122},{"name":"f","type":"int","value":0}],"gid":46,"width":116,"height":155},{"id":918,"x":-975,"y":-1334,"visible":true,"properties":[{"name":"layer","type":"int","value":1},{"name":"resource_index","type":"int","value":42},{"name":"oS","type":"string","value":"acc1"},{"name":"l0","type":"string","value":"darkWood"},{"name":"l1","type":"string","value":"nature"},{"name":"l2","type":"string","value":"14"},{"name":"z","type":"int","value":2},{"name":"zM","type":"int","value":122},{"name":"f","type":"int","value":0}],"gid":45,"width":142,"height":157},{"id":919,"x":-853,"y":-1329,"visible":true,"properties":[{"name":"layer","type":"int","value":1},{"name":"resource_index","type":"int","value":43},{"name":"oS","type":"string","value":"acc1"},{"name":"l0","type":"string","value":"darkWood"},{"name":"l1","type":"string","value":"nature"},{"name":"l2","type":"string","value":"7"},{"name":"z","type":"int","value":4},{"name":"zM","type":"int","value":122},{"name":"f","type":"int","value":0}],"gid":47,"width":115,"height":123},{"id":920,"x":-1654,"y":-1034,"visible":true,"properties":[{"name":"layer","type":"int","value":1},{"name":"resource_index","type":"int","value":44},{"name":"oS","type":"string","value":"acc1"},{"name":"l0","type":"string","value":"darkWood"},{"name":"l1","type":"string","value":"nature"},{"name":"l2","type":"string","value":"18"},{"name":"z","type":"int","value":0},{"name":"zM","type":"int","value":103},{"name":"f","type":"int","value":0}],"gid":44,"width":112,"height":43},{"id":921,"x":-1426,"y":-856,"visible":true,"properties":[{"name":"layer","type":"int","value":1},{"name":"resource_index","type":"int","value":45},{"name":"oS","type":"string","value":"acc1"},{"name":"l0","type":"string","value":"darkWood"},{"name":"l1","type":"string","value":"nature"},{"name":"l2","type":"string","value":"19"},{"name":"z","type":"int","value":3},{"name":"zM","type":"int","value":79},{"name":"f","type":"int","value":0}],"gid":42,"width":70,"height":43},{"id":922,"x":-1593,"y":-1037,"visible":true,"properties":[{"name":"layer","type":"int","value":1},{"name":"resource_index","type":"int","value":46},{"name":"oS","type":"string","value":"acc1"},{"name":"l0","type":"string","value":"darkWood"},{"name":"l1","type":"string","value":"nature"},{"name":"l2","type":"string","value":"19"},{"name":"z","type":"int","value":3},{"name":"zM","type":"int","value":103},{"name":"f","type":"int","value":0}],"gid":42,"width":70,"height":43},{"id":923,"x":-805,"y":-258,"visible":true,"properties":[{"name":"layer","type":"int","value":1},{"name":"resource_index","type":"int","value":47},{"name":"oS","type":"string","value":"acc1"},{"name":"l0","type":"string","value":"darkWood"},{"name":"l1","type":"string","value":"nature"},{"name":"l2","type":"string","value":"18"},{"name":"z","type":"int","value":3},{"name":"zM","type":"int","value":43},{"name":"f","type":"int","value":0}],"gid":44,"width":112,"height":43},{"id":924,"x":-561,"y":-620,"visible":true,"properties":[{"name":"layer","type":"int","value":1},{"name":"resource_index","type":"int","value":48},{"name":"oS","type":"string","value":"acc1"},{"name":"l0","type":"string","value":"darkWood"},{"name":"l1","type":"string","value":"nature"},{"name":"l2","type":"string","value":"18"},{"name":"z","type":"int","value":3},{"name":"zM","type":"int","value":68},{"name":"f","type":"int","value":0}],"gid":44,"width":112,"height":43},{"id":925,"x":-364,"y":-918,"visible":true,"properties":[{"name":"layer","type":"int","value":1},{"name":"resource_index","type":"int","value":49},{"name":"oS","type":"string","value":"acc1"},{"name":"l0","type":"string","value":"darkWood"},{"name":"l1","type":"string","value":"nature"},{"name":"l2","type":"string","value":"18"},{"name":"z","type":"int","value":3},{"name":"zM","type":"int","value":94},{"name":"f","type":"int","value":0}],"gid":44,"width":112,"height":43},{"id":926,"x":-637,"y":-918,"visible":true,"properties":[{"name":"layer","type":"int","value":1},{"name":"resource_index","type":"int","value":50},{"name":"oS","type":"string","value":"acc1"},{"name":"l0","type":"string","value":"darkWood"},{"name":"l1","type":"string","value":"nature"},{"name":"l2","type":"string","value":"18"},{"name":"z","type":"int","value":3},{"name":"zM","type":"int","value":93},{"name":"f","type":"int","value":0}],"gid":44,"width":112,"height":43},{"id":927,"x":271,"y":-1218,"visible":true,"properties":[{"name":"layer","type":"int","value":1},{"name":"resource_index","type":"int","value":51},{"name":"oS","type":"string","value":"acc1"},{"name":"l0","type":"string","value":"darkWood"},{"name":"l1","type":"string","value":"nature"},{"name":"l2","type":"string","value":"18"},{"name":"z","type":"int","value":3},{"name":"zM","type":"int","value":119},{"name":"f","type":"int","value":0}],"gid":44,"width":112,"height":43},{"id":928,"x":-449,"y":-2055,"visible":true,"properties":[{"name":"layer","type":"int","value":1},{"name":"resource_index","type":"int","value":52},{"name":"oS","type":"string","value":"acc1"},{"name":"l0","type":"string","value":"darkWood"},{"name":"l1","type":"string","value":"nature"},{"name":"l2","type":"string","value":"19"},{"name":"z","type":"int","value":3},{"name":"zM","type":"int","value":159},{"name":"f","type":"int","value":0}],"gid":42,"width":70,"height":43},{"id":929,"x":181,"y":165,"visible":true,"properties":[{"name":"layer","type":"int","value":1},{"name":"resource_index","type":"int","value":53},{"name":"oS","type":"string","value":"acc1"},{"name":"l0","type":"string","value":"darkWood"},{"name":"l1","type":"string","value":"nature"},{"name":"l2","type":"string","value":"21"},{"name":"z","type":"int","value":4},{"name":"zM","type":"int","value":0},{"name":"f","type":"int","value":0}],"gid":38,"width":189,"height":104},{"id":930,"x":-619,"y":104,"visible":true,"properties":[{"name":"layer","type":"int","value":1},{"name":"resource_index","type":"int","value":54},{"name":"oS","type":"string","value":"acc1"},{"name":"l0","type":"string","value":"darkWood"},{"name":"l1","type":"string","value":"nature"},{"name":"l2","type":"string","value":"19"},{"name":"z","type":"int","value":3},{"name":"zM","type":"int","value":0},{"name":"f","type":"int","value":0}],"gid":42,"width":70,"height":43},{"id":931,"x":-1621,"y":-496,"visible":true,"properties":[{"name":"layer","type":"int","value":1},{"name":"resource_index","type":"int","value":55},{"name":"oS","type":"string","value":"acc1"},{"name":"l0","type":"string","value":"darkWood"},{"name":"l1","type":"string","value":"nature"},{"name":"l2","type":"string","value":"18"},{"name":"z","type":"int","value":3},{"name":"zM","type":"int","value":63},{"name":"f","type":"int","value":0}],"gid":44,"width":112,"height":43},{"id":932,"x":-1135,"y":-2476,"visible":true,"properties":[{"name":"layer","type":"int","value":1},{"name":"resource_index","type":"int","value":56},{"name":"oS","type":"string","value":"acc1"},{"name":"l0","type":"string","value":"darkWood"},{"name":"l1","type":"string","value":"nature"},{"name":"l2","type":"string","value":"17"},{"name":"z","type":"int","value":4},{"name":"zM","type":"int","value":165},{"name":"f","type":"int","value":0}],"gid":36,"width":97,"height":47},{"id":933,"x":-346,"y":-301,"visible":true,"properties":[{"name":"layer","type":"int","value":1},{"name":"resource_index","type":"int","value":57},{"name":"oS","type":"string","value":"acc1"},{"name":"l0","type":"string","value":"darkWood"},{"name":"l1","type":"string","value":"artificiality"},{"name":"l2","type":"string","value":"9"},{"name":"z","type":"int","value":1},{"name":"zM","type":"int","value":31},{"name":"f","type":"int","value":0}],"gid":61,"width":456,"height":511},{"id":934,"x":226,"y":-316,"visible":true,"properties":[{"name":"layer","type":"int","value":1},{"name":"resource_index","type":"int","value":58},{"name":"oS","type":"string","value":"acc1"},{"name":"l0","type":"string","value":"grassySoil"},{"name":"l1","type":"string","value":"artificiality"},{"name":"l2","type":"string","value":"10"},{"name":"z","type":"int","value":4},{"name":"zM","type":"int","value":31},{"name":"f","type":"int","value":0}],"gid":90,"width":52,"height":52},{"id":935,"x":-165,"y":-318,"visible":true,"properties":[{"name":"layer","type":"int","value":1},{"name":"resource_index","type":"int","value":59},{"name":"oS","type":"string","value":"acc1"},{"name":"l0","type":"string","value":"grassySoil"},{"name":"l1","type":"string","value":"artificiality"},{"name":"l2","type":"string","value":"10"},{"name":"z","type":"int","value":3},{"name":"zM","type":"int","value":31},{"name":"f","type":"int","value":0}],"gid":90,"width":52,"height":52},{"id":936,"x":132,"y":-317,"visible":true,"properties":[{"name":"layer","type":"int","value":1},{"name":"resource_index","type":"int","value":60},{"name":"oS","type":"string","value":"acc1"},{"name":"l0","type":"string","value":"grassySoil"},{"name":"l1","type":"string","value":"artificiality"},{"name":"l2","type":"string","value":"11"},{"name":"z","type":"int","value":4},{"name":"zM","type":"int","value":31},{"name":"f","type":"int","value":0}],"gid":91,"width":65,"height":53},{"id":937,"x":170,"y":-316,"visible":true,"properties":[{"name":"layer","type":"int","value":1},{"name":"resource_index","type":"int","value":61},{"name":"oS","type":"string","value":"acc1"},{"name":"l0","type":"string","value":"grassySoil"},{"name":"l1","type":"string","value":"artificiality"},{"name":"l2","type":"string","value":"11"},{"name":"z","type":"int","value":6},{"name":"zM","type":"int","value":31},{"name":"f","type":"int","value":0}],"gid":91,"width":65,"height":53},{"id":938,"x":150,"y":-345,"visible":true,"properties":[{"name":"layer","type":"int","value":1},{"name":"resource_index","type":"int","value":62},{"name":"oS","type":"string","value":"acc1"},{"name":"l0","type":"string","value":"grassySoil"},{"name":"l1","type":"string","value":"artificiality"},{"name":"l2","type":"string","value":"11"},{"name":"z","type":"int","value":5},{"name":"zM","type":"int","value":31},{"name":"f","type":"int","value":0}],"gid":91,"width":65,"height":53},{"id":939,"x":121,"y":-2057,"visible":true,"properties":[{"name":"layer","type":"int","value":1},{"name":"resource_index","type":"int","value":63},{"name":"oS","type":"string","value":"acc1"},{"name":"l0","type":"string","value":"darkWood"},{"name":"l1","type":"string","value":"nature"},{"name":"l2","type":"string","value":"18"},{"name":"z","type":"int","value":5},{"name":"zM","type":"int","value":159},{"name":"f","type":"int","value":0}],"gid":44,"width":112,"height":43},{"id":940,"x":-52,"y":-2613,"visible":true,"properties":[{"name":"layer","type":"int","value":1},{"name":"resource_index","type":"int","value":64},{"name":"oS","type":"string","value":"acc1"},{"name":"l0","type":"string","value":"darkWood"},{"name":"l1","type":"string","value":"artificiality"},{"name":"l2","type":"string","value":"4"},{"name":"z","type":"int","value":4},{"name":"zM","type":"int","value":164},{"name":"f","type":"int","value":0}],"gid":62,"width":227,"height":73},{"id":941,"x":-22,"y":-2596,"visible":true,"properties":[{"name":"layer","type":"int","value":1},{"name":"resource_index","type":"int","value":65},{"name":"oS","type":"string","value":"acc1"},{"name":"l0","type":"string","value":"darkWood"},{"name":"l1","type":"string","value":"artificiality"},{"name":"l2","type":"string","value":"2"},{"name":"z","type":"int","value":1},{"name":"zM","type":"int","value":164},{"name":"f","type":"int","value":0}],"gid":63,"width":216,"height":215},{"id":942,"x":-1568,"y":-1335,"visible":true,"properties":[{"name":"layer","type":"int","value":1},{"name":"resource_index","type":"int","value":66},{"name":"oS","type":"string","value":"acc1"},{"name":"l0","type":"string","value":"darkWood"},{"name":"l1","type":"string","value":"nature"},{"name":"l2","type":"string","value":"18"},{"name":"z","type":"int","value":3},{"name":"zM","type":"int","value":122},{"name":"f","type":"int","value":0}],"gid":44,"width":112,"height":43},{"id":943,"x":-1352,"y":-1813,"visible":true,"properties":[{"name":"layer","type":"int","value":1},{"name":"resource_index","type":"int","value":67},{"name":"oS","type":"string","value":"acc1"},{"name":"l0","type":"string","value":"darkWood"},{"name":"l1","type":"string","value":"nature"},{"name":"l2","type":"string","value":"20"},{"name":"z","type":"int","value":1},{"name":"zM","type":"int","value":146},{"name":"f","type":"int","value":0}],"gid":30,"width":149,"height":67},{"id":944,"x":101,"y":165,"visible":true,"properties":[{"name":"layer","type":"int","value":1},{"name":"resource_index","type":"int","value":68},{"name":"oS","type":"string","value":"acc1"},{"name":"l0","type":"string","value":"darkWood"},{"name":"l1","type":"string","value":"nature"},{"name":"l2","type":"string","value":"21"},{"name":"z","type":"int","value":2},{"name":"zM","type":"int","value":0},{"name":"f","type":"int","value":0}],"gid":38,"width":189,"height":104},{"id":945,"x":-130,"y":-2537,"visible":true,"properties":[{"name":"layer","type":"int","value":1},{"name":"resource_index","type":"int","value":69},{"name":"oS","type":"string","value":"acc1"},{"name":"l0","type":"string","value":"grassySoil"},{"name":"l1","type":"string","value":"artificiality"},{"name":"l2","type":"string","value":"24"},{"name":"z","type":"int","value":4},{"name":"zM","type":"int","value":164},{"name":"f","type":"int","value":0}],"gid":92,"width":49,"height":44},{"id":946,"x":-168,"y":-2533,"visible":true,"properties":[{"name":"layer","type":"int","value":1},{"name":"resource_index","type":"int","value":70},{"name":"oS","type":"string","value":"acc1"},{"name":"l0","type":"string","value":"grassySoil"},{"name":"l1","type":"string","value":"artificiality"},{"name":"l2","type":"string","value":"23"},{"name":"z","type":"int","value":3},{"name":"zM","type":"int","value":164},{"name":"f","type":"int","value":0}],"gid":93,"width":49,"height":48},{"id":947,"x":-1128,"y":-1757,"visible":true,"properties":[{"name":"layer","type":"int","value":1},{"name":"resource_index","type":"int","value":71},{"name":"oS","type":"string","value":"acc1"},{"name":"l0","type":"string","value":"grassySoil"},{"name":"l1","type":"string","value":"artificiality"},{"name":"l2","type":"string","value":"18"},{"name":"z","type":"int","value":4},{"name":"zM","type":"int","value":146},{"name":"f","type":"int","value":0}],"gid":80,"width":184,"height":111},{"id":948,"x":-1170,"y":-1756,"visible":true,"properties":[{"name":"layer","type":"int","value":1},{"name":"resource_index","type":"int","value":72},{"name":"oS","type":"string","value":"acc1"},{"name":"l0","type":"string","value":"darkWood"},{"name":"l1","type":"string","value":"nature"},{"name":"l2","type":"string","value":"20"},{"name":"z","type":"int","value":2},{"name":"zM","type":"int","value":146},{"name":"f","type":"int","value":0}],"gid":30,"width":149,"height":67},{"id":949,"x":-810,"y":-1698,"visible":true,"properties":[{"name":"layer","type":"int","value":1},{"name":"resource_index","type":"int","value":73},{"name":"oS","type":"string","value":"acc1"},{"name":"l0","type":"string","value":"darkWood"},{"name":"l1","type":"string","value":"nature"},{"name":"l2","type":"string","value":"18"},{"name":"z","type":"int","value":3},{"name":"zM","type":"int","value":146},{"name":"f","type":"int","value":0}],"gid":44,"width":112,"height":43},{"id":950,"x":140,"y":-2535,"visible":true,"properties":[{"name":"layer","type":"int","value":1},{"name":"resource_index","type":"int","value":74},{"name":"oS","type":"string","value":"acc1"},{"name":"l0","type":"string","value":"darkWood"},{"name":"l1","type":"string","value":"nature"},{"name":"l2","type":"string","value":"21"},{"name":"z","type":"int","value":7},{"name":"zM","type":"int","value":164},{"name":"f","type":"int","value":0}],"gid":38,"width":189,"height":104},{"id":951,"x":-1235,"y":-855,"visible":true,"properties":[{"name":"layer","type":"int","value":1},{"name":"resource_index","type":"int","value":75},{"name":"oS","type":"string","value":"acc1"},{"name":"l0","type":"string","value":"darkWood"},{"name":"l1","type":"string","value":"nature"},{"name":"l2","type":"string","value":"7"},{"name":"z","type":"int","value":4},{"name":"zM","type":"int","value":79},{"name":"f","type":"int","value":0}],"gid":47,"width":115,"height":123},{"id":952,"x":-144,"y":-2555,"visible":true,"properties":[{"name":"layer","type":"int","value":1},{"name":"resource_index","type":"int","value":76},{"name":"oS","type":"string","value":"acc1"},{"name":"l0","type":"string","value":"darkWood"},{"name":"l1","type":"string","value":"nature"},{"name":"l2","type":"string","value":"21"},{"name":"z","type":"int","value":1},{"name":"zM","type":"int","value":164},{"name":"f","type":"int","value":0}],"gid":38,"width":189,"height":104},{"id":953,"x":-1298,"y":-853,"visible":true,"properties":[{"name":"layer","type":"int","value":1},{"name":"resource_index","type":"int","value":77},{"name":"oS","type":"string","value":"acc1"},{"name":"l0","type":"string","value":"darkWood"},{"name":"l1","type":"string","value":"nature"},{"name":"l2","type":"string","value":"7"},{"name":"z","type":"int","value":1},{"name":"zM","type":"int","value":79},{"name":"f","type":"int","value":0}],"gid":47,"width":115,"height":123},{"id":954,"x":-738,"y":-1995,"visible":true,"properties":[{"name":"layer","type":"int","value":1},{"name":"resource_index","type":"int","value":78},{"name":"oS","type":"string","value":"acc1"},{"name":"l0","type":"string","value":"darkWood"},{"name":"l1","type":"string","value":"nature"},{"name":"l2","type":"string","value":"17"},{"name":"z","type":"int","value":3},{"name":"zM","type":"int","value":159},{"name":"f","type":"int","value":0}],"gid":36,"width":97,"height":47},{"id":955,"x":-207,"y":-2537,"visible":true,"properties":[{"name":"layer","type":"int","value":1},{"name":"resource_index","type":"int","value":79},{"name":"oS","type":"string","value":"acc1"},{"name":"l0","type":"string","value":"darkWood"},{"name":"l1","type":"string","value":"nature"},{"name":"l2","type":"string","value":"21"},{"name":"z","type":"int","value":2},{"name":"zM","type":"int","value":164},{"name":"f","type":"int","value":0}],"gid":38,"width":189,"height":104},{"id":956,"x":-92,"y":-2539,"visible":true,"properties":[{"name":"layer","type":"int","value":1},{"name":"resource_index","type":"int","value":80},{"name":"oS","type":"string","value":"acc1"},{"name":"l0","type":"string","value":"darkWood"},{"name":"l1","type":"string","value":"artificiality"},{"name":"l2","type":"string","value":"3"},{"name":"z","type":"int","value":3},{"name":"zM","type":"int","value":164},{"name":"f","type":"int","value":0}],"gid":64,"width":333,"height":93},{"id":957,"x":-1627,"y":-1336,"visible":true,"properties":[{"name":"layer","type":"int","value":1},{"name":"resource_index","type":"int","value":81},{"name":"oS","type":"string","value":"acc1"},{"name":"l0","type":"string","value":"darkWood"},{"name":"l1","type":"string","value":"nature"},{"name":"l2","type":"string","value":"19"},{"name":"z","type":"int","value":3},{"name":"zM","type":"int","value":122},{"name":"f","type":"int","value":0}],"gid":42,"width":70,"height":43},{"id":958,"x":-1092,"y":-857,"visible":true,"properties":[{"name":"layer","type":"int","value":1},{"name":"resource_index","type":"int","value":82},{"name":"oS","type":"string","value":"acc1"},{"name":"l0","type":"string","value":"darkWood"},{"name":"l1","type":"string","value":"nature"},{"name":"l2","type":"string","value":"16"},{"name":"z","type":"int","value":1},{"name":"zM","type":"int","value":79},{"name":"f","type":"int","value":0}],"gid":37,"width":234,"height":47},{"id":959,"x":-1218,"y":-1818,"visible":true,"properties":[{"name":"layer","type":"int","value":1},{"name":"resource_index","type":"int","value":83},{"name":"oS","type":"string","value":"acc1"},{"name":"l0","type":"string","value":"grassySoil"},{"name":"l1","type":"string","value":"artificiality"},{"name":"l2","type":"string","value":"16"},{"name":"z","type":"int","value":3},{"name":"zM","type":"int","value":146},{"name":"f","type":"int","value":0}],"gid":82,"width":48,"height":54},{"id":960,"x":-337,"y":-2055,"visible":true,"properties":[{"name":"layer","type":"int","value":1},{"name":"resource_index","type":"int","value":84},{"name":"oS","type":"string","value":"acc1"},{"name":"l0","type":"string","value":"darkWood"},{"name":"l1","type":"string","value":"nature"},{"name":"l2","type":"string","value":"17"},{"name":"z","type":"int","value":3},{"name":"zM","type":"int","value":159},{"name":"f","type":"int","value":0}],"gid":36,"width":97,"height":47},{"id":961,"x":-607,"y":-1336,"visible":true,"properties":[{"name":"layer","type":"int","value":1},{"name":"resource_index","type":"int","value":85},{"name":"oS","type":"string","value":"acc1"},{"name":"l0","type":"string","value":"darkWood"},{"name":"l1","type":"string","value":"nature"},{"name":"l2","type":"string","value":"16"},{"name":"z","type":"int","value":3},{"name":"zM","type":"int","value":122},{"name":"f","type":"int","value":0}],"gid":37,"width":234,"height":47},{"id":962,"x":-1463,"y":-1335,"visible":true,"properties":[{"name":"layer","type":"int","value":1},{"name":"resource_index","type":"int","value":86},{"name":"oS","type":"string","value":"acc1"},{"name":"l0","type":"string","value":"darkWood"},{"name":"l1","type":"string","value":"nature"},{"name":"l2","type":"string","value":"16"},{"name":"z","type":"int","value":4},{"name":"zM","type":"int","value":122},{"name":"f","type":"int","value":0}],"gid":37,"width":234,"height":47},{"id":963,"x":-272,"y":-1756,"visible":true,"properties":[{"name":"layer","type":"int","value":1},{"name":"resource_index","type":"int","value":87},{"name":"oS","type":"string","value":"acc1"},{"name":"l0","type":"string","value":"darkWood"},{"name":"l1","type":"string","value":"nature"},{"name":"l2","type":"string","value":"17"},{"name":"z","type":"int","value":3},{"name":"zM","type":"int","value":147},{"name":"f","type":"int","value":0}],"gid":36,"width":97,"height":47},{"id":964,"x":-74,"y":-1634,"visible":true,"properties":[{"name":"layer","type":"int","value":1},{"name":"resource_index","type":"int","value":88},{"name":"oS","type":"string","value":"acc1"},{"name":"l0","type":"string","value":"darkWood"},{"name":"l1","type":"string","value":"nature"},{"name":"l2","type":"string","value":"9"},{"name":"z","type":"int","value":1},{"name":"zM","type":"int","value":134},{"name":"f","type":"int","value":0}],"gid":31,"width":138,"height":97},{"id":965,"x":-879,"y":-2354,"visible":true,"properties":[{"name":"layer","type":"int","value":1},{"name":"resource_index","type":"int","value":89},{"name":"oS","type":"string","value":"acc1"},{"name":"l0","type":"string","value":"darkWood"},{"name":"l1","type":"string","value":"nature"},{"name":"l2","type":"string","value":"19"},{"name":"z","type":"int","value":3},{"name":"zM","type":"int","value":165},{"name":"f","type":"int","value":0}],"gid":42,"width":70,"height":43},{"id":966,"x":-475,"y":-2415,"visible":true,"properties":[{"name":"layer","type":"int","value":1},{"name":"resource_index","type":"int","value":90},{"name":"oS","type":"string","value":"acc1"},{"name":"l0","type":"string","value":"darkWood"},{"name":"l1","type":"string","value":"nature"},{"name":"l2","type":"string","value":"18"},{"name":"z","type":"int","value":3},{"name":"zM","type":"int","value":164},{"name":"f","type":"int","value":0}],"gid":44,"width":112,"height":43},{"id":967,"x":35,"y":-1638,"visible":true,"properties":[{"name":"layer","type":"int","value":1},{"name":"resource_index","type":"int","value":91},{"name":"oS","type":"string","value":"acc1"},{"name":"l0","type":"string","value":"darkWood"},{"name":"l1","type":"string","value":"nature"},{"name":"l2","type":"string","value":"6"},{"name":"z","type":"int","value":2},{"name":"zM","type":"int","value":134},{"name":"f","type":"int","value":0}],"gid":48,"width":116,"height":162},{"id":968,"x":-1350,"y":-856,"visible":true,"properties":[{"name":"layer","type":"int","value":1},{"name":"resource_index","type":"int","value":92},{"name":"oS","type":"string","value":"acc1"},{"name":"l0","type":"string","value":"darkWood"},{"name":"l1","type":"string","value":"nature"},{"name":"l2","type":"string","value":"16"},{"name":"z","type":"int","value":2},{"name":"zM","type":"int","value":79},{"name":"f","type":"int","value":0}],"gid":37,"width":234,"height":47},{"id":969,"x":-1574,"y":-855,"visible":true,"properties":[{"name":"layer","type":"int","value":1},{"name":"resource_index","type":"int","value":93},{"name":"oS","type":"string","value":"acc1"},{"name":"l0","type":"string","value":"darkWood"},{"name":"l1","type":"string","value":"nature"},{"name":"l2","type":"string","value":"17"},{"name":"z","type":"int","value":3},{"name":"zM","type":"int","value":79},{"name":"f","type":"int","value":0}],"gid":36,"width":97,"height":47},{"id":970,"x":-1008,"y":-857,"visible":true,"properties":[{"name":"layer","type":"int","value":1},{"name":"resource_index","type":"int","value":94},{"name":"oS","type":"string","value":"acc1"},{"name":"l0","type":"string","value":"darkWood"},{"name":"l1","type":"string","value":"nature"},{"name":"l2","type":"string","value":"17"},{"name":"z","type":"int","value":3},{"name":"zM","type":"int","value":79},{"name":"f","type":"int","value":0}],"gid":36,"width":97,"height":47},{"id":971,"x":-1164,"y":-858,"visible":true,"properties":[{"name":"layer","type":"int","value":1},{"name":"resource_index","type":"int","value":95},{"name":"oS","type":"string","value":"acc1"},{"name":"l0","type":"string","value":"darkWood"},{"name":"l1","type":"string","value":"nature"},{"name":"l2","type":"string","value":"18"},{"name":"z","type":"int","value":5},{"name":"zM","type":"int","value":79},{"name":"f","type":"int","value":0}],"gid":44,"width":112,"height":43},{"id":972,"x":-848,"y":-856,"visible":true,"properties":[{"name":"layer","type":"int","value":1},{"name":"resource_index","type":"int","value":96},{"name":"oS","type":"string","value":"acc1"},{"name":"l0","type":"string","value":"darkWood"},{"name":"l1","type":"string","value":"nature"},{"name":"l2","type":"string","value":"19"},{"name":"z","type":"int","value":2},{"name":"zM","type":"int","value":79},{"name":"f","type":"int","value":0}],"gid":42,"width":70,"height":43},{"id":973,"x":-990,"y":-855,"visible":true,"properties":[{"name":"layer","type":"int","value":1},{"name":"resource_index","type":"int","value":97},{"name":"oS","type":"string","value":"acc1"},{"name":"l0","type":"string","value":"darkWood"},{"name":"l1","type":"string","value":"nature"},{"name":"l2","type":"string","value":"19"},{"name":"z","type":"int","value":4},{"name":"zM","type":"int","value":79},{"name":"f","type":"int","value":0}],"gid":42,"width":70,"height":43},{"id":974,"x":-479,"y":-256,"visible":true,"properties":[{"name":"layer","type":"int","value":1},{"name":"resource_index","type":"int","value":98},{"name":"oS","type":"string","value":"acc1"},{"name":"l0","type":"string","value":"darkWood"},{"name":"l1","type":"string","value":"nature"},{"name":"l2","type":"string","value":"18"},{"name":"z","type":"int","value":3},{"name":"zM","type":"int","value":31},{"name":"f","type":"int","value":0}],"gid":44,"width":112,"height":43},{"id":975,"x":-539,"y":-2354,"visible":true,"properties":[{"name":"layer","type":"int","value":1},{"name":"resource_index","type":"int","value":99},{"name":"oS","type":"string","value":"acc1"},{"name":"l0","type":"string","value":"darkWood"},{"name":"l1","type":"string","value":"nature"},{"name":"l2","type":"string","value":"19"},{"name":"z","type":"int","value":3},{"name":"zM","type":"int","value":164},{"name":"f","type":"int","value":0}],"gid":42,"width":70,"height":43},{"id":976,"x":255,"y":-2175,"visible":true,"properties":[{"name":"layer","type":"int","value":1},{"name":"resource_index","type":"int","value":100},{"name":"oS","type":"string","value":"acc1"},{"name":"l0","type":"string","value":"darkWood"},{"name":"l1","type":"string","value":"nature"},{"name":"l2","type":"string","value":"18"},{"name":"z","type":"int","value":3},{"name":"zM","type":"int","value":159},{"name":"f","type":"int","value":0}],"gid":44,"width":112,"height":43},{"id":977,"x":-932,"y":-1939,"visible":true,"properties":[{"name":"layer","type":"int","value":1},{"name":"resource_index","type":"int","value":101},{"name":"oS","type":"string","value":"acc1"},{"name":"l0","type":"string","value":"darkWood"},{"name":"l1","type":"string","value":"nature"},{"name":"l2","type":"string","value":"18"},{"name":"z","type":"int","value":3},{"name":"zM","type":"int","value":158},{"name":"f","type":"int","value":0}],"gid":44,"width":112,"height":43},{"id":978,"x":-1204,"y":-2474,"visible":true,"properties":[{"name":"layer","type":"int","value":1},{"name":"resource_index","type":"int","value":102},{"name":"oS","type":"string","value":"acc1"},{"name":"l0","type":"string","value":"darkWood"},{"name":"l1","type":"string","value":"nature"},{"name":"l2","type":"string","value":"19"},{"name":"z","type":"int","value":4},{"name":"zM","type":"int","value":165},{"name":"f","type":"int","value":0}],"gid":42,"width":70,"height":43},{"id":979,"x":72,"y":-1109,"visible":true,"properties":[{"name":"layer","type":"int","value":1},{"name":"resource_index","type":"int","value":103},{"name":"oS","type":"string","value":"acc1"},{"name":"l0","type":"string","value":"darkWood"},{"name":"l1","type":"string","value":"nature"},{"name":"l2","type":"string","value":"29"},{"name":"z","type":"int","value":3},{"name":"zM","type":"int","value":108},{"name":"f","type":"int","value":0}],"gid":43,"width":77,"height":88},{"id":980,"x":-2,"y":-2058,"visible":true,"properties":[{"name":"layer","type":"int","value":1},{"name":"resource_index","type":"int","value":104},{"name":"oS","type":"string","value":"acc1"},{"name":"l0","type":"string","value":"darkWood"},{"name":"l1","type":"string","value":"nature"},{"name":"l2","type":"string","value":"12"},{"name":"z","type":"int","value":2},{"name":"zM","type":"int","value":159},{"name":"f","type":"int","value":0}],"gid":41,"width":107,"height":165},{"id":981,"x":-224,"y":-2054,"visible":true,"properties":[{"name":"layer","type":"int","value":1},{"name":"resource_index","type":"int","value":105},{"name":"oS","type":"string","value":"acc1"},{"name":"l0","type":"string","value":"darkWood"},{"name":"l1","type":"string","value":"nature"},{"name":"l2","type":"string","value":"18"},{"name":"z","type":"int","value":3},{"name":"zM","type":"int","value":159},{"name":"f","type":"int","value":0}],"gid":44,"width":112,"height":43},{"id":982,"x":-801,"y":44,"visible":true,"properties":[{"name":"layer","type":"int","value":1},{"name":"resource_index","type":"int","value":106},{"name":"oS","type":"string","value":"acc1"},{"name":"l0","type":"string","value":"darkWood"},{"name":"l1","type":"string","value":"nature"},{"name":"l2","type":"string","value":"17"},{"name":"z","type":"int","value":3},{"name":"zM","type":"int","value":0},{"name":"f","type":"int","value":0}],"gid":36,"width":97,"height":47},{"id":983,"x":-1376,"y":-2478,"visible":true,"properties":[{"name":"layer","type":"int","value":1},{"name":"resource_index","type":"int","value":107},{"name":"oS","type":"string","value":"acc1"},{"name":"l0","type":"string","value":"darkWood"},{"name":"l1","type":"string","value":"nature"},{"name":"l2","type":"string","value":"16"},{"name":"z","type":"int","value":5},{"name":"zM","type":"int","value":165},{"name":"f","type":"int","value":0}],"gid":37,"width":234,"height":47},{"id":984,"x":-1304,"y":-2522,"visible":true,"properties":[{"name":"layer","type":"int","value":1},{"name":"resource_index","type":"int","value":108},{"name":"oS","type":"string","value":"acc1"},{"name":"l0","type":"string","value":"darkWood"},{"name":"l1","type":"string","value":"artificiality"},{"name":"l2","type":"string","value":"12"},{"name":"z","type":"int","value":4},{"name":"zM","type":"int","value":165},{"name":"f","type":"int","value":0}],"gid":65,"width":130,"height":228},{"id":985,"x":-1341,"y":-2473,"visible":true,"properties":[{"name":"layer","type":"int","value":1},{"name":"resource_index","type":"int","value":109},{"name":"oS","type":"string","value":"acc1"},{"name":"l0","type":"string","value":"darkWood"},{"name":"l1","type":"string","value":"artificiality"},{"name":"l2","type":"string","value":"5"},{"name":"z","type":"int","value":3},{"name":"zM","type":"int","value":165},{"name":"f","type":"int","value":0}],"gid":58,"width":339,"height":272},{"id":986,"x":-1554,"y":-1814,"visible":true,"properties":[{"name":"layer","type":"int","value":1},{"name":"resource_index","type":"int","value":110},{"name":"oS","type":"string","value":"acc1"},{"name":"l0","type":"string","value":"darkWood"},{"name":"l1","type":"string","value":"nature"},{"name":"l2","type":"string","value":"6"},{"name":"z","type":"int","value":5},{"name":"zM","type":"int","value":0},{"name":"f","type":"int","value":0}],"gid":48,"width":116,"height":162},{"id":987,"x":-1629,"y":-1798,"visible":true,"properties":[{"name":"layer","type":"int","value":1},{"name":"resource_index","type":"int","value":111},{"name":"oS","type":"string","value":"acc1"},{"name":"l0","type":"string","value":"darkWood"},{"name":"l1","type":"string","value":"nature"},{"name":"l2","type":"string","value":"6"},{"name":"z","type":"int","value":2},{"name":"zM","type":"int","value":0},{"name":"f","type":"int","value":0}],"gid":48,"width":116,"height":162},{"id":988,"x":-1337,"y":-1915,"visible":true,"properties":[{"name":"layer","type":"int","value":1},{"name":"resource_index","type":"int","value":112},{"name":"oS","type":"string","value":"house"},{"name":"l0","type":"string","value":"darkWood"},{"name":"l1","type":"string","value":"lamp"},{"name":"l2","type":"string","value":"3"},{"name":"z","type":"int","value":2},{"name":"zM","type":"int","value":0},{"name":"f","type":"int","value":0}],"gid":28,"width":83,"height":85},{"id":989,"x":-116,"y":165,"visible":true,"properties":[{"name":"layer","type":"int","value":1},{"name":"resource_index","type":"int","value":113},{"name":"oS","type":"string","value":"guide"},{"name":"l0","type":"string","value":"midForest"},{"name":"l1","type":"string","value":"wood"},{"name":"l2","type":"string","value":"0"},{"name":"z","type":"int","value":9},{"name":"zM","type":"int","value":0},{"name":"f","type":"int","value":1}],"gid":52,"width":84,"height":144}],"properties":[]},{"id":8,"name":"layer_1_tile","type":"objectgroup","visible":true,"opacity":1,"draworder":"index","offsetx":0,"offsety":0,"parallaxx":1,"parallaxy":1,"objects":[{"id":3,"x":270,"y":240,"visible":true,"properties":[{"name":"layer","type":"int","value":1},{"name":"resource_index","type":"int","value":0},{"name":"u","type":"string","value":"bsc"},{"name":"no","type":"int","value":0},{"name":"zM","type":"int","value":0}],"gid":6,"width":90,"height":60},{"id":4,"x":270,"y":360,"visible":true,"properties":[{"name":"layer","type":"int","value":1},{"name":"resource_index","type":"int","value":1},{"name":"u","type":"string","value":"bsc"},{"name":"no","type":"int","value":2},{"name":"zM","type":"int","value":0}],"gid":7,"width":90,"height":60},{"id":5,"x":180,"y":240,"visible":true,"properties":[{"name":"layer","type":"int","value":1},{"name":"resource_index","type":"int","value":2},{"name":"u","type":"string","value":"bsc"},{"name":"no","type":"int","value":1},{"name":"zM","type":"int","value":0}],"gid":8,"width":90,"height":60},{"id":6,"x":180,"y":180,"visible":true,"properties":[{"name":"layer","type":"int","value":1},{"name":"resource_index","type":"int","value":3},{"name":"u","type":"string","value":"enH0"},{"name":"no","type":"int","value":0},{"name":"zM","type":"int","value":0}],"gid":9,"width":90,"height":24},{"id":7,"x":90,"y":240,"visible":true,"properties":[{"name":"layer","type":"int","value":1},{"name":"resource_index","type":"int","value":4},{"name":"u","type":"string","value":"bsc"},{"name":"no","type":"int","value":2},{"name":"zM","type":"int","value":0}],"gid":7,"width":90,"height":60},{"id":8,"x":90,"y":180,"visible":true,"properties":[{"name":"layer","type":"int","value":1},{"name":"resource_index","type":"int","value":5},{"name":"u","type":"string","value":"enH0"},{"name":"no","type":"int","value":0},{"name":"zM","type":"int","value":0}],"gid":9,"width":90,"height":24},{"id":9,"x":0,"y":240,"visible":true,"properties":[{"name":"layer","type":"int","value":1},{"name":"resource_index","type":"int","value":6},{"name":"u","type":"string","value":"bsc"},{"name":"no","type":"int","value":0},{"name":"zM","type":"int","value":0}],"gid":6,"width":90,"height":60},{"id":10,"x":0,"y":180,"visible":true,"properties":[{"name":"layer","type":"int","value":1},{"name":"resource_index","type":"int","value":7},{"name":"u","type":"string","value":"enH0"},{"name":"no","type":"int","value":0},{"name":"zM","type":"int","value":0}],"gid":9,"width":90,"height":24},{"id":11,"x":-90,"y":240,"visible":true,"properties":[{"name":"layer","type":"int","value":1},{"name":"resource_index","type":"int","value":8},{"name":"u","type":"string","value":"bsc"},{"name":"no","type":"int","value":0},{"name":"zM","type":"int","value":0}],"gid":6,"width":90,"height":60},{"id":12,"x":-90,"y":180,"visible":true,"properties":[{"name":"layer","type":"int","value":1},{"name":"resource_index","type":"int","value":9},{"name":"u","type":"string","value":"enH0"},{"name":"no","type":"int","value":0},{"name":"zM","type":"int","value":0}],"gid":9,"width":90,"height":24},{"id":13,"x":-180,"y":240,"visible":true,"properties":[{"name":"layer","type":"int","value":1},{"name":"resource_index","type":"int","value":10},{"name":"u","type":"string","value":"bsc"},{"name":"no","type":"int","value":1},{"name":"zM","type":"int","value":0}],"gid":8,"width":90,"height":60},{"id":14,"x":-180,"y":180,"visible":true,"properties":[{"name":"layer","type":"int","value":1},{"name":"resource_index","type":"int","value":11},{"name":"u","type":"string","value":"enH0"},{"name":"no","type":"int","value":0},{"name":"zM","type":"int","value":0}],"gid":9,"width":90,"height":24},{"id":15,"x":-450,"y":240,"visible":true,"properties":[{"name":"layer","type":"int","value":1},{"name":"resource_index","type":"int","value":12},{"name":"u","type":"string","value":"bsc"},{"name":"no","type":"int","value":1},{"name":"zM","type":"int","value":0}],"gid":8,"width":90,"height":60},{"id":16,"x":-450,"y":360,"visible":true,"properties":[{"name":"layer","type":"int","value":1},{"name":"resource_index","type":"int","value":13},{"name":"u","type":"string","value":"bsc"},{"name":"no","type":"int","value":0},{"name":"zM","type":"int","value":0}],"gid":6,"width":90,"height":60},{"id":17,"x":-270,"y":180,"visible":true,"properties":[{"name":"layer","type":"int","value":1},{"name":"resource_index","type":"int","value":14},{"name":"u","type":"string","value":"enH0"},{"name":"no","type":"int","value":0},{"name":"zM","type":"int","value":0}],"gid":9,"width":90,"height":24},{"id":18,"x":-270,"y":240,"visible":true,"properties":[{"name":"layer","type":"int","value":1},{"name":"resource_index","type":"int","value":15},{"name":"u","type":"string","value":"bsc"},{"name":"no","type":"int","value":2},{"name":"zM","type":"int","value":0}],"gid":7,"width":90,"height":60},{"id":19,"x":180,"y":300,"visible":true,"properties":[{"name":"layer","type":"int","value":1},{"name":"resource_index","type":"int","value":16},{"name":"u","type":"string","value":"bsc"},{"name":"no","type":"int","value":2},{"name":"zM","type":"int","value":0}],"gid":7,"width":90,"height":60},{"id":20,"x":270,"y":300,"visible":true,"properties":[{"name":"layer","type":"int","value":1},{"name":"resource_index","type":"int","value":17},{"name":"u","type":"string","value":"bsc"},{"name":"no","type":"int","value":1},{"name":"zM","type":"int","value":0}],"gid":8,"width":90,"height":60},{"id":21,"x":-540,"y":420,"visible":true,"properties":[{"name":"layer","type":"int","value":1},{"name":"resource_index","type":"int","value":18},{"name":"u","type":"string","value":"bsc"},{"name":"no","type":"int","value":2},{"name":"zM","type":"int","value":0}],"gid":7,"width":90,"height":60},{"id":22,"x":270,"y":420,"visible":true,"properties":[{"name":"layer","type":"int","value":1},{"name":"resource_index","type":"int","value":19},{"name":"u","type":"string","value":"bsc"},{"name":"no","type":"int","value":0},{"name":"zM","type":"int","value":0}],"gid":6,"width":90,"height":60},{"id":23,"x":-90,"y":300,"visible":true,"properties":[{"name":"layer","type":"int","value":1},{"name":"resource_index","type":"int","value":20},{"name":"u","type":"string","value":"bsc"},{"name":"no","type":"int","value":2},{"name":"zM","type":"int","value":0}],"gid":7,"width":90,"height":60},{"id":24,"x":0,"y":300,"visible":true,"properties":[{"name":"layer","type":"int","value":1},{"name":"resource_index","type":"int","value":21},{"name":"u","type":"string","value":"bsc"},{"name":"no","type":"int","value":1},{"name":"zM","type":"int","value":0}],"gid":8,"width":90,"height":60},{"id":25,"x":-720,"y":420,"visible":true,"properties":[{"name":"layer","type":"int","value":1},{"name":"resource_index","type":"int","value":22},{"name":"u","type":"string","value":"bsc"},{"name":"no","type":"int","value":1},{"name":"zM","type":"int","value":0}],"gid":8,"width":90,"height":60},{"id":26,"x":-270,"y":300,"visible":true,"properties":[{"name":"layer","type":"int","value":1},{"name":"resource_index","type":"int","value":23},{"name":"u","type":"string","value":"bsc"},{"name":"no","type":"int","value":0},{"name":"zM","type":"int","value":0}],"gid":6,"width":90,"height":60},{"id":27,"x":90,"y":300,"visible":true,"properties":[{"name":"layer","type":"int","value":1},{"name":"resource_index","type":"int","value":24},{"name":"u","type":"string","value":"bsc"},{"name":"no","type":"int","value":0},{"name":"zM","type":"int","value":0}],"gid":6,"width":90,"height":60},{"id":28,"x":-180,"y":300,"visible":true,"properties":[{"name":"layer","type":"int","value":1},{"name":"resource_index","type":"int","value":25},{"name":"u","type":"string","value":"bsc"},{"name":"no","type":"int","value":2},{"name":"zM","type":"int","value":0}],"gid":7,"width":90,"height":60},{"id":29,"x":180,"y":360,"visible":true,"properties":[{"name":"layer","type":"int","value":1},{"name":"resource_index","type":"int","value":26},{"name":"u","type":"string","value":"bsc"},{"name":"no","type":"int","value":0},{"name":"zM","type":"int","value":0}],"gid":6,"width":90,"height":60},{"id":30,"x":360,"y":300,"visible":true,"properties":[{"name":"layer","type":"int","value":1},{"name":"resource_index","type":"int","value":27},{"name":"u","type":"string","value":"enV1"},{"name":"no","type":"int","value":0},{"name":"zM","type":"int","value":0}],"gid":10,"width":20,"height":60},{"id":31,"x":180,"y":420,"visible":true,"properties":[{"name":"layer","type":"int","value":1},{"name":"resource_index","type":"int","value":28},{"name":"u","type":"string","value":"bsc"},{"name":"no","type":"int","value":1},{"name":"zM","type":"int","value":0}],"gid":8,"width":90,"height":60},{"id":32,"x":-180,"y":360,"visible":true,"properties":[{"name":"layer","type":"int","value":1},{"name":"resource_index","type":"int","value":29},{"name":"u","type":"string","value":"bsc"},{"name":"no","type":"int","value":0},{"name":"zM","type":"int","value":0}],"gid":6,"width":90,"height":60},{"id":33,"x":90,"y":420,"visible":true,"properties":[{"name":"layer","type":"int","value":1},{"name":"resource_index","type":"int","value":30},{"name":"u","type":"string","value":"bsc"},{"name":"no","type":"int","value":2},{"name":"zM","type":"int","value":0}],"gid":7,"width":90,"height":60},{"id":34,"x":90,"y":360,"visible":true,"properties":[{"name":"layer","type":"int","value":1},{"name":"resource_index","type":"int","value":31},{"name":"u","type":"string","value":"bsc"},{"name":"no","type":"int","value":1},{"name":"zM","type":"int","value":0}],"gid":8,"width":90,"height":60},{"id":35,"x":-450,"y":420,"visible":true,"properties":[{"name":"layer","type":"int","value":1},{"name":"resource_index","type":"int","value":32},{"name":"u","type":"string","value":"bsc"},{"name":"no","type":"int","value":1},{"name":"zM","type":"int","value":0}],"gid":8,"width":90,"height":60},{"id":36,"x":-90,"y":420,"visible":true,"properties":[{"name":"layer","type":"int","value":1},{"name":"resource_index","type":"int","value":33},{"name":"u","type":"string","value":"bsc"},{"name":"no","type":"int","value":1},{"name":"zM","type":"int","value":0}],"gid":8,"width":90,"height":60},{"id":37,"x":-180,"y":420,"visible":true,"properties":[{"name":"layer","type":"int","value":1},{"name":"resource_index","type":"int","value":34},{"name":"u","type":"string","value":"bsc"},{"name":"no","type":"int","value":1},{"name":"zM","type":"int","value":0}],"gid":8,"width":90,"height":60},{"id":38,"x":0,"y":420,"visible":true,"properties":[{"name":"layer","type":"int","value":1},{"name":"resource_index","type":"int","value":35},{"name":"u","type":"string","value":"bsc"},{"name":"no","type":"int","value":0},{"name":"zM","type":"int","value":0}],"gid":6,"width":90,"height":60},{"id":39,"x":-90,"y":360,"visible":true,"properties":[{"name":"layer","type":"int","value":1},{"name":"resource_index","type":"int","value":36},{"name":"u","type":"string","value":"bsc"},{"name":"no","type":"int","value":0},{"name":"zM","type":"int","value":0}],"gid":6,"width":90,"height":60},{"id":40,"x":-270,"y":360,"visible":true,"properties":[{"name":"layer","type":"int","value":1},{"name":"resource_index","type":"int","value":37},{"name":"u","type":"string","value":"bsc"},{"name":"no","type":"int","value":1},{"name":"zM","type":"int","value":0}],"gid":8,"width":90,"height":60},{"id":41,"x":-270,"y":420,"visible":true,"properties":[{"name":"layer","type":"int","value":1},{"name":"resource_index","type":"int","value":38},{"name":"u","type":"string","value":"bsc"},{"name":"no","type":"int","value":2},{"name":"zM","type":"int","value":0}],"gid":7,"width":90,"height":60},{"id":42,"x":0,"y":360,"visible":true,"properties":[{"name":"layer","type":"int","value":1},{"name":"resource_index","type":"int","value":39},{"name":"u","type":"string","value":"bsc"},{"name":"no","type":"int","value":2},{"name":"zM","type":"int","value":0}],"gid":7,"width":90,"height":60},{"id":43,"x":-360,"y":240,"visible":true,"properties":[{"name":"layer","type":"int","value":1},{"name":"resource_index","type":"int","value":40},{"name":"u","type":"string","value":"bsc"},{"name":"no","type":"int","value":0},{"name":"zM","type":"int","value":0}],"gid":6,"width":90,"height":60},{"id":44,"x":-360,"y":180,"visible":true,"properties":[{"name":"layer","type":"int","value":1},{"name":"resource_index","type":"int","value":41},{"name":"u","type":"string","value":"enH0"},{"name":"no","type":"int","value":0},{"name":"zM","type":"int","value":0}],"gid":9,"width":90,"height":24},{"id":45,"x":-540,"y":240,"visible":true,"properties":[{"name":"layer","type":"int","value":1},{"name":"resource_index","type":"int","value":42},{"name":"u","type":"string","value":"bsc"},{"name":"no","type":"int","value":2},{"name":"zM","type":"int","value":0}],"gid":7,"width":90,"height":60},{"id":46,"x":-540,"y":180,"visible":true,"properties":[{"name":"layer","type":"int","value":1},{"name":"resource_index","type":"int","value":43},{"name":"u","type":"string","value":"enH0"},{"name":"no","type":"int","value":0},{"name":"zM","type":"int","value":0}],"gid":9,"width":90,"height":24},{"id":47,"x":-450,"y":180,"visible":true,"properties":[{"name":"layer","type":"int","value":1},{"name":"resource_index","type":"int","value":44},{"name":"u","type":"string","value":"enH0"},{"name":"no","type":"int","value":0},{"name":"zM","type":"int","value":0}],"gid":9,"width":90,"height":24},{"id":48,"x":-630,"y":240,"visible":true,"properties":[{"name":"layer","type":"int","value":1},{"name":"resource_index","type":"int","value":45},{"name":"u","type":"string","value":"bsc"},{"name":"no","type":"int","value":0},{"name":"zM","type":"int","value":0}],"gid":6,"width":90,"height":60},{"id":49,"x":-1080,"y":420,"visible":true,"properties":[{"name":"layer","type":"int","value":1},{"name":"resource_index","type":"int","value":46},{"name":"u","type":"string","value":"bsc"},{"name":"no","type":"int","value":2},{"name":"zM","type":"int","value":0}],"gid":7,"width":90,"height":60},{"id":50,"x":-450,"y":300,"visible":true,"properties":[{"name":"layer","type":"int","value":1},{"name":"resource_index","type":"int","value":47},{"name":"u","type":"string","value":"bsc"},{"name":"no","type":"int","value":2},{"name":"zM","type":"int","value":0}],"gid":7,"width":90,"height":60},{"id":51,"x":-540,"y":300,"visible":true,"properties":[{"name":"layer","type":"int","value":1},{"name":"resource_index","type":"int","value":48},{"name":"u","type":"string","value":"bsc"},{"name":"no","type":"int","value":0},{"name":"zM","type":"int","value":0}],"gid":6,"width":90,"height":60},{"id":52,"x":-360,"y":300,"visible":true,"properties":[{"name":"layer","type":"int","value":1},{"name":"resource_index","type":"int","value":49},{"name":"u","type":"string","value":"bsc"},{"name":"no","type":"int","value":1},{"name":"zM","type":"int","value":0}],"gid":8,"width":90,"height":60},{"id":53,"x":-360,"y":360,"visible":true,"properties":[{"name":"layer","type":"int","value":1},{"name":"resource_index","type":"int","value":50},{"name":"u","type":"string","value":"bsc"},{"name":"no","type":"int","value":2},{"name":"zM","type":"int","value":0}],"gid":7,"width":90,"height":60},{"id":54,"x":-990,"y":420,"visible":true,"properties":[{"name":"layer","type":"int","value":1},{"name":"resource_index","type":"int","value":51},{"name":"u","type":"string","value":"bsc"},{"name":"no","type":"int","value":1},{"name":"zM","type":"int","value":0}],"gid":8,"width":90,"height":60},{"id":55,"x":-540,"y":360,"visible":true,"properties":[{"name":"layer","type":"int","value":1},{"name":"resource_index","type":"int","value":52},{"name":"u","type":"string","value":"bsc"},{"name":"no","type":"int","value":1},{"name":"zM","type":"int","value":0}],"gid":8,"width":90,"height":60},{"id":56,"x":-360,"y":420,"visible":true,"properties":[{"name":"layer","type":"int","value":1},{"name":"resource_index","type":"int","value":53},{"name":"u","type":"string","value":"bsc"},{"name":"no","type":"int","value":0},{"name":"zM","type":"int","value":0}],"gid":6,"width":90,"height":60},{"id":57,"x":-630,"y":420,"visible":true,"properties":[{"name":"layer","type":"int","value":1},{"name":"resource_index","type":"int","value":54},{"name":"u","type":"string","value":"bsc"},{"name":"no","type":"int","value":0},{"name":"zM","type":"int","value":0}],"gid":6,"width":90,"height":60},{"id":58,"x":-630,"y":180,"visible":true,"properties":[{"name":"layer","type":"int","value":1},{"name":"resource_index","type":"int","value":55},{"name":"u","type":"string","value":"bsc"},{"name":"no","type":"int","value":2},{"name":"zM","type":"int","value":0}],"gid":7,"width":90,"height":60},{"id":59,"x":-630,"y":120,"visible":true,"properties":[{"name":"layer","type":"int","value":1},{"name":"resource_index","type":"int","value":56},{"name":"u","type":"string","value":"enH0"},{"name":"no","type":"int","value":0},{"name":"zM","type":"int","value":0}],"gid":9,"width":90,"height":24},{"id":60,"x":-720,"y":240,"visible":true,"properties":[{"name":"layer","type":"int","value":1},{"name":"resource_index","type":"int","value":57},{"name":"u","type":"string","value":"bsc"},{"name":"no","type":"int","value":1},{"name":"zM","type":"int","value":0}],"gid":8,"width":90,"height":60},{"id":61,"x":-720,"y":180,"visible":true,"properties":[{"name":"layer","type":"int","value":1},{"name":"resource_index","type":"int","value":58},{"name":"u","type":"string","value":"bsc"},{"name":"no","type":"int","value":0},{"name":"zM","type":"int","value":0}],"gid":6,"width":90,"height":60},{"id":62,"x":-540,"y":180,"visible":true,"properties":[{"name":"layer","type":"int","value":1},{"name":"resource_index","type":"int","value":59},{"name":"u","type":"string","value":"enV1"},{"name":"no","type":"int","value":0},{"name":"zM","type":"int","value":0}],"gid":10,"width":20,"height":60},{"id":63,"x":-810,"y":240,"visible":true,"properties":[{"name":"layer","type":"int","value":1},{"name":"resource_index","type":"int","value":60},{"name":"u","type":"string","value":"bsc"},{"name":"no","type":"int","value":2},{"name":"zM","type":"int","value":0}],"gid":7,"width":90,"height":60},{"id":64,"x":-900,"y":300,"visible":true,"properties":[{"name":"layer","type":"int","value":1},{"name":"resource_index","type":"int","value":61},{"name":"u","type":"string","value":"bsc"},{"name":"no","type":"int","value":1},{"name":"zM","type":"int","value":0}],"gid":8,"width":90,"height":60},{"id":65,"x":-745,"y":60,"visible":true,"properties":[{"name":"layer","type":"int","value":1},{"name":"resource_index","type":"int","value":62},{"name":"u","type":"string","value":"edU"},{"name":"no","type":"int","value":0},{"name":"zM","type":"int","value":0}],"gid":11,"width":47,"height":25},{"id":66,"x":-810,"y":180,"visible":true,"properties":[{"name":"layer","type":"int","value":1},{"name":"resource_index","type":"int","value":63},{"name":"u","type":"string","value":"bsc"},{"name":"no","type":"int","value":1},{"name":"zM","type":"int","value":0}],"gid":8,"width":90,"height":60},{"id":67,"x":-720,"y":120,"visible":true,"properties":[{"name":"layer","type":"int","value":1},{"name":"resource_index","type":"int","value":64},{"name":"u","type":"string","value":"enV1"},{"name":"no","type":"int","value":0},{"name":"zM","type":"int","value":0}],"gid":10,"width":20,"height":60},{"id":68,"x":-720,"y":120,"visible":true,"properties":[{"name":"layer","type":"int","value":1},{"name":"resource_index","type":"int","value":65},{"name":"u","type":"string","value":"enH0"},{"name":"no","type":"int","value":0},{"name":"zM","type":"int","value":0}],"gid":9,"width":90,"height":24},{"id":69,"x":-1350,"y":420,"visible":true,"properties":[{"name":"layer","type":"int","value":1},{"name":"resource_index","type":"int","value":66},{"name":"u","type":"string","value":"bsc"},{"name":"no","type":"int","value":2},{"name":"zM","type":"int","value":0}],"gid":7,"width":90,"height":60},{"id":70,"x":-720,"y":300,"visible":true,"properties":[{"name":"layer","type":"int","value":1},{"name":"resource_index","type":"int","value":67},{"name":"u","type":"string","value":"bsc"},{"name":"no","type":"int","value":2},{"name":"zM","type":"int","value":0}],"gid":7,"width":90,"height":60},{"id":71,"x":-630,"y":300,"visible":true,"properties":[{"name":"layer","type":"int","value":1},{"name":"resource_index","type":"int","value":68},{"name":"u","type":"string","value":"bsc"},{"name":"no","type":"int","value":1},{"name":"zM","type":"int","value":0}],"gid":8,"width":90,"height":60},{"id":72,"x":-630,"y":360,"visible":true,"properties":[{"name":"layer","type":"int","value":1},{"name":"resource_index","type":"int","value":69},{"name":"u","type":"string","value":"bsc"},{"name":"no","type":"int","value":2},{"name":"zM","type":"int","value":0}],"gid":7,"width":90,"height":60},{"id":73,"x":-720,"y":360,"visible":true,"properties":[{"name":"layer","type":"int","value":1},{"name":"resource_index","type":"int","value":70},{"name":"u","type":"string","value":"bsc"},{"name":"no","type":"int","value":0},{"name":"zM","type":"int","value":0}],"gid":6,"width":90,"height":60},{"id":74,"x":-450,"y":-2400,"visible":true,"properties":[{"name":"layer","type":"int","value":1},{"name":"resource_index","type":"int","value":71},{"name":"u","type":"string","value":"enH0"},{"name":"no","type":"int","value":0},{"name":"zM","type":"int","value":164}],"gid":9,"width":90,"height":24},{"id":75,"x":-565,"y":-360,"visible":true,"properties":[{"name":"layer","type":"int","value":1},{"name":"resource_index","type":"int","value":72},{"name":"u","type":"string","value":"edU"},{"name":"no","type":"int","value":0},{"name":"zM","type":"int","value":55}],"gid":11,"width":47,"height":25},{"id":76,"x":-900,"y":451,"visible":true,"properties":[{"name":"layer","type":"int","value":1},{"name":"resource_index","type":"int","value":73},{"name":"u","type":"string","value":"enH1"},{"name":"no","type":"int","value":0},{"name":"zM","type":"int","value":0}],"gid":12,"width":90,"height":31},{"id":77,"x":-540,"y":451,"visible":true,"properties":[{"name":"layer","type":"int","value":1},{"name":"resource_index","type":"int","value":74},{"name":"u","type":"string","value":"enH1"},{"name":"no","type":"int","value":0},{"name":"zM","type":"int","value":0}],"gid":12,"width":90,"height":31},{"id":78,"x":-565,"y":120,"visible":true,"properties":[{"name":"layer","type":"int","value":1},{"name":"resource_index","type":"int","value":75},{"name":"u","type":"string","value":"edU"},{"name":"no","type":"int","value":0},{"name":"zM","type":"int","value":0}],"gid":11,"width":47,"height":25},{"id":79,"x":-1080,"y":240,"visible":true,"properties":[{"name":"layer","type":"int","value":1},{"name":"resource_index","type":"int","value":76},{"name":"u","type":"string","value":"bsc"},{"name":"no","type":"int","value":0},{"name":"zM","type":"int","value":0}],"gid":6,"width":90,"height":60},{"id":80,"x":-810,"y":-2280,"visible":true,"properties":[{"name":"layer","type":"int","value":1},{"name":"resource_index","type":"int","value":77},{"name":"u","type":"string","value":"enH0"},{"name":"no","type":"int","value":0},{"name":"zM","type":"int","value":163}],"gid":9,"width":90,"height":24},{"id":81,"x":-111,"y":-879,"visible":true,"properties":[{"name":"layer","type":"int","value":1},{"name":"resource_index","type":"int","value":78},{"name":"u","type":"string","value":"edD"},{"name":"no","type":"int","value":0},{"name":"zM","type":"int","value":92}],"gid":13,"width":40,"height":21},{"id":82,"x":-1170,"y":-1740,"visible":true,"properties":[{"name":"layer","type":"int","value":1},{"name":"resource_index","type":"int","value":79},{"name":"u","type":"string","value":"enV1"},{"name":"no","type":"int","value":0},{"name":"zM","type":"int","value":146}],"gid":10,"width":20,"height":60},{"id":83,"x":-90,"y":-900,"visible":true,"properties":[{"name":"layer","type":"int","value":1},{"name":"resource_index","type":"int","value":80},{"name":"u","type":"string","value":"bsc"},{"name":"no","type":"int","value":0},{"name":"zM","type":"int","value":92}],"gid":6,"width":90,"height":60},{"id":84,"x":-925,"y":-60,"visible":true,"properties":[{"name":"layer","type":"int","value":1},{"name":"resource_index","type":"int","value":81},{"name":"u","type":"string","value":"edU"},{"name":"no","type":"int","value":0},{"name":"zM","type":"int","value":13}],"gid":11,"width":47,"height":25},{"id":85,"x":-1641,"y":-759,"visible":true,"properties":[{"name":"layer","type":"int","value":1},{"name":"resource_index","type":"int","value":82},{"name":"u","type":"string","value":"edD"},{"name":"no","type":"int","value":0},{"name":"zM","type":"int","value":79}],"gid":13,"width":40,"height":21},{"id":86,"x":339,"y":-639,"visible":true,"properties":[{"name":"layer","type":"int","value":1},{"name":"resource_index","type":"int","value":83},{"name":"u","type":"string","value":"edD"},{"name":"no","type":"int","value":0},{"name":"zM","type":"int","value":71}],"gid":13,"width":40,"height":21},{"id":87,"x":-561,"y":-339,"visible":true,"properties":[{"name":"layer","type":"int","value":1},{"name":"resource_index","type":"int","value":84},{"name":"u","type":"string","value":"edD"},{"name":"no","type":"int","value":0},{"name":"zM","type":"int","value":55}],"gid":13,"width":40,"height":21},{"id":88,"x":-651,"y":-159,"visible":true,"properties":[{"name":"layer","type":"int","value":1},{"name":"resource_index","type":"int","value":85},{"name":"u","type":"string","value":"edD"},{"name":"no","type":"int","value":0},{"name":"zM","type":"int","value":43}],"gid":13,"width":40,"height":21},{"id":89,"x":-1440,"y":-780,"visible":true,"properties":[{"name":"layer","type":"int","value":1},{"name":"resource_index","type":"int","value":86},{"name":"u","type":"string","value":"bsc"},{"name":"no","type":"int","value":0},{"name":"zM","type":"int","value":79}],"gid":6,"width":90,"height":60},{"id":90,"x":-810,"y":120,"visible":true,"properties":[{"name":"layer","type":"int","value":1},{"name":"resource_index","type":"int","value":87},{"name":"u","type":"string","value":"bsc"},{"name":"no","type":"int","value":0},{"name":"zM","type":"int","value":0}],"gid":6,"width":90,"height":60},{"id":91,"x":-205,"y":-1740,"visible":true,"properties":[{"name":"layer","type":"int","value":1},{"name":"resource_index","type":"int","value":88},{"name":"u","type":"string","value":"edU"},{"name":"no","type":"int","value":0},{"name":"zM","type":"int","value":147}],"gid":11,"width":47,"height":25},{"id":92,"x":-565,"y":-1440,"visible":true,"properties":[{"name":"layer","type":"int","value":1},{"name":"resource_index","type":"int","value":89},{"name":"u","type":"string","value":"edU"},{"name":"no","type":"int","value":0},{"name":"zM","type":"int","value":126}],"gid":11,"width":47,"height":25},{"id":93,"x":-1530,"y":-1260,"visible":true,"properties":[{"name":"layer","type":"int","value":1},{"name":"resource_index","type":"int","value":90},{"name":"u","type":"string","value":"bsc"},{"name":"no","type":"int","value":2},{"name":"zM","type":"int","value":122}],"gid":7,"width":90,"height":60},{"id":94,"x":-1620,"y":-780,"visible":true,"properties":[{"name":"layer","type":"int","value":1},{"name":"resource_index","type":"int","value":91},{"name":"u","type":"string","value":"bsc"},{"name":"no","type":"int","value":2},{"name":"zM","type":"int","value":79}],"gid":7,"width":90,"height":60},{"id":95,"x":-810,"y":60,"visible":true,"properties":[{"name":"layer","type":"int","value":1},{"name":"resource_index","type":"int","value":92},{"name":"u","type":"string","value":"enH0"},{"name":"no","type":"int","value":0},{"name":"zM","type":"int","value":0}],"gid":9,"width":90,"height":24},{"id":96,"x":-90,"y":-869,"visible":true,"properties":[{"name":"layer","type":"int","value":1},{"name":"resource_index","type":"int","value":93},{"name":"u","type":"string","value":"enH1"},{"name":"no","type":"int","value":0},{"name":"zM","type":"int","value":92}],"gid":12,"width":90,"height":31},{"id":97,"x":-810,"y":60,"visible":true,"properties":[{"name":"layer","type":"int","value":1},{"name":"resource_index","type":"int","value":94},{"name":"u","type":"string","value":"enV1"},{"name":"no","type":"int","value":0},{"name":"zM","type":"int","value":0}],"gid":10,"width":20,"height":60},{"id":98,"x":-1260,"y":240,"visible":true,"properties":[{"name":"layer","type":"int","value":1},{"name":"resource_index","type":"int","value":95},{"name":"u","type":"string","value":"bsc"},{"name":"no","type":"int","value":1},{"name":"zM","type":"int","value":0}],"gid":8,"width":90,"height":60},{"id":99,"x":-1620,"y":-840,"visible":true,"properties":[{"name":"layer","type":"int","value":1},{"name":"resource_index","type":"int","value":96},{"name":"u","type":"string","value":"enH0"},{"name":"no","type":"int","value":0},{"name":"zM","type":"int","value":79}],"gid":9,"width":90,"height":24},{"id":100,"x":-270,"y":-1658,"visible":true,"properties":[{"name":"layer","type":"int","value":1},{"name":"resource_index","type":"int","value":97},{"name":"u","type":"string","value":"slRD"},{"name":"no","type":"int","value":0},{"name":"zM","type":"int","value":147}],"gid":14,"width":90,"height":82},{"id":101,"x":-810,"y":300,"visible":true,"properties":[{"name":"layer","type":"int","value":1},{"name":"resource_index","type":"int","value":98},{"name":"u","type":"string","value":"bsc"},{"name":"no","type":"int","value":0},{"name":"zM","type":"int","value":0}],"gid":6,"width":90,"height":60},{"id":102,"x":-655,"y":-180,"visible":true,"properties":[{"name":"layer","type":"int","value":1},{"name":"resource_index","type":"int","value":99},{"name":"u","type":"string","value":"edU"},{"name":"no","type":"int","value":0},{"name":"zM","type":"int","value":43}],"gid":11,"width":47,"height":25},{"id":103,"x":-810,"y":360,"visible":true,"properties":[{"name":"layer","type":"int","value":1},{"name":"resource_index","type":"int","value":100},{"name":"u","type":"string","value":"bsc"},{"name":"no","type":"int","value":1},{"name":"zM","type":"int","value":0}],"gid":8,"width":90,"height":60},{"id":104,"x":-1260,"y":420,"visible":true,"properties":[{"name":"layer","type":"int","value":1},{"name":"resource_index","type":"int","value":101},{"name":"u","type":"string","value":"bsc"},{"name":"no","type":"int","value":1},{"name":"zM","type":"int","value":0}],"gid":8,"width":90,"height":60},{"id":105,"x":-900,"y":360,"visible":true,"properties":[{"name":"layer","type":"int","value":1},{"name":"resource_index","type":"int","value":102},{"name":"u","type":"string","value":"bsc"},{"name":"no","type":"int","value":2},{"name":"zM","type":"int","value":0}],"gid":7,"width":90,"height":60},{"id":106,"x":-900,"y":240,"visible":true,"properties":[{"name":"layer","type":"int","value":1},{"name":"resource_index","type":"int","value":103},{"name":"u","type":"string","value":"bsc"},{"name":"no","type":"int","value":1},{"name":"zM","type":"int","value":0}],"gid":8,"width":90,"height":60},{"id":107,"x":-990,"y":360,"visible":true,"properties":[{"name":"layer","type":"int","value":1},{"name":"resource_index","type":"int","value":104},{"name":"u","type":"string","value":"bsc"},{"name":"no","type":"int","value":0},{"name":"zM","type":"int","value":0}],"gid":6,"width":90,"height":60},{"id":108,"x":-990,"y":300,"visible":true,"properties":[{"name":"layer","type":"int","value":1},{"name":"resource_index","type":"int","value":105},{"name":"u","type":"string","value":"bsc"},{"name":"no","type":"int","value":2},{"name":"zM","type":"int","value":0}],"gid":7,"width":90,"height":60},{"id":109,"x":-1080,"y":360,"visible":true,"properties":[{"name":"layer","type":"int","value":1},{"name":"resource_index","type":"int","value":106},{"name":"u","type":"string","value":"bsc"},{"name":"no","type":"int","value":1},{"name":"zM","type":"int","value":0}],"gid":8,"width":90,"height":60},{"id":110,"x":-1080,"y":300,"visible":true,"properties":[{"name":"layer","type":"int","value":1},{"name":"resource_index","type":"int","value":107},{"name":"u","type":"string","value":"bsc"},{"name":"no","type":"int","value":0},{"name":"zM","type":"int","value":0}],"gid":6,"width":90,"height":60},{"id":111,"x":-1170,"y":360,"visible":true,"properties":[{"name":"layer","type":"int","value":1},{"name":"resource_index","type":"int","value":108},{"name":"u","type":"string","value":"bsc"},{"name":"no","type":"int","value":2},{"name":"zM","type":"int","value":0}],"gid":7,"width":90,"height":60},{"id":112,"x":-1350,"y":240,"visible":true,"properties":[{"name":"layer","type":"int","value":1},{"name":"resource_index","type":"int","value":109},{"name":"u","type":"string","value":"bsc"},{"name":"no","type":"int","value":0},{"name":"zM","type":"int","value":0}],"gid":6,"width":90,"height":60},{"id":113,"x":-1350,"y":360,"visible":true,"properties":[{"name":"layer","type":"int","value":1},{"name":"resource_index","type":"int","value":110},{"name":"u","type":"string","value":"bsc"},{"name":"no","type":"int","value":1},{"name":"zM","type":"int","value":0}],"gid":8,"width":90,"height":60},{"id":114,"x":-1530,"y":420,"visible":true,"properties":[{"name":"layer","type":"int","value":1},{"name":"resource_index","type":"int","value":111},{"name":"u","type":"string","value":"bsc"},{"name":"no","type":"int","value":1},{"name":"zM","type":"int","value":0}],"gid":8,"width":90,"height":60},{"id":115,"x":-1620,"y":420,"visible":true,"properties":[{"name":"layer","type":"int","value":1},{"name":"resource_index","type":"int","value":112},{"name":"u","type":"string","value":"bsc"},{"name":"no","type":"int","value":2},{"name":"zM","type":"int","value":0}],"gid":7,"width":90,"height":60},{"id":116,"x":-1260,"y":360,"visible":true,"properties":[{"name":"layer","type":"int","value":1},{"name":"resource_index","type":"int","value":113},{"name":"u","type":"string","value":"bsc"},{"name":"no","type":"int","value":0},{"name":"zM","type":"int","value":0}],"gid":6,"width":90,"height":60},{"id":117,"x":-810,"y":420,"visible":true,"properties":[{"name":"layer","type":"int","value":1},{"name":"resource_index","type":"int","value":114},{"name":"u","type":"string","value":"bsc"},{"name":"no","type":"int","value":2},{"name":"zM","type":"int","value":0}],"gid":7,"width":90,"height":60},{"id":118,"x":-1170,"y":420,"visible":true,"properties":[{"name":"layer","type":"int","value":1},{"name":"resource_index","type":"int","value":115},{"name":"u","type":"string","value":"bsc"},{"name":"no","type":"int","value":0},{"name":"zM","type":"int","value":0}],"gid":6,"width":90,"height":60},{"id":119,"x":-900,"y":420,"visible":true,"properties":[{"name":"layer","type":"int","value":1},{"name":"resource_index","type":"int","value":116},{"name":"u","type":"string","value":"bsc"},{"name":"no","type":"int","value":0},{"name":"zM","type":"int","value":0}],"gid":6,"width":90,"height":60},{"id":120,"x":-1350,"y":300,"visible":true,"properties":[{"name":"layer","type":"int","value":1},{"name":"resource_index","type":"int","value":117},{"name":"u","type":"string","value":"bsc"},{"name":"no","type":"int","value":0},{"name":"zM","type":"int","value":0}],"gid":6,"width":90,"height":60},{"id":121,"x":-1260,"y":120,"visible":true,"properties":[{"name":"layer","type":"int","value":1},{"name":"resource_index","type":"int","value":118},{"name":"u","type":"string","value":"enH0"},{"name":"no","type":"int","value":0},{"name":"zM","type":"int","value":0}],"gid":9,"width":90,"height":24},{"id":122,"x":-1260,"y":300,"visible":true,"properties":[{"name":"layer","type":"int","value":1},{"name":"resource_index","type":"int","value":119},{"name":"u","type":"string","value":"bsc"},{"name":"no","type":"int","value":2},{"name":"zM","type":"int","value":0}],"gid":7,"width":90,"height":60},{"id":123,"x":-1440,"y":180,"visible":true,"properties":[{"name":"layer","type":"int","value":1},{"name":"resource_index","type":"int","value":120},{"name":"u","type":"string","value":"bsc"},{"name":"no","type":"int","value":1},{"name":"zM","type":"int","value":0}],"gid":8,"width":90,"height":60},{"id":124,"x":-1170,"y":300,"visible":true,"properties":[{"name":"layer","type":"int","value":1},{"name":"resource_index","type":"int","value":121},{"name":"u","type":"string","value":"bsc"},{"name":"no","type":"int","value":1},{"name":"zM","type":"int","value":0}],"gid":8,"width":90,"height":60},{"id":125,"x":-1260,"y":180,"visible":true,"properties":[{"name":"layer","type":"int","value":1},{"name":"resource_index","type":"int","value":122},{"name":"u","type":"string","value":"bsc"},{"name":"no","type":"int","value":1},{"name":"zM","type":"int","value":0}],"gid":8,"width":90,"height":60},{"id":126,"x":-1440,"y":300,"visible":true,"properties":[{"name":"layer","type":"int","value":1},{"name":"resource_index","type":"int","value":123},{"name":"u","type":"string","value":"bsc"},{"name":"no","type":"int","value":1},{"name":"zM","type":"int","value":0}],"gid":8,"width":90,"height":60},{"id":127,"x":360,"y":-1920,"visible":true,"properties":[{"name":"layer","type":"int","value":1},{"name":"resource_index","type":"int","value":124},{"name":"u","type":"string","value":"enV1"},{"name":"no","type":"int","value":0},{"name":"zM","type":"int","value":159}],"gid":10,"width":20,"height":60},{"id":128,"x":-1440,"y":420,"visible":true,"properties":[{"name":"layer","type":"int","value":1},{"name":"resource_index","type":"int","value":125},{"name":"u","type":"string","value":"bsc"},{"name":"no","type":"int","value":0},{"name":"zM","type":"int","value":0}],"gid":6,"width":90,"height":60},{"id":129,"x":-1620,"y":300,"visible":true,"properties":[{"name":"layer","type":"int","value":1},{"name":"resource_index","type":"int","value":126},{"name":"u","type":"string","value":"bsc"},{"name":"no","type":"int","value":0},{"name":"zM","type":"int","value":0}],"gid":6,"width":90,"height":60},{"id":130,"x":-1440,"y":360,"visible":true,"properties":[{"name":"layer","type":"int","value":1},{"name":"resource_index","type":"int","value":127},{"name":"u","type":"string","value":"bsc"},{"name":"no","type":"int","value":2},{"name":"zM","type":"int","value":0}],"gid":7,"width":90,"height":60},{"id":131,"x":-1170,"y":120,"visible":true,"properties":[{"name":"layer","type":"int","value":1},{"name":"resource_index","type":"int","value":128},{"name":"u","type":"string","value":"enH0"},{"name":"no","type":"int","value":0},{"name":"zM","type":"int","value":0}],"gid":9,"width":90,"height":24},{"id":132,"x":-1530,"y":360,"visible":true,"properties":[{"name":"layer","type":"int","value":1},{"name":"resource_index","type":"int","value":129},{"name":"u","type":"string","value":"bsc"},{"name":"no","type":"int","value":0},{"name":"zM","type":"int","value":0}],"gid":6,"width":90,"height":60},{"id":133,"x":-205,"y":-960,"visible":true,"properties":[{"name":"layer","type":"int","value":1},{"name":"resource_index","type":"int","value":130},{"name":"u","type":"string","value":"edU"},{"name":"no","type":"int","value":0},{"name":"zM","type":"int","value":92}],"gid":11,"width":47,"height":25},{"id":134,"x":-1620,"y":-749,"visible":true,"properties":[{"name":"layer","type":"int","value":1},{"name":"resource_index","type":"int","value":131},{"name":"u","type":"string","value":"enH1"},{"name":"no","type":"int","value":0},{"name":"zM","type":"int","value":79}],"gid":12,"width":90,"height":31},{"id":135,"x":-655,"y":-1440,"visible":true,"properties":[{"name":"layer","type":"int","value":1},{"name":"resource_index","type":"int","value":132},{"name":"u","type":"string","value":"edU"},{"name":"no","type":"int","value":0},{"name":"zM","type":"int","value":126}],"gid":11,"width":47,"height":25},{"id":136,"x":-630,"y":-1440,"visible":true,"properties":[{"name":"layer","type":"int","value":1},{"name":"resource_index","type":"int","value":133},{"name":"u","type":"string","value":"enH0"},{"name":"no","type":"int","value":0},{"name":"zM","type":"int","value":126}],"gid":9,"width":90,"height":24},{"id":137,"x":270,"y":-660,"visible":true,"properties":[{"name":"layer","type":"int","value":1},{"name":"resource_index","type":"int","value":134},{"name":"u","type":"string","value":"enH0"},{"name":"no","type":"int","value":0},{"name":"zM","type":"int","value":71}],"gid":9,"width":90,"height":24},{"id":138,"x":-381,"y":-1719,"visible":true,"properties":[{"name":"layer","type":"int","value":1},{"name":"resource_index","type":"int","value":135},{"name":"u","type":"string","value":"edD"},{"name":"no","type":"int","value":0},{"name":"zM","type":"int","value":147}],"gid":13,"width":40,"height":21},{"id":139,"x":-1350,"y":180,"visible":true,"properties":[{"name":"layer","type":"int","value":1},{"name":"resource_index","type":"int","value":136},{"name":"u","type":"string","value":"bsc"},{"name":"no","type":"int","value":2},{"name":"zM","type":"int","value":0}],"gid":7,"width":90,"height":60},{"id":140,"x":-1530,"y":-749,"visible":true,"properties":[{"name":"layer","type":"int","value":1},{"name":"resource_index","type":"int","value":137},{"name":"u","type":"string","value":"enH1"},{"name":"no","type":"int","value":0},{"name":"zM","type":"int","value":79}],"gid":12,"width":90,"height":31},{"id":141,"x":-565,"y":-180,"visible":true,"properties":[{"name":"layer","type":"int","value":1},{"name":"resource_index","type":"int","value":138},{"name":"u","type":"string","value":"edU"},{"name":"no","type":"int","value":0},{"name":"zM","type":"int","value":31}],"gid":11,"width":47,"height":25},{"id":142,"x":-90,"y":-960,"visible":true,"properties":[{"name":"layer","type":"int","value":1},{"name":"resource_index","type":"int","value":139},{"name":"u","type":"string","value":"enH0"},{"name":"no","type":"int","value":0},{"name":"zM","type":"int","value":92}],"gid":9,"width":90,"height":24},{"id":143,"x":-630,"y":-1409,"visible":true,"properties":[{"name":"layer","type":"int","value":1},{"name":"resource_index","type":"int","value":140},{"name":"u","type":"string","value":"enH1"},{"name":"no","type":"int","value":0},{"name":"zM","type":"int","value":126}],"gid":12,"width":90,"height":31},{"id":144,"x":-110,"y":-900,"visible":true,"properties":[{"name":"layer","type":"int","value":1},{"name":"resource_index","type":"int","value":141},{"name":"u","type":"string","value":"enV0"},{"name":"no","type":"int","value":0},{"name":"zM","type":"int","value":92}],"gid":15,"width":20,"height":60},{"id":145,"x":-651,"y":-1419,"visible":true,"properties":[{"name":"layer","type":"int","value":1},{"name":"resource_index","type":"int","value":142},{"name":"u","type":"string","value":"edD"},{"name":"no","type":"int","value":0},{"name":"zM","type":"int","value":126}],"gid":13,"width":40,"height":21},{"id":146,"x":-1530,"y":300,"visible":true,"properties":[{"name":"layer","type":"int","value":1},{"name":"resource_index","type":"int","value":143},{"name":"u","type":"string","value":"bsc"},{"name":"no","type":"int","value":2},{"name":"zM","type":"int","value":0}],"gid":7,"width":90,"height":60},{"id":147,"x":-1440,"y":240,"visible":true,"properties":[{"name":"layer","type":"int","value":1},{"name":"resource_index","type":"int","value":144},{"name":"u","type":"string","value":"bsc"},{"name":"no","type":"int","value":2},{"name":"zM","type":"int","value":0}],"gid":7,"width":90,"height":60},{"id":148,"x":-1620,"y":60,"visible":true,"properties":[{"name":"layer","type":"int","value":1},{"name":"resource_index","type":"int","value":145},{"name":"u","type":"string","value":"bsc"},{"name":"no","type":"int","value":1},{"name":"zM","type":"int","value":0}],"gid":8,"width":90,"height":60},{"id":149,"x":-1620,"y":360,"visible":true,"properties":[{"name":"layer","type":"int","value":1},{"name":"resource_index","type":"int","value":146},{"name":"u","type":"string","value":"bsc"},{"name":"no","type":"int","value":1},{"name":"zM","type":"int","value":0}],"gid":8,"width":90,"height":60},{"id":150,"x":-1620,"y":180,"visible":true,"properties":[{"name":"layer","type":"int","value":1},{"name":"resource_index","type":"int","value":147},{"name":"u","type":"string","value":"bsc"},{"name":"no","type":"int","value":1},{"name":"zM","type":"int","value":0}],"gid":8,"width":90,"height":60},{"id":151,"x":-1641,"y":-459,"visible":true,"properties":[{"name":"layer","type":"int","value":1},{"name":"resource_index","type":"int","value":148},{"name":"u","type":"string","value":"edD"},{"name":"no","type":"int","value":0},{"name":"zM","type":"int","value":63}],"gid":13,"width":40,"height":21},{"id":152,"x":159,"y":-1599,"visible":true,"properties":[{"name":"layer","type":"int","value":1},{"name":"resource_index","type":"int","value":149},{"name":"u","type":"string","value":"edD"},{"name":"no","type":"int","value":0},{"name":"zM","type":"int","value":134}],"gid":13,"width":40,"height":21},{"id":153,"x":-1710,"y":300,"visible":true,"properties":[{"name":"layer","type":"int","value":1},{"name":"resource_index","type":"int","value":150},{"name":"u","type":"string","value":"bsc"},{"name":"no","type":"int","value":1},{"name":"zM","type":"int","value":0}],"gid":8,"width":90,"height":60},{"id":154,"x":-990,"y":120,"visible":true,"properties":[{"name":"layer","type":"int","value":1},{"name":"resource_index","type":"int","value":151},{"name":"u","type":"string","value":"enH0"},{"name":"no","type":"int","value":0},{"name":"zM","type":"int","value":0}],"gid":9,"width":90,"height":24},{"id":155,"x":-1530,"y":240,"visible":true,"properties":[{"name":"layer","type":"int","value":1},{"name":"resource_index","type":"int","value":152},{"name":"u","type":"string","value":"bsc"},{"name":"no","type":"int","value":1},{"name":"zM","type":"int","value":0}],"gid":8,"width":90,"height":60},{"id":156,"x":-1645,"y":-480,"visible":true,"properties":[{"name":"layer","type":"int","value":1},{"name":"resource_index","type":"int","value":153},{"name":"u","type":"string","value":"edU"},{"name":"no","type":"int","value":0},{"name":"zM","type":"int","value":63}],"gid":11,"width":47,"height":25},{"id":157,"x":-1530,"y":180,"visible":true,"properties":[{"name":"layer","type":"int","value":1},{"name":"resource_index","type":"int","value":154},{"name":"u","type":"string","value":"bsc"},{"name":"no","type":"int","value":0},{"name":"zM","type":"int","value":0}],"gid":6,"width":90,"height":60},{"id":158,"x":-1620,"y":240,"visible":true,"properties":[{"name":"layer","type":"int","value":1},{"name":"resource_index","type":"int","value":155},{"name":"u","type":"string","value":"bsc"},{"name":"no","type":"int","value":2},{"name":"zM","type":"int","value":0}],"gid":7,"width":90,"height":60},{"id":159,"x":-1620,"y":0,"visible":true,"properties":[{"name":"layer","type":"int","value":1},{"name":"resource_index","type":"int","value":156},{"name":"u","type":"string","value":"bsc"},{"name":"no","type":"int","value":2},{"name":"zM","type":"int","value":0}],"gid":7,"width":90,"height":60},{"id":160,"x":-900,"y":60,"visible":true,"properties":[{"name":"layer","type":"int","value":1},{"name":"resource_index","type":"int","value":157},{"name":"u","type":"string","value":"bsc"},{"name":"no","type":"int","value":0},{"name":"zM","type":"int","value":0}],"gid":6,"width":90,"height":60},{"id":161,"x":-1080,"y":120,"visible":true,"properties":[{"name":"layer","type":"int","value":1},{"name":"resource_index","type":"int","value":158},{"name":"u","type":"string","value":"enH0"},{"name":"no","type":"int","value":0},{"name":"zM","type":"int","value":0}],"gid":9,"width":90,"height":24},{"id":162,"x":-1620,"y":120,"visible":true,"properties":[{"name":"layer","type":"int","value":1},{"name":"resource_index","type":"int","value":159},{"name":"u","type":"string","value":"bsc"},{"name":"no","type":"int","value":0},{"name":"zM","type":"int","value":0}],"gid":6,"width":90,"height":60},{"id":163,"x":155,"y":-1620,"visible":true,"properties":[{"name":"layer","type":"int","value":1},{"name":"resource_index","type":"int","value":160},{"name":"u","type":"string","value":"edU"},{"name":"no","type":"int","value":0},{"name":"zM","type":"int","value":134}],"gid":11,"width":47,"height":25},{"id":164,"x":-1710,"y":-120,"visible":true,"properties":[{"name":"layer","type":"int","value":1},{"name":"resource_index","type":"int","value":161},{"name":"u","type":"string","value":"enH0"},{"name":"no","type":"int","value":0},{"name":"zM","type":"int","value":0}],"gid":9,"width":90,"height":24},{"id":165,"x":-21,"y":-1539,"visible":true,"properties":[{"name":"layer","type":"int","value":1},{"name":"resource_index","type":"int","value":162},{"name":"u","type":"string","value":"edD"},{"name":"no","type":"int","value":0},{"name":"zM","type":"int","value":134}],"gid":13,"width":40,"height":21},{"id":166,"x":-1710,"y":240,"visible":true,"properties":[{"name":"layer","type":"int","value":1},{"name":"resource_index","type":"int","value":163},{"name":"u","type":"string","value":"bsc"},{"name":"no","type":"int","value":0},{"name":"zM","type":"int","value":0}],"gid":6,"width":90,"height":60},{"id":167,"x":-1710,"y":0,"visible":true,"properties":[{"name":"layer","type":"int","value":1},{"name":"resource_index","type":"int","value":164},{"name":"u","type":"string","value":"bsc"},{"name":"no","type":"int","value":2},{"name":"zM","type":"int","value":0}],"gid":7,"width":90,"height":60},{"id":168,"x":-1710,"y":-60,"visible":true,"properties":[{"name":"layer","type":"int","value":1},{"name":"resource_index","type":"int","value":165},{"name":"u","type":"string","value":"bsc"},{"name":"no","type":"int","value":1},{"name":"zM","type":"int","value":0}],"gid":8,"width":90,"height":60},{"id":169,"x":0,"y":-1529,"visible":true,"properties":[{"name":"layer","type":"int","value":1},{"name":"resource_index","type":"int","value":166},{"name":"u","type":"string","value":"enH1"},{"name":"no","type":"int","value":0},{"name":"zM","type":"int","value":134}],"gid":12,"width":90,"height":31},{"id":170,"x":90,"y":-1538,"visible":true,"properties":[{"name":"layer","type":"int","value":1},{"name":"resource_index","type":"int","value":167},{"name":"u","type":"string","value":"slRD"},{"name":"no","type":"int","value":0},{"name":"zM","type":"int","value":134}],"gid":14,"width":90,"height":82},{"id":171,"x":-1620,"y":-120,"visible":true,"properties":[{"name":"layer","type":"int","value":1},{"name":"resource_index","type":"int","value":168},{"name":"u","type":"string","value":"enH0"},{"name":"no","type":"int","value":0},{"name":"zM","type":"int","value":0}],"gid":9,"width":90,"height":24},{"id":172,"x":-1710,"y":180,"visible":true,"properties":[{"name":"layer","type":"int","value":1},{"name":"resource_index","type":"int","value":169},{"name":"u","type":"string","value":"bsc"},{"name":"no","type":"int","value":2},{"name":"zM","type":"int","value":0}],"gid":7,"width":90,"height":60},{"id":173,"x":-1730,"y":360,"visible":true,"properties":[{"name":"layer","type":"int","value":1},{"name":"resource_index","type":"int","value":170},{"name":"u","type":"string","value":"enV0"},{"name":"no","type":"int","value":0},{"name":"zM","type":"int","value":0}],"gid":15,"width":20,"height":60},{"id":174,"x":-1730,"y":300,"visible":true,"properties":[{"name":"layer","type":"int","value":1},{"name":"resource_index","type":"int","value":171},{"name":"u","type":"string","value":"enV0"},{"name":"no","type":"int","value":0},{"name":"zM","type":"int","value":0}],"gid":15,"width":20,"height":60},{"id":175,"x":-1710,"y":60,"visible":true,"properties":[{"name":"layer","type":"int","value":1},{"name":"resource_index","type":"int","value":172},{"name":"u","type":"string","value":"bsc"},{"name":"no","type":"int","value":0},{"name":"zM","type":"int","value":0}],"gid":6,"width":90,"height":60},{"id":176,"x":-1710,"y":420,"visible":true,"properties":[{"name":"layer","type":"int","value":1},{"name":"resource_index","type":"int","value":173},{"name":"u","type":"string","value":"bsc"},{"name":"no","type":"int","value":0},{"name":"zM","type":"int","value":0}],"gid":6,"width":90,"height":60},{"id":177,"x":-1730,"y":0,"visible":true,"properties":[{"name":"layer","type":"int","value":1},{"name":"resource_index","type":"int","value":174},{"name":"u","type":"string","value":"enV0"},{"name":"no","type":"int","value":0},{"name":"zM","type":"int","value":0}],"gid":15,"width":20,"height":60},{"id":178,"x":-1710,"y":451,"visible":true,"properties":[{"name":"layer","type":"int","value":1},{"name":"resource_index","type":"int","value":175},{"name":"u","type":"string","value":"enH1"},{"name":"no","type":"int","value":0},{"name":"zM","type":"int","value":0}],"gid":12,"width":90,"height":31},{"id":179,"x":-115,"y":-1620,"visible":true,"properties":[{"name":"layer","type":"int","value":1},{"name":"resource_index","type":"int","value":176},{"name":"u","type":"string","value":"edU"},{"name":"no","type":"int","value":0},{"name":"zM","type":"int","value":134}],"gid":11,"width":47,"height":25},{"id":180,"x":-1555,"y":-120,"visible":true,"properties":[{"name":"layer","type":"int","value":1},{"name":"resource_index","type":"int","value":177},{"name":"u","type":"string","value":"edU"},{"name":"no","type":"int","value":0},{"name":"zM","type":"int","value":0}],"gid":11,"width":47,"height":25},{"id":181,"x":-1710,"y":360,"visible":true,"properties":[{"name":"layer","type":"int","value":1},{"name":"resource_index","type":"int","value":178},{"name":"u","type":"string","value":"bsc"},{"name":"no","type":"int","value":2},{"name":"zM","type":"int","value":0}],"gid":7,"width":90,"height":60},{"id":182,"x":-1730,"y":420,"visible":true,"properties":[{"name":"layer","type":"int","value":1},{"name":"resource_index","type":"int","value":179},{"name":"u","type":"string","value":"enV0"},{"name":"no","type":"int","value":0},{"name":"zM","type":"int","value":0}],"gid":15,"width":20,"height":60},{"id":183,"x":-1440,"y":120,"visible":true,"properties":[{"name":"layer","type":"int","value":1},{"name":"resource_index","type":"int","value":180},{"name":"u","type":"string","value":"enH0"},{"name":"no","type":"int","value":0},{"name":"zM","type":"int","value":0}],"gid":9,"width":90,"height":24},{"id":184,"x":-90,"y":-1537,"visible":true,"properties":[{"name":"layer","type":"int","value":1},{"name":"resource_index","type":"int","value":181},{"name":"u","type":"string","value":"slLD"},{"name":"no","type":"int","value":0},{"name":"zM","type":"int","value":134}],"gid":16,"width":90,"height":83},{"id":185,"x":-1440,"y":-337,"visible":true,"properties":[{"name":"layer","type":"int","value":1},{"name":"resource_index","type":"int","value":182},{"name":"u","type":"string","value":"slLD"},{"name":"no","type":"int","value":0},{"name":"zM","type":"int","value":43}],"gid":16,"width":90,"height":83},{"id":186,"x":-1350,"y":-360,"visible":true,"properties":[{"name":"layer","type":"int","value":1},{"name":"resource_index","type":"int","value":183},{"name":"u","type":"string","value":"bsc"},{"name":"no","type":"int","value":2},{"name":"zM","type":"int","value":43}],"gid":7,"width":90,"height":60},{"id":187,"x":-990,"y":180,"visible":true,"properties":[{"name":"layer","type":"int","value":1},{"name":"resource_index","type":"int","value":184},{"name":"u","type":"string","value":"bsc"},{"name":"no","type":"int","value":1},{"name":"zM","type":"int","value":0}],"gid":8,"width":90,"height":60},{"id":188,"x":-920,"y":60,"visible":true,"properties":[{"name":"layer","type":"int","value":1},{"name":"resource_index","type":"int","value":185},{"name":"u","type":"string","value":"enV0"},{"name":"no","type":"int","value":0},{"name":"zM","type":"int","value":0}],"gid":15,"width":20,"height":60},{"id":189,"x":-1370,"y":-360,"visible":true,"properties":[{"name":"layer","type":"int","value":1},{"name":"resource_index","type":"int","value":186},{"name":"u","type":"string","value":"enV0"},{"name":"no","type":"int","value":0},{"name":"zM","type":"int","value":43}],"gid":15,"width":20,"height":60},{"id":190,"x":-1350,"y":-420,"visible":true,"properties":[{"name":"layer","type":"int","value":1},{"name":"resource_index","type":"int","value":187},{"name":"u","type":"string","value":"enH0"},{"name":"no","type":"int","value":0},{"name":"zM","type":"int","value":43}],"gid":9,"width":90,"height":24},{"id":191,"x":-180,"y":-877,"visible":true,"properties":[{"name":"layer","type":"int","value":1},{"name":"resource_index","type":"int","value":188},{"name":"u","type":"string","value":"slLD"},{"name":"no","type":"int","value":0},{"name":"zM","type":"int","value":92}],"gid":16,"width":90,"height":83},{"id":192,"x":-201,"y":-939,"visible":true,"properties":[{"name":"layer","type":"int","value":1},{"name":"resource_index","type":"int","value":189},{"name":"u","type":"string","value":"edD"},{"name":"no","type":"int","value":0},{"name":"zM","type":"int","value":92}],"gid":13,"width":40,"height":21},{"id":193,"x":-1350,"y":-277,"visible":true,"properties":[{"name":"layer","type":"int","value":1},{"name":"resource_index","type":"int","value":190},{"name":"u","type":"string","value":"slLD"},{"name":"no","type":"int","value":0},{"name":"zM","type":"int","value":43}],"gid":16,"width":90,"height":83},{"id":194,"x":-1371,"y":-339,"visible":true,"properties":[{"name":"layer","type":"int","value":1},{"name":"resource_index","type":"int","value":191},{"name":"u","type":"string","value":"edD"},{"name":"no","type":"int","value":0},{"name":"zM","type":"int","value":43}],"gid":13,"width":40,"height":21},{"id":195,"x":0,"y":-869,"visible":true,"properties":[{"name":"layer","type":"int","value":1},{"name":"resource_index","type":"int","value":192},{"name":"u","type":"string","value":"enH1"},{"name":"no","type":"int","value":0},{"name":"zM","type":"int","value":92}],"gid":12,"width":90,"height":31},{"id":196,"x":-1645,"y":-840,"visible":true,"properties":[{"name":"layer","type":"int","value":1},{"name":"resource_index","type":"int","value":193},{"name":"u","type":"string","value":"edU"},{"name":"no","type":"int","value":0},{"name":"zM","type":"int","value":79}],"gid":11,"width":47,"height":25},{"id":197,"x":-655,"y":0,"visible":true,"properties":[{"name":"layer","type":"int","value":1},{"name":"resource_index","type":"int","value":194},{"name":"u","type":"string","value":"edU"},{"name":"no","type":"int","value":0},{"name":"zM","type":"int","value":9}],"gid":11,"width":47,"height":25},{"id":198,"x":-651,"y":21,"visible":true,"properties":[{"name":"layer","type":"int","value":1},{"name":"resource_index","type":"int","value":195},{"name":"u","type":"string","value":"edD"},{"name":"no","type":"int","value":0},{"name":"zM","type":"int","value":9}],"gid":13,"width":40,"height":21},{"id":199,"x":-565,"y":0,"visible":true,"properties":[{"name":"layer","type":"int","value":1},{"name":"resource_index","type":"int","value":196},{"name":"u","type":"string","value":"edU"},{"name":"no","type":"int","value":0},{"name":"zM","type":"int","value":9}],"gid":11,"width":47,"height":25},{"id":200,"x":-561,"y":21,"visible":true,"properties":[{"name":"layer","type":"int","value":1},{"name":"resource_index","type":"int","value":197},{"name":"u","type":"string","value":"edD"},{"name":"no","type":"int","value":0},{"name":"zM","type":"int","value":9}],"gid":13,"width":40,"height":21},{"id":201,"x":-630,"y":0,"visible":true,"properties":[{"name":"layer","type":"int","value":1},{"name":"resource_index","type":"int","value":198},{"name":"u","type":"string","value":"enH0"},{"name":"no","type":"int","value":0},{"name":"zM","type":"int","value":9}],"gid":9,"width":90,"height":24},{"id":202,"x":-630,"y":31,"visible":true,"properties":[{"name":"layer","type":"int","value":1},{"name":"resource_index","type":"int","value":199},{"name":"u","type":"string","value":"enH1"},{"name":"no","type":"int","value":0},{"name":"zM","type":"int","value":9}],"gid":12,"width":90,"height":31},{"id":203,"x":-655,"y":-60,"visible":true,"properties":[{"name":"layer","type":"int","value":1},{"name":"resource_index","type":"int","value":200},{"name":"u","type":"string","value":"edU"},{"name":"no","type":"int","value":0},{"name":"zM","type":"int","value":14}],"gid":11,"width":47,"height":25},{"id":204,"x":-651,"y":-39,"visible":true,"properties":[{"name":"layer","type":"int","value":1},{"name":"resource_index","type":"int","value":201},{"name":"u","type":"string","value":"edD"},{"name":"no","type":"int","value":0},{"name":"zM","type":"int","value":14}],"gid":13,"width":40,"height":21},{"id":205,"x":-565,"y":-60,"visible":true,"properties":[{"name":"layer","type":"int","value":1},{"name":"resource_index","type":"int","value":202},{"name":"u","type":"string","value":"edU"},{"name":"no","type":"int","value":0},{"name":"zM","type":"int","value":14}],"gid":11,"width":47,"height":25},{"id":206,"x":-561,"y":-39,"visible":true,"properties":[{"name":"layer","type":"int","value":1},{"name":"resource_index","type":"int","value":203},{"name":"u","type":"string","value":"edD"},{"name":"no","type":"int","value":0},{"name":"zM","type":"int","value":14}],"gid":13,"width":40,"height":21},{"id":207,"x":-630,"y":-60,"visible":true,"properties":[{"name":"layer","type":"int","value":1},{"name":"resource_index","type":"int","value":204},{"name":"u","type":"string","value":"enH0"},{"name":"no","type":"int","value":0},{"name":"zM","type":"int","value":14}],"gid":9,"width":90,"height":24},{"id":208,"x":-630,"y":-29,"visible":true,"properties":[{"name":"layer","type":"int","value":1},{"name":"resource_index","type":"int","value":205},{"name":"u","type":"string","value":"enH1"},{"name":"no","type":"int","value":0},{"name":"zM","type":"int","value":14}],"gid":12,"width":90,"height":31},{"id":209,"x":-655,"y":-120,"visible":true,"properties":[{"name":"layer","type":"int","value":1},{"name":"resource_index","type":"int","value":206},{"name":"u","type":"string","value":"edU"},{"name":"no","type":"int","value":0},{"name":"zM","type":"int","value":21}],"gid":11,"width":47,"height":25},{"id":210,"x":-651,"y":-99,"visible":true,"properties":[{"name":"layer","type":"int","value":1},{"name":"resource_index","type":"int","value":207},{"name":"u","type":"string","value":"edD"},{"name":"no","type":"int","value":0},{"name":"zM","type":"int","value":21}],"gid":13,"width":40,"height":21},{"id":211,"x":-565,"y":-120,"visible":true,"properties":[{"name":"layer","type":"int","value":1},{"name":"resource_index","type":"int","value":208},{"name":"u","type":"string","value":"edU"},{"name":"no","type":"int","value":0},{"name":"zM","type":"int","value":21}],"gid":11,"width":47,"height":25},{"id":212,"x":-561,"y":-99,"visible":true,"properties":[{"name":"layer","type":"int","value":1},{"name":"resource_index","type":"int","value":209},{"name":"u","type":"string","value":"edD"},{"name":"no","type":"int","value":0},{"name":"zM","type":"int","value":21}],"gid":13,"width":40,"height":21},{"id":213,"x":-630,"y":-120,"visible":true,"properties":[{"name":"layer","type":"int","value":1},{"name":"resource_index","type":"int","value":210},{"name":"u","type":"string","value":"enH0"},{"name":"no","type":"int","value":0},{"name":"zM","type":"int","value":21}],"gid":9,"width":90,"height":24},{"id":214,"x":-630,"y":-89,"visible":true,"properties":[{"name":"layer","type":"int","value":1},{"name":"resource_index","type":"int","value":211},{"name":"u","type":"string","value":"enH1"},{"name":"no","type":"int","value":0},{"name":"zM","type":"int","value":21}],"gid":12,"width":90,"height":31},{"id":215,"x":-831,"y":-159,"visible":true,"properties":[{"name":"layer","type":"int","value":1},{"name":"resource_index","type":"int","value":212},{"name":"u","type":"string","value":"edD"},{"name":"no","type":"int","value":0},{"name":"zM","type":"int","value":43}],"gid":13,"width":40,"height":21},{"id":216,"x":-810,"y":-149,"visible":true,"properties":[{"name":"layer","type":"int","value":1},{"name":"resource_index","type":"int","value":213},{"name":"u","type":"string","value":"enH1"},{"name":"no","type":"int","value":0},{"name":"zM","type":"int","value":43}],"gid":12,"width":90,"height":31},{"id":217,"x":-720,"y":-149,"visible":true,"properties":[{"name":"layer","type":"int","value":1},{"name":"resource_index","type":"int","value":214},{"name":"u","type":"string","value":"enH1"},{"name":"no","type":"int","value":0},{"name":"zM","type":"int","value":43}],"gid":12,"width":90,"height":31},{"id":218,"x":-720,"y":-180,"visible":true,"properties":[{"name":"layer","type":"int","value":1},{"name":"resource_index","type":"int","value":215},{"name":"u","type":"string","value":"enV1"},{"name":"no","type":"int","value":0},{"name":"zM","type":"int","value":43}],"gid":10,"width":20,"height":60},{"id":219,"x":-1620,"y":-449,"visible":true,"properties":[{"name":"layer","type":"int","value":1},{"name":"resource_index","type":"int","value":216},{"name":"u","type":"string","value":"enH1"},{"name":"no","type":"int","value":0},{"name":"zM","type":"int","value":63}],"gid":12,"width":90,"height":31},{"id":220,"x":-180,"y":-149,"visible":true,"properties":[{"name":"layer","type":"int","value":1},{"name":"resource_index","type":"int","value":217},{"name":"u","type":"string","value":"enH1"},{"name":"no","type":"int","value":0},{"name":"zM","type":"int","value":31}],"gid":12,"width":90,"height":31},{"id":221,"x":-720,"y":-180,"visible":true,"properties":[{"name":"layer","type":"int","value":1},{"name":"resource_index","type":"int","value":218},{"name":"u","type":"string","value":"enH0"},{"name":"no","type":"int","value":0},{"name":"zM","type":"int","value":43}],"gid":9,"width":90,"height":24},{"id":222,"x":-745,"y":-240,"visible":true,"properties":[{"name":"layer","type":"int","value":1},{"name":"resource_index","type":"int","value":219},{"name":"u","type":"string","value":"edU"},{"name":"no","type":"int","value":0},{"name":"zM","type":"int","value":43}],"gid":11,"width":47,"height":25},{"id":223,"x":-450,"y":-180,"visible":true,"properties":[{"name":"layer","type":"int","value":1},{"name":"resource_index","type":"int","value":220},{"name":"u","type":"string","value":"bsc"},{"name":"no","type":"int","value":0},{"name":"zM","type":"int","value":31}],"gid":6,"width":90,"height":60},{"id":224,"x":-450,"y":-240,"visible":true,"properties":[{"name":"layer","type":"int","value":1},{"name":"resource_index","type":"int","value":221},{"name":"u","type":"string","value":"enH0"},{"name":"no","type":"int","value":0},{"name":"zM","type":"int","value":31}],"gid":9,"width":90,"height":24},{"id":225,"x":249,"y":-159,"visible":true,"properties":[{"name":"layer","type":"int","value":1},{"name":"resource_index","type":"int","value":222},{"name":"u","type":"string","value":"edD"},{"name":"no","type":"int","value":0},{"name":"zM","type":"int","value":31}],"gid":13,"width":40,"height":21},{"id":226,"x":0,"y":-300,"visible":true,"properties":[{"name":"layer","type":"int","value":1},{"name":"resource_index","type":"int","value":223},{"name":"u","type":"string","value":"enH0"},{"name":"no","type":"int","value":0},{"name":"zM","type":"int","value":31}],"gid":9,"width":90,"height":24},{"id":227,"x":-360,"y":-180,"visible":true,"properties":[{"name":"layer","type":"int","value":1},{"name":"resource_index","type":"int","value":224},{"name":"u","type":"string","value":"bsc"},{"name":"no","type":"int","value":0},{"name":"zM","type":"int","value":31}],"gid":6,"width":90,"height":60},{"id":228,"x":-90,"y":-300,"visible":true,"properties":[{"name":"layer","type":"int","value":1},{"name":"resource_index","type":"int","value":225},{"name":"u","type":"string","value":"enH0"},{"name":"no","type":"int","value":0},{"name":"zM","type":"int","value":31}],"gid":9,"width":90,"height":24},{"id":229,"x":-180,"y":-180,"visible":true,"properties":[{"name":"layer","type":"int","value":1},{"name":"resource_index","type":"int","value":226},{"name":"u","type":"string","value":"bsc"},{"name":"no","type":"int","value":0},{"name":"zM","type":"int","value":31}],"gid":6,"width":90,"height":60},{"id":230,"x":-90,"y":-240,"visible":true,"properties":[{"name":"layer","type":"int","value":1},{"name":"resource_index","type":"int","value":227},{"name":"u","type":"string","value":"bsc"},{"name":"no","type":"int","value":1},{"name":"zM","type":"int","value":31}],"gid":8,"width":90,"height":60},{"id":231,"x":-90,"y":-180,"visible":true,"properties":[{"name":"layer","type":"int","value":1},{"name":"resource_index","type":"int","value":228},{"name":"u","type":"string","value":"bsc"},{"name":"no","type":"int","value":2},{"name":"zM","type":"int","value":31}],"gid":7,"width":90,"height":60},{"id":232,"x":-180,"y":-300,"visible":true,"properties":[{"name":"layer","type":"int","value":1},{"name":"resource_index","type":"int","value":229},{"name":"u","type":"string","value":"enH0"},{"name":"no","type":"int","value":0},{"name":"zM","type":"int","value":31}],"gid":9,"width":90,"height":24},{"id":233,"x":90,"y":-180,"visible":true,"properties":[{"name":"layer","type":"int","value":1},{"name":"resource_index","type":"int","value":230},{"name":"u","type":"string","value":"bsc"},{"name":"no","type":"int","value":1},{"name":"zM","type":"int","value":31}],"gid":8,"width":90,"height":60},{"id":234,"x":-180,"y":-240,"visible":true,"properties":[{"name":"layer","type":"int","value":1},{"name":"resource_index","type":"int","value":231},{"name":"u","type":"string","value":"bsc"},{"name":"no","type":"int","value":2},{"name":"zM","type":"int","value":31}],"gid":7,"width":90,"height":60},{"id":235,"x":-270,"y":-300,"visible":true,"properties":[{"name":"layer","type":"int","value":1},{"name":"resource_index","type":"int","value":232},{"name":"u","type":"string","value":"enH0"},{"name":"no","type":"int","value":0},{"name":"zM","type":"int","value":31}],"gid":9,"width":90,"height":24},{"id":236,"x":0,"y":-180,"visible":true,"properties":[{"name":"layer","type":"int","value":1},{"name":"resource_index","type":"int","value":233},{"name":"u","type":"string","value":"bsc"},{"name":"no","type":"int","value":1},{"name":"zM","type":"int","value":31}],"gid":8,"width":90,"height":60},{"id":237,"x":90,"y":-300,"visible":true,"properties":[{"name":"layer","type":"int","value":1},{"name":"resource_index","type":"int","value":234},{"name":"u","type":"string","value":"enH0"},{"name":"no","type":"int","value":0},{"name":"zM","type":"int","value":31}],"gid":9,"width":90,"height":24},{"id":238,"x":-90,"y":-149,"visible":true,"properties":[{"name":"layer","type":"int","value":1},{"name":"resource_index","type":"int","value":235},{"name":"u","type":"string","value":"enH1"},{"name":"no","type":"int","value":0},{"name":"zM","type":"int","value":31}],"gid":12,"width":90,"height":31},{"id":239,"x":90,"y":-240,"visible":true,"properties":[{"name":"layer","type":"int","value":1},{"name":"resource_index","type":"int","value":236},{"name":"u","type":"string","value":"bsc"},{"name":"no","type":"int","value":2},{"name":"zM","type":"int","value":31}],"gid":7,"width":90,"height":60},{"id":240,"x":-1620,"y":-480,"visible":true,"properties":[{"name":"layer","type":"int","value":1},{"name":"resource_index","type":"int","value":237},{"name":"u","type":"string","value":"enH0"},{"name":"no","type":"int","value":0},{"name":"zM","type":"int","value":63}],"gid":9,"width":90,"height":24},{"id":241,"x":-270,"y":-149,"visible":true,"properties":[{"name":"layer","type":"int","value":1},{"name":"resource_index","type":"int","value":238},{"name":"u","type":"string","value":"enH1"},{"name":"no","type":"int","value":0},{"name":"zM","type":"int","value":31}],"gid":12,"width":90,"height":31},{"id":242,"x":-360,"y":-149,"visible":true,"properties":[{"name":"layer","type":"int","value":1},{"name":"resource_index","type":"int","value":239},{"name":"u","type":"string","value":"enH1"},{"name":"no","type":"int","value":0},{"name":"zM","type":"int","value":31}],"gid":12,"width":90,"height":31},{"id":243,"x":90,"y":-149,"visible":true,"properties":[{"name":"layer","type":"int","value":1},{"name":"resource_index","type":"int","value":240},{"name":"u","type":"string","value":"enH1"},{"name":"no","type":"int","value":0},{"name":"zM","type":"int","value":31}],"gid":12,"width":90,"height":31},{"id":244,"x":-270,"y":-180,"visible":true,"properties":[{"name":"layer","type":"int","value":1},{"name":"resource_index","type":"int","value":241},{"name":"u","type":"string","value":"bsc"},{"name":"no","type":"int","value":2},{"name":"zM","type":"int","value":31}],"gid":7,"width":90,"height":60},{"id":245,"x":-385,"y":-300,"visible":true,"properties":[{"name":"layer","type":"int","value":1},{"name":"resource_index","type":"int","value":242},{"name":"u","type":"string","value":"edU"},{"name":"no","type":"int","value":0},{"name":"zM","type":"int","value":31}],"gid":11,"width":47,"height":25},{"id":246,"x":0,"y":-240,"visible":true,"properties":[{"name":"layer","type":"int","value":1},{"name":"resource_index","type":"int","value":243},{"name":"u","type":"string","value":"bsc"},{"name":"no","type":"int","value":0},{"name":"zM","type":"int","value":31}],"gid":6,"width":90,"height":60},{"id":247,"x":-380,"y":-240,"visible":true,"properties":[{"name":"layer","type":"int","value":1},{"name":"resource_index","type":"int","value":244},{"name":"u","type":"string","value":"enV0"},{"name":"no","type":"int","value":0},{"name":"zM","type":"int","value":31}],"gid":15,"width":20,"height":60},{"id":248,"x":-360,"y":-240,"visible":true,"properties":[{"name":"layer","type":"int","value":1},{"name":"resource_index","type":"int","value":245},{"name":"u","type":"string","value":"bsc"},{"name":"no","type":"int","value":1},{"name":"zM","type":"int","value":31}],"gid":8,"width":90,"height":60},{"id":249,"x":-360,"y":-300,"visible":true,"properties":[{"name":"layer","type":"int","value":1},{"name":"resource_index","type":"int","value":246},{"name":"u","type":"string","value":"enH0"},{"name":"no","type":"int","value":0},{"name":"zM","type":"int","value":31}],"gid":9,"width":90,"height":24},{"id":250,"x":-270,"y":-240,"visible":true,"properties":[{"name":"layer","type":"int","value":1},{"name":"resource_index","type":"int","value":247},{"name":"u","type":"string","value":"bsc"},{"name":"no","type":"int","value":0},{"name":"zM","type":"int","value":31}],"gid":6,"width":90,"height":60},{"id":251,"x":-830,"y":-180,"visible":true,"properties":[{"name":"layer","type":"int","value":1},{"name":"resource_index","type":"int","value":248},{"name":"u","type":"string","value":"enV0"},{"name":"no","type":"int","value":0},{"name":"zM","type":"int","value":43}],"gid":15,"width":20,"height":60},{"id":252,"x":-450,"y":-149,"visible":true,"properties":[{"name":"layer","type":"int","value":1},{"name":"resource_index","type":"int","value":249},{"name":"u","type":"string","value":"enH1"},{"name":"no","type":"int","value":0},{"name":"zM","type":"int","value":31}],"gid":12,"width":90,"height":31},{"id":253,"x":-810,"y":-180,"visible":true,"properties":[{"name":"layer","type":"int","value":1},{"name":"resource_index","type":"int","value":250},{"name":"u","type":"string","value":"bsc"},{"name":"no","type":"int","value":1},{"name":"zM","type":"int","value":43}],"gid":8,"width":90,"height":60},{"id":254,"x":-810,"y":-240,"visible":true,"properties":[{"name":"layer","type":"int","value":1},{"name":"resource_index","type":"int","value":251},{"name":"u","type":"string","value":"enH0"},{"name":"no","type":"int","value":0},{"name":"zM","type":"int","value":43}],"gid":9,"width":90,"height":24},{"id":255,"x":-900,"y":-157,"visible":true,"properties":[{"name":"layer","type":"int","value":1},{"name":"resource_index","type":"int","value":252},{"name":"u","type":"string","value":"slLD"},{"name":"no","type":"int","value":0},{"name":"zM","type":"int","value":43}],"gid":16,"width":90,"height":83},{"id":256,"x":-900,"y":-300,"visible":true,"properties":[{"name":"layer","type":"int","value":1},{"name":"resource_index","type":"int","value":253},{"name":"u","type":"string","value":"enH0"},{"name":"no","type":"int","value":0},{"name":"zM","type":"int","value":43}],"gid":9,"width":90,"height":24},{"id":257,"x":-1101,"y":-219,"visible":true,"properties":[{"name":"layer","type":"int","value":1},{"name":"resource_index","type":"int","value":254},{"name":"u","type":"string","value":"edD"},{"name":"no","type":"int","value":0},{"name":"zM","type":"int","value":43}],"gid":13,"width":40,"height":21},{"id":258,"x":-1080,"y":-209,"visible":true,"properties":[{"name":"layer","type":"int","value":1},{"name":"resource_index","type":"int","value":255},{"name":"u","type":"string","value":"enH1"},{"name":"no","type":"int","value":0},{"name":"zM","type":"int","value":43}],"gid":12,"width":90,"height":31},{"id":259,"x":-900,"y":-300,"visible":true,"properties":[{"name":"layer","type":"int","value":1},{"name":"resource_index","type":"int","value":256},{"name":"u","type":"string","value":"enV1"},{"name":"no","type":"int","value":0},{"name":"zM","type":"int","value":43}],"gid":10,"width":20,"height":60},{"id":260,"x":-990,"y":-209,"visible":true,"properties":[{"name":"layer","type":"int","value":1},{"name":"resource_index","type":"int","value":257},{"name":"u","type":"string","value":"enH1"},{"name":"no","type":"int","value":0},{"name":"zM","type":"int","value":43}],"gid":12,"width":90,"height":31},{"id":261,"x":-990,"y":-240,"visible":true,"properties":[{"name":"layer","type":"int","value":1},{"name":"resource_index","type":"int","value":258},{"name":"u","type":"string","value":"bsc"},{"name":"no","type":"int","value":2},{"name":"zM","type":"int","value":43}],"gid":7,"width":90,"height":60},{"id":262,"x":-900,"y":-240,"visible":true,"properties":[{"name":"layer","type":"int","value":1},{"name":"resource_index","type":"int","value":259},{"name":"u","type":"string","value":"bsc"},{"name":"no","type":"int","value":1},{"name":"zM","type":"int","value":43}],"gid":8,"width":90,"height":60},{"id":263,"x":-1080,"y":-240,"visible":true,"properties":[{"name":"layer","type":"int","value":1},{"name":"resource_index","type":"int","value":260},{"name":"u","type":"string","value":"bsc"},{"name":"no","type":"int","value":1},{"name":"zM","type":"int","value":43}],"gid":8,"width":90,"height":60},{"id":264,"x":-925,"y":-360,"visible":true,"properties":[{"name":"layer","type":"int","value":1},{"name":"resource_index","type":"int","value":261},{"name":"u","type":"string","value":"edU"},{"name":"no","type":"int","value":0},{"name":"zM","type":"int","value":43}],"gid":11,"width":47,"height":25},{"id":265,"x":-1260,"y":-420,"visible":true,"properties":[{"name":"layer","type":"int","value":1},{"name":"resource_index","type":"int","value":262},{"name":"u","type":"string","value":"enH0"},{"name":"no","type":"int","value":0},{"name":"zM","type":"int","value":43}],"gid":9,"width":90,"height":24},{"id":266,"x":-1080,"y":-300,"visible":true,"properties":[{"name":"layer","type":"int","value":1},{"name":"resource_index","type":"int","value":263},{"name":"u","type":"string","value":"bsc"},{"name":"no","type":"int","value":2},{"name":"zM","type":"int","value":43}],"gid":7,"width":90,"height":60},{"id":267,"x":-1260,"y":-269,"visible":true,"properties":[{"name":"layer","type":"int","value":1},{"name":"resource_index","type":"int","value":264},{"name":"u","type":"string","value":"enH1"},{"name":"no","type":"int","value":0},{"name":"zM","type":"int","value":43}],"gid":12,"width":90,"height":31},{"id":268,"x":-1170,"y":-217,"visible":true,"properties":[{"name":"layer","type":"int","value":1},{"name":"resource_index","type":"int","value":265},{"name":"u","type":"string","value":"slLD"},{"name":"no","type":"int","value":0},{"name":"zM","type":"int","value":43}],"gid":16,"width":90,"height":83},{"id":269,"x":-1170,"y":-300,"visible":true,"properties":[{"name":"layer","type":"int","value":1},{"name":"resource_index","type":"int","value":266},{"name":"u","type":"string","value":"bsc"},{"name":"no","type":"int","value":2},{"name":"zM","type":"int","value":43}],"gid":7,"width":90,"height":60},{"id":270,"x":-1170,"y":-420,"visible":true,"properties":[{"name":"layer","type":"int","value":1},{"name":"resource_index","type":"int","value":267},{"name":"u","type":"string","value":"enH0"},{"name":"no","type":"int","value":0},{"name":"zM","type":"int","value":43}],"gid":9,"width":90,"height":24},{"id":271,"x":-1260,"y":-300,"visible":true,"properties":[{"name":"layer","type":"int","value":1},{"name":"resource_index","type":"int","value":268},{"name":"u","type":"string","value":"bsc"},{"name":"no","type":"int","value":1},{"name":"zM","type":"int","value":43}],"gid":8,"width":90,"height":60},{"id":272,"x":-1170,"y":-360,"visible":true,"properties":[{"name":"layer","type":"int","value":1},{"name":"resource_index","type":"int","value":269},{"name":"u","type":"string","value":"bsc"},{"name":"no","type":"int","value":2},{"name":"zM","type":"int","value":43}],"gid":7,"width":90,"height":60},{"id":273,"x":-1080,"y":-360,"visible":true,"properties":[{"name":"layer","type":"int","value":1},{"name":"resource_index","type":"int","value":270},{"name":"u","type":"string","value":"bsc"},{"name":"no","type":"int","value":1},{"name":"zM","type":"int","value":43}],"gid":8,"width":90,"height":60},{"id":274,"x":-1465,"y":-420,"visible":true,"properties":[{"name":"layer","type":"int","value":1},{"name":"resource_index","type":"int","value":271},{"name":"u","type":"string","value":"edU"},{"name":"no","type":"int","value":0},{"name":"zM","type":"int","value":43}],"gid":11,"width":47,"height":25},{"id":275,"x":-1080,"y":-420,"visible":true,"properties":[{"name":"layer","type":"int","value":1},{"name":"resource_index","type":"int","value":272},{"name":"u","type":"string","value":"enH0"},{"name":"no","type":"int","value":0},{"name":"zM","type":"int","value":43}],"gid":9,"width":90,"height":24},{"id":276,"x":-1461,"y":-399,"visible":true,"properties":[{"name":"layer","type":"int","value":1},{"name":"resource_index","type":"int","value":273},{"name":"u","type":"string","value":"edD"},{"name":"no","type":"int","value":0},{"name":"zM","type":"int","value":43}],"gid":13,"width":40,"height":21},{"id":277,"x":-835,"y":-300,"visible":true,"properties":[{"name":"layer","type":"int","value":1},{"name":"resource_index","type":"int","value":274},{"name":"u","type":"string","value":"edU"},{"name":"no","type":"int","value":0},{"name":"zM","type":"int","value":43}],"gid":11,"width":47,"height":25},{"id":278,"x":-810,"y":-240,"visible":true,"properties":[{"name":"layer","type":"int","value":1},{"name":"resource_index","type":"int","value":275},{"name":"u","type":"string","value":"enV1"},{"name":"no","type":"int","value":0},{"name":"zM","type":"int","value":43}],"gid":10,"width":20,"height":60},{"id":279,"x":-990,"y":-360,"visible":true,"properties":[{"name":"layer","type":"int","value":1},{"name":"resource_index","type":"int","value":276},{"name":"u","type":"string","value":"enH0"},{"name":"no","type":"int","value":0},{"name":"zM","type":"int","value":43}],"gid":9,"width":90,"height":24},{"id":280,"x":-990,"y":-300,"visible":true,"properties":[{"name":"layer","type":"int","value":1},{"name":"resource_index","type":"int","value":277},{"name":"u","type":"string","value":"bsc"},{"name":"no","type":"int","value":1},{"name":"zM","type":"int","value":43}],"gid":8,"width":90,"height":60},{"id":281,"x":-1015,"y":-420,"visible":true,"properties":[{"name":"layer","type":"int","value":1},{"name":"resource_index","type":"int","value":278},{"name":"u","type":"string","value":"edU"},{"name":"no","type":"int","value":0},{"name":"zM","type":"int","value":43}],"gid":11,"width":47,"height":25},{"id":282,"x":-990,"y":-360,"visible":true,"properties":[{"name":"layer","type":"int","value":1},{"name":"resource_index","type":"int","value":279},{"name":"u","type":"string","value":"enV1"},{"name":"no","type":"int","value":0},{"name":"zM","type":"int","value":43}],"gid":10,"width":20,"height":60},{"id":283,"x":-1260,"y":-360,"visible":true,"properties":[{"name":"layer","type":"int","value":1},{"name":"resource_index","type":"int","value":280},{"name":"u","type":"string","value":"bsc"},{"name":"no","type":"int","value":0},{"name":"zM","type":"int","value":43}],"gid":6,"width":90,"height":60},{"id":284,"x":-475,"y":-1800,"visible":true,"properties":[{"name":"layer","type":"int","value":1},{"name":"resource_index","type":"int","value":281},{"name":"u","type":"string","value":"edU"},{"name":"no","type":"int","value":0},{"name":"zM","type":"int","value":156}],"gid":11,"width":47,"height":25},{"id":285,"x":-565,"y":-1800,"visible":true,"properties":[{"name":"layer","type":"int","value":1},{"name":"resource_index","type":"int","value":282},{"name":"u","type":"string","value":"edU"},{"name":"no","type":"int","value":0},{"name":"zM","type":"int","value":156}],"gid":11,"width":47,"height":25},{"id":286,"x":-1280,"y":-300,"visible":true,"properties":[{"name":"layer","type":"int","value":1},{"name":"resource_index","type":"int","value":283},{"name":"u","type":"string","value":"enV0"},{"name":"no","type":"int","value":0},{"name":"zM","type":"int","value":43}],"gid":15,"width":20,"height":60},{"id":287,"x":-1281,"y":-279,"visible":true,"properties":[{"name":"layer","type":"int","value":1},{"name":"resource_index","type":"int","value":284},{"name":"u","type":"string","value":"edD"},{"name":"no","type":"int","value":0},{"name":"zM","type":"int","value":43}],"gid":13,"width":40,"height":21},{"id":288,"x":-1100,"y":-240,"visible":true,"properties":[{"name":"layer","type":"int","value":1},{"name":"resource_index","type":"int","value":285},{"name":"u","type":"string","value":"enV0"},{"name":"no","type":"int","value":0},{"name":"zM","type":"int","value":43}],"gid":15,"width":20,"height":60},{"id":289,"x":-561,"y":-1779,"visible":true,"properties":[{"name":"layer","type":"int","value":1},{"name":"resource_index","type":"int","value":286},{"name":"u","type":"string","value":"edD"},{"name":"no","type":"int","value":0},{"name":"zM","type":"int","value":156}],"gid":13,"width":40,"height":21},{"id":290,"x":0,"y":-900,"visible":true,"properties":[{"name":"layer","type":"int","value":1},{"name":"resource_index","type":"int","value":287},{"name":"u","type":"string","value":"bsc"},{"name":"no","type":"int","value":2},{"name":"zM","type":"int","value":92}],"gid":7,"width":90,"height":60},{"id":291,"x":-471,"y":-1779,"visible":true,"properties":[{"name":"layer","type":"int","value":1},{"name":"resource_index","type":"int","value":288},{"name":"u","type":"string","value":"edD"},{"name":"no","type":"int","value":0},{"name":"zM","type":"int","value":156}],"gid":13,"width":40,"height":21},{"id":292,"x":-540,"y":-1800,"visible":true,"properties":[{"name":"layer","type":"int","value":1},{"name":"resource_index","type":"int","value":289},{"name":"u","type":"string","value":"enH0"},{"name":"no","type":"int","value":0},{"name":"zM","type":"int","value":156}],"gid":9,"width":90,"height":24},{"id":293,"x":-540,"y":-1769,"visible":true,"properties":[{"name":"layer","type":"int","value":1},{"name":"resource_index","type":"int","value":290},{"name":"u","type":"string","value":"enH1"},{"name":"no","type":"int","value":0},{"name":"zM","type":"int","value":156}],"gid":12,"width":90,"height":31},{"id":294,"x":-1645,"y":-540,"visible":true,"properties":[{"name":"layer","type":"int","value":1},{"name":"resource_index","type":"int","value":291},{"name":"u","type":"string","value":"edU"},{"name":"no","type":"int","value":0},{"name":"zM","type":"int","value":66}],"gid":11,"width":47,"height":25},{"id":295,"x":-1641,"y":-519,"visible":true,"properties":[{"name":"layer","type":"int","value":1},{"name":"resource_index","type":"int","value":292},{"name":"u","type":"string","value":"edD"},{"name":"no","type":"int","value":0},{"name":"zM","type":"int","value":66}],"gid":13,"width":40,"height":21},{"id":296,"x":-1735,"y":-540,"visible":true,"properties":[{"name":"layer","type":"int","value":1},{"name":"resource_index","type":"int","value":293},{"name":"u","type":"string","value":"edU"},{"name":"no","type":"int","value":0},{"name":"zM","type":"int","value":66}],"gid":11,"width":47,"height":25},{"id":297,"x":-1731,"y":-519,"visible":true,"properties":[{"name":"layer","type":"int","value":1},{"name":"resource_index","type":"int","value":294},{"name":"u","type":"string","value":"edD"},{"name":"no","type":"int","value":0},{"name":"zM","type":"int","value":66}],"gid":13,"width":40,"height":21},{"id":298,"x":-1710,"y":-540,"visible":true,"properties":[{"name":"layer","type":"int","value":1},{"name":"resource_index","type":"int","value":295},{"name":"u","type":"string","value":"enH0"},{"name":"no","type":"int","value":0},{"name":"zM","type":"int","value":66}],"gid":9,"width":90,"height":24},{"id":299,"x":-1710,"y":-509,"visible":true,"properties":[{"name":"layer","type":"int","value":1},{"name":"resource_index","type":"int","value":296},{"name":"u","type":"string","value":"enH1"},{"name":"no","type":"int","value":0},{"name":"zM","type":"int","value":66}],"gid":12,"width":90,"height":31},{"id":300,"x":-1645,"y":-600,"visible":true,"properties":[{"name":"layer","type":"int","value":1},{"name":"resource_index","type":"int","value":297},{"name":"u","type":"string","value":"edU"},{"name":"no","type":"int","value":0},{"name":"zM","type":"int","value":69}],"gid":11,"width":47,"height":25},{"id":301,"x":-1641,"y":-579,"visible":true,"properties":[{"name":"layer","type":"int","value":1},{"name":"resource_index","type":"int","value":298},{"name":"u","type":"string","value":"edD"},{"name":"no","type":"int","value":0},{"name":"zM","type":"int","value":69}],"gid":13,"width":40,"height":21},{"id":302,"x":-1735,"y":-600,"visible":true,"properties":[{"name":"layer","type":"int","value":1},{"name":"resource_index","type":"int","value":299},{"name":"u","type":"string","value":"edU"},{"name":"no","type":"int","value":0},{"name":"zM","type":"int","value":69}],"gid":11,"width":47,"height":25},{"id":303,"x":-1731,"y":-579,"visible":true,"properties":[{"name":"layer","type":"int","value":1},{"name":"resource_index","type":"int","value":300},{"name":"u","type":"string","value":"edD"},{"name":"no","type":"int","value":0},{"name":"zM","type":"int","value":69}],"gid":13,"width":40,"height":21},{"id":304,"x":-1710,"y":-600,"visible":true,"properties":[{"name":"layer","type":"int","value":1},{"name":"resource_index","type":"int","value":301},{"name":"u","type":"string","value":"enH0"},{"name":"no","type":"int","value":0},{"name":"zM","type":"int","value":69}],"gid":9,"width":90,"height":24},{"id":305,"x":-1710,"y":-569,"visible":true,"properties":[{"name":"layer","type":"int","value":1},{"name":"resource_index","type":"int","value":302},{"name":"u","type":"string","value":"enH1"},{"name":"no","type":"int","value":0},{"name":"zM","type":"int","value":69}],"gid":12,"width":90,"height":31},{"id":306,"x":-561,"y":-2319,"visible":true,"properties":[{"name":"layer","type":"int","value":1},{"name":"resource_index","type":"int","value":303},{"name":"u","type":"string","value":"edD"},{"name":"no","type":"int","value":0},{"name":"zM","type":"int","value":164}],"gid":13,"width":40,"height":21},{"id":307,"x":-565,"y":-2340,"visible":true,"properties":[{"name":"layer","type":"int","value":1},{"name":"resource_index","type":"int","value":304},{"name":"u","type":"string","value":"edU"},{"name":"no","type":"int","value":0},{"name":"zM","type":"int","value":164}],"gid":11,"width":47,"height":25},{"id":308,"x":-565,"y":-2280,"visible":true,"properties":[{"name":"layer","type":"int","value":1},{"name":"resource_index","type":"int","value":305},{"name":"u","type":"string","value":"edU"},{"name":"no","type":"int","value":0},{"name":"zM","type":"int","value":163}],"gid":11,"width":47,"height":25},{"id":309,"x":-810,"y":-2249,"visible":true,"properties":[{"name":"layer","type":"int","value":1},{"name":"resource_index","type":"int","value":306},{"name":"u","type":"string","value":"enH1"},{"name":"no","type":"int","value":0},{"name":"zM","type":"int","value":163}],"gid":12,"width":90,"height":31},{"id":310,"x":-540,"y":-2309,"visible":true,"properties":[{"name":"layer","type":"int","value":1},{"name":"resource_index","type":"int","value":307},{"name":"u","type":"string","value":"enH1"},{"name":"no","type":"int","value":0},{"name":"zM","type":"int","value":164}],"gid":12,"width":90,"height":31},{"id":311,"x":-540,"y":-2340,"visible":true,"properties":[{"name":"layer","type":"int","value":1},{"name":"resource_index","type":"int","value":308},{"name":"u","type":"string","value":"enH0"},{"name":"no","type":"int","value":0},{"name":"zM","type":"int","value":164}],"gid":9,"width":90,"height":24},{"id":312,"x":-1371,"y":-2319,"visible":true,"properties":[{"name":"layer","type":"int","value":1},{"name":"resource_index","type":"int","value":309},{"name":"u","type":"string","value":"edD"},{"name":"no","type":"int","value":0},{"name":"zM","type":"int","value":165}],"gid":13,"width":40,"height":21},{"id":313,"x":270,"y":-240,"visible":true,"properties":[{"name":"layer","type":"int","value":1},{"name":"resource_index","type":"int","value":310},{"name":"u","type":"string","value":"enV1"},{"name":"no","type":"int","value":0},{"name":"zM","type":"int","value":31}],"gid":10,"width":20,"height":60},{"id":314,"x":180,"y":-149,"visible":true,"properties":[{"name":"layer","type":"int","value":1},{"name":"resource_index","type":"int","value":311},{"name":"u","type":"string","value":"enH1"},{"name":"no","type":"int","value":0},{"name":"zM","type":"int","value":31}],"gid":12,"width":90,"height":31},{"id":315,"x":180,"y":-300,"visible":true,"properties":[{"name":"layer","type":"int","value":1},{"name":"resource_index","type":"int","value":312},{"name":"u","type":"string","value":"enH0"},{"name":"no","type":"int","value":0},{"name":"zM","type":"int","value":31}],"gid":9,"width":90,"height":24},{"id":316,"x":180,"y":-240,"visible":true,"properties":[{"name":"layer","type":"int","value":1},{"name":"resource_index","type":"int","value":313},{"name":"u","type":"string","value":"bsc"},{"name":"no","type":"int","value":1},{"name":"zM","type":"int","value":31}],"gid":8,"width":90,"height":60},{"id":317,"x":-1375,"y":0,"visible":true,"properties":[{"name":"layer","type":"int","value":1},{"name":"resource_index","type":"int","value":314},{"name":"u","type":"string","value":"edU"},{"name":"no","type":"int","value":0},{"name":"zM","type":"int","value":10}],"gid":11,"width":47,"height":25},{"id":318,"x":-471,"y":-579,"visible":true,"properties":[{"name":"layer","type":"int","value":1},{"name":"resource_index","type":"int","value":315},{"name":"u","type":"string","value":"edD"},{"name":"no","type":"int","value":0},{"name":"zM","type":"int","value":68}],"gid":13,"width":40,"height":21},{"id":319,"x":-475,"y":-600,"visible":true,"properties":[{"name":"layer","type":"int","value":1},{"name":"resource_index","type":"int","value":316},{"name":"u","type":"string","value":"edU"},{"name":"no","type":"int","value":0},{"name":"zM","type":"int","value":68}],"gid":11,"width":47,"height":25},{"id":320,"x":-540,"y":-600,"visible":true,"properties":[{"name":"layer","type":"int","value":1},{"name":"resource_index","type":"int","value":317},{"name":"u","type":"string","value":"enH0"},{"name":"no","type":"int","value":0},{"name":"zM","type":"int","value":68}],"gid":9,"width":90,"height":24},{"id":321,"x":-540,"y":-569,"visible":true,"properties":[{"name":"layer","type":"int","value":1},{"name":"resource_index","type":"int","value":318},{"name":"u","type":"string","value":"enH1"},{"name":"no","type":"int","value":0},{"name":"zM","type":"int","value":68}],"gid":12,"width":90,"height":31},{"id":322,"x":69,"y":-1179,"visible":true,"properties":[{"name":"layer","type":"int","value":1},{"name":"resource_index","type":"int","value":319},{"name":"u","type":"string","value":"edD"},{"name":"no","type":"int","value":0},{"name":"zM","type":"int","value":120}],"gid":13,"width":40,"height":21},{"id":323,"x":-990,"y":-840,"visible":true,"properties":[{"name":"layer","type":"int","value":1},{"name":"resource_index","type":"int","value":320},{"name":"u","type":"string","value":"enH0"},{"name":"no","type":"int","value":0},{"name":"zM","type":"int","value":79}],"gid":9,"width":90,"height":24},{"id":324,"x":-1350,"y":-749,"visible":true,"properties":[{"name":"layer","type":"int","value":1},{"name":"resource_index","type":"int","value":321},{"name":"u","type":"string","value":"enH1"},{"name":"no","type":"int","value":0},{"name":"zM","type":"int","value":79}],"gid":12,"width":90,"height":31},{"id":325,"x":-990,"y":-780,"visible":true,"properties":[{"name":"layer","type":"int","value":1},{"name":"resource_index","type":"int","value":322},{"name":"u","type":"string","value":"bsc"},{"name":"no","type":"int","value":2},{"name":"zM","type":"int","value":79}],"gid":7,"width":90,"height":60},{"id":326,"x":-1260,"y":-749,"visible":true,"properties":[{"name":"layer","type":"int","value":1},{"name":"resource_index","type":"int","value":323},{"name":"u","type":"string","value":"enH1"},{"name":"no","type":"int","value":0},{"name":"zM","type":"int","value":79}],"gid":12,"width":90,"height":31},{"id":327,"x":-1080,"y":-840,"visible":true,"properties":[{"name":"layer","type":"int","value":1},{"name":"resource_index","type":"int","value":324},{"name":"u","type":"string","value":"enH0"},{"name":"no","type":"int","value":0},{"name":"zM","type":"int","value":79}],"gid":9,"width":90,"height":24},{"id":328,"x":-1080,"y":-749,"visible":true,"properties":[{"name":"layer","type":"int","value":1},{"name":"resource_index","type":"int","value":325},{"name":"u","type":"string","value":"enH1"},{"name":"no","type":"int","value":0},{"name":"zM","type":"int","value":79}],"gid":12,"width":90,"height":31},{"id":329,"x":-1080,"y":-780,"visible":true,"properties":[{"name":"layer","type":"int","value":1},{"name":"resource_index","type":"int","value":326},{"name":"u","type":"string","value":"bsc"},{"name":"no","type":"int","value":0},{"name":"zM","type":"int","value":79}],"gid":6,"width":90,"height":60},{"id":330,"x":-1170,"y":-780,"visible":true,"properties":[{"name":"layer","type":"int","value":1},{"name":"resource_index","type":"int","value":327},{"name":"u","type":"string","value":"bsc"},{"name":"no","type":"int","value":1},{"name":"zM","type":"int","value":79}],"gid":8,"width":90,"height":60},{"id":331,"x":-1170,"y":-749,"visible":true,"properties":[{"name":"layer","type":"int","value":1},{"name":"resource_index","type":"int","value":328},{"name":"u","type":"string","value":"enH1"},{"name":"no","type":"int","value":0},{"name":"zM","type":"int","value":79}],"gid":12,"width":90,"height":31},{"id":332,"x":-990,"y":-749,"visible":true,"properties":[{"name":"layer","type":"int","value":1},{"name":"resource_index","type":"int","value":329},{"name":"u","type":"string","value":"enH1"},{"name":"no","type":"int","value":0},{"name":"zM","type":"int","value":79}],"gid":12,"width":90,"height":31},{"id":333,"x":-831,"y":-759,"visible":true,"properties":[{"name":"layer","type":"int","value":1},{"name":"resource_index","type":"int","value":330},{"name":"u","type":"string","value":"edD"},{"name":"no","type":"int","value":0},{"name":"zM","type":"int","value":79}],"gid":13,"width":40,"height":21},{"id":334,"x":-900,"y":-780,"visible":true,"properties":[{"name":"layer","type":"int","value":1},{"name":"resource_index","type":"int","value":331},{"name":"u","type":"string","value":"bsc"},{"name":"no","type":"int","value":1},{"name":"zM","type":"int","value":79}],"gid":8,"width":90,"height":60},{"id":335,"x":-900,"y":-749,"visible":true,"properties":[{"name":"layer","type":"int","value":1},{"name":"resource_index","type":"int","value":332},{"name":"u","type":"string","value":"enH1"},{"name":"no","type":"int","value":0},{"name":"zM","type":"int","value":79}],"gid":12,"width":90,"height":31},{"id":336,"x":360,"y":-2280,"visible":true,"properties":[{"name":"layer","type":"int","value":1},{"name":"resource_index","type":"int","value":333},{"name":"u","type":"string","value":"enV1"},{"name":"no","type":"int","value":0},{"name":"zM","type":"int","value":164}],"gid":10,"width":20,"height":60},{"id":337,"x":-1260,"y":-840,"visible":true,"properties":[{"name":"layer","type":"int","value":1},{"name":"resource_index","type":"int","value":334},{"name":"u","type":"string","value":"enH0"},{"name":"no","type":"int","value":0},{"name":"zM","type":"int","value":79}],"gid":9,"width":90,"height":24},{"id":338,"x":-270,"y":-1260,"visible":true,"properties":[{"name":"layer","type":"int","value":1},{"name":"resource_index","type":"int","value":335},{"name":"u","type":"string","value":"enH0"},{"name":"no","type":"int","value":0},{"name":"zM","type":"int","value":120}],"gid":9,"width":90,"height":24},{"id":339,"x":-1530,"y":-60,"visible":true,"properties":[{"name":"layer","type":"int","value":1},{"name":"resource_index","type":"int","value":336},{"name":"u","type":"string","value":"enV1"},{"name":"no","type":"int","value":0},{"name":"zM","type":"int","value":0}],"gid":10,"width":20,"height":60},{"id":340,"x":-270,"y":-1177,"visible":true,"properties":[{"name":"layer","type":"int","value":1},{"name":"resource_index","type":"int","value":337},{"name":"u","type":"string","value":"slLD"},{"name":"no","type":"int","value":0},{"name":"zM","type":"int","value":120}],"gid":16,"width":90,"height":83},{"id":341,"x":-1350,"y":-780,"visible":true,"properties":[{"name":"layer","type":"int","value":1},{"name":"resource_index","type":"int","value":338},{"name":"u","type":"string","value":"bsc"},{"name":"no","type":"int","value":0},{"name":"zM","type":"int","value":79}],"gid":6,"width":90,"height":60},{"id":342,"x":-1350,"y":-840,"visible":true,"properties":[{"name":"layer","type":"int","value":1},{"name":"resource_index","type":"int","value":339},{"name":"u","type":"string","value":"enH0"},{"name":"no","type":"int","value":0},{"name":"zM","type":"int","value":79}],"gid":9,"width":90,"height":24},{"id":343,"x":-1260,"y":-780,"visible":true,"properties":[{"name":"layer","type":"int","value":1},{"name":"resource_index","type":"int","value":340},{"name":"u","type":"string","value":"bsc"},{"name":"no","type":"int","value":2},{"name":"zM","type":"int","value":79}],"gid":7,"width":90,"height":60},{"id":344,"x":-1170,"y":-840,"visible":true,"properties":[{"name":"layer","type":"int","value":1},{"name":"resource_index","type":"int","value":341},{"name":"u","type":"string","value":"enH0"},{"name":"no","type":"int","value":0},{"name":"zM","type":"int","value":79}],"gid":9,"width":90,"height":24},{"id":345,"x":-900,"y":-840,"visible":true,"properties":[{"name":"layer","type":"int","value":1},{"name":"resource_index","type":"int","value":342},{"name":"u","type":"string","value":"enH0"},{"name":"no","type":"int","value":0},{"name":"zM","type":"int","value":79}],"gid":9,"width":90,"height":24},{"id":346,"x":-810,"y":-809,"visible":true,"properties":[{"name":"layer","type":"int","value":1},{"name":"resource_index","type":"int","value":343},{"name":"u","type":"string","value":"enH1"},{"name":"no","type":"int","value":0},{"name":"zM","type":"int","value":79}],"gid":12,"width":90,"height":31},{"id":347,"x":-745,"y":-840,"visible":true,"properties":[{"name":"layer","type":"int","value":1},{"name":"resource_index","type":"int","value":344},{"name":"u","type":"string","value":"edU"},{"name":"no","type":"int","value":0},{"name":"zM","type":"int","value":79}],"gid":11,"width":47,"height":25},{"id":348,"x":-741,"y":-819,"visible":true,"properties":[{"name":"layer","type":"int","value":1},{"name":"resource_index","type":"int","value":345},{"name":"u","type":"string","value":"edD"},{"name":"no","type":"int","value":0},{"name":"zM","type":"int","value":79}],"gid":13,"width":40,"height":21},{"id":349,"x":-810,"y":-840,"visible":true,"properties":[{"name":"layer","type":"int","value":1},{"name":"resource_index","type":"int","value":346},{"name":"u","type":"string","value":"enH0"},{"name":"no","type":"int","value":0},{"name":"zM","type":"int","value":79}],"gid":9,"width":90,"height":24},{"id":350,"x":-810,"y":-780,"visible":true,"properties":[{"name":"layer","type":"int","value":1},{"name":"resource_index","type":"int","value":347},{"name":"u","type":"string","value":"enV1"},{"name":"no","type":"int","value":0},{"name":"zM","type":"int","value":79}],"gid":10,"width":20,"height":60},{"id":351,"x":-1170,"y":180,"visible":true,"properties":[{"name":"layer","type":"int","value":1},{"name":"resource_index","type":"int","value":348},{"name":"u","type":"string","value":"bsc"},{"name":"no","type":"int","value":2},{"name":"zM","type":"int","value":0}],"gid":7,"width":90,"height":60},{"id":352,"x":-900,"y":120,"visible":true,"properties":[{"name":"layer","type":"int","value":1},{"name":"resource_index","type":"int","value":349},{"name":"u","type":"string","value":"bsc"},{"name":"no","type":"int","value":1},{"name":"zM","type":"int","value":0}],"gid":8,"width":90,"height":60},{"id":353,"x":-561,"y":-159,"visible":true,"properties":[{"name":"layer","type":"int","value":1},{"name":"resource_index","type":"int","value":350},{"name":"u","type":"string","value":"edD"},{"name":"no","type":"int","value":0},{"name":"zM","type":"int","value":31}],"gid":13,"width":40,"height":21},{"id":354,"x":270,"y":-2520,"visible":true,"properties":[{"name":"layer","type":"int","value":1},{"name":"resource_index","type":"int","value":351},{"name":"u","type":"string","value":"enH0"},{"name":"no","type":"int","value":0},{"name":"zM","type":"int","value":164}],"gid":9,"width":90,"height":24},{"id":355,"x":-540,"y":-180,"visible":true,"properties":[{"name":"layer","type":"int","value":1},{"name":"resource_index","type":"int","value":352},{"name":"u","type":"string","value":"enH0"},{"name":"no","type":"int","value":0},{"name":"zM","type":"int","value":31}],"gid":9,"width":90,"height":24},{"id":356,"x":360,"y":-2400,"visible":true,"properties":[{"name":"layer","type":"int","value":1},{"name":"resource_index","type":"int","value":353},{"name":"u","type":"string","value":"enV1"},{"name":"no","type":"int","value":0},{"name":"zM","type":"int","value":164}],"gid":10,"width":20,"height":60},{"id":357,"x":-655,"y":-360,"visible":true,"properties":[{"name":"layer","type":"int","value":1},{"name":"resource_index","type":"int","value":354},{"name":"u","type":"string","value":"edU"},{"name":"no","type":"int","value":0},{"name":"zM","type":"int","value":55}],"gid":11,"width":47,"height":25},{"id":358,"x":-651,"y":-339,"visible":true,"properties":[{"name":"layer","type":"int","value":1},{"name":"resource_index","type":"int","value":355},{"name":"u","type":"string","value":"edD"},{"name":"no","type":"int","value":0},{"name":"zM","type":"int","value":55}],"gid":13,"width":40,"height":21},{"id":359,"x":360,"y":-2460,"visible":true,"properties":[{"name":"layer","type":"int","value":1},{"name":"resource_index","type":"int","value":356},{"name":"u","type":"string","value":"enV1"},{"name":"no","type":"int","value":0},{"name":"zM","type":"int","value":164}],"gid":10,"width":20,"height":60},{"id":360,"x":335,"y":-2520,"visible":true,"properties":[{"name":"layer","type":"int","value":1},{"name":"resource_index","type":"int","value":357},{"name":"u","type":"string","value":"edU"},{"name":"no","type":"int","value":0},{"name":"zM","type":"int","value":164}],"gid":11,"width":47,"height":25},{"id":361,"x":-630,"y":-360,"visible":true,"properties":[{"name":"layer","type":"int","value":1},{"name":"resource_index","type":"int","value":358},{"name":"u","type":"string","value":"enH0"},{"name":"no","type":"int","value":0},{"name":"zM","type":"int","value":55}],"gid":9,"width":90,"height":24},{"id":362,"x":-630,"y":-329,"visible":true,"properties":[{"name":"layer","type":"int","value":1},{"name":"resource_index","type":"int","value":359},{"name":"u","type":"string","value":"enH1"},{"name":"no","type":"int","value":0},{"name":"zM","type":"int","value":55}],"gid":12,"width":90,"height":31},{"id":363,"x":-655,"y":-420,"visible":true,"properties":[{"name":"layer","type":"int","value":1},{"name":"resource_index","type":"int","value":360},{"name":"u","type":"string","value":"edU"},{"name":"no","type":"int","value":0},{"name":"zM","type":"int","value":58}],"gid":11,"width":47,"height":25},{"id":364,"x":-651,"y":-399,"visible":true,"properties":[{"name":"layer","type":"int","value":1},{"name":"resource_index","type":"int","value":361},{"name":"u","type":"string","value":"edD"},{"name":"no","type":"int","value":0},{"name":"zM","type":"int","value":58}],"gid":13,"width":40,"height":21},{"id":365,"x":-565,"y":-420,"visible":true,"properties":[{"name":"layer","type":"int","value":1},{"name":"resource_index","type":"int","value":362},{"name":"u","type":"string","value":"edU"},{"name":"no","type":"int","value":0},{"name":"zM","type":"int","value":58}],"gid":11,"width":47,"height":25},{"id":366,"x":-561,"y":-399,"visible":true,"properties":[{"name":"layer","type":"int","value":1},{"name":"resource_index","type":"int","value":363},{"name":"u","type":"string","value":"edD"},{"name":"no","type":"int","value":0},{"name":"zM","type":"int","value":58}],"gid":13,"width":40,"height":21},{"id":367,"x":-630,"y":-420,"visible":true,"properties":[{"name":"layer","type":"int","value":1},{"name":"resource_index","type":"int","value":364},{"name":"u","type":"string","value":"enH0"},{"name":"no","type":"int","value":0},{"name":"zM","type":"int","value":58}],"gid":9,"width":90,"height":24},{"id":368,"x":-630,"y":-389,"visible":true,"properties":[{"name":"layer","type":"int","value":1},{"name":"resource_index","type":"int","value":365},{"name":"u","type":"string","value":"enH1"},{"name":"no","type":"int","value":0},{"name":"zM","type":"int","value":58}],"gid":12,"width":90,"height":31},{"id":369,"x":-655,"y":-480,"visible":true,"properties":[{"name":"layer","type":"int","value":1},{"name":"resource_index","type":"int","value":366},{"name":"u","type":"string","value":"edU"},{"name":"no","type":"int","value":0},{"name":"zM","type":"int","value":62}],"gid":11,"width":47,"height":25},{"id":370,"x":-651,"y":-459,"visible":true,"properties":[{"name":"layer","type":"int","value":1},{"name":"resource_index","type":"int","value":367},{"name":"u","type":"string","value":"edD"},{"name":"no","type":"int","value":0},{"name":"zM","type":"int","value":62}],"gid":13,"width":40,"height":21},{"id":371,"x":-565,"y":-480,"visible":true,"properties":[{"name":"layer","type":"int","value":1},{"name":"resource_index","type":"int","value":368},{"name":"u","type":"string","value":"edU"},{"name":"no","type":"int","value":0},{"name":"zM","type":"int","value":62}],"gid":11,"width":47,"height":25},{"id":372,"x":-561,"y":-459,"visible":true,"properties":[{"name":"layer","type":"int","value":1},{"name":"resource_index","type":"int","value":369},{"name":"u","type":"string","value":"edD"},{"name":"no","type":"int","value":0},{"name":"zM","type":"int","value":62}],"gid":13,"width":40,"height":21},{"id":373,"x":-630,"y":-480,"visible":true,"properties":[{"name":"layer","type":"int","value":1},{"name":"resource_index","type":"int","value":370},{"name":"u","type":"string","value":"enH0"},{"name":"no","type":"int","value":0},{"name":"zM","type":"int","value":62}],"gid":9,"width":90,"height":24},{"id":374,"x":-630,"y":-449,"visible":true,"properties":[{"name":"layer","type":"int","value":1},{"name":"resource_index","type":"int","value":371},{"name":"u","type":"string","value":"enH1"},{"name":"no","type":"int","value":0},{"name":"zM","type":"int","value":62}],"gid":12,"width":90,"height":31},{"id":375,"x":-655,"y":-540,"visible":true,"properties":[{"name":"layer","type":"int","value":1},{"name":"resource_index","type":"int","value":372},{"name":"u","type":"string","value":"edU"},{"name":"no","type":"int","value":0},{"name":"zM","type":"int","value":65}],"gid":11,"width":47,"height":25},{"id":376,"x":-651,"y":-519,"visible":true,"properties":[{"name":"layer","type":"int","value":1},{"name":"resource_index","type":"int","value":373},{"name":"u","type":"string","value":"edD"},{"name":"no","type":"int","value":0},{"name":"zM","type":"int","value":65}],"gid":13,"width":40,"height":21},{"id":377,"x":-565,"y":-540,"visible":true,"properties":[{"name":"layer","type":"int","value":1},{"name":"resource_index","type":"int","value":374},{"name":"u","type":"string","value":"edU"},{"name":"no","type":"int","value":0},{"name":"zM","type":"int","value":65}],"gid":11,"width":47,"height":25},{"id":378,"x":-561,"y":-519,"visible":true,"properties":[{"name":"layer","type":"int","value":1},{"name":"resource_index","type":"int","value":375},{"name":"u","type":"string","value":"edD"},{"name":"no","type":"int","value":0},{"name":"zM","type":"int","value":65}],"gid":13,"width":40,"height":21},{"id":379,"x":-630,"y":-540,"visible":true,"properties":[{"name":"layer","type":"int","value":1},{"name":"resource_index","type":"int","value":376},{"name":"u","type":"string","value":"enH0"},{"name":"no","type":"int","value":0},{"name":"zM","type":"int","value":65}],"gid":9,"width":90,"height":24},{"id":380,"x":-630,"y":-509,"visible":true,"properties":[{"name":"layer","type":"int","value":1},{"name":"resource_index","type":"int","value":377},{"name":"u","type":"string","value":"enH1"},{"name":"no","type":"int","value":0},{"name":"zM","type":"int","value":65}],"gid":12,"width":90,"height":31},{"id":381,"x":-630,"y":-269,"visible":true,"properties":[{"name":"layer","type":"int","value":1},{"name":"resource_index","type":"int","value":378},{"name":"u","type":"string","value":"enH1"},{"name":"no","type":"int","value":0},{"name":"zM","type":"int","value":50}],"gid":12,"width":90,"height":31},{"id":382,"x":-630,"y":-300,"visible":true,"properties":[{"name":"layer","type":"int","value":1},{"name":"resource_index","type":"int","value":379},{"name":"u","type":"string","value":"enH0"},{"name":"no","type":"int","value":0},{"name":"zM","type":"int","value":50}],"gid":9,"width":90,"height":24},{"id":383,"x":-651,"y":-279,"visible":true,"properties":[{"name":"layer","type":"int","value":1},{"name":"resource_index","type":"int","value":380},{"name":"u","type":"string","value":"edD"},{"name":"no","type":"int","value":0},{"name":"zM","type":"int","value":50}],"gid":13,"width":40,"height":21},{"id":384,"x":-655,"y":-300,"visible":true,"properties":[{"name":"layer","type":"int","value":1},{"name":"resource_index","type":"int","value":381},{"name":"u","type":"string","value":"edU"},{"name":"no","type":"int","value":0},{"name":"zM","type":"int","value":50}],"gid":11,"width":47,"height":25},{"id":385,"x":-561,"y":-279,"visible":true,"properties":[{"name":"layer","type":"int","value":1},{"name":"resource_index","type":"int","value":382},{"name":"u","type":"string","value":"edD"},{"name":"no","type":"int","value":0},{"name":"zM","type":"int","value":50}],"gid":13,"width":40,"height":21},{"id":386,"x":-565,"y":-300,"visible":true,"properties":[{"name":"layer","type":"int","value":1},{"name":"resource_index","type":"int","value":383},{"name":"u","type":"string","value":"edU"},{"name":"no","type":"int","value":0},{"name":"zM","type":"int","value":50}],"gid":11,"width":47,"height":25},{"id":387,"x":-475,"y":-660,"visible":true,"properties":[{"name":"layer","type":"int","value":1},{"name":"resource_index","type":"int","value":384},{"name":"u","type":"string","value":"edU"},{"name":"no","type":"int","value":0},{"name":"zM","type":"int","value":72}],"gid":11,"width":47,"height":25},{"id":388,"x":-471,"y":-639,"visible":true,"properties":[{"name":"layer","type":"int","value":1},{"name":"resource_index","type":"int","value":385},{"name":"u","type":"string","value":"edD"},{"name":"no","type":"int","value":0},{"name":"zM","type":"int","value":72}],"gid":13,"width":40,"height":21},{"id":389,"x":-450,"y":-629,"visible":true,"properties":[{"name":"layer","type":"int","value":1},{"name":"resource_index","type":"int","value":386},{"name":"u","type":"string","value":"enH1"},{"name":"no","type":"int","value":0},{"name":"zM","type":"int","value":72}],"gid":12,"width":90,"height":31},{"id":390,"x":-450,"y":-660,"visible":true,"properties":[{"name":"layer","type":"int","value":1},{"name":"resource_index","type":"int","value":387},{"name":"u","type":"string","value":"enH0"},{"name":"no","type":"int","value":0},{"name":"zM","type":"int","value":72}],"gid":9,"width":90,"height":24},{"id":391,"x":0,"y":-1620,"visible":true,"properties":[{"name":"layer","type":"int","value":1},{"name":"resource_index","type":"int","value":388},{"name":"u","type":"string","value":"enH0"},{"name":"no","type":"int","value":0},{"name":"zM","type":"int","value":134}],"gid":9,"width":90,"height":24},{"id":392,"x":-1641,"y":-639,"visible":true,"properties":[{"name":"layer","type":"int","value":1},{"name":"resource_index","type":"int","value":389},{"name":"u","type":"string","value":"edD"},{"name":"no","type":"int","value":0},{"name":"zM","type":"int","value":70}],"gid":13,"width":40,"height":21},{"id":393,"x":-1440,"y":451,"visible":true,"properties":[{"name":"layer","type":"int","value":1},{"name":"resource_index","type":"int","value":390},{"name":"u","type":"string","value":"enH1"},{"name":"no","type":"int","value":0},{"name":"zM","type":"int","value":0}],"gid":12,"width":90,"height":31},{"id":394,"x":-1620,"y":-1740,"visible":true,"properties":[{"name":"layer","type":"int","value":1},{"name":"resource_index","type":"int","value":391},{"name":"u","type":"string","value":"bsc"},{"name":"no","type":"int","value":2},{"name":"zM","type":"int","value":146}],"gid":7,"width":90,"height":60},{"id":395,"x":-1530,"y":-1320,"visible":true,"properties":[{"name":"layer","type":"int","value":1},{"name":"resource_index","type":"int","value":392},{"name":"u","type":"string","value":"enH0"},{"name":"no","type":"int","value":0},{"name":"zM","type":"int","value":122}],"gid":9,"width":90,"height":24},{"id":396,"x":90,"y":-1260,"visible":true,"properties":[{"name":"layer","type":"int","value":1},{"name":"resource_index","type":"int","value":393},{"name":"u","type":"string","value":"enH0"},{"name":"no","type":"int","value":0},{"name":"zM","type":"int","value":120}],"gid":9,"width":90,"height":24},{"id":397,"x":-1551,"y":-639,"visible":true,"properties":[{"name":"layer","type":"int","value":1},{"name":"resource_index","type":"int","value":394},{"name":"u","type":"string","value":"edD"},{"name":"no","type":"int","value":0},{"name":"zM","type":"int","value":70}],"gid":13,"width":40,"height":21},{"id":398,"x":-1555,"y":-660,"visible":true,"properties":[{"name":"layer","type":"int","value":1},{"name":"resource_index","type":"int","value":395},{"name":"u","type":"string","value":"edU"},{"name":"no","type":"int","value":0},{"name":"zM","type":"int","value":70}],"gid":11,"width":47,"height":25},{"id":399,"x":-1645,"y":-660,"visible":true,"properties":[{"name":"layer","type":"int","value":1},{"name":"resource_index","type":"int","value":396},{"name":"u","type":"string","value":"edU"},{"name":"no","type":"int","value":0},{"name":"zM","type":"int","value":70}],"gid":11,"width":47,"height":25},{"id":400,"x":-1440,"y":-1320,"visible":true,"properties":[{"name":"layer","type":"int","value":1},{"name":"resource_index","type":"int","value":397},{"name":"u","type":"string","value":"enH0"},{"name":"no","type":"int","value":0},{"name":"zM","type":"int","value":122}],"gid":9,"width":90,"height":24},{"id":401,"x":-475,"y":-720,"visible":true,"properties":[{"name":"layer","type":"int","value":1},{"name":"resource_index","type":"int","value":398},{"name":"u","type":"string","value":"edU"},{"name":"no","type":"int","value":0},{"name":"zM","type":"int","value":75}],"gid":11,"width":47,"height":25},{"id":402,"x":-471,"y":-699,"visible":true,"properties":[{"name":"layer","type":"int","value":1},{"name":"resource_index","type":"int","value":399},{"name":"u","type":"string","value":"edD"},{"name":"no","type":"int","value":0},{"name":"zM","type":"int","value":75}],"gid":13,"width":40,"height":21},{"id":403,"x":-385,"y":-720,"visible":true,"properties":[{"name":"layer","type":"int","value":1},{"name":"resource_index","type":"int","value":400},{"name":"u","type":"string","value":"edU"},{"name":"no","type":"int","value":0},{"name":"zM","type":"int","value":75}],"gid":11,"width":47,"height":25},{"id":404,"x":-381,"y":-699,"visible":true,"properties":[{"name":"layer","type":"int","value":1},{"name":"resource_index","type":"int","value":401},{"name":"u","type":"string","value":"edD"},{"name":"no","type":"int","value":0},{"name":"zM","type":"int","value":75}],"gid":13,"width":40,"height":21},{"id":405,"x":-450,"y":-720,"visible":true,"properties":[{"name":"layer","type":"int","value":1},{"name":"resource_index","type":"int","value":402},{"name":"u","type":"string","value":"enH0"},{"name":"no","type":"int","value":0},{"name":"zM","type":"int","value":75}],"gid":9,"width":90,"height":24},{"id":406,"x":-450,"y":-689,"visible":true,"properties":[{"name":"layer","type":"int","value":1},{"name":"resource_index","type":"int","value":403},{"name":"u","type":"string","value":"enH1"},{"name":"no","type":"int","value":0},{"name":"zM","type":"int","value":75}],"gid":12,"width":90,"height":31},{"id":407,"x":-475,"y":-780,"visible":true,"properties":[{"name":"layer","type":"int","value":1},{"name":"resource_index","type":"int","value":404},{"name":"u","type":"string","value":"edU"},{"name":"no","type":"int","value":0},{"name":"zM","type":"int","value":80}],"gid":11,"width":47,"height":25},{"id":408,"x":-471,"y":-759,"visible":true,"properties":[{"name":"layer","type":"int","value":1},{"name":"resource_index","type":"int","value":405},{"name":"u","type":"string","value":"edD"},{"name":"no","type":"int","value":0},{"name":"zM","type":"int","value":80}],"gid":13,"width":40,"height":21},{"id":409,"x":-385,"y":-780,"visible":true,"properties":[{"name":"layer","type":"int","value":1},{"name":"resource_index","type":"int","value":406},{"name":"u","type":"string","value":"edU"},{"name":"no","type":"int","value":0},{"name":"zM","type":"int","value":80}],"gid":11,"width":47,"height":25},{"id":410,"x":-381,"y":-759,"visible":true,"properties":[{"name":"layer","type":"int","value":1},{"name":"resource_index","type":"int","value":407},{"name":"u","type":"string","value":"edD"},{"name":"no","type":"int","value":0},{"name":"zM","type":"int","value":80}],"gid":13,"width":40,"height":21},{"id":411,"x":-450,"y":-780,"visible":true,"properties":[{"name":"layer","type":"int","value":1},{"name":"resource_index","type":"int","value":408},{"name":"u","type":"string","value":"enH0"},{"name":"no","type":"int","value":0},{"name":"zM","type":"int","value":80}],"gid":9,"width":90,"height":24},{"id":412,"x":-450,"y":-749,"visible":true,"properties":[{"name":"layer","type":"int","value":1},{"name":"resource_index","type":"int","value":409},{"name":"u","type":"string","value":"enH1"},{"name":"no","type":"int","value":0},{"name":"zM","type":"int","value":80}],"gid":12,"width":90,"height":31},{"id":413,"x":-475,"y":-840,"visible":true,"properties":[{"name":"layer","type":"int","value":1},{"name":"resource_index","type":"int","value":410},{"name":"u","type":"string","value":"edU"},{"name":"no","type":"int","value":0},{"name":"zM","type":"int","value":85}],"gid":11,"width":47,"height":25},{"id":414,"x":-471,"y":-819,"visible":true,"properties":[{"name":"layer","type":"int","value":1},{"name":"resource_index","type":"int","value":411},{"name":"u","type":"string","value":"edD"},{"name":"no","type":"int","value":0},{"name":"zM","type":"int","value":85}],"gid":13,"width":40,"height":21},{"id":415,"x":-385,"y":-840,"visible":true,"properties":[{"name":"layer","type":"int","value":1},{"name":"resource_index","type":"int","value":412},{"name":"u","type":"string","value":"edU"},{"name":"no","type":"int","value":0},{"name":"zM","type":"int","value":85}],"gid":11,"width":47,"height":25},{"id":416,"x":-381,"y":-819,"visible":true,"properties":[{"name":"layer","type":"int","value":1},{"name":"resource_index","type":"int","value":413},{"name":"u","type":"string","value":"edD"},{"name":"no","type":"int","value":0},{"name":"zM","type":"int","value":85}],"gid":13,"width":40,"height":21},{"id":417,"x":-450,"y":-840,"visible":true,"properties":[{"name":"layer","type":"int","value":1},{"name":"resource_index","type":"int","value":414},{"name":"u","type":"string","value":"enH0"},{"name":"no","type":"int","value":0},{"name":"zM","type":"int","value":85}],"gid":9,"width":90,"height":24},{"id":418,"x":-450,"y":-809,"visible":true,"properties":[{"name":"layer","type":"int","value":1},{"name":"resource_index","type":"int","value":415},{"name":"u","type":"string","value":"enH1"},{"name":"no","type":"int","value":0},{"name":"zM","type":"int","value":85}],"gid":12,"width":90,"height":31},{"id":419,"x":-720,"y":-869,"visible":true,"properties":[{"name":"layer","type":"int","value":1},{"name":"resource_index","type":"int","value":416},{"name":"u","type":"string","value":"enH1"},{"name":"no","type":"int","value":0},{"name":"zM","type":"int","value":93}],"gid":12,"width":90,"height":31},{"id":420,"x":-720,"y":-900,"visible":true,"properties":[{"name":"layer","type":"int","value":1},{"name":"resource_index","type":"int","value":417},{"name":"u","type":"string","value":"enH0"},{"name":"no","type":"int","value":0},{"name":"zM","type":"int","value":93}],"gid":9,"width":90,"height":24},{"id":421,"x":-565,"y":-900,"visible":true,"properties":[{"name":"layer","type":"int","value":1},{"name":"resource_index","type":"int","value":418},{"name":"u","type":"string","value":"edU"},{"name":"no","type":"int","value":0},{"name":"zM","type":"int","value":93}],"gid":11,"width":47,"height":25},{"id":422,"x":-561,"y":-879,"visible":true,"properties":[{"name":"layer","type":"int","value":1},{"name":"resource_index","type":"int","value":419},{"name":"u","type":"string","value":"edD"},{"name":"no","type":"int","value":0},{"name":"zM","type":"int","value":93}],"gid":13,"width":40,"height":21},{"id":423,"x":-630,"y":-900,"visible":true,"properties":[{"name":"layer","type":"int","value":1},{"name":"resource_index","type":"int","value":420},{"name":"u","type":"string","value":"enH0"},{"name":"no","type":"int","value":0},{"name":"zM","type":"int","value":93}],"gid":9,"width":90,"height":24},{"id":424,"x":-630,"y":-869,"visible":true,"properties":[{"name":"layer","type":"int","value":1},{"name":"resource_index","type":"int","value":421},{"name":"u","type":"string","value":"enH1"},{"name":"no","type":"int","value":0},{"name":"zM","type":"int","value":93}],"gid":12,"width":90,"height":31},{"id":425,"x":335,"y":-1200,"visible":true,"properties":[{"name":"layer","type":"int","value":1},{"name":"resource_index","type":"int","value":422},{"name":"u","type":"string","value":"edU"},{"name":"no","type":"int","value":0},{"name":"zM","type":"int","value":119}],"gid":11,"width":47,"height":25},{"id":426,"x":-90,"y":-1169,"visible":true,"properties":[{"name":"layer","type":"int","value":1},{"name":"resource_index","type":"int","value":423},{"name":"u","type":"string","value":"enH1"},{"name":"no","type":"int","value":0},{"name":"zM","type":"int","value":120}],"gid":12,"width":90,"height":31},{"id":427,"x":-90,"y":-1200,"visible":true,"properties":[{"name":"layer","type":"int","value":1},{"name":"resource_index","type":"int","value":424},{"name":"u","type":"string","value":"bsc"},{"name":"no","type":"int","value":0},{"name":"zM","type":"int","value":120}],"gid":6,"width":90,"height":60},{"id":428,"x":90,"y":-1178,"visible":true,"properties":[{"name":"layer","type":"int","value":1},{"name":"resource_index","type":"int","value":425},{"name":"u","type":"string","value":"slRD"},{"name":"no","type":"int","value":0},{"name":"zM","type":"int","value":120}],"gid":14,"width":90,"height":82},{"id":429,"x":-180,"y":-1169,"visible":true,"properties":[{"name":"layer","type":"int","value":1},{"name":"resource_index","type":"int","value":426},{"name":"u","type":"string","value":"enH1"},{"name":"no","type":"int","value":0},{"name":"zM","type":"int","value":120}],"gid":12,"width":90,"height":31},{"id":430,"x":245,"y":-1200,"visible":true,"properties":[{"name":"layer","type":"int","value":1},{"name":"resource_index","type":"int","value":427},{"name":"u","type":"string","value":"edU"},{"name":"no","type":"int","value":0},{"name":"zM","type":"int","value":119}],"gid":11,"width":47,"height":25},{"id":431,"x":-475,"y":-960,"visible":true,"properties":[{"name":"layer","type":"int","value":1},{"name":"resource_index","type":"int","value":428},{"name":"u","type":"string","value":"edU"},{"name":"no","type":"int","value":0},{"name":"zM","type":"int","value":98}],"gid":11,"width":47,"height":25},{"id":432,"x":-471,"y":-939,"visible":true,"properties":[{"name":"layer","type":"int","value":1},{"name":"resource_index","type":"int","value":429},{"name":"u","type":"string","value":"edD"},{"name":"no","type":"int","value":0},{"name":"zM","type":"int","value":98}],"gid":13,"width":40,"height":21},{"id":433,"x":-385,"y":-960,"visible":true,"properties":[{"name":"layer","type":"int","value":1},{"name":"resource_index","type":"int","value":430},{"name":"u","type":"string","value":"edU"},{"name":"no","type":"int","value":0},{"name":"zM","type":"int","value":98}],"gid":11,"width":47,"height":25},{"id":434,"x":-381,"y":-939,"visible":true,"properties":[{"name":"layer","type":"int","value":1},{"name":"resource_index","type":"int","value":431},{"name":"u","type":"string","value":"edD"},{"name":"no","type":"int","value":0},{"name":"zM","type":"int","value":98}],"gid":13,"width":40,"height":21},{"id":435,"x":-450,"y":-960,"visible":true,"properties":[{"name":"layer","type":"int","value":1},{"name":"resource_index","type":"int","value":432},{"name":"u","type":"string","value":"enH0"},{"name":"no","type":"int","value":0},{"name":"zM","type":"int","value":98}],"gid":9,"width":90,"height":24},{"id":436,"x":-450,"y":-929,"visible":true,"properties":[{"name":"layer","type":"int","value":1},{"name":"resource_index","type":"int","value":433},{"name":"u","type":"string","value":"enH1"},{"name":"no","type":"int","value":0},{"name":"zM","type":"int","value":98}],"gid":12,"width":90,"height":31},{"id":437,"x":-291,"y":-879,"visible":true,"properties":[{"name":"layer","type":"int","value":1},{"name":"resource_index","type":"int","value":434},{"name":"u","type":"string","value":"edD"},{"name":"no","type":"int","value":0},{"name":"zM","type":"int","value":94}],"gid":13,"width":40,"height":21},{"id":438,"x":-295,"y":-900,"visible":true,"properties":[{"name":"layer","type":"int","value":1},{"name":"resource_index","type":"int","value":435},{"name":"u","type":"string","value":"edU"},{"name":"no","type":"int","value":0},{"name":"zM","type":"int","value":94}],"gid":11,"width":47,"height":25},{"id":439,"x":-381,"y":-879,"visible":true,"properties":[{"name":"layer","type":"int","value":1},{"name":"resource_index","type":"int","value":436},{"name":"u","type":"string","value":"edD"},{"name":"no","type":"int","value":0},{"name":"zM","type":"int","value":94}],"gid":13,"width":40,"height":21},{"id":440,"x":-385,"y":-900,"visible":true,"properties":[{"name":"layer","type":"int","value":1},{"name":"resource_index","type":"int","value":437},{"name":"u","type":"string","value":"edU"},{"name":"no","type":"int","value":0},{"name":"zM","type":"int","value":94}],"gid":11,"width":47,"height":25},{"id":441,"x":-360,"y":-869,"visible":true,"properties":[{"name":"layer","type":"int","value":1},{"name":"resource_index","type":"int","value":438},{"name":"u","type":"string","value":"enH1"},{"name":"no","type":"int","value":0},{"name":"zM","type":"int","value":94}],"gid":12,"width":90,"height":31},{"id":442,"x":-360,"y":-900,"visible":true,"properties":[{"name":"layer","type":"int","value":1},{"name":"resource_index","type":"int","value":439},{"name":"u","type":"string","value":"enH0"},{"name":"no","type":"int","value":0},{"name":"zM","type":"int","value":94}],"gid":9,"width":90,"height":24},{"id":443,"x":250,"y":-2040,"visible":true,"properties":[{"name":"layer","type":"int","value":1},{"name":"resource_index","type":"int","value":440},{"name":"u","type":"string","value":"enV0"},{"name":"no","type":"int","value":0},{"name":"zM","type":"int","value":159}],"gid":15,"width":20,"height":60},{"id":444,"x":-180,"y":-960,"visible":true,"properties":[{"name":"layer","type":"int","value":1},{"name":"resource_index","type":"int","value":441},{"name":"u","type":"string","value":"enH0"},{"name":"no","type":"int","value":0},{"name":"zM","type":"int","value":92}],"gid":9,"width":90,"height":24},{"id":445,"x":339,"y":-2259,"visible":true,"properties":[{"name":"layer","type":"int","value":1},{"name":"resource_index","type":"int","value":442},{"name":"u","type":"string","value":"edD"},{"name":"no","type":"int","value":0},{"name":"zM","type":"int","value":164}],"gid":13,"width":40,"height":21},{"id":446,"x":270,"y":-2249,"visible":true,"properties":[{"name":"layer","type":"int","value":1},{"name":"resource_index","type":"int","value":443},{"name":"u","type":"string","value":"enH1"},{"name":"no","type":"int","value":0},{"name":"zM","type":"int","value":164}],"gid":12,"width":90,"height":31},{"id":447,"x":360,"y":-2040,"visible":true,"properties":[{"name":"layer","type":"int","value":1},{"name":"resource_index","type":"int","value":444},{"name":"u","type":"string","value":"enV1"},{"name":"no","type":"int","value":0},{"name":"zM","type":"int","value":159}],"gid":10,"width":20,"height":60},{"id":448,"x":-1011,"y":-39,"visible":true,"properties":[{"name":"layer","type":"int","value":1},{"name":"resource_index","type":"int","value":445},{"name":"u","type":"string","value":"edD"},{"name":"no","type":"int","value":0},{"name":"zM","type":"int","value":13}],"gid":13,"width":40,"height":21},{"id":449,"x":-921,"y":-39,"visible":true,"properties":[{"name":"layer","type":"int","value":1},{"name":"resource_index","type":"int","value":446},{"name":"u","type":"string","value":"edD"},{"name":"no","type":"int","value":0},{"name":"zM","type":"int","value":13}],"gid":13,"width":40,"height":21},{"id":450,"x":-920,"y":120,"visible":true,"properties":[{"name":"layer","type":"int","value":1},{"name":"resource_index","type":"int","value":447},{"name":"u","type":"string","value":"enV0"},{"name":"no","type":"int","value":0},{"name":"zM","type":"int","value":0}],"gid":15,"width":20,"height":60},{"id":451,"x":-1080,"y":180,"visible":true,"properties":[{"name":"layer","type":"int","value":1},{"name":"resource_index","type":"int","value":448},{"name":"u","type":"string","value":"bsc"},{"name":"no","type":"int","value":2},{"name":"zM","type":"int","value":0}],"gid":7,"width":90,"height":60},{"id":452,"x":-561,"y":-1419,"visible":true,"properties":[{"name":"layer","type":"int","value":1},{"name":"resource_index","type":"int","value":449},{"name":"u","type":"string","value":"edD"},{"name":"no","type":"int","value":0},{"name":"zM","type":"int","value":126}],"gid":13,"width":40,"height":21},{"id":453,"x":90,"y":-878,"visible":true,"properties":[{"name":"layer","type":"int","value":1},{"name":"resource_index","type":"int","value":450},{"name":"u","type":"string","value":"slRD"},{"name":"no","type":"int","value":0},{"name":"zM","type":"int","value":92}],"gid":14,"width":90,"height":82},{"id":454,"x":-835,"y":0,"visible":true,"properties":[{"name":"layer","type":"int","value":1},{"name":"resource_index","type":"int","value":451},{"name":"u","type":"string","value":"edU"},{"name":"no","type":"int","value":0},{"name":"zM","type":"int","value":0}],"gid":11,"width":47,"height":25},{"id":455,"x":155,"y":-960,"visible":true,"properties":[{"name":"layer","type":"int","value":1},{"name":"resource_index","type":"int","value":452},{"name":"u","type":"string","value":"edU"},{"name":"no","type":"int","value":0},{"name":"zM","type":"int","value":92}],"gid":11,"width":47,"height":25},{"id":456,"x":159,"y":-939,"visible":true,"properties":[{"name":"layer","type":"int","value":1},{"name":"resource_index","type":"int","value":453},{"name":"u","type":"string","value":"edD"},{"name":"no","type":"int","value":0},{"name":"zM","type":"int","value":92}],"gid":13,"width":40,"height":21},{"id":457,"x":0,"y":-960,"visible":true,"properties":[{"name":"layer","type":"int","value":1},{"name":"resource_index","type":"int","value":454},{"name":"u","type":"string","value":"enH0"},{"name":"no","type":"int","value":0},{"name":"zM","type":"int","value":92}],"gid":9,"width":90,"height":24},{"id":458,"x":90,"y":-960,"visible":true,"properties":[{"name":"layer","type":"int","value":1},{"name":"resource_index","type":"int","value":455},{"name":"u","type":"string","value":"enH0"},{"name":"no","type":"int","value":0},{"name":"zM","type":"int","value":92}],"gid":9,"width":90,"height":24},{"id":459,"x":69,"y":-879,"visible":true,"properties":[{"name":"layer","type":"int","value":1},{"name":"resource_index","type":"int","value":456},{"name":"u","type":"string","value":"edD"},{"name":"no","type":"int","value":0},{"name":"zM","type":"int","value":92}],"gid":13,"width":40,"height":21},{"id":460,"x":245,"y":-660,"visible":true,"properties":[{"name":"layer","type":"int","value":1},{"name":"resource_index","type":"int","value":457},{"name":"u","type":"string","value":"edU"},{"name":"no","type":"int","value":0},{"name":"zM","type":"int","value":71}],"gid":11,"width":47,"height":25},{"id":461,"x":-1465,"y":-240,"visible":true,"properties":[{"name":"layer","type":"int","value":1},{"name":"resource_index","type":"int","value":458},{"name":"u","type":"string","value":"edU"},{"name":"no","type":"int","value":0},{"name":"zM","type":"int","value":42}],"gid":11,"width":47,"height":25},{"id":462,"x":-1461,"y":-219,"visible":true,"properties":[{"name":"layer","type":"int","value":1},{"name":"resource_index","type":"int","value":459},{"name":"u","type":"string","value":"edD"},{"name":"no","type":"int","value":0},{"name":"zM","type":"int","value":42}],"gid":13,"width":40,"height":21},{"id":463,"x":90,"y":-1889,"visible":true,"properties":[{"name":"layer","type":"int","value":1},{"name":"resource_index","type":"int","value":460},{"name":"u","type":"string","value":"enH1"},{"name":"no","type":"int","value":0},{"name":"zM","type":"int","value":159}],"gid":12,"width":90,"height":31},{"id":464,"x":-90,"y":-1889,"visible":true,"properties":[{"name":"layer","type":"int","value":1},{"name":"resource_index","type":"int","value":461},{"name":"u","type":"string","value":"enH1"},{"name":"no","type":"int","value":0},{"name":"zM","type":"int","value":159}],"gid":12,"width":90,"height":31},{"id":465,"x":270,"y":-1980,"visible":true,"properties":[{"name":"layer","type":"int","value":1},{"name":"resource_index","type":"int","value":462},{"name":"u","type":"string","value":"bsc"},{"name":"no","type":"int","value":1},{"name":"zM","type":"int","value":159}],"gid":8,"width":90,"height":60},{"id":466,"x":-990,"y":-60,"visible":true,"properties":[{"name":"layer","type":"int","value":1},{"name":"resource_index","type":"int","value":463},{"name":"u","type":"string","value":"enH0"},{"name":"no","type":"int","value":0},{"name":"zM","type":"int","value":13}],"gid":9,"width":90,"height":24},{"id":467,"x":270,"y":-1920,"visible":true,"properties":[{"name":"layer","type":"int","value":1},{"name":"resource_index","type":"int","value":464},{"name":"u","type":"string","value":"bsc"},{"name":"no","type":"int","value":2},{"name":"zM","type":"int","value":159}],"gid":7,"width":90,"height":60},{"id":468,"x":180,"y":-2040,"visible":true,"properties":[{"name":"layer","type":"int","value":1},{"name":"resource_index","type":"int","value":465},{"name":"u","type":"string","value":"enH0"},{"name":"no","type":"int","value":0},{"name":"zM","type":"int","value":159}],"gid":9,"width":90,"height":24},{"id":469,"x":-1555,"y":-1020,"visible":true,"properties":[{"name":"layer","type":"int","value":1},{"name":"resource_index","type":"int","value":466},{"name":"u","type":"string","value":"edU"},{"name":"no","type":"int","value":0},{"name":"zM","type":"int","value":103}],"gid":11,"width":47,"height":25},{"id":470,"x":-1551,"y":-999,"visible":true,"properties":[{"name":"layer","type":"int","value":1},{"name":"resource_index","type":"int","value":467},{"name":"u","type":"string","value":"edD"},{"name":"no","type":"int","value":0},{"name":"zM","type":"int","value":103}],"gid":13,"width":40,"height":21},{"id":471,"x":-1645,"y":-1020,"visible":true,"properties":[{"name":"layer","type":"int","value":1},{"name":"resource_index","type":"int","value":468},{"name":"u","type":"string","value":"edU"},{"name":"no","type":"int","value":0},{"name":"zM","type":"int","value":103}],"gid":11,"width":47,"height":25},{"id":472,"x":-1641,"y":-999,"visible":true,"properties":[{"name":"layer","type":"int","value":1},{"name":"resource_index","type":"int","value":469},{"name":"u","type":"string","value":"edD"},{"name":"no","type":"int","value":0},{"name":"zM","type":"int","value":103}],"gid":13,"width":40,"height":21},{"id":473,"x":-1620,"y":-1020,"visible":true,"properties":[{"name":"layer","type":"int","value":1},{"name":"resource_index","type":"int","value":470},{"name":"u","type":"string","value":"enH0"},{"name":"no","type":"int","value":0},{"name":"zM","type":"int","value":103}],"gid":9,"width":90,"height":24},{"id":474,"x":-1620,"y":-989,"visible":true,"properties":[{"name":"layer","type":"int","value":1},{"name":"resource_index","type":"int","value":471},{"name":"u","type":"string","value":"enH1"},{"name":"no","type":"int","value":0},{"name":"zM","type":"int","value":103}],"gid":12,"width":90,"height":31},{"id":475,"x":180,"y":-180,"visible":true,"properties":[{"name":"layer","type":"int","value":1},{"name":"resource_index","type":"int","value":472},{"name":"u","type":"string","value":"bsc"},{"name":"no","type":"int","value":1},{"name":"zM","type":"int","value":31}],"gid":8,"width":90,"height":60},{"id":476,"x":-990,"y":-2400,"visible":true,"properties":[{"name":"layer","type":"int","value":1},{"name":"resource_index","type":"int","value":473},{"name":"u","type":"string","value":"enV1"},{"name":"no","type":"int","value":0},{"name":"zM","type":"int","value":165}],"gid":10,"width":20,"height":60},{"id":477,"x":270,"y":-180,"visible":true,"properties":[{"name":"layer","type":"int","value":1},{"name":"resource_index","type":"int","value":474},{"name":"u","type":"string","value":"enV1"},{"name":"no","type":"int","value":0},{"name":"zM","type":"int","value":31}],"gid":10,"width":20,"height":60},{"id":478,"x":245,"y":-300,"visible":true,"properties":[{"name":"layer","type":"int","value":1},{"name":"resource_index","type":"int","value":475},{"name":"u","type":"string","value":"edU"},{"name":"no","type":"int","value":0},{"name":"zM","type":"int","value":31}],"gid":11,"width":47,"height":25},{"id":479,"x":-1641,"y":-1239,"visible":true,"properties":[{"name":"layer","type":"int","value":1},{"name":"resource_index","type":"int","value":476},{"name":"u","type":"string","value":"edD"},{"name":"no","type":"int","value":0},{"name":"zM","type":"int","value":122}],"gid":13,"width":40,"height":21},{"id":480,"x":-1620,"y":-1320,"visible":true,"properties":[{"name":"layer","type":"int","value":1},{"name":"resource_index","type":"int","value":477},{"name":"u","type":"string","value":"enH0"},{"name":"no","type":"int","value":0},{"name":"zM","type":"int","value":122}],"gid":9,"width":90,"height":24},{"id":481,"x":-925,"y":0,"visible":true,"properties":[{"name":"layer","type":"int","value":1},{"name":"resource_index","type":"int","value":478},{"name":"u","type":"string","value":"edU"},{"name":"no","type":"int","value":0},{"name":"zM","type":"int","value":0}],"gid":11,"width":47,"height":25},{"id":482,"x":-1551,"y":-459,"visible":true,"properties":[{"name":"layer","type":"int","value":1},{"name":"resource_index","type":"int","value":479},{"name":"u","type":"string","value":"edD"},{"name":"no","type":"int","value":0},{"name":"zM","type":"int","value":63}],"gid":13,"width":40,"height":21},{"id":483,"x":-1015,"y":-60,"visible":true,"properties":[{"name":"layer","type":"int","value":1},{"name":"resource_index","type":"int","value":480},{"name":"u","type":"string","value":"edU"},{"name":"no","type":"int","value":0},{"name":"zM","type":"int","value":13}],"gid":11,"width":47,"height":25},{"id":484,"x":-90,"y":-1620,"visible":true,"properties":[{"name":"layer","type":"int","value":1},{"name":"resource_index","type":"int","value":481},{"name":"u","type":"string","value":"enH0"},{"name":"no","type":"int","value":0},{"name":"zM","type":"int","value":134}],"gid":9,"width":90,"height":24},{"id":485,"x":-1440,"y":-420,"visible":true,"properties":[{"name":"layer","type":"int","value":1},{"name":"resource_index","type":"int","value":482},{"name":"u","type":"string","value":"enH0"},{"name":"no","type":"int","value":0},{"name":"zM","type":"int","value":43}],"gid":9,"width":90,"height":24},{"id":486,"x":-1350,"y":-2460,"visible":true,"properties":[{"name":"layer","type":"int","value":1},{"name":"resource_index","type":"int","value":483},{"name":"u","type":"string","value":"enH0"},{"name":"no","type":"int","value":0},{"name":"zM","type":"int","value":165}],"gid":9,"width":90,"height":24},{"id":487,"x":-1465,"y":-60,"visible":true,"properties":[{"name":"layer","type":"int","value":1},{"name":"resource_index","type":"int","value":484},{"name":"u","type":"string","value":"edU"},{"name":"no","type":"int","value":0},{"name":"zM","type":"int","value":15}],"gid":11,"width":47,"height":25},{"id":488,"x":-1555,"y":-480,"visible":true,"properties":[{"name":"layer","type":"int","value":1},{"name":"resource_index","type":"int","value":485},{"name":"u","type":"string","value":"edU"},{"name":"no","type":"int","value":0},{"name":"zM","type":"int","value":63}],"gid":11,"width":47,"height":25},{"id":489,"x":-1461,"y":-159,"visible":true,"properties":[{"name":"layer","type":"int","value":1},{"name":"resource_index","type":"int","value":486},{"name":"u","type":"string","value":"edD"},{"name":"no","type":"int","value":0},{"name":"zM","type":"int","value":33}],"gid":13,"width":40,"height":21},{"id":490,"x":-1371,"y":-99,"visible":true,"properties":[{"name":"layer","type":"int","value":1},{"name":"resource_index","type":"int","value":487},{"name":"u","type":"string","value":"edD"},{"name":"no","type":"int","value":0},{"name":"zM","type":"int","value":23}],"gid":13,"width":40,"height":21},{"id":491,"x":-1465,"y":-180,"visible":true,"properties":[{"name":"layer","type":"int","value":1},{"name":"resource_index","type":"int","value":488},{"name":"u","type":"string","value":"edU"},{"name":"no","type":"int","value":0},{"name":"zM","type":"int","value":33}],"gid":11,"width":47,"height":25},{"id":492,"x":-1461,"y":-39,"visible":true,"properties":[{"name":"layer","type":"int","value":1},{"name":"resource_index","type":"int","value":489},{"name":"u","type":"string","value":"edD"},{"name":"no","type":"int","value":0},{"name":"zM","type":"int","value":15}],"gid":13,"width":40,"height":21},{"id":493,"x":-20,"y":-1560,"visible":true,"properties":[{"name":"layer","type":"int","value":1},{"name":"resource_index","type":"int","value":490},{"name":"u","type":"string","value":"enV0"},{"name":"no","type":"int","value":0},{"name":"zM","type":"int","value":134}],"gid":15,"width":20,"height":60},{"id":494,"x":69,"y":-1539,"visible":true,"properties":[{"name":"layer","type":"int","value":1},{"name":"resource_index","type":"int","value":491},{"name":"u","type":"string","value":"edD"},{"name":"no","type":"int","value":0},{"name":"zM","type":"int","value":134}],"gid":13,"width":40,"height":21},{"id":495,"x":-1465,"y":60,"visible":true,"properties":[{"name":"layer","type":"int","value":1},{"name":"resource_index","type":"int","value":492},{"name":"u","type":"string","value":"edU"},{"name":"no","type":"int","value":0},{"name":"zM","type":"int","value":4}],"gid":11,"width":47,"height":25},{"id":496,"x":-1461,"y":81,"visible":true,"properties":[{"name":"layer","type":"int","value":1},{"name":"resource_index","type":"int","value":493},{"name":"u","type":"string","value":"edD"},{"name":"no","type":"int","value":0},{"name":"zM","type":"int","value":4}],"gid":13,"width":40,"height":21},{"id":497,"x":-1645,"y":-1320,"visible":true,"properties":[{"name":"layer","type":"int","value":1},{"name":"resource_index","type":"int","value":494},{"name":"u","type":"string","value":"edU"},{"name":"no","type":"int","value":0},{"name":"zM","type":"int","value":122}],"gid":11,"width":47,"height":25},{"id":498,"x":-1530,"y":60,"visible":true,"properties":[{"name":"layer","type":"int","value":1},{"name":"resource_index","type":"int","value":495},{"name":"u","type":"string","value":"enV1"},{"name":"no","type":"int","value":0},{"name":"zM","type":"int","value":0}],"gid":10,"width":20,"height":60},{"id":499,"x":-1620,"y":-1229,"visible":true,"properties":[{"name":"layer","type":"int","value":1},{"name":"resource_index","type":"int","value":496},{"name":"u","type":"string","value":"enH1"},{"name":"no","type":"int","value":0},{"name":"zM","type":"int","value":122}],"gid":12,"width":90,"height":31},{"id":500,"x":-1640,"y":-1260,"visible":true,"properties":[{"name":"layer","type":"int","value":1},{"name":"resource_index","type":"int","value":497},{"name":"u","type":"string","value":"enV0"},{"name":"no","type":"int","value":0},{"name":"zM","type":"int","value":122}],"gid":15,"width":20,"height":60},{"id":501,"x":-1530,"y":-1229,"visible":true,"properties":[{"name":"layer","type":"int","value":1},{"name":"resource_index","type":"int","value":498},{"name":"u","type":"string","value":"enH1"},{"name":"no","type":"int","value":0},{"name":"zM","type":"int","value":122}],"gid":12,"width":90,"height":31},{"id":502,"x":-1620,"y":-1260,"visible":true,"properties":[{"name":"layer","type":"int","value":1},{"name":"resource_index","type":"int","value":499},{"name":"u","type":"string","value":"bsc"},{"name":"no","type":"int","value":2},{"name":"zM","type":"int","value":122}],"gid":7,"width":90,"height":60},{"id":503,"x":-561,"y":-579,"visible":true,"properties":[{"name":"layer","type":"int","value":1},{"name":"resource_index","type":"int","value":500},{"name":"u","type":"string","value":"edD"},{"name":"no","type":"int","value":0},{"name":"zM","type":"int","value":68}],"gid":13,"width":40,"height":21},{"id":504,"x":-990,"y":-1260,"visible":true,"properties":[{"name":"layer","type":"int","value":1},{"name":"resource_index","type":"int","value":501},{"name":"u","type":"string","value":"bsc"},{"name":"no","type":"int","value":0},{"name":"zM","type":"int","value":122}],"gid":6,"width":90,"height":60},{"id":505,"x":-1350,"y":-1229,"visible":true,"properties":[{"name":"layer","type":"int","value":1},{"name":"resource_index","type":"int","value":502},{"name":"u","type":"string","value":"enH1"},{"name":"no","type":"int","value":0},{"name":"zM","type":"int","value":122}],"gid":12,"width":90,"height":31},{"id":506,"x":-1260,"y":-1260,"visible":true,"properties":[{"name":"layer","type":"int","value":1},{"name":"resource_index","type":"int","value":503},{"name":"u","type":"string","value":"bsc"},{"name":"no","type":"int","value":0},{"name":"zM","type":"int","value":122}],"gid":6,"width":90,"height":60},{"id":507,"x":-1260,"y":-1229,"visible":true,"properties":[{"name":"layer","type":"int","value":1},{"name":"resource_index","type":"int","value":504},{"name":"u","type":"string","value":"enH1"},{"name":"no","type":"int","value":0},{"name":"zM","type":"int","value":122}],"gid":12,"width":90,"height":31},{"id":508,"x":-1080,"y":-1320,"visible":true,"properties":[{"name":"layer","type":"int","value":1},{"name":"resource_index","type":"int","value":505},{"name":"u","type":"string","value":"enH0"},{"name":"no","type":"int","value":0},{"name":"zM","type":"int","value":122}],"gid":9,"width":90,"height":24},{"id":509,"x":-1170,"y":-1229,"visible":true,"properties":[{"name":"layer","type":"int","value":1},{"name":"resource_index","type":"int","value":506},{"name":"u","type":"string","value":"enH1"},{"name":"no","type":"int","value":0},{"name":"zM","type":"int","value":122}],"gid":12,"width":90,"height":31},{"id":510,"x":-1170,"y":-1260,"visible":true,"properties":[{"name":"layer","type":"int","value":1},{"name":"resource_index","type":"int","value":507},{"name":"u","type":"string","value":"bsc"},{"name":"no","type":"int","value":2},{"name":"zM","type":"int","value":122}],"gid":7,"width":90,"height":60},{"id":511,"x":-1080,"y":-1229,"visible":true,"properties":[{"name":"layer","type":"int","value":1},{"name":"resource_index","type":"int","value":508},{"name":"u","type":"string","value":"enH1"},{"name":"no","type":"int","value":0},{"name":"zM","type":"int","value":122}],"gid":12,"width":90,"height":31},{"id":512,"x":-1080,"y":-1260,"visible":true,"properties":[{"name":"layer","type":"int","value":1},{"name":"resource_index","type":"int","value":509},{"name":"u","type":"string","value":"bsc"},{"name":"no","type":"int","value":1},{"name":"zM","type":"int","value":122}],"gid":8,"width":90,"height":60},{"id":513,"x":-900,"y":-1260,"visible":true,"properties":[{"name":"layer","type":"int","value":1},{"name":"resource_index","type":"int","value":510},{"name":"u","type":"string","value":"bsc"},{"name":"no","type":"int","value":2},{"name":"zM","type":"int","value":122}],"gid":7,"width":90,"height":60},{"id":514,"x":-900,"y":-1229,"visible":true,"properties":[{"name":"layer","type":"int","value":1},{"name":"resource_index","type":"int","value":511},{"name":"u","type":"string","value":"enH1"},{"name":"no","type":"int","value":0},{"name":"zM","type":"int","value":122}],"gid":12,"width":90,"height":31},{"id":515,"x":-540,"y":-1229,"visible":true,"properties":[{"name":"layer","type":"int","value":1},{"name":"resource_index","type":"int","value":512},{"name":"u","type":"string","value":"enH1"},{"name":"no","type":"int","value":0},{"name":"zM","type":"int","value":122}],"gid":12,"width":90,"height":31},{"id":516,"x":-990,"y":-1229,"visible":true,"properties":[{"name":"layer","type":"int","value":1},{"name":"resource_index","type":"int","value":513},{"name":"u","type":"string","value":"enH1"},{"name":"no","type":"int","value":0},{"name":"zM","type":"int","value":122}],"gid":12,"width":90,"height":31},{"id":517,"x":-565,"y":-600,"visible":true,"properties":[{"name":"layer","type":"int","value":1},{"name":"resource_index","type":"int","value":514},{"name":"u","type":"string","value":"edU"},{"name":"no","type":"int","value":0},{"name":"zM","type":"int","value":68}],"gid":11,"width":47,"height":25},{"id":518,"x":-1350,"y":-1320,"visible":true,"properties":[{"name":"layer","type":"int","value":1},{"name":"resource_index","type":"int","value":515},{"name":"u","type":"string","value":"enH0"},{"name":"no","type":"int","value":0},{"name":"zM","type":"int","value":122}],"gid":9,"width":90,"height":24},{"id":519,"x":-1015,"y":-2460,"visible":true,"properties":[{"name":"layer","type":"int","value":1},{"name":"resource_index","type":"int","value":516},{"name":"u","type":"string","value":"edU"},{"name":"no","type":"int","value":0},{"name":"zM","type":"int","value":165}],"gid":11,"width":47,"height":25},{"id":520,"x":-1440,"y":-749,"visible":true,"properties":[{"name":"layer","type":"int","value":1},{"name":"resource_index","type":"int","value":517},{"name":"u","type":"string","value":"enH1"},{"name":"no","type":"int","value":0},{"name":"zM","type":"int","value":79}],"gid":12,"width":90,"height":31},{"id":521,"x":-1640,"y":-780,"visible":true,"properties":[{"name":"layer","type":"int","value":1},{"name":"resource_index","type":"int","value":518},{"name":"u","type":"string","value":"enV0"},{"name":"no","type":"int","value":0},{"name":"zM","type":"int","value":79}],"gid":15,"width":20,"height":60},{"id":522,"x":-1350,"y":-1260,"visible":true,"properties":[{"name":"layer","type":"int","value":1},{"name":"resource_index","type":"int","value":519},{"name":"u","type":"string","value":"bsc"},{"name":"no","type":"int","value":1},{"name":"zM","type":"int","value":122}],"gid":8,"width":90,"height":60},{"id":523,"x":-1260,"y":-1320,"visible":true,"properties":[{"name":"layer","type":"int","value":1},{"name":"resource_index","type":"int","value":520},{"name":"u","type":"string","value":"enH0"},{"name":"no","type":"int","value":0},{"name":"zM","type":"int","value":122}],"gid":9,"width":90,"height":24},{"id":524,"x":-990,"y":-1320,"visible":true,"properties":[{"name":"layer","type":"int","value":1},{"name":"resource_index","type":"int","value":521},{"name":"u","type":"string","value":"enH0"},{"name":"no","type":"int","value":0},{"name":"zM","type":"int","value":122}],"gid":9,"width":90,"height":24},{"id":525,"x":-270,"y":451,"visible":true,"properties":[{"name":"layer","type":"int","value":1},{"name":"resource_index","type":"int","value":522},{"name":"u","type":"string","value":"enH1"},{"name":"no","type":"int","value":0},{"name":"zM","type":"int","value":0}],"gid":12,"width":90,"height":31},{"id":526,"x":-900,"y":-1320,"visible":true,"properties":[{"name":"layer","type":"int","value":1},{"name":"resource_index","type":"int","value":523},{"name":"u","type":"string","value":"enH0"},{"name":"no","type":"int","value":0},{"name":"zM","type":"int","value":122}],"gid":9,"width":90,"height":24},{"id":527,"x":-450,"y":-1260,"visible":true,"properties":[{"name":"layer","type":"int","value":1},{"name":"resource_index","type":"int","value":524},{"name":"u","type":"string","value":"bsc"},{"name":"no","type":"int","value":0},{"name":"zM","type":"int","value":122}],"gid":6,"width":90,"height":60},{"id":528,"x":-810,"y":-1260,"visible":true,"properties":[{"name":"layer","type":"int","value":1},{"name":"resource_index","type":"int","value":525},{"name":"u","type":"string","value":"bsc"},{"name":"no","type":"int","value":1},{"name":"zM","type":"int","value":122}],"gid":8,"width":90,"height":60},{"id":529,"x":-810,"y":-1320,"visible":true,"properties":[{"name":"layer","type":"int","value":1},{"name":"resource_index","type":"int","value":526},{"name":"u","type":"string","value":"enH0"},{"name":"no","type":"int","value":0},{"name":"zM","type":"int","value":122}],"gid":9,"width":90,"height":24},{"id":530,"x":-720,"y":-1260,"visible":true,"properties":[{"name":"layer","type":"int","value":1},{"name":"resource_index","type":"int","value":527},{"name":"u","type":"string","value":"bsc"},{"name":"no","type":"int","value":0},{"name":"zM","type":"int","value":122}],"gid":6,"width":90,"height":60},{"id":531,"x":-1170,"y":-1320,"visible":true,"properties":[{"name":"layer","type":"int","value":1},{"name":"resource_index","type":"int","value":528},{"name":"u","type":"string","value":"enH0"},{"name":"no","type":"int","value":0},{"name":"zM","type":"int","value":122}],"gid":9,"width":90,"height":24},{"id":532,"x":-630,"y":-1260,"visible":true,"properties":[{"name":"layer","type":"int","value":1},{"name":"resource_index","type":"int","value":529},{"name":"u","type":"string","value":"bsc"},{"name":"no","type":"int","value":2},{"name":"zM","type":"int","value":122}],"gid":7,"width":90,"height":60},{"id":533,"x":-630,"y":-1320,"visible":true,"properties":[{"name":"layer","type":"int","value":1},{"name":"resource_index","type":"int","value":530},{"name":"u","type":"string","value":"enH0"},{"name":"no","type":"int","value":0},{"name":"zM","type":"int","value":122}],"gid":9,"width":90,"height":24},{"id":534,"x":-540,"y":-1260,"visible":true,"properties":[{"name":"layer","type":"int","value":1},{"name":"resource_index","type":"int","value":531},{"name":"u","type":"string","value":"bsc"},{"name":"no","type":"int","value":1},{"name":"zM","type":"int","value":122}],"gid":8,"width":90,"height":60},{"id":535,"x":-540,"y":-1320,"visible":true,"properties":[{"name":"layer","type":"int","value":1},{"name":"resource_index","type":"int","value":532},{"name":"u","type":"string","value":"enH0"},{"name":"no","type":"int","value":0},{"name":"zM","type":"int","value":122}],"gid":9,"width":90,"height":24},{"id":536,"x":-385,"y":-1320,"visible":true,"properties":[{"name":"layer","type":"int","value":1},{"name":"resource_index","type":"int","value":533},{"name":"u","type":"string","value":"edU"},{"name":"no","type":"int","value":0},{"name":"zM","type":"int","value":122}],"gid":11,"width":47,"height":25},{"id":537,"x":-360,"y":-1260,"visible":true,"properties":[{"name":"layer","type":"int","value":1},{"name":"resource_index","type":"int","value":534},{"name":"u","type":"string","value":"enV1"},{"name":"no","type":"int","value":0},{"name":"zM","type":"int","value":122}],"gid":10,"width":20,"height":60},{"id":538,"x":-450,"y":-1320,"visible":true,"properties":[{"name":"layer","type":"int","value":1},{"name":"resource_index","type":"int","value":535},{"name":"u","type":"string","value":"enH0"},{"name":"no","type":"int","value":0},{"name":"zM","type":"int","value":122}],"gid":9,"width":90,"height":24},{"id":539,"x":-450,"y":-1229,"visible":true,"properties":[{"name":"layer","type":"int","value":1},{"name":"resource_index","type":"int","value":536},{"name":"u","type":"string","value":"enH1"},{"name":"no","type":"int","value":0},{"name":"zM","type":"int","value":122}],"gid":12,"width":90,"height":31},{"id":540,"x":-381,"y":-1239,"visible":true,"properties":[{"name":"layer","type":"int","value":1},{"name":"resource_index","type":"int","value":537},{"name":"u","type":"string","value":"edD"},{"name":"no","type":"int","value":0},{"name":"zM","type":"int","value":122}],"gid":13,"width":40,"height":21},{"id":541,"x":-720,"y":-1229,"visible":true,"properties":[{"name":"layer","type":"int","value":1},{"name":"resource_index","type":"int","value":538},{"name":"u","type":"string","value":"enH1"},{"name":"no","type":"int","value":0},{"name":"zM","type":"int","value":122}],"gid":12,"width":90,"height":31},{"id":542,"x":-810,"y":-1229,"visible":true,"properties":[{"name":"layer","type":"int","value":1},{"name":"resource_index","type":"int","value":539},{"name":"u","type":"string","value":"enH1"},{"name":"no","type":"int","value":0},{"name":"zM","type":"int","value":122}],"gid":12,"width":90,"height":31},{"id":543,"x":-630,"y":-1229,"visible":true,"properties":[{"name":"layer","type":"int","value":1},{"name":"resource_index","type":"int","value":540},{"name":"u","type":"string","value":"enH1"},{"name":"no","type":"int","value":0},{"name":"zM","type":"int","value":122}],"gid":12,"width":90,"height":31},{"id":544,"x":-990,"y":-29,"visible":true,"properties":[{"name":"layer","type":"int","value":1},{"name":"resource_index","type":"int","value":541},{"name":"u","type":"string","value":"enH1"},{"name":"no","type":"int","value":0},{"name":"zM","type":"int","value":13}],"gid":12,"width":90,"height":31},{"id":545,"x":270,"y":-2460,"visible":true,"properties":[{"name":"layer","type":"int","value":1},{"name":"resource_index","type":"int","value":542},{"name":"u","type":"string","value":"bsc"},{"name":"no","type":"int","value":2},{"name":"zM","type":"int","value":164}],"gid":7,"width":90,"height":60},{"id":546,"x":180,"y":-2460,"visible":true,"properties":[{"name":"layer","type":"int","value":1},{"name":"resource_index","type":"int","value":543},{"name":"u","type":"string","value":"bsc"},{"name":"no","type":"int","value":0},{"name":"zM","type":"int","value":164}],"gid":6,"width":90,"height":60},{"id":547,"x":180,"y":-2520,"visible":true,"properties":[{"name":"layer","type":"int","value":1},{"name":"resource_index","type":"int","value":544},{"name":"u","type":"string","value":"enH0"},{"name":"no","type":"int","value":0},{"name":"zM","type":"int","value":164}],"gid":9,"width":90,"height":24},{"id":548,"x":90,"y":-2520,"visible":true,"properties":[{"name":"layer","type":"int","value":1},{"name":"resource_index","type":"int","value":545},{"name":"u","type":"string","value":"enH0"},{"name":"no","type":"int","value":0},{"name":"zM","type":"int","value":164}],"gid":9,"width":90,"height":24},{"id":549,"x":180,"y":-2340,"visible":true,"properties":[{"name":"layer","type":"int","value":1},{"name":"resource_index","type":"int","value":546},{"name":"u","type":"string","value":"bsc"},{"name":"no","type":"int","value":2},{"name":"zM","type":"int","value":164}],"gid":7,"width":90,"height":60},{"id":550,"x":-270,"y":-2400,"visible":true,"properties":[{"name":"layer","type":"int","value":1},{"name":"resource_index","type":"int","value":547},{"name":"u","type":"string","value":"bsc"},{"name":"no","type":"int","value":0},{"name":"zM","type":"int","value":164}],"gid":6,"width":90,"height":60},{"id":551,"x":-1620,"y":-1680,"visible":true,"properties":[{"name":"layer","type":"int","value":1},{"name":"resource_index","type":"int","value":548},{"name":"u","type":"string","value":"bsc"},{"name":"no","type":"int","value":2},{"name":"zM","type":"int","value":146}],"gid":7,"width":90,"height":60},{"id":552,"x":0,"y":-2400,"visible":true,"properties":[{"name":"layer","type":"int","value":1},{"name":"resource_index","type":"int","value":549},{"name":"u","type":"string","value":"bsc"},{"name":"no","type":"int","value":0},{"name":"zM","type":"int","value":164}],"gid":6,"width":90,"height":60},{"id":553,"x":-180,"y":451,"visible":true,"properties":[{"name":"layer","type":"int","value":1},{"name":"resource_index","type":"int","value":550},{"name":"u","type":"string","value":"enH1"},{"name":"no","type":"int","value":0},{"name":"zM","type":"int","value":0}],"gid":12,"width":90,"height":31},{"id":554,"x":0,"y":451,"visible":true,"properties":[{"name":"layer","type":"int","value":1},{"name":"resource_index","type":"int","value":551},{"name":"u","type":"string","value":"enH1"},{"name":"no","type":"int","value":0},{"name":"zM","type":"int","value":0}],"gid":12,"width":90,"height":31},{"id":555,"x":180,"y":451,"visible":true,"properties":[{"name":"layer","type":"int","value":1},{"name":"resource_index","type":"int","value":552},{"name":"u","type":"string","value":"enH1"},{"name":"no","type":"int","value":0},{"name":"zM","type":"int","value":0}],"gid":12,"width":90,"height":31},{"id":556,"x":-291,"y":-1239,"visible":true,"properties":[{"name":"layer","type":"int","value":1},{"name":"resource_index","type":"int","value":553},{"name":"u","type":"string","value":"edD"},{"name":"no","type":"int","value":0},{"name":"zM","type":"int","value":120}],"gid":13,"width":40,"height":21},{"id":557,"x":-1170,"y":-2400,"visible":true,"properties":[{"name":"layer","type":"int","value":1},{"name":"resource_index","type":"int","value":554},{"name":"u","type":"string","value":"bsc"},{"name":"no","type":"int","value":1},{"name":"zM","type":"int","value":165}],"gid":8,"width":90,"height":60},{"id":558,"x":245,"y":-2160,"visible":true,"properties":[{"name":"layer","type":"int","value":1},{"name":"resource_index","type":"int","value":555},{"name":"u","type":"string","value":"edU"},{"name":"no","type":"int","value":0},{"name":"zM","type":"int","value":159}],"gid":11,"width":47,"height":25},{"id":559,"x":-295,"y":-1260,"visible":true,"properties":[{"name":"layer","type":"int","value":1},{"name":"resource_index","type":"int","value":556},{"name":"u","type":"string","value":"edU"},{"name":"no","type":"int","value":0},{"name":"zM","type":"int","value":120}],"gid":11,"width":47,"height":25},{"id":560,"x":335,"y":-2160,"visible":true,"properties":[{"name":"layer","type":"int","value":1},{"name":"resource_index","type":"int","value":557},{"name":"u","type":"string","value":"edU"},{"name":"no","type":"int","value":0},{"name":"zM","type":"int","value":159}],"gid":11,"width":47,"height":25},{"id":561,"x":360,"y":-2100,"visible":true,"properties":[{"name":"layer","type":"int","value":1},{"name":"resource_index","type":"int","value":558},{"name":"u","type":"string","value":"enV1"},{"name":"no","type":"int","value":0},{"name":"zM","type":"int","value":159}],"gid":10,"width":20,"height":60},{"id":562,"x":-655,"y":-1380,"visible":true,"properties":[{"name":"layer","type":"int","value":1},{"name":"resource_index","type":"int","value":559},{"name":"u","type":"string","value":"edU"},{"name":"no","type":"int","value":0},{"name":"zM","type":"int","value":122}],"gid":11,"width":47,"height":25},{"id":563,"x":-630,"y":-1320,"visible":true,"properties":[{"name":"layer","type":"int","value":1},{"name":"resource_index","type":"int","value":560},{"name":"u","type":"string","value":"enV1"},{"name":"no","type":"int","value":0},{"name":"zM","type":"int","value":122}],"gid":10,"width":20,"height":60},{"id":564,"x":-745,"y":-1380,"visible":true,"properties":[{"name":"layer","type":"int","value":1},{"name":"resource_index","type":"int","value":561},{"name":"u","type":"string","value":"edU"},{"name":"no","type":"int","value":0},{"name":"zM","type":"int","value":122}],"gid":11,"width":47,"height":25},{"id":565,"x":-740,"y":-1320,"visible":true,"properties":[{"name":"layer","type":"int","value":1},{"name":"resource_index","type":"int","value":562},{"name":"u","type":"string","value":"enV0"},{"name":"no","type":"int","value":0},{"name":"zM","type":"int","value":122}],"gid":15,"width":20,"height":60},{"id":566,"x":-720,"y":-1380,"visible":true,"properties":[{"name":"layer","type":"int","value":1},{"name":"resource_index","type":"int","value":563},{"name":"u","type":"string","value":"enH0"},{"name":"no","type":"int","value":0},{"name":"zM","type":"int","value":122}],"gid":9,"width":90,"height":24},{"id":567,"x":-720,"y":-1320,"visible":true,"properties":[{"name":"layer","type":"int","value":1},{"name":"resource_index","type":"int","value":564},{"name":"u","type":"string","value":"bsc"},{"name":"no","type":"int","value":2},{"name":"zM","type":"int","value":122}],"gid":7,"width":90,"height":60},{"id":568,"x":-990,"y":240,"visible":true,"properties":[{"name":"layer","type":"int","value":1},{"name":"resource_index","type":"int","value":565},{"name":"u","type":"string","value":"bsc"},{"name":"no","type":"int","value":2},{"name":"zM","type":"int","value":0}],"gid":7,"width":90,"height":60},{"id":569,"x":-1170,"y":240,"visible":true,"properties":[{"name":"layer","type":"int","value":1},{"name":"resource_index","type":"int","value":566},{"name":"u","type":"string","value":"bsc"},{"name":"no","type":"int","value":0},{"name":"zM","type":"int","value":0}],"gid":6,"width":90,"height":60},{"id":570,"x":-470,"y":-180,"visible":true,"properties":[{"name":"layer","type":"int","value":1},{"name":"resource_index","type":"int","value":567},{"name":"u","type":"string","value":"enV0"},{"name":"no","type":"int","value":0},{"name":"zM","type":"int","value":31}],"gid":15,"width":20,"height":60},{"id":571,"x":-1620,"y":-629,"visible":true,"properties":[{"name":"layer","type":"int","value":1},{"name":"resource_index","type":"int","value":568},{"name":"u","type":"string","value":"enH1"},{"name":"no","type":"int","value":0},{"name":"zM","type":"int","value":70}],"gid":12,"width":90,"height":31},{"id":572,"x":180,"y":-2249,"visible":true,"properties":[{"name":"layer","type":"int","value":1},{"name":"resource_index","type":"int","value":569},{"name":"u","type":"string","value":"enH1"},{"name":"no","type":"int","value":0},{"name":"zM","type":"int","value":164}],"gid":12,"width":90,"height":31},{"id":573,"x":-475,"y":-240,"visible":true,"properties":[{"name":"layer","type":"int","value":1},{"name":"resource_index","type":"int","value":570},{"name":"u","type":"string","value":"edU"},{"name":"no","type":"int","value":0},{"name":"zM","type":"int","value":31}],"gid":11,"width":47,"height":25},{"id":574,"x":-1350,"y":451,"visible":true,"properties":[{"name":"layer","type":"int","value":1},{"name":"resource_index","type":"int","value":571},{"name":"u","type":"string","value":"enH1"},{"name":"no","type":"int","value":0},{"name":"zM","type":"int","value":0}],"gid":12,"width":90,"height":31},{"id":575,"x":-1620,"y":-1649,"visible":true,"properties":[{"name":"layer","type":"int","value":1},{"name":"resource_index","type":"int","value":572},{"name":"u","type":"string","value":"enH1"},{"name":"no","type":"int","value":0},{"name":"zM","type":"int","value":146}],"gid":12,"width":90,"height":31},{"id":576,"x":69,"y":-2259,"visible":true,"properties":[{"name":"layer","type":"int","value":1},{"name":"resource_index","type":"int","value":573},{"name":"u","type":"string","value":"edD"},{"name":"no","type":"int","value":0},{"name":"zM","type":"int","value":164}],"gid":13,"width":40,"height":21},{"id":577,"x":-1170,"y":451,"visible":true,"properties":[{"name":"layer","type":"int","value":1},{"name":"resource_index","type":"int","value":574},{"name":"u","type":"string","value":"enH1"},{"name":"no","type":"int","value":0},{"name":"zM","type":"int","value":0}],"gid":12,"width":90,"height":31},{"id":578,"x":-990,"y":451,"visible":true,"properties":[{"name":"layer","type":"int","value":1},{"name":"resource_index","type":"int","value":575},{"name":"u","type":"string","value":"enH1"},{"name":"no","type":"int","value":0},{"name":"zM","type":"int","value":0}],"gid":12,"width":90,"height":31},{"id":579,"x":360,"y":-2340,"visible":true,"properties":[{"name":"layer","type":"int","value":1},{"name":"resource_index","type":"int","value":576},{"name":"u","type":"string","value":"enV1"},{"name":"no","type":"int","value":0},{"name":"zM","type":"int","value":164}],"gid":10,"width":20,"height":60},{"id":580,"x":-835,"y":-2280,"visible":true,"properties":[{"name":"layer","type":"int","value":1},{"name":"resource_index","type":"int","value":577},{"name":"u","type":"string","value":"edU"},{"name":"no","type":"int","value":0},{"name":"zM","type":"int","value":163}],"gid":11,"width":47,"height":25},{"id":581,"x":-745,"y":-1680,"visible":true,"properties":[{"name":"layer","type":"int","value":1},{"name":"resource_index","type":"int","value":578},{"name":"u","type":"string","value":"edU"},{"name":"no","type":"int","value":0},{"name":"zM","type":"int","value":146}],"gid":11,"width":47,"height":25},{"id":582,"x":70,"y":-2280,"visible":true,"properties":[{"name":"layer","type":"int","value":1},{"name":"resource_index","type":"int","value":579},{"name":"u","type":"string","value":"enV0"},{"name":"no","type":"int","value":0},{"name":"zM","type":"int","value":164}],"gid":15,"width":20,"height":60},{"id":583,"x":360,"y":240,"visible":true,"properties":[{"name":"layer","type":"int","value":1},{"name":"resource_index","type":"int","value":580},{"name":"u","type":"string","value":"enV1"},{"name":"no","type":"int","value":0},{"name":"zM","type":"int","value":0}],"gid":10,"width":20,"height":60},{"id":584,"x":270,"y":451,"visible":true,"properties":[{"name":"layer","type":"int","value":1},{"name":"resource_index","type":"int","value":581},{"name":"u","type":"string","value":"enH1"},{"name":"no","type":"int","value":0},{"name":"zM","type":"int","value":0}],"gid":12,"width":90,"height":31},{"id":585,"x":270,"y":-1889,"visible":true,"properties":[{"name":"layer","type":"int","value":1},{"name":"resource_index","type":"int","value":582},{"name":"u","type":"string","value":"enH1"},{"name":"no","type":"int","value":0},{"name":"zM","type":"int","value":159}],"gid":12,"width":90,"height":31},{"id":586,"x":270,"y":180,"visible":true,"properties":[{"name":"layer","type":"int","value":1},{"name":"resource_index","type":"int","value":583},{"name":"u","type":"string","value":"enH0"},{"name":"no","type":"int","value":0},{"name":"zM","type":"int","value":0}],"gid":9,"width":90,"height":24},{"id":587,"x":360,"y":420,"visible":true,"properties":[{"name":"layer","type":"int","value":1},{"name":"resource_index","type":"int","value":584},{"name":"u","type":"string","value":"enV1"},{"name":"no","type":"int","value":0},{"name":"zM","type":"int","value":0}],"gid":10,"width":20,"height":60},{"id":588,"x":90,"y":-2249,"visible":true,"properties":[{"name":"layer","type":"int","value":1},{"name":"resource_index","type":"int","value":585},{"name":"u","type":"string","value":"enH1"},{"name":"no","type":"int","value":0},{"name":"zM","type":"int","value":164}],"gid":12,"width":90,"height":31},{"id":589,"x":159,"y":-1239,"visible":true,"properties":[{"name":"layer","type":"int","value":1},{"name":"resource_index","type":"int","value":586},{"name":"u","type":"string","value":"edD"},{"name":"no","type":"int","value":0},{"name":"zM","type":"int","value":120}],"gid":13,"width":40,"height":21},{"id":590,"x":335,"y":180,"visible":true,"properties":[{"name":"layer","type":"int","value":1},{"name":"resource_index","type":"int","value":587},{"name":"u","type":"string","value":"edU"},{"name":"no","type":"int","value":0},{"name":"zM","type":"int","value":0}],"gid":11,"width":47,"height":25},{"id":591,"x":270,"y":-2160,"visible":true,"properties":[{"name":"layer","type":"int","value":1},{"name":"resource_index","type":"int","value":588},{"name":"u","type":"string","value":"enH0"},{"name":"no","type":"int","value":0},{"name":"zM","type":"int","value":159}],"gid":9,"width":90,"height":24},{"id":592,"x":-290,"y":-1680,"visible":true,"properties":[{"name":"layer","type":"int","value":1},{"name":"resource_index","type":"int","value":589},{"name":"u","type":"string","value":"enV0"},{"name":"no","type":"int","value":0},{"name":"zM","type":"int","value":147}],"gid":15,"width":20,"height":60},{"id":593,"x":-1620,"y":-660,"visible":true,"properties":[{"name":"layer","type":"int","value":1},{"name":"resource_index","type":"int","value":590},{"name":"u","type":"string","value":"enH0"},{"name":"no","type":"int","value":0},{"name":"zM","type":"int","value":70}],"gid":9,"width":90,"height":24},{"id":594,"x":-1620,"y":451,"visible":true,"properties":[{"name":"layer","type":"int","value":1},{"name":"resource_index","type":"int","value":591},{"name":"u","type":"string","value":"enH1"},{"name":"no","type":"int","value":0},{"name":"zM","type":"int","value":0}],"gid":12,"width":90,"height":31},{"id":595,"x":0,"y":-149,"visible":true,"properties":[{"name":"layer","type":"int","value":1},{"name":"resource_index","type":"int","value":592},{"name":"u","type":"string","value":"enH1"},{"name":"no","type":"int","value":0},{"name":"zM","type":"int","value":31}],"gid":12,"width":90,"height":31},{"id":596,"x":-741,"y":-879,"visible":true,"properties":[{"name":"layer","type":"int","value":1},{"name":"resource_index","type":"int","value":593},{"name":"u","type":"string","value":"edD"},{"name":"no","type":"int","value":0},{"name":"zM","type":"int","value":93}],"gid":13,"width":40,"height":21},{"id":597,"x":270,"y":-2400,"visible":true,"properties":[{"name":"layer","type":"int","value":1},{"name":"resource_index","type":"int","value":594},{"name":"u","type":"string","value":"bsc"},{"name":"no","type":"int","value":0},{"name":"zM","type":"int","value":164}],"gid":6,"width":90,"height":60},{"id":598,"x":-630,"y":451,"visible":true,"properties":[{"name":"layer","type":"int","value":1},{"name":"resource_index","type":"int","value":595},{"name":"u","type":"string","value":"enH1"},{"name":"no","type":"int","value":0},{"name":"zM","type":"int","value":0}],"gid":12,"width":90,"height":31},{"id":599,"x":-270,"y":-1740,"visible":true,"properties":[{"name":"layer","type":"int","value":1},{"name":"resource_index","type":"int","value":596},{"name":"u","type":"string","value":"enH0"},{"name":"no","type":"int","value":0},{"name":"zM","type":"int","value":147}],"gid":9,"width":90,"height":24},{"id":600,"x":-1440,"y":-840,"visible":true,"properties":[{"name":"layer","type":"int","value":1},{"name":"resource_index","type":"int","value":597},{"name":"u","type":"string","value":"enH0"},{"name":"no","type":"int","value":0},{"name":"zM","type":"int","value":79}],"gid":9,"width":90,"height":24},{"id":601,"x":-360,"y":-1657,"visible":true,"properties":[{"name":"layer","type":"int","value":1},{"name":"resource_index","type":"int","value":598},{"name":"u","type":"string","value":"slLD"},{"name":"no","type":"int","value":0},{"name":"zM","type":"int","value":147}],"gid":16,"width":90,"height":83},{"id":602,"x":-201,"y":-1719,"visible":true,"properties":[{"name":"layer","type":"int","value":1},{"name":"resource_index","type":"int","value":599},{"name":"u","type":"string","value":"edD"},{"name":"no","type":"int","value":0},{"name":"zM","type":"int","value":147}],"gid":13,"width":40,"height":21},{"id":603,"x":-1530,"y":-780,"visible":true,"properties":[{"name":"layer","type":"int","value":1},{"name":"resource_index","type":"int","value":600},{"name":"u","type":"string","value":"bsc"},{"name":"no","type":"int","value":0},{"name":"zM","type":"int","value":79}],"gid":6,"width":90,"height":60},{"id":604,"x":-1530,"y":-840,"visible":true,"properties":[{"name":"layer","type":"int","value":1},{"name":"resource_index","type":"int","value":601},{"name":"u","type":"string","value":"enH0"},{"name":"no","type":"int","value":0},{"name":"zM","type":"int","value":79}],"gid":9,"width":90,"height":24},{"id":605,"x":-655,"y":-1500,"visible":true,"properties":[{"name":"layer","type":"int","value":1},{"name":"resource_index","type":"int","value":602},{"name":"u","type":"string","value":"edU"},{"name":"no","type":"int","value":0},{"name":"zM","type":"int","value":130}],"gid":11,"width":47,"height":25},{"id":606,"x":-651,"y":-1479,"visible":true,"properties":[{"name":"layer","type":"int","value":1},{"name":"resource_index","type":"int","value":603},{"name":"u","type":"string","value":"edD"},{"name":"no","type":"int","value":0},{"name":"zM","type":"int","value":130}],"gid":13,"width":40,"height":21},{"id":607,"x":-745,"y":-1500,"visible":true,"properties":[{"name":"layer","type":"int","value":1},{"name":"resource_index","type":"int","value":604},{"name":"u","type":"string","value":"edU"},{"name":"no","type":"int","value":0},{"name":"zM","type":"int","value":130}],"gid":11,"width":47,"height":25},{"id":608,"x":-741,"y":-1479,"visible":true,"properties":[{"name":"layer","type":"int","value":1},{"name":"resource_index","type":"int","value":605},{"name":"u","type":"string","value":"edD"},{"name":"no","type":"int","value":0},{"name":"zM","type":"int","value":130}],"gid":13,"width":40,"height":21},{"id":609,"x":-720,"y":-1500,"visible":true,"properties":[{"name":"layer","type":"int","value":1},{"name":"resource_index","type":"int","value":606},{"name":"u","type":"string","value":"enH0"},{"name":"no","type":"int","value":0},{"name":"zM","type":"int","value":130}],"gid":9,"width":90,"height":24},{"id":610,"x":-720,"y":-1469,"visible":true,"properties":[{"name":"layer","type":"int","value":1},{"name":"resource_index","type":"int","value":607},{"name":"u","type":"string","value":"enH1"},{"name":"no","type":"int","value":0},{"name":"zM","type":"int","value":130}],"gid":12,"width":90,"height":31},{"id":611,"x":-1370,"y":-2400,"visible":true,"properties":[{"name":"layer","type":"int","value":1},{"name":"resource_index","type":"int","value":608},{"name":"u","type":"string","value":"enV0"},{"name":"no","type":"int","value":0},{"name":"zM","type":"int","value":165}],"gid":15,"width":20,"height":60},{"id":612,"x":-1375,"y":-120,"visible":true,"properties":[{"name":"layer","type":"int","value":1},{"name":"resource_index","type":"int","value":609},{"name":"u","type":"string","value":"edU"},{"name":"no","type":"int","value":0},{"name":"zM","type":"int","value":23}],"gid":11,"width":47,"height":25},{"id":613,"x":-1530,"y":120,"visible":true,"properties":[{"name":"layer","type":"int","value":1},{"name":"resource_index","type":"int","value":610},{"name":"u","type":"string","value":"enV1"},{"name":"no","type":"int","value":0},{"name":"zM","type":"int","value":0}],"gid":10,"width":20,"height":60},{"id":614,"x":-1371,"y":21,"visible":true,"properties":[{"name":"layer","type":"int","value":1},{"name":"resource_index","type":"int","value":611},{"name":"u","type":"string","value":"edD"},{"name":"no","type":"int","value":0},{"name":"zM","type":"int","value":10}],"gid":13,"width":40,"height":21},{"id":615,"x":-745,"y":-900,"visible":true,"properties":[{"name":"layer","type":"int","value":1},{"name":"resource_index","type":"int","value":612},{"name":"u","type":"string","value":"edU"},{"name":"no","type":"int","value":0},{"name":"zM","type":"int","value":93}],"gid":11,"width":47,"height":25},{"id":616,"x":-1620,"y":-60,"visible":true,"properties":[{"name":"layer","type":"int","value":1},{"name":"resource_index","type":"int","value":613},{"name":"u","type":"string","value":"bsc"},{"name":"no","type":"int","value":1},{"name":"zM","type":"int","value":0}],"gid":8,"width":90,"height":60},{"id":617,"x":-745,"y":-1620,"visible":true,"properties":[{"name":"layer","type":"int","value":1},{"name":"resource_index","type":"int","value":614},{"name":"u","type":"string","value":"edU"},{"name":"no","type":"int","value":0},{"name":"zM","type":"int","value":140}],"gid":11,"width":47,"height":25},{"id":618,"x":-741,"y":-1599,"visible":true,"properties":[{"name":"layer","type":"int","value":1},{"name":"resource_index","type":"int","value":615},{"name":"u","type":"string","value":"edD"},{"name":"no","type":"int","value":0},{"name":"zM","type":"int","value":140}],"gid":13,"width":40,"height":21},{"id":619,"x":-655,"y":-1620,"visible":true,"properties":[{"name":"layer","type":"int","value":1},{"name":"resource_index","type":"int","value":616},{"name":"u","type":"string","value":"edU"},{"name":"no","type":"int","value":0},{"name":"zM","type":"int","value":140}],"gid":11,"width":47,"height":25},{"id":620,"x":-651,"y":-1599,"visible":true,"properties":[{"name":"layer","type":"int","value":1},{"name":"resource_index","type":"int","value":617},{"name":"u","type":"string","value":"edD"},{"name":"no","type":"int","value":0},{"name":"zM","type":"int","value":140}],"gid":13,"width":40,"height":21},{"id":621,"x":-720,"y":-1620,"visible":true,"properties":[{"name":"layer","type":"int","value":1},{"name":"resource_index","type":"int","value":618},{"name":"u","type":"string","value":"enH0"},{"name":"no","type":"int","value":0},{"name":"zM","type":"int","value":140}],"gid":9,"width":90,"height":24},{"id":622,"x":-720,"y":-1589,"visible":true,"properties":[{"name":"layer","type":"int","value":1},{"name":"resource_index","type":"int","value":619},{"name":"u","type":"string","value":"enH1"},{"name":"no","type":"int","value":0},{"name":"zM","type":"int","value":140}],"gid":12,"width":90,"height":31},{"id":623,"x":-810,"y":-1649,"visible":true,"properties":[{"name":"layer","type":"int","value":1},{"name":"resource_index","type":"int","value":620},{"name":"u","type":"string","value":"enH1"},{"name":"no","type":"int","value":0},{"name":"zM","type":"int","value":146}],"gid":12,"width":90,"height":31},{"id":624,"x":-810,"y":-1680,"visible":true,"properties":[{"name":"layer","type":"int","value":1},{"name":"resource_index","type":"int","value":621},{"name":"u","type":"string","value":"enH0"},{"name":"no","type":"int","value":0},{"name":"zM","type":"int","value":146}],"gid":9,"width":90,"height":24},{"id":625,"x":-810,"y":451,"visible":true,"properties":[{"name":"layer","type":"int","value":1},{"name":"resource_index","type":"int","value":622},{"name":"u","type":"string","value":"enH1"},{"name":"no","type":"int","value":0},{"name":"zM","type":"int","value":0}],"gid":12,"width":90,"height":31},{"id":626,"x":-1080,"y":451,"visible":true,"properties":[{"name":"layer","type":"int","value":1},{"name":"resource_index","type":"int","value":623},{"name":"u","type":"string","value":"enH1"},{"name":"no","type":"int","value":0},{"name":"zM","type":"int","value":0}],"gid":12,"width":90,"height":31},{"id":627,"x":-111,"y":-1599,"visible":true,"properties":[{"name":"layer","type":"int","value":1},{"name":"resource_index","type":"int","value":624},{"name":"u","type":"string","value":"edD"},{"name":"no","type":"int","value":0},{"name":"zM","type":"int","value":134}],"gid":13,"width":40,"height":21},{"id":628,"x":90,"y":-1620,"visible":true,"properties":[{"name":"layer","type":"int","value":1},{"name":"resource_index","type":"int","value":625},{"name":"u","type":"string","value":"enH0"},{"name":"no","type":"int","value":0},{"name":"zM","type":"int","value":134}],"gid":9,"width":90,"height":24},{"id":629,"x":-381,"y":-639,"visible":true,"properties":[{"name":"layer","type":"int","value":1},{"name":"resource_index","type":"int","value":626},{"name":"u","type":"string","value":"edD"},{"name":"no","type":"int","value":0},{"name":"zM","type":"int","value":72}],"gid":13,"width":40,"height":21},{"id":630,"x":-385,"y":-660,"visible":true,"properties":[{"name":"layer","type":"int","value":1},{"name":"resource_index","type":"int","value":627},{"name":"u","type":"string","value":"edU"},{"name":"no","type":"int","value":0},{"name":"zM","type":"int","value":72}],"gid":11,"width":47,"height":25},{"id":631,"x":-1170,"y":-1680,"visible":true,"properties":[{"name":"layer","type":"int","value":1},{"name":"resource_index","type":"int","value":628},{"name":"u","type":"string","value":"bsc"},{"name":"no","type":"int","value":1},{"name":"zM","type":"int","value":146}],"gid":8,"width":90,"height":60},{"id":632,"x":-925,"y":-1740,"visible":true,"properties":[{"name":"layer","type":"int","value":1},{"name":"resource_index","type":"int","value":629},{"name":"u","type":"string","value":"edU"},{"name":"no","type":"int","value":0},{"name":"zM","type":"int","value":146}],"gid":11,"width":47,"height":25},{"id":633,"x":-900,"y":-1649,"visible":true,"properties":[{"name":"layer","type":"int","value":1},{"name":"resource_index","type":"int","value":630},{"name":"u","type":"string","value":"enH1"},{"name":"no","type":"int","value":0},{"name":"zM","type":"int","value":146}],"gid":12,"width":90,"height":31},{"id":634,"x":-1080,"y":-1680,"visible":true,"properties":[{"name":"layer","type":"int","value":1},{"name":"resource_index","type":"int","value":631},{"name":"u","type":"string","value":"bsc"},{"name":"no","type":"int","value":0},{"name":"zM","type":"int","value":146}],"gid":6,"width":90,"height":60},{"id":635,"x":-1440,"y":-1680,"visible":true,"properties":[{"name":"layer","type":"int","value":1},{"name":"resource_index","type":"int","value":632},{"name":"u","type":"string","value":"bsc"},{"name":"no","type":"int","value":1},{"name":"zM","type":"int","value":146}],"gid":8,"width":90,"height":60},{"id":636,"x":-1260,"y":-1680,"visible":true,"properties":[{"name":"layer","type":"int","value":1},{"name":"resource_index","type":"int","value":633},{"name":"u","type":"string","value":"bsc"},{"name":"no","type":"int","value":2},{"name":"zM","type":"int","value":146}],"gid":7,"width":90,"height":60},{"id":637,"x":-1170,"y":-1649,"visible":true,"properties":[{"name":"layer","type":"int","value":1},{"name":"resource_index","type":"int","value":634},{"name":"u","type":"string","value":"enH1"},{"name":"no","type":"int","value":0},{"name":"zM","type":"int","value":146}],"gid":12,"width":90,"height":31},{"id":638,"x":-990,"y":-1649,"visible":true,"properties":[{"name":"layer","type":"int","value":1},{"name":"resource_index","type":"int","value":635},{"name":"u","type":"string","value":"enH1"},{"name":"no","type":"int","value":0},{"name":"zM","type":"int","value":146}],"gid":12,"width":90,"height":31},{"id":639,"x":-900,"y":-1680,"visible":true,"properties":[{"name":"layer","type":"int","value":1},{"name":"resource_index","type":"int","value":636},{"name":"u","type":"string","value":"enV1"},{"name":"no","type":"int","value":0},{"name":"zM","type":"int","value":146}],"gid":10,"width":20,"height":60},{"id":640,"x":-1530,"y":120,"visible":true,"properties":[{"name":"layer","type":"int","value":1},{"name":"resource_index","type":"int","value":637},{"name":"u","type":"string","value":"enH0"},{"name":"no","type":"int","value":0},{"name":"zM","type":"int","value":0}],"gid":9,"width":90,"height":24},{"id":641,"x":-990,"y":-1740,"visible":true,"properties":[{"name":"layer","type":"int","value":1},{"name":"resource_index","type":"int","value":638},{"name":"u","type":"string","value":"enH0"},{"name":"no","type":"int","value":0},{"name":"zM","type":"int","value":146}],"gid":9,"width":90,"height":24},{"id":642,"x":-900,"y":-1680,"visible":true,"properties":[{"name":"layer","type":"int","value":1},{"name":"resource_index","type":"int","value":639},{"name":"u","type":"string","value":"enH0"},{"name":"no","type":"int","value":0},{"name":"zM","type":"int","value":146}],"gid":9,"width":90,"height":24},{"id":643,"x":-990,"y":-1680,"visible":true,"properties":[{"name":"layer","type":"int","value":1},{"name":"resource_index","type":"int","value":640},{"name":"u","type":"string","value":"bsc"},{"name":"no","type":"int","value":2},{"name":"zM","type":"int","value":146}],"gid":7,"width":90,"height":60},{"id":644,"x":-1260,"y":-1800,"visible":true,"properties":[{"name":"layer","type":"int","value":1},{"name":"resource_index","type":"int","value":641},{"name":"u","type":"string","value":"enH0"},{"name":"no","type":"int","value":0},{"name":"zM","type":"int","value":146}],"gid":9,"width":90,"height":24},{"id":645,"x":155,"y":-1260,"visible":true,"properties":[{"name":"layer","type":"int","value":1},{"name":"resource_index","type":"int","value":642},{"name":"u","type":"string","value":"edU"},{"name":"no","type":"int","value":0},{"name":"zM","type":"int","value":120}],"gid":11,"width":47,"height":25},{"id":646,"x":-180,"y":-1260,"visible":true,"properties":[{"name":"layer","type":"int","value":1},{"name":"resource_index","type":"int","value":643},{"name":"u","type":"string","value":"enH0"},{"name":"no","type":"int","value":0},{"name":"zM","type":"int","value":120}],"gid":9,"width":90,"height":24},{"id":647,"x":-450,"y":451,"visible":true,"properties":[{"name":"layer","type":"int","value":1},{"name":"resource_index","type":"int","value":644},{"name":"u","type":"string","value":"enH1"},{"name":"no","type":"int","value":0},{"name":"zM","type":"int","value":0}],"gid":12,"width":90,"height":31},{"id":648,"x":-1530,"y":-1800,"visible":true,"properties":[{"name":"layer","type":"int","value":1},{"name":"resource_index","type":"int","value":645},{"name":"u","type":"string","value":"enH0"},{"name":"no","type":"int","value":0},{"name":"zM","type":"int","value":146}],"gid":9,"width":90,"height":24},{"id":649,"x":90,"y":451,"visible":true,"properties":[{"name":"layer","type":"int","value":1},{"name":"resource_index","type":"int","value":646},{"name":"u","type":"string","value":"enH1"},{"name":"no","type":"int","value":0},{"name":"zM","type":"int","value":0}],"gid":12,"width":90,"height":31},{"id":650,"x":-1530,"y":451,"visible":true,"properties":[{"name":"layer","type":"int","value":1},{"name":"resource_index","type":"int","value":647},{"name":"u","type":"string","value":"enH1"},{"name":"no","type":"int","value":0},{"name":"zM","type":"int","value":0}],"gid":12,"width":90,"height":31},{"id":651,"x":-1530,"y":0,"visible":true,"properties":[{"name":"layer","type":"int","value":1},{"name":"resource_index","type":"int","value":648},{"name":"u","type":"string","value":"enV1"},{"name":"no","type":"int","value":0},{"name":"zM","type":"int","value":0}],"gid":10,"width":20,"height":60},{"id":652,"x":-1440,"y":-1260,"visible":true,"properties":[{"name":"layer","type":"int","value":1},{"name":"resource_index","type":"int","value":649},{"name":"u","type":"string","value":"bsc"},{"name":"no","type":"int","value":1},{"name":"zM","type":"int","value":122}],"gid":8,"width":90,"height":60},{"id":653,"x":-1350,"y":-1740,"visible":true,"properties":[{"name":"layer","type":"int","value":1},{"name":"resource_index","type":"int","value":650},{"name":"u","type":"string","value":"bsc"},{"name":"no","type":"int","value":2},{"name":"zM","type":"int","value":146}],"gid":7,"width":90,"height":60},{"id":654,"x":-1260,"y":-1740,"visible":true,"properties":[{"name":"layer","type":"int","value":1},{"name":"resource_index","type":"int","value":651},{"name":"u","type":"string","value":"bsc"},{"name":"no","type":"int","value":1},{"name":"zM","type":"int","value":146}],"gid":8,"width":90,"height":60},{"id":655,"x":270,"y":-2340,"visible":true,"properties":[{"name":"layer","type":"int","value":1},{"name":"resource_index","type":"int","value":652},{"name":"u","type":"string","value":"bsc"},{"name":"no","type":"int","value":1},{"name":"zM","type":"int","value":164}],"gid":8,"width":90,"height":60},{"id":656,"x":-1440,"y":-1800,"visible":true,"properties":[{"name":"layer","type":"int","value":1},{"name":"resource_index","type":"int","value":653},{"name":"u","type":"string","value":"enH0"},{"name":"no","type":"int","value":0},{"name":"zM","type":"int","value":146}],"gid":9,"width":90,"height":24},{"id":657,"x":-1440,"y":-1740,"visible":true,"properties":[{"name":"layer","type":"int","value":1},{"name":"resource_index","type":"int","value":654},{"name":"u","type":"string","value":"bsc"},{"name":"no","type":"int","value":0},{"name":"zM","type":"int","value":146}],"gid":6,"width":90,"height":60},{"id":658,"x":-1440,"y":-1229,"visible":true,"properties":[{"name":"layer","type":"int","value":1},{"name":"resource_index","type":"int","value":655},{"name":"u","type":"string","value":"enH1"},{"name":"no","type":"int","value":0},{"name":"zM","type":"int","value":122}],"gid":12,"width":90,"height":31},{"id":659,"x":-201,"y":-1179,"visible":true,"properties":[{"name":"layer","type":"int","value":1},{"name":"resource_index","type":"int","value":656},{"name":"u","type":"string","value":"edD"},{"name":"no","type":"int","value":0},{"name":"zM","type":"int","value":120}],"gid":13,"width":40,"height":21},{"id":660,"x":-200,"y":-1200,"visible":true,"properties":[{"name":"layer","type":"int","value":1},{"name":"resource_index","type":"int","value":657},{"name":"u","type":"string","value":"enV0"},{"name":"no","type":"int","value":0},{"name":"zM","type":"int","value":120}],"gid":15,"width":20,"height":60},{"id":661,"x":-1530,"y":-1680,"visible":true,"properties":[{"name":"layer","type":"int","value":1},{"name":"resource_index","type":"int","value":658},{"name":"u","type":"string","value":"bsc"},{"name":"no","type":"int","value":2},{"name":"zM","type":"int","value":146}],"gid":7,"width":90,"height":60},{"id":662,"x":-1730,"y":240,"visible":true,"properties":[{"name":"layer","type":"int","value":1},{"name":"resource_index","type":"int","value":659},{"name":"u","type":"string","value":"enV0"},{"name":"no","type":"int","value":0},{"name":"zM","type":"int","value":0}],"gid":15,"width":20,"height":60},{"id":663,"x":-1730,"y":-60,"visible":true,"properties":[{"name":"layer","type":"int","value":1},{"name":"resource_index","type":"int","value":660},{"name":"u","type":"string","value":"enV0"},{"name":"no","type":"int","value":0},{"name":"zM","type":"int","value":0}],"gid":15,"width":20,"height":60},{"id":664,"x":-1350,"y":-1800,"visible":true,"properties":[{"name":"layer","type":"int","value":1},{"name":"resource_index","type":"int","value":661},{"name":"u","type":"string","value":"enH0"},{"name":"no","type":"int","value":0},{"name":"zM","type":"int","value":146}],"gid":9,"width":90,"height":24},{"id":665,"x":-1620,"y":-1800,"visible":true,"properties":[{"name":"layer","type":"int","value":1},{"name":"resource_index","type":"int","value":662},{"name":"u","type":"string","value":"enH0"},{"name":"no","type":"int","value":0},{"name":"zM","type":"int","value":146}],"gid":9,"width":90,"height":24},{"id":666,"x":-90,"y":-1260,"visible":true,"properties":[{"name":"layer","type":"int","value":1},{"name":"resource_index","type":"int","value":663},{"name":"u","type":"string","value":"enH0"},{"name":"no","type":"int","value":0},{"name":"zM","type":"int","value":120}],"gid":9,"width":90,"height":24},{"id":667,"x":-1350,"y":-1680,"visible":true,"properties":[{"name":"layer","type":"int","value":1},{"name":"resource_index","type":"int","value":664},{"name":"u","type":"string","value":"bsc"},{"name":"no","type":"int","value":0},{"name":"zM","type":"int","value":146}],"gid":6,"width":90,"height":60},{"id":668,"x":-360,"y":-2460,"visible":true,"properties":[{"name":"layer","type":"int","value":1},{"name":"resource_index","type":"int","value":665},{"name":"u","type":"string","value":"enH0"},{"name":"no","type":"int","value":0},{"name":"zM","type":"int","value":164}],"gid":9,"width":90,"height":24},{"id":669,"x":-360,"y":-2400,"visible":true,"properties":[{"name":"layer","type":"int","value":1},{"name":"resource_index","type":"int","value":666},{"name":"u","type":"string","value":"bsc"},{"name":"no","type":"int","value":1},{"name":"zM","type":"int","value":164}],"gid":8,"width":90,"height":60},{"id":670,"x":-385,"y":-2460,"visible":true,"properties":[{"name":"layer","type":"int","value":1},{"name":"resource_index","type":"int","value":667},{"name":"u","type":"string","value":"edU"},{"name":"no","type":"int","value":0},{"name":"zM","type":"int","value":164}],"gid":11,"width":47,"height":25},{"id":671,"x":-380,"y":-2400,"visible":true,"properties":[{"name":"layer","type":"int","value":1},{"name":"resource_index","type":"int","value":668},{"name":"u","type":"string","value":"enV0"},{"name":"no","type":"int","value":0},{"name":"zM","type":"int","value":164}],"gid":15,"width":20,"height":60},{"id":672,"x":-295,"y":-2520,"visible":true,"properties":[{"name":"layer","type":"int","value":1},{"name":"resource_index","type":"int","value":669},{"name":"u","type":"string","value":"edU"},{"name":"no","type":"int","value":0},{"name":"zM","type":"int","value":164}],"gid":11,"width":47,"height":25},{"id":673,"x":-290,"y":-2460,"visible":true,"properties":[{"name":"layer","type":"int","value":1},{"name":"resource_index","type":"int","value":670},{"name":"u","type":"string","value":"enV0"},{"name":"no","type":"int","value":0},{"name":"zM","type":"int","value":164}],"gid":15,"width":20,"height":60},{"id":674,"x":-925,"y":-1860,"visible":true,"properties":[{"name":"layer","type":"int","value":1},{"name":"resource_index","type":"int","value":671},{"name":"u","type":"string","value":"edU"},{"name":"no","type":"int","value":0},{"name":"zM","type":"int","value":157}],"gid":11,"width":47,"height":25},{"id":675,"x":-835,"y":-1860,"visible":true,"properties":[{"name":"layer","type":"int","value":1},{"name":"resource_index","type":"int","value":672},{"name":"u","type":"string","value":"edU"},{"name":"no","type":"int","value":0},{"name":"zM","type":"int","value":157}],"gid":11,"width":47,"height":25},{"id":676,"x":-900,"y":-1920,"visible":true,"properties":[{"name":"layer","type":"int","value":1},{"name":"resource_index","type":"int","value":673},{"name":"u","type":"string","value":"enH0"},{"name":"no","type":"int","value":0},{"name":"zM","type":"int","value":158}],"gid":9,"width":90,"height":24},{"id":677,"x":-360,"y":-1889,"visible":true,"properties":[{"name":"layer","type":"int","value":1},{"name":"resource_index","type":"int","value":674},{"name":"u","type":"string","value":"enH1"},{"name":"no","type":"int","value":0},{"name":"zM","type":"int","value":159}],"gid":12,"width":90,"height":31},{"id":678,"x":-900,"y":-1889,"visible":true,"properties":[{"name":"layer","type":"int","value":1},{"name":"resource_index","type":"int","value":675},{"name":"u","type":"string","value":"enH1"},{"name":"no","type":"int","value":0},{"name":"zM","type":"int","value":158}],"gid":12,"width":90,"height":31},{"id":679,"x":-921,"y":-1839,"visible":true,"properties":[{"name":"layer","type":"int","value":1},{"name":"resource_index","type":"int","value":676},{"name":"u","type":"string","value":"edD"},{"name":"no","type":"int","value":0},{"name":"zM","type":"int","value":157}],"gid":13,"width":40,"height":21},{"id":680,"x":-921,"y":-1899,"visible":true,"properties":[{"name":"layer","type":"int","value":1},{"name":"resource_index","type":"int","value":677},{"name":"u","type":"string","value":"edD"},{"name":"no","type":"int","value":0},{"name":"zM","type":"int","value":158}],"gid":13,"width":40,"height":21},{"id":681,"x":-540,"y":-1920,"visible":true,"properties":[{"name":"layer","type":"int","value":1},{"name":"resource_index","type":"int","value":678},{"name":"u","type":"string","value":"bsc"},{"name":"no","type":"int","value":2},{"name":"zM","type":"int","value":159}],"gid":7,"width":90,"height":60},{"id":682,"x":90,"y":-2460,"visible":true,"properties":[{"name":"layer","type":"int","value":1},{"name":"resource_index","type":"int","value":679},{"name":"u","type":"string","value":"bsc"},{"name":"no","type":"int","value":1},{"name":"zM","type":"int","value":164}],"gid":8,"width":90,"height":60},{"id":683,"x":-831,"y":-1899,"visible":true,"properties":[{"name":"layer","type":"int","value":1},{"name":"resource_index","type":"int","value":680},{"name":"u","type":"string","value":"edD"},{"name":"no","type":"int","value":0},{"name":"zM","type":"int","value":158}],"gid":13,"width":40,"height":21},{"id":684,"x":-835,"y":-1920,"visible":true,"properties":[{"name":"layer","type":"int","value":1},{"name":"resource_index","type":"int","value":681},{"name":"u","type":"string","value":"edU"},{"name":"no","type":"int","value":0},{"name":"zM","type":"int","value":158}],"gid":11,"width":47,"height":25},{"id":685,"x":-475,"y":-2400,"visible":true,"properties":[{"name":"layer","type":"int","value":1},{"name":"resource_index","type":"int","value":682},{"name":"u","type":"string","value":"edU"},{"name":"no","type":"int","value":0},{"name":"zM","type":"int","value":164}],"gid":11,"width":47,"height":25},{"id":686,"x":-540,"y":-1980,"visible":true,"properties":[{"name":"layer","type":"int","value":1},{"name":"resource_index","type":"int","value":683},{"name":"u","type":"string","value":"bsc"},{"name":"no","type":"int","value":1},{"name":"zM","type":"int","value":159}],"gid":8,"width":90,"height":60},{"id":687,"x":-540,"y":-2040,"visible":true,"properties":[{"name":"layer","type":"int","value":1},{"name":"resource_index","type":"int","value":684},{"name":"u","type":"string","value":"enH0"},{"name":"no","type":"int","value":0},{"name":"zM","type":"int","value":159}],"gid":9,"width":90,"height":24},{"id":688,"x":-900,"y":-1829,"visible":true,"properties":[{"name":"layer","type":"int","value":1},{"name":"resource_index","type":"int","value":685},{"name":"u","type":"string","value":"enH1"},{"name":"no","type":"int","value":0},{"name":"zM","type":"int","value":157}],"gid":12,"width":90,"height":31},{"id":689,"x":-925,"y":-1920,"visible":true,"properties":[{"name":"layer","type":"int","value":1},{"name":"resource_index","type":"int","value":686},{"name":"u","type":"string","value":"edU"},{"name":"no","type":"int","value":0},{"name":"zM","type":"int","value":158}],"gid":11,"width":47,"height":25},{"id":690,"x":-360,"y":-1980,"visible":true,"properties":[{"name":"layer","type":"int","value":1},{"name":"resource_index","type":"int","value":687},{"name":"u","type":"string","value":"bsc"},{"name":"no","type":"int","value":2},{"name":"zM","type":"int","value":159}],"gid":7,"width":90,"height":60},{"id":691,"x":-360,"y":-2040,"visible":true,"properties":[{"name":"layer","type":"int","value":1},{"name":"resource_index","type":"int","value":688},{"name":"u","type":"string","value":"enH0"},{"name":"no","type":"int","value":0},{"name":"zM","type":"int","value":159}],"gid":9,"width":90,"height":24},{"id":692,"x":-450,"y":-1980,"visible":true,"properties":[{"name":"layer","type":"int","value":1},{"name":"resource_index","type":"int","value":689},{"name":"u","type":"string","value":"bsc"},{"name":"no","type":"int","value":0},{"name":"zM","type":"int","value":159}],"gid":6,"width":90,"height":60},{"id":693,"x":-450,"y":-2040,"visible":true,"properties":[{"name":"layer","type":"int","value":1},{"name":"resource_index","type":"int","value":690},{"name":"u","type":"string","value":"enH0"},{"name":"no","type":"int","value":0},{"name":"zM","type":"int","value":159}],"gid":9,"width":90,"height":24},{"id":694,"x":-270,"y":-1980,"visible":true,"properties":[{"name":"layer","type":"int","value":1},{"name":"resource_index","type":"int","value":691},{"name":"u","type":"string","value":"bsc"},{"name":"no","type":"int","value":1},{"name":"zM","type":"int","value":159}],"gid":8,"width":90,"height":60},{"id":695,"x":-270,"y":-2040,"visible":true,"properties":[{"name":"layer","type":"int","value":1},{"name":"resource_index","type":"int","value":692},{"name":"u","type":"string","value":"enH0"},{"name":"no","type":"int","value":0},{"name":"zM","type":"int","value":159}],"gid":9,"width":90,"height":24},{"id":696,"x":90,"y":-1980,"visible":true,"properties":[{"name":"layer","type":"int","value":1},{"name":"resource_index","type":"int","value":693},{"name":"u","type":"string","value":"bsc"},{"name":"no","type":"int","value":0},{"name":"zM","type":"int","value":159}],"gid":6,"width":90,"height":60},{"id":697,"x":90,"y":-2040,"visible":true,"properties":[{"name":"layer","type":"int","value":1},{"name":"resource_index","type":"int","value":694},{"name":"u","type":"string","value":"enH0"},{"name":"no","type":"int","value":0},{"name":"zM","type":"int","value":159}],"gid":9,"width":90,"height":24},{"id":698,"x":-180,"y":-1980,"visible":true,"properties":[{"name":"layer","type":"int","value":1},{"name":"resource_index","type":"int","value":695},{"name":"u","type":"string","value":"bsc"},{"name":"no","type":"int","value":0},{"name":"zM","type":"int","value":159}],"gid":6,"width":90,"height":60},{"id":699,"x":-180,"y":-2040,"visible":true,"properties":[{"name":"layer","type":"int","value":1},{"name":"resource_index","type":"int","value":696},{"name":"u","type":"string","value":"enH0"},{"name":"no","type":"int","value":0},{"name":"zM","type":"int","value":159}],"gid":9,"width":90,"height":24},{"id":700,"x":-90,"y":-1980,"visible":true,"properties":[{"name":"layer","type":"int","value":1},{"name":"resource_index","type":"int","value":697},{"name":"u","type":"string","value":"bsc"},{"name":"no","type":"int","value":2},{"name":"zM","type":"int","value":159}],"gid":7,"width":90,"height":60},{"id":701,"x":-90,"y":-2040,"visible":true,"properties":[{"name":"layer","type":"int","value":1},{"name":"resource_index","type":"int","value":698},{"name":"u","type":"string","value":"enH0"},{"name":"no","type":"int","value":0},{"name":"zM","type":"int","value":159}],"gid":9,"width":90,"height":24},{"id":702,"x":0,"y":-1980,"visible":true,"properties":[{"name":"layer","type":"int","value":1},{"name":"resource_index","type":"int","value":699},{"name":"u","type":"string","value":"bsc"},{"name":"no","type":"int","value":1},{"name":"zM","type":"int","value":159}],"gid":8,"width":90,"height":60},{"id":703,"x":0,"y":-2040,"visible":true,"properties":[{"name":"layer","type":"int","value":1},{"name":"resource_index","type":"int","value":700},{"name":"u","type":"string","value":"enH0"},{"name":"no","type":"int","value":0},{"name":"zM","type":"int","value":159}],"gid":9,"width":90,"height":24},{"id":704,"x":180,"y":-1980,"visible":true,"properties":[{"name":"layer","type":"int","value":1},{"name":"resource_index","type":"int","value":701},{"name":"u","type":"string","value":"bsc"},{"name":"no","type":"int","value":2},{"name":"zM","type":"int","value":159}],"gid":7,"width":90,"height":60},{"id":705,"x":180,"y":-1920,"visible":true,"properties":[{"name":"layer","type":"int","value":1},{"name":"resource_index","type":"int","value":702},{"name":"u","type":"string","value":"bsc"},{"name":"no","type":"int","value":0},{"name":"zM","type":"int","value":159}],"gid":6,"width":90,"height":60},{"id":706,"x":90,"y":-2400,"visible":true,"properties":[{"name":"layer","type":"int","value":1},{"name":"resource_index","type":"int","value":703},{"name":"u","type":"string","value":"bsc"},{"name":"no","type":"int","value":2},{"name":"zM","type":"int","value":164}],"gid":7,"width":90,"height":60},{"id":707,"x":-630,"y":-2280,"visible":true,"properties":[{"name":"layer","type":"int","value":1},{"name":"resource_index","type":"int","value":704},{"name":"u","type":"string","value":"enH0"},{"name":"no","type":"int","value":0},{"name":"zM","type":"int","value":163}],"gid":9,"width":90,"height":24},{"id":708,"x":-831,"y":-1839,"visible":true,"properties":[{"name":"layer","type":"int","value":1},{"name":"resource_index","type":"int","value":705},{"name":"u","type":"string","value":"edD"},{"name":"no","type":"int","value":0},{"name":"zM","type":"int","value":157}],"gid":13,"width":40,"height":21},{"id":709,"x":0,"y":-2520,"visible":true,"properties":[{"name":"layer","type":"int","value":1},{"name":"resource_index","type":"int","value":706},{"name":"u","type":"string","value":"enH0"},{"name":"no","type":"int","value":0},{"name":"zM","type":"int","value":164}],"gid":9,"width":90,"height":24},{"id":710,"x":-360,"y":-1920,"visible":true,"properties":[{"name":"layer","type":"int","value":1},{"name":"resource_index","type":"int","value":707},{"name":"u","type":"string","value":"bsc"},{"name":"no","type":"int","value":0},{"name":"zM","type":"int","value":159}],"gid":6,"width":90,"height":60},{"id":711,"x":-720,"y":-1920,"visible":true,"properties":[{"name":"layer","type":"int","value":1},{"name":"resource_index","type":"int","value":708},{"name":"u","type":"string","value":"bsc"},{"name":"no","type":"int","value":1},{"name":"zM","type":"int","value":159}],"gid":8,"width":90,"height":60},{"id":712,"x":-450,"y":-1920,"visible":true,"properties":[{"name":"layer","type":"int","value":1},{"name":"resource_index","type":"int","value":709},{"name":"u","type":"string","value":"bsc"},{"name":"no","type":"int","value":1},{"name":"zM","type":"int","value":159}],"gid":8,"width":90,"height":60},{"id":713,"x":-630,"y":-1920,"visible":true,"properties":[{"name":"layer","type":"int","value":1},{"name":"resource_index","type":"int","value":710},{"name":"u","type":"string","value":"bsc"},{"name":"no","type":"int","value":0},{"name":"zM","type":"int","value":159}],"gid":6,"width":90,"height":60},{"id":714,"x":-90,"y":-1920,"visible":true,"properties":[{"name":"layer","type":"int","value":1},{"name":"resource_index","type":"int","value":711},{"name":"u","type":"string","value":"bsc"},{"name":"no","type":"int","value":0},{"name":"zM","type":"int","value":159}],"gid":6,"width":90,"height":60},{"id":715,"x":339,"y":-1899,"visible":true,"properties":[{"name":"layer","type":"int","value":1},{"name":"resource_index","type":"int","value":712},{"name":"u","type":"string","value":"edD"},{"name":"no","type":"int","value":0},{"name":"zM","type":"int","value":159}],"gid":13,"width":40,"height":21},{"id":716,"x":90,"y":-1920,"visible":true,"properties":[{"name":"layer","type":"int","value":1},{"name":"resource_index","type":"int","value":713},{"name":"u","type":"string","value":"bsc"},{"name":"no","type":"int","value":1},{"name":"zM","type":"int","value":159}],"gid":8,"width":90,"height":60},{"id":717,"x":-270,"y":-1920,"visible":true,"properties":[{"name":"layer","type":"int","value":1},{"name":"resource_index","type":"int","value":714},{"name":"u","type":"string","value":"bsc"},{"name":"no","type":"int","value":2},{"name":"zM","type":"int","value":159}],"gid":7,"width":90,"height":60},{"id":718,"x":0,"y":-1920,"visible":true,"properties":[{"name":"layer","type":"int","value":1},{"name":"resource_index","type":"int","value":715},{"name":"u","type":"string","value":"bsc"},{"name":"no","type":"int","value":2},{"name":"zM","type":"int","value":159}],"gid":7,"width":90,"height":60},{"id":719,"x":-180,"y":-1920,"visible":true,"properties":[{"name":"layer","type":"int","value":1},{"name":"resource_index","type":"int","value":716},{"name":"u","type":"string","value":"bsc"},{"name":"no","type":"int","value":1},{"name":"zM","type":"int","value":159}],"gid":8,"width":90,"height":60},{"id":720,"x":-720,"y":-1889,"visible":true,"properties":[{"name":"layer","type":"int","value":1},{"name":"resource_index","type":"int","value":717},{"name":"u","type":"string","value":"enH1"},{"name":"no","type":"int","value":0},{"name":"zM","type":"int","value":159}],"gid":12,"width":90,"height":31},{"id":721,"x":-450,"y":-1889,"visible":true,"properties":[{"name":"layer","type":"int","value":1},{"name":"resource_index","type":"int","value":718},{"name":"u","type":"string","value":"enH1"},{"name":"no","type":"int","value":0},{"name":"zM","type":"int","value":159}],"gid":12,"width":90,"height":31},{"id":722,"x":-630,"y":-1889,"visible":true,"properties":[{"name":"layer","type":"int","value":1},{"name":"resource_index","type":"int","value":719},{"name":"u","type":"string","value":"enH1"},{"name":"no","type":"int","value":0},{"name":"zM","type":"int","value":159}],"gid":12,"width":90,"height":31},{"id":723,"x":-270,"y":-1889,"visible":true,"properties":[{"name":"layer","type":"int","value":1},{"name":"resource_index","type":"int","value":720},{"name":"u","type":"string","value":"enH1"},{"name":"no","type":"int","value":0},{"name":"zM","type":"int","value":159}],"gid":12,"width":90,"height":31},{"id":724,"x":-540,"y":-1889,"visible":true,"properties":[{"name":"layer","type":"int","value":1},{"name":"resource_index","type":"int","value":721},{"name":"u","type":"string","value":"enH1"},{"name":"no","type":"int","value":0},{"name":"zM","type":"int","value":159}],"gid":12,"width":90,"height":31},{"id":725,"x":180,"y":-1889,"visible":true,"properties":[{"name":"layer","type":"int","value":1},{"name":"resource_index","type":"int","value":722},{"name":"u","type":"string","value":"enH1"},{"name":"no","type":"int","value":0},{"name":"zM","type":"int","value":159}],"gid":12,"width":90,"height":31},{"id":726,"x":-180,"y":-1889,"visible":true,"properties":[{"name":"layer","type":"int","value":1},{"name":"resource_index","type":"int","value":723},{"name":"u","type":"string","value":"enH1"},{"name":"no","type":"int","value":0},{"name":"zM","type":"int","value":159}],"gid":12,"width":90,"height":31},{"id":727,"x":0,"y":-1889,"visible":true,"properties":[{"name":"layer","type":"int","value":1},{"name":"resource_index","type":"int","value":724},{"name":"u","type":"string","value":"enH1"},{"name":"no","type":"int","value":0},{"name":"zM","type":"int","value":159}],"gid":12,"width":90,"height":31},{"id":728,"x":0,"y":-1560,"visible":true,"properties":[{"name":"layer","type":"int","value":1},{"name":"resource_index","type":"int","value":725},{"name":"u","type":"string","value":"bsc"},{"name":"no","type":"int","value":2},{"name":"zM","type":"int","value":134}],"gid":7,"width":90,"height":60},{"id":729,"x":-745,"y":-1560,"visible":true,"properties":[{"name":"layer","type":"int","value":1},{"name":"resource_index","type":"int","value":726},{"name":"u","type":"string","value":"edU"},{"name":"no","type":"int","value":0},{"name":"zM","type":"int","value":135}],"gid":11,"width":47,"height":25},{"id":730,"x":-741,"y":-1539,"visible":true,"properties":[{"name":"layer","type":"int","value":1},{"name":"resource_index","type":"int","value":727},{"name":"u","type":"string","value":"edD"},{"name":"no","type":"int","value":0},{"name":"zM","type":"int","value":135}],"gid":13,"width":40,"height":21},{"id":731,"x":-655,"y":-1560,"visible":true,"properties":[{"name":"layer","type":"int","value":1},{"name":"resource_index","type":"int","value":728},{"name":"u","type":"string","value":"edU"},{"name":"no","type":"int","value":0},{"name":"zM","type":"int","value":135}],"gid":11,"width":47,"height":25},{"id":732,"x":-651,"y":-1539,"visible":true,"properties":[{"name":"layer","type":"int","value":1},{"name":"resource_index","type":"int","value":729},{"name":"u","type":"string","value":"edD"},{"name":"no","type":"int","value":0},{"name":"zM","type":"int","value":135}],"gid":13,"width":40,"height":21},{"id":733,"x":-720,"y":-1560,"visible":true,"properties":[{"name":"layer","type":"int","value":1},{"name":"resource_index","type":"int","value":730},{"name":"u","type":"string","value":"enH0"},{"name":"no","type":"int","value":0},{"name":"zM","type":"int","value":135}],"gid":9,"width":90,"height":24},{"id":734,"x":-720,"y":-1529,"visible":true,"properties":[{"name":"layer","type":"int","value":1},{"name":"resource_index","type":"int","value":731},{"name":"u","type":"string","value":"enH1"},{"name":"no","type":"int","value":0},{"name":"zM","type":"int","value":135}],"gid":12,"width":90,"height":31},{"id":735,"x":-630,"y":-1980,"visible":true,"properties":[{"name":"layer","type":"int","value":1},{"name":"resource_index","type":"int","value":732},{"name":"u","type":"string","value":"slLU"},{"name":"no","type":"int","value":0},{"name":"zM","type":"int","value":159}],"gid":17,"width":90,"height":82},{"id":736,"x":-720,"y":-1980,"visible":true,"properties":[{"name":"layer","type":"int","value":1},{"name":"resource_index","type":"int","value":733},{"name":"u","type":"string","value":"enH0"},{"name":"no","type":"int","value":0},{"name":"zM","type":"int","value":159}],"gid":9,"width":90,"height":24},{"id":737,"x":-741,"y":-1899,"visible":true,"properties":[{"name":"layer","type":"int","value":1},{"name":"resource_index","type":"int","value":734},{"name":"u","type":"string","value":"edD"},{"name":"no","type":"int","value":0},{"name":"zM","type":"int","value":159}],"gid":13,"width":40,"height":21},{"id":738,"x":-745,"y":-1980,"visible":true,"properties":[{"name":"layer","type":"int","value":1},{"name":"resource_index","type":"int","value":735},{"name":"u","type":"string","value":"edU"},{"name":"no","type":"int","value":0},{"name":"zM","type":"int","value":159}],"gid":11,"width":47,"height":25},{"id":739,"x":-540,"y":-149,"visible":true,"properties":[{"name":"layer","type":"int","value":1},{"name":"resource_index","type":"int","value":736},{"name":"u","type":"string","value":"enH1"},{"name":"no","type":"int","value":0},{"name":"zM","type":"int","value":31}],"gid":12,"width":90,"height":31},{"id":740,"x":-831,"y":-2259,"visible":true,"properties":[{"name":"layer","type":"int","value":1},{"name":"resource_index","type":"int","value":737},{"name":"u","type":"string","value":"edD"},{"name":"no","type":"int","value":0},{"name":"zM","type":"int","value":163}],"gid":13,"width":40,"height":21},{"id":741,"x":-900,"y":-1769,"visible":true,"properties":[{"name":"layer","type":"int","value":1},{"name":"resource_index","type":"int","value":738},{"name":"u","type":"string","value":"enH1"},{"name":"no","type":"int","value":0},{"name":"zM","type":"int","value":155}],"gid":12,"width":90,"height":31},{"id":742,"x":-900,"y":-1800,"visible":true,"properties":[{"name":"layer","type":"int","value":1},{"name":"resource_index","type":"int","value":739},{"name":"u","type":"string","value":"enH0"},{"name":"no","type":"int","value":0},{"name":"zM","type":"int","value":155}],"gid":9,"width":90,"height":24},{"id":743,"x":-740,"y":-1920,"visible":true,"properties":[{"name":"layer","type":"int","value":1},{"name":"resource_index","type":"int","value":740},{"name":"u","type":"string","value":"enV0"},{"name":"no","type":"int","value":0},{"name":"zM","type":"int","value":159}],"gid":15,"width":20,"height":60},{"id":744,"x":-630,"y":-2249,"visible":true,"properties":[{"name":"layer","type":"int","value":1},{"name":"resource_index","type":"int","value":741},{"name":"u","type":"string","value":"enH1"},{"name":"no","type":"int","value":0},{"name":"zM","type":"int","value":163}],"gid":12,"width":90,"height":31},{"id":745,"x":-900,"y":-1860,"visible":true,"properties":[{"name":"layer","type":"int","value":1},{"name":"resource_index","type":"int","value":742},{"name":"u","type":"string","value":"enH0"},{"name":"no","type":"int","value":0},{"name":"zM","type":"int","value":157}],"gid":9,"width":90,"height":24},{"id":746,"x":-925,"y":-1800,"visible":true,"properties":[{"name":"layer","type":"int","value":1},{"name":"resource_index","type":"int","value":743},{"name":"u","type":"string","value":"edU"},{"name":"no","type":"int","value":0},{"name":"zM","type":"int","value":155}],"gid":11,"width":47,"height":25},{"id":747,"x":-921,"y":-1779,"visible":true,"properties":[{"name":"layer","type":"int","value":1},{"name":"resource_index","type":"int","value":744},{"name":"u","type":"string","value":"edD"},{"name":"no","type":"int","value":0},{"name":"zM","type":"int","value":155}],"gid":13,"width":40,"height":21},{"id":748,"x":90,"y":-2280,"visible":true,"properties":[{"name":"layer","type":"int","value":1},{"name":"resource_index","type":"int","value":745},{"name":"u","type":"string","value":"bsc"},{"name":"no","type":"int","value":1},{"name":"zM","type":"int","value":164}],"gid":8,"width":90,"height":60},{"id":749,"x":90,"y":-2340,"visible":true,"properties":[{"name":"layer","type":"int","value":1},{"name":"resource_index","type":"int","value":746},{"name":"u","type":"string","value":"bsc"},{"name":"no","type":"int","value":0},{"name":"zM","type":"int","value":164}],"gid":6,"width":90,"height":60},{"id":750,"x":-1080,"y":-1740,"visible":true,"properties":[{"name":"layer","type":"int","value":1},{"name":"resource_index","type":"int","value":747},{"name":"u","type":"string","value":"enH0"},{"name":"no","type":"int","value":0},{"name":"zM","type":"int","value":146}],"gid":9,"width":90,"height":24},{"id":751,"x":-831,"y":-1779,"visible":true,"properties":[{"name":"layer","type":"int","value":1},{"name":"resource_index","type":"int","value":748},{"name":"u","type":"string","value":"edD"},{"name":"no","type":"int","value":0},{"name":"zM","type":"int","value":155}],"gid":13,"width":40,"height":21},{"id":752,"x":-835,"y":-1800,"visible":true,"properties":[{"name":"layer","type":"int","value":1},{"name":"resource_index","type":"int","value":749},{"name":"u","type":"string","value":"edU"},{"name":"no","type":"int","value":0},{"name":"zM","type":"int","value":155}],"gid":11,"width":47,"height":25},{"id":753,"x":-1731,"y":441,"visible":true,"properties":[{"name":"layer","type":"int","value":1},{"name":"resource_index","type":"int","value":750},{"name":"u","type":"string","value":"edD"},{"name":"no","type":"int","value":0},{"name":"zM","type":"int","value":0}],"gid":13,"width":40,"height":21},{"id":754,"x":-90,"y":451,"visible":true,"properties":[{"name":"layer","type":"int","value":1},{"name":"resource_index","type":"int","value":751},{"name":"u","type":"string","value":"enH1"},{"name":"no","type":"int","value":0},{"name":"zM","type":"int","value":0}],"gid":12,"width":90,"height":31},{"id":755,"x":-1260,"y":451,"visible":true,"properties":[{"name":"layer","type":"int","value":1},{"name":"resource_index","type":"int","value":752},{"name":"u","type":"string","value":"enH1"},{"name":"no","type":"int","value":0},{"name":"zM","type":"int","value":0}],"gid":12,"width":90,"height":31},{"id":756,"x":-1170,"y":-1740,"visible":true,"properties":[{"name":"layer","type":"int","value":1},{"name":"resource_index","type":"int","value":753},{"name":"u","type":"string","value":"enH0"},{"name":"no","type":"int","value":0},{"name":"zM","type":"int","value":146}],"gid":9,"width":90,"height":24},{"id":757,"x":-1530,"y":-1740,"visible":true,"properties":[{"name":"layer","type":"int","value":1},{"name":"resource_index","type":"int","value":754},{"name":"u","type":"string","value":"bsc"},{"name":"no","type":"int","value":1},{"name":"zM","type":"int","value":146}],"gid":8,"width":90,"height":60},{"id":758,"x":-1195,"y":-1800,"visible":true,"properties":[{"name":"layer","type":"int","value":1},{"name":"resource_index","type":"int","value":755},{"name":"u","type":"string","value":"edU"},{"name":"no","type":"int","value":0},{"name":"zM","type":"int","value":146}],"gid":11,"width":47,"height":25},{"id":759,"x":-1260,"y":-1649,"visible":true,"properties":[{"name":"layer","type":"int","value":1},{"name":"resource_index","type":"int","value":756},{"name":"u","type":"string","value":"enH1"},{"name":"no","type":"int","value":0},{"name":"zM","type":"int","value":146}],"gid":12,"width":90,"height":31},{"id":760,"x":-831,"y":-2319,"visible":true,"properties":[{"name":"layer","type":"int","value":1},{"name":"resource_index","type":"int","value":757},{"name":"u","type":"string","value":"edD"},{"name":"no","type":"int","value":0},{"name":"zM","type":"int","value":165}],"gid":13,"width":40,"height":21},{"id":761,"x":-360,"y":451,"visible":true,"properties":[{"name":"layer","type":"int","value":1},{"name":"resource_index","type":"int","value":758},{"name":"u","type":"string","value":"enH1"},{"name":"no","type":"int","value":0},{"name":"zM","type":"int","value":0}],"gid":12,"width":90,"height":31},{"id":762,"x":0,"y":-2460,"visible":true,"properties":[{"name":"layer","type":"int","value":1},{"name":"resource_index","type":"int","value":759},{"name":"u","type":"string","value":"bsc"},{"name":"no","type":"int","value":2},{"name":"zM","type":"int","value":164}],"gid":7,"width":90,"height":60},{"id":763,"x":180,"y":-2400,"visible":true,"properties":[{"name":"layer","type":"int","value":1},{"name":"resource_index","type":"int","value":760},{"name":"u","type":"string","value":"bsc"},{"name":"no","type":"int","value":1},{"name":"zM","type":"int","value":164}],"gid":8,"width":90,"height":60},{"id":764,"x":-1080,"y":-1649,"visible":true,"properties":[{"name":"layer","type":"int","value":1},{"name":"resource_index","type":"int","value":761},{"name":"u","type":"string","value":"enH1"},{"name":"no","type":"int","value":0},{"name":"zM","type":"int","value":146}],"gid":12,"width":90,"height":31},{"id":765,"x":-385,"y":-1020,"visible":true,"properties":[{"name":"layer","type":"int","value":1},{"name":"resource_index","type":"int","value":762},{"name":"u","type":"string","value":"edU"},{"name":"no","type":"int","value":0},{"name":"zM","type":"int","value":104}],"gid":11,"width":47,"height":25},{"id":766,"x":-381,"y":-999,"visible":true,"properties":[{"name":"layer","type":"int","value":1},{"name":"resource_index","type":"int","value":763},{"name":"u","type":"string","value":"edD"},{"name":"no","type":"int","value":0},{"name":"zM","type":"int","value":104}],"gid":13,"width":40,"height":21},{"id":767,"x":-295,"y":-1020,"visible":true,"properties":[{"name":"layer","type":"int","value":1},{"name":"resource_index","type":"int","value":764},{"name":"u","type":"string","value":"edU"},{"name":"no","type":"int","value":0},{"name":"zM","type":"int","value":104}],"gid":11,"width":47,"height":25},{"id":768,"x":-291,"y":-999,"visible":true,"properties":[{"name":"layer","type":"int","value":1},{"name":"resource_index","type":"int","value":765},{"name":"u","type":"string","value":"edD"},{"name":"no","type":"int","value":0},{"name":"zM","type":"int","value":104}],"gid":13,"width":40,"height":21},{"id":769,"x":-360,"y":-1020,"visible":true,"properties":[{"name":"layer","type":"int","value":1},{"name":"resource_index","type":"int","value":766},{"name":"u","type":"string","value":"enH0"},{"name":"no","type":"int","value":0},{"name":"zM","type":"int","value":104}],"gid":9,"width":90,"height":24},{"id":770,"x":-360,"y":-989,"visible":true,"properties":[{"name":"layer","type":"int","value":1},{"name":"resource_index","type":"int","value":767},{"name":"u","type":"string","value":"enH1"},{"name":"no","type":"int","value":0},{"name":"zM","type":"int","value":104}],"gid":12,"width":90,"height":31},{"id":771,"x":270,"y":-2100,"visible":true,"properties":[{"name":"layer","type":"int","value":1},{"name":"resource_index","type":"int","value":768},{"name":"u","type":"string","value":"bsc"},{"name":"no","type":"int","value":1},{"name":"zM","type":"int","value":159}],"gid":8,"width":90,"height":60},{"id":772,"x":250,"y":-2100,"visible":true,"properties":[{"name":"layer","type":"int","value":1},{"name":"resource_index","type":"int","value":769},{"name":"u","type":"string","value":"enV0"},{"name":"no","type":"int","value":0},{"name":"zM","type":"int","value":159}],"gid":15,"width":20,"height":60},{"id":773,"x":270,"y":-2040,"visible":true,"properties":[{"name":"layer","type":"int","value":1},{"name":"resource_index","type":"int","value":770},{"name":"u","type":"string","value":"bsc"},{"name":"no","type":"int","value":1},{"name":"zM","type":"int","value":159}],"gid":8,"width":90,"height":60},{"id":774,"x":-360,"y":-2309,"visible":true,"properties":[{"name":"layer","type":"int","value":1},{"name":"resource_index","type":"int","value":771},{"name":"u","type":"string","value":"enH1"},{"name":"no","type":"int","value":0},{"name":"zM","type":"int","value":164}],"gid":12,"width":90,"height":31},{"id":775,"x":-1710,"y":120,"visible":true,"properties":[{"name":"layer","type":"int","value":1},{"name":"resource_index","type":"int","value":772},{"name":"u","type":"string","value":"bsc"},{"name":"no","type":"int","value":2},{"name":"zM","type":"int","value":0}],"gid":7,"width":90,"height":60},{"id":776,"x":270,"y":-2280,"visible":true,"properties":[{"name":"layer","type":"int","value":1},{"name":"resource_index","type":"int","value":773},{"name":"u","type":"string","value":"bsc"},{"name":"no","type":"int","value":2},{"name":"zM","type":"int","value":164}],"gid":7,"width":90,"height":60},{"id":777,"x":-360,"y":-2340,"visible":true,"properties":[{"name":"layer","type":"int","value":1},{"name":"resource_index","type":"int","value":774},{"name":"u","type":"string","value":"bsc"},{"name":"no","type":"int","value":2},{"name":"zM","type":"int","value":164}],"gid":7,"width":90,"height":60},{"id":778,"x":-1350,"y":-1649,"visible":true,"properties":[{"name":"layer","type":"int","value":1},{"name":"resource_index","type":"int","value":775},{"name":"u","type":"string","value":"enH1"},{"name":"no","type":"int","value":0},{"name":"zM","type":"int","value":146}],"gid":12,"width":90,"height":31},{"id":779,"x":-900,"y":180,"visible":true,"properties":[{"name":"layer","type":"int","value":1},{"name":"resource_index","type":"int","value":776},{"name":"u","type":"string","value":"bsc"},{"name":"no","type":"int","value":1},{"name":"zM","type":"int","value":0}],"gid":8,"width":90,"height":60},{"id":780,"x":360,"y":-1980,"visible":true,"properties":[{"name":"layer","type":"int","value":1},{"name":"resource_index","type":"int","value":777},{"name":"u","type":"string","value":"enV1"},{"name":"no","type":"int","value":0},{"name":"zM","type":"int","value":159}],"gid":10,"width":20,"height":60},{"id":781,"x":-835,"y":-2340,"visible":true,"properties":[{"name":"layer","type":"int","value":1},{"name":"resource_index","type":"int","value":778},{"name":"u","type":"string","value":"edU"},{"name":"no","type":"int","value":0},{"name":"zM","type":"int","value":165}],"gid":11,"width":47,"height":25},{"id":782,"x":-270,"y":-2520,"visible":true,"properties":[{"name":"layer","type":"int","value":1},{"name":"resource_index","type":"int","value":779},{"name":"u","type":"string","value":"enH0"},{"name":"no","type":"int","value":0},{"name":"zM","type":"int","value":164}],"gid":9,"width":90,"height":24},{"id":783,"x":180,"y":-2280,"visible":true,"properties":[{"name":"layer","type":"int","value":1},{"name":"resource_index","type":"int","value":780},{"name":"u","type":"string","value":"bsc"},{"name":"no","type":"int","value":0},{"name":"zM","type":"int","value":164}],"gid":6,"width":90,"height":60},{"id":784,"x":-90,"y":-2309,"visible":true,"properties":[{"name":"layer","type":"int","value":1},{"name":"resource_index","type":"int","value":781},{"name":"u","type":"string","value":"enH1"},{"name":"no","type":"int","value":0},{"name":"zM","type":"int","value":164}],"gid":12,"width":90,"height":31},{"id":785,"x":-270,"y":-2309,"visible":true,"properties":[{"name":"layer","type":"int","value":1},{"name":"resource_index","type":"int","value":782},{"name":"u","type":"string","value":"enH1"},{"name":"no","type":"int","value":0},{"name":"zM","type":"int","value":164}],"gid":12,"width":90,"height":31},{"id":786,"x":-90,"y":-2340,"visible":true,"properties":[{"name":"layer","type":"int","value":1},{"name":"resource_index","type":"int","value":783},{"name":"u","type":"string","value":"bsc"},{"name":"no","type":"int","value":2},{"name":"zM","type":"int","value":164}],"gid":7,"width":90,"height":60},{"id":787,"x":-180,"y":-2309,"visible":true,"properties":[{"name":"layer","type":"int","value":1},{"name":"resource_index","type":"int","value":784},{"name":"u","type":"string","value":"enH1"},{"name":"no","type":"int","value":0},{"name":"zM","type":"int","value":164}],"gid":12,"width":90,"height":31},{"id":788,"x":-90,"y":-2460,"visible":true,"properties":[{"name":"layer","type":"int","value":1},{"name":"resource_index","type":"int","value":785},{"name":"u","type":"string","value":"bsc"},{"name":"no","type":"int","value":0},{"name":"zM","type":"int","value":164}],"gid":6,"width":90,"height":60},{"id":789,"x":-90,"y":-2520,"visible":true,"properties":[{"name":"layer","type":"int","value":1},{"name":"resource_index","type":"int","value":786},{"name":"u","type":"string","value":"enH0"},{"name":"no","type":"int","value":0},{"name":"zM","type":"int","value":164}],"gid":9,"width":90,"height":24},{"id":790,"x":0,"y":-2309,"visible":true,"properties":[{"name":"layer","type":"int","value":1},{"name":"resource_index","type":"int","value":787},{"name":"u","type":"string","value":"enH1"},{"name":"no","type":"int","value":0},{"name":"zM","type":"int","value":164}],"gid":12,"width":90,"height":31},{"id":791,"x":0,"y":-2340,"visible":true,"properties":[{"name":"layer","type":"int","value":1},{"name":"resource_index","type":"int","value":788},{"name":"u","type":"string","value":"bsc"},{"name":"no","type":"int","value":1},{"name":"zM","type":"int","value":164}],"gid":8,"width":90,"height":60},{"id":792,"x":-180,"y":-2400,"visible":true,"properties":[{"name":"layer","type":"int","value":1},{"name":"resource_index","type":"int","value":789},{"name":"u","type":"string","value":"bsc"},{"name":"no","type":"int","value":2},{"name":"zM","type":"int","value":164}],"gid":7,"width":90,"height":60},{"id":793,"x":-180,"y":-2340,"visible":true,"properties":[{"name":"layer","type":"int","value":1},{"name":"resource_index","type":"int","value":790},{"name":"u","type":"string","value":"bsc"},{"name":"no","type":"int","value":0},{"name":"zM","type":"int","value":164}],"gid":6,"width":90,"height":60},{"id":794,"x":-270,"y":-2340,"visible":true,"properties":[{"name":"layer","type":"int","value":1},{"name":"resource_index","type":"int","value":791},{"name":"u","type":"string","value":"bsc"},{"name":"no","type":"int","value":1},{"name":"zM","type":"int","value":164}],"gid":8,"width":90,"height":60},{"id":795,"x":270,"y":-629,"visible":true,"properties":[{"name":"layer","type":"int","value":1},{"name":"resource_index","type":"int","value":792},{"name":"u","type":"string","value":"enH1"},{"name":"no","type":"int","value":0},{"name":"zM","type":"int","value":71}],"gid":12,"width":90,"height":31},{"id":796,"x":-741,"y":-1659,"visible":true,"properties":[{"name":"layer","type":"int","value":1},{"name":"resource_index","type":"int","value":793},{"name":"u","type":"string","value":"edD"},{"name":"no","type":"int","value":0},{"name":"zM","type":"int","value":146}],"gid":13,"width":40,"height":21},{"id":797,"x":-1375,"y":-2460,"visible":true,"properties":[{"name":"layer","type":"int","value":1},{"name":"resource_index","type":"int","value":794},{"name":"u","type":"string","value":"edU"},{"name":"no","type":"int","value":0},{"name":"zM","type":"int","value":165}],"gid":11,"width":47,"height":25},{"id":798,"x":-270,"y":-2460,"visible":true,"properties":[{"name":"layer","type":"int","value":1},{"name":"resource_index","type":"int","value":795},{"name":"u","type":"string","value":"bsc"},{"name":"no","type":"int","value":2},{"name":"zM","type":"int","value":164}],"gid":7,"width":90,"height":60},{"id":799,"x":-1530,"y":-1649,"visible":true,"properties":[{"name":"layer","type":"int","value":1},{"name":"resource_index","type":"int","value":796},{"name":"u","type":"string","value":"enH1"},{"name":"no","type":"int","value":0},{"name":"zM","type":"int","value":146}],"gid":12,"width":90,"height":31},{"id":800,"x":-561,"y":-2259,"visible":true,"properties":[{"name":"layer","type":"int","value":1},{"name":"resource_index","type":"int","value":797},{"name":"u","type":"string","value":"edD"},{"name":"no","type":"int","value":0},{"name":"zM","type":"int","value":163}],"gid":13,"width":40,"height":21},{"id":801,"x":-450,"y":-2340,"visible":true,"properties":[{"name":"layer","type":"int","value":1},{"name":"resource_index","type":"int","value":798},{"name":"u","type":"string","value":"bsc"},{"name":"no","type":"int","value":0},{"name":"zM","type":"int","value":164}],"gid":6,"width":90,"height":60},{"id":802,"x":-180,"y":-2460,"visible":true,"properties":[{"name":"layer","type":"int","value":1},{"name":"resource_index","type":"int","value":799},{"name":"u","type":"string","value":"bsc"},{"name":"no","type":"int","value":1},{"name":"zM","type":"int","value":164}],"gid":8,"width":90,"height":60},{"id":803,"x":-450,"y":-2309,"visible":true,"properties":[{"name":"layer","type":"int","value":1},{"name":"resource_index","type":"int","value":800},{"name":"u","type":"string","value":"enH1"},{"name":"no","type":"int","value":0},{"name":"zM","type":"int","value":164}],"gid":12,"width":90,"height":31},{"id":804,"x":-90,"y":-2400,"visible":true,"properties":[{"name":"layer","type":"int","value":1},{"name":"resource_index","type":"int","value":801},{"name":"u","type":"string","value":"bsc"},{"name":"no","type":"int","value":1},{"name":"zM","type":"int","value":164}],"gid":8,"width":90,"height":60},{"id":805,"x":335,"y":-660,"visible":true,"properties":[{"name":"layer","type":"int","value":1},{"name":"resource_index","type":"int","value":802},{"name":"u","type":"string","value":"edU"},{"name":"no","type":"int","value":0},{"name":"zM","type":"int","value":71}],"gid":11,"width":47,"height":25},{"id":806,"x":-470,"y":-2340,"visible":true,"properties":[{"name":"layer","type":"int","value":1},{"name":"resource_index","type":"int","value":803},{"name":"u","type":"string","value":"enV0"},{"name":"no","type":"int","value":0},{"name":"zM","type":"int","value":164}],"gid":15,"width":20,"height":60},{"id":807,"x":249,"y":-639,"visible":true,"properties":[{"name":"layer","type":"int","value":1},{"name":"resource_index","type":"int","value":804},{"name":"u","type":"string","value":"edD"},{"name":"no","type":"int","value":0},{"name":"zM","type":"int","value":71}],"gid":13,"width":40,"height":21},{"id":808,"x":-1440,"y":-1649,"visible":true,"properties":[{"name":"layer","type":"int","value":1},{"name":"resource_index","type":"int","value":805},{"name":"u","type":"string","value":"enH1"},{"name":"no","type":"int","value":0},{"name":"zM","type":"int","value":146}],"gid":12,"width":90,"height":31},{"id":809,"x":-720,"y":451,"visible":true,"properties":[{"name":"layer","type":"int","value":1},{"name":"resource_index","type":"int","value":806},{"name":"u","type":"string","value":"enH1"},{"name":"no","type":"int","value":0},{"name":"zM","type":"int","value":0}],"gid":12,"width":90,"height":31},{"id":810,"x":-720,"y":-2249,"visible":true,"properties":[{"name":"layer","type":"int","value":1},{"name":"resource_index","type":"int","value":807},{"name":"u","type":"string","value":"enH1"},{"name":"no","type":"int","value":0},{"name":"zM","type":"int","value":163}],"gid":12,"width":90,"height":31},{"id":811,"x":-720,"y":-2280,"visible":true,"properties":[{"name":"layer","type":"int","value":1},{"name":"resource_index","type":"int","value":808},{"name":"u","type":"string","value":"enH0"},{"name":"no","type":"int","value":0},{"name":"zM","type":"int","value":163}],"gid":9,"width":90,"height":24},{"id":812,"x":-180,"y":-2520,"visible":true,"properties":[{"name":"layer","type":"int","value":1},{"name":"resource_index","type":"int","value":809},{"name":"u","type":"string","value":"enH0"},{"name":"no","type":"int","value":0},{"name":"zM","type":"int","value":164}],"gid":9,"width":90,"height":24},{"id":813,"x":-745,"y":-2100,"visible":true,"properties":[{"name":"layer","type":"int","value":1},{"name":"resource_index","type":"int","value":810},{"name":"u","type":"string","value":"edU"},{"name":"no","type":"int","value":0},{"name":"zM","type":"int","value":160}],"gid":11,"width":47,"height":25},{"id":814,"x":-741,"y":-2079,"visible":true,"properties":[{"name":"layer","type":"int","value":1},{"name":"resource_index","type":"int","value":811},{"name":"u","type":"string","value":"edD"},{"name":"no","type":"int","value":0},{"name":"zM","type":"int","value":160}],"gid":13,"width":40,"height":21},{"id":815,"x":-655,"y":-2100,"visible":true,"properties":[{"name":"layer","type":"int","value":1},{"name":"resource_index","type":"int","value":812},{"name":"u","type":"string","value":"edU"},{"name":"no","type":"int","value":0},{"name":"zM","type":"int","value":160}],"gid":11,"width":47,"height":25},{"id":816,"x":-651,"y":-2079,"visible":true,"properties":[{"name":"layer","type":"int","value":1},{"name":"resource_index","type":"int","value":813},{"name":"u","type":"string","value":"edD"},{"name":"no","type":"int","value":0},{"name":"zM","type":"int","value":160}],"gid":13,"width":40,"height":21},{"id":817,"x":-720,"y":-2100,"visible":true,"properties":[{"name":"layer","type":"int","value":1},{"name":"resource_index","type":"int","value":814},{"name":"u","type":"string","value":"enH0"},{"name":"no","type":"int","value":0},{"name":"zM","type":"int","value":160}],"gid":9,"width":90,"height":24},{"id":818,"x":-720,"y":-2069,"visible":true,"properties":[{"name":"layer","type":"int","value":1},{"name":"resource_index","type":"int","value":815},{"name":"u","type":"string","value":"enH1"},{"name":"no","type":"int","value":0},{"name":"zM","type":"int","value":160}],"gid":12,"width":90,"height":31},{"id":819,"x":-745,"y":-2160,"visible":true,"properties":[{"name":"layer","type":"int","value":1},{"name":"resource_index","type":"int","value":816},{"name":"u","type":"string","value":"edU"},{"name":"no","type":"int","value":0},{"name":"zM","type":"int","value":161}],"gid":11,"width":47,"height":25},{"id":820,"x":-741,"y":-2139,"visible":true,"properties":[{"name":"layer","type":"int","value":1},{"name":"resource_index","type":"int","value":817},{"name":"u","type":"string","value":"edD"},{"name":"no","type":"int","value":0},{"name":"zM","type":"int","value":161}],"gid":13,"width":40,"height":21},{"id":821,"x":-655,"y":-2160,"visible":true,"properties":[{"name":"layer","type":"int","value":1},{"name":"resource_index","type":"int","value":818},{"name":"u","type":"string","value":"edU"},{"name":"no","type":"int","value":0},{"name":"zM","type":"int","value":161}],"gid":11,"width":47,"height":25},{"id":822,"x":-651,"y":-2139,"visible":true,"properties":[{"name":"layer","type":"int","value":1},{"name":"resource_index","type":"int","value":819},{"name":"u","type":"string","value":"edD"},{"name":"no","type":"int","value":0},{"name":"zM","type":"int","value":161}],"gid":13,"width":40,"height":21},{"id":823,"x":-720,"y":-2160,"visible":true,"properties":[{"name":"layer","type":"int","value":1},{"name":"resource_index","type":"int","value":820},{"name":"u","type":"string","value":"enH0"},{"name":"no","type":"int","value":0},{"name":"zM","type":"int","value":161}],"gid":9,"width":90,"height":24},{"id":824,"x":-720,"y":-2129,"visible":true,"properties":[{"name":"layer","type":"int","value":1},{"name":"resource_index","type":"int","value":821},{"name":"u","type":"string","value":"enH1"},{"name":"no","type":"int","value":0},{"name":"zM","type":"int","value":161}],"gid":12,"width":90,"height":31},{"id":825,"x":-745,"y":-2220,"visible":true,"properties":[{"name":"layer","type":"int","value":1},{"name":"resource_index","type":"int","value":822},{"name":"u","type":"string","value":"edU"},{"name":"no","type":"int","value":0},{"name":"zM","type":"int","value":162}],"gid":11,"width":47,"height":25},{"id":826,"x":-741,"y":-2199,"visible":true,"properties":[{"name":"layer","type":"int","value":1},{"name":"resource_index","type":"int","value":823},{"name":"u","type":"string","value":"edD"},{"name":"no","type":"int","value":0},{"name":"zM","type":"int","value":162}],"gid":13,"width":40,"height":21},{"id":827,"x":-655,"y":-2220,"visible":true,"properties":[{"name":"layer","type":"int","value":1},{"name":"resource_index","type":"int","value":824},{"name":"u","type":"string","value":"edU"},{"name":"no","type":"int","value":0},{"name":"zM","type":"int","value":162}],"gid":11,"width":47,"height":25},{"id":828,"x":-651,"y":-2199,"visible":true,"properties":[{"name":"layer","type":"int","value":1},{"name":"resource_index","type":"int","value":825},{"name":"u","type":"string","value":"edD"},{"name":"no","type":"int","value":0},{"name":"zM","type":"int","value":162}],"gid":13,"width":40,"height":21},{"id":829,"x":-720,"y":-2220,"visible":true,"properties":[{"name":"layer","type":"int","value":1},{"name":"resource_index","type":"int","value":826},{"name":"u","type":"string","value":"enH0"},{"name":"no","type":"int","value":0},{"name":"zM","type":"int","value":162}],"gid":9,"width":90,"height":24},{"id":830,"x":-720,"y":-2189,"visible":true,"properties":[{"name":"layer","type":"int","value":1},{"name":"resource_index","type":"int","value":827},{"name":"u","type":"string","value":"enH1"},{"name":"no","type":"int","value":0},{"name":"zM","type":"int","value":162}],"gid":12,"width":90,"height":31},{"id":831,"x":360,"y":360,"visible":true,"properties":[{"name":"layer","type":"int","value":1},{"name":"resource_index","type":"int","value":828},{"name":"u","type":"string","value":"enV1"},{"name":"no","type":"int","value":0},{"name":"zM","type":"int","value":0}],"gid":10,"width":20,"height":60},{"id":832,"x":339,"y":441,"visible":true,"properties":[{"name":"layer","type":"int","value":1},{"name":"resource_index","type":"int","value":829},{"name":"u","type":"string","value":"edD"},{"name":"no","type":"int","value":0},{"name":"zM","type":"int","value":0}],"gid":13,"width":40,"height":21},{"id":833,"x":-1170,"y":-2340,"visible":true,"properties":[{"name":"layer","type":"int","value":1},{"name":"resource_index","type":"int","value":830},{"name":"u","type":"string","value":"bsc"},{"name":"no","type":"int","value":2},{"name":"zM","type":"int","value":165}],"gid":7,"width":90,"height":60},{"id":834,"x":-1350,"y":-2309,"visible":true,"properties":[{"name":"layer","type":"int","value":1},{"name":"resource_index","type":"int","value":831},{"name":"u","type":"string","value":"enH1"},{"name":"no","type":"int","value":0},{"name":"zM","type":"int","value":165}],"gid":12,"width":90,"height":31},{"id":835,"x":-1260,"y":-2309,"visible":true,"properties":[{"name":"layer","type":"int","value":1},{"name":"resource_index","type":"int","value":832},{"name":"u","type":"string","value":"enH1"},{"name":"no","type":"int","value":0},{"name":"zM","type":"int","value":165}],"gid":12,"width":90,"height":31},{"id":836,"x":-1080,"y":-2460,"visible":true,"properties":[{"name":"layer","type":"int","value":1},{"name":"resource_index","type":"int","value":833},{"name":"u","type":"string","value":"enH0"},{"name":"no","type":"int","value":0},{"name":"zM","type":"int","value":165}],"gid":9,"width":90,"height":24},{"id":837,"x":-1170,"y":-2309,"visible":true,"properties":[{"name":"layer","type":"int","value":1},{"name":"resource_index","type":"int","value":834},{"name":"u","type":"string","value":"enH1"},{"name":"no","type":"int","value":0},{"name":"zM","type":"int","value":165}],"gid":12,"width":90,"height":31},{"id":838,"x":-1350,"y":-2340,"visible":true,"properties":[{"name":"layer","type":"int","value":1},{"name":"resource_index","type":"int","value":835},{"name":"u","type":"string","value":"bsc"},{"name":"no","type":"int","value":0},{"name":"zM","type":"int","value":165}],"gid":6,"width":90,"height":60},{"id":839,"x":-1080,"y":-2309,"visible":true,"properties":[{"name":"layer","type":"int","value":1},{"name":"resource_index","type":"int","value":836},{"name":"u","type":"string","value":"enH1"},{"name":"no","type":"int","value":0},{"name":"zM","type":"int","value":165}],"gid":12,"width":90,"height":31},{"id":840,"x":-1370,"y":-2340,"visible":true,"properties":[{"name":"layer","type":"int","value":1},{"name":"resource_index","type":"int","value":837},{"name":"u","type":"string","value":"enV0"},{"name":"no","type":"int","value":0},{"name":"zM","type":"int","value":165}],"gid":15,"width":20,"height":60},{"id":841,"x":-990,"y":-2309,"visible":true,"properties":[{"name":"layer","type":"int","value":1},{"name":"resource_index","type":"int","value":838},{"name":"u","type":"string","value":"enH1"},{"name":"no","type":"int","value":0},{"name":"zM","type":"int","value":165}],"gid":12,"width":90,"height":31},{"id":842,"x":-1260,"y":-2460,"visible":true,"properties":[{"name":"layer","type":"int","value":1},{"name":"resource_index","type":"int","value":839},{"name":"u","type":"string","value":"enH0"},{"name":"no","type":"int","value":0},{"name":"zM","type":"int","value":165}],"gid":9,"width":90,"height":24},{"id":843,"x":-900,"y":-2340,"visible":true,"properties":[{"name":"layer","type":"int","value":1},{"name":"resource_index","type":"int","value":840},{"name":"u","type":"string","value":"enH0"},{"name":"no","type":"int","value":0},{"name":"zM","type":"int","value":165}],"gid":9,"width":90,"height":24},{"id":844,"x":-900,"y":-2309,"visible":true,"properties":[{"name":"layer","type":"int","value":1},{"name":"resource_index","type":"int","value":841},{"name":"u","type":"string","value":"enH1"},{"name":"no","type":"int","value":0},{"name":"zM","type":"int","value":165}],"gid":12,"width":90,"height":31},{"id":845,"x":-925,"y":-2400,"visible":true,"properties":[{"name":"layer","type":"int","value":1},{"name":"resource_index","type":"int","value":842},{"name":"u","type":"string","value":"edU"},{"name":"no","type":"int","value":0},{"name":"zM","type":"int","value":165}],"gid":11,"width":47,"height":25},{"id":846,"x":-900,"y":-2340,"visible":true,"properties":[{"name":"layer","type":"int","value":1},{"name":"resource_index","type":"int","value":843},{"name":"u","type":"string","value":"enV1"},{"name":"no","type":"int","value":0},{"name":"zM","type":"int","value":165}],"gid":10,"width":20,"height":60},{"id":847,"x":-1260,"y":-2340,"visible":true,"properties":[{"name":"layer","type":"int","value":1},{"name":"resource_index","type":"int","value":844},{"name":"u","type":"string","value":"bsc"},{"name":"no","type":"int","value":0},{"name":"zM","type":"int","value":165}],"gid":6,"width":90,"height":60},{"id":848,"x":-990,"y":-2340,"visible":true,"properties":[{"name":"layer","type":"int","value":1},{"name":"resource_index","type":"int","value":845},{"name":"u","type":"string","value":"bsc"},{"name":"no","type":"int","value":0},{"name":"zM","type":"int","value":165}],"gid":6,"width":90,"height":60},{"id":849,"x":-990,"y":-2400,"visible":true,"properties":[{"name":"layer","type":"int","value":1},{"name":"resource_index","type":"int","value":846},{"name":"u","type":"string","value":"enH0"},{"name":"no","type":"int","value":0},{"name":"zM","type":"int","value":165}],"gid":9,"width":90,"height":24},{"id":850,"x":-1080,"y":-2340,"visible":true,"properties":[{"name":"layer","type":"int","value":1},{"name":"resource_index","type":"int","value":847},{"name":"u","type":"string","value":"bsc"},{"name":"no","type":"int","value":1},{"name":"zM","type":"int","value":165}],"gid":8,"width":90,"height":60},{"id":851,"x":-1080,"y":-2400,"visible":true,"properties":[{"name":"layer","type":"int","value":1},{"name":"resource_index","type":"int","value":848},{"name":"u","type":"string","value":"bsc"},{"name":"no","type":"int","value":0},{"name":"zM","type":"int","value":165}],"gid":6,"width":90,"height":60},{"id":852,"x":-1350,"y":-2400,"visible":true,"properties":[{"name":"layer","type":"int","value":1},{"name":"resource_index","type":"int","value":849},{"name":"u","type":"string","value":"bsc"},{"name":"no","type":"int","value":2},{"name":"zM","type":"int","value":165}],"gid":7,"width":90,"height":60},{"id":853,"x":-1260,"y":-2400,"visible":true,"properties":[{"name":"layer","type":"int","value":1},{"name":"resource_index","type":"int","value":850},{"name":"u","type":"string","value":"bsc"},{"name":"no","type":"int","value":2},{"name":"zM","type":"int","value":165}],"gid":7,"width":90,"height":60},{"id":854,"x":-1170,"y":-2460,"visible":true,"properties":[{"name":"layer","type":"int","value":1},{"name":"resource_index","type":"int","value":851},{"name":"u","type":"string","value":"enH0"},{"name":"no","type":"int","value":0},{"name":"zM","type":"int","value":165}],"gid":9,"width":90,"height":24},{"id":855,"x":0,"y":-1260,"visible":true,"properties":[{"name":"layer","type":"int","value":1},{"name":"resource_index","type":"int","value":852},{"name":"u","type":"string","value":"enH0"},{"name":"no","type":"int","value":0},{"name":"zM","type":"int","value":120}],"gid":9,"width":90,"height":24},{"id":856,"x":-180,"y":-1200,"visible":true,"properties":[{"name":"layer","type":"int","value":1},{"name":"resource_index","type":"int","value":853},{"name":"u","type":"string","value":"bsc"},{"name":"no","type":"int","value":1},{"name":"zM","type":"int","value":120}],"gid":8,"width":90,"height":60},{"id":857,"x":270,"y":-1200,"visible":true,"properties":[{"name":"layer","type":"int","value":1},{"name":"resource_index","type":"int","value":854},{"name":"u","type":"string","value":"enH0"},{"name":"no","type":"int","value":0},{"name":"zM","type":"int","value":119}],"gid":9,"width":90,"height":24},{"id":858,"x":339,"y":-1179,"visible":true,"properties":[{"name":"layer","type":"int","value":1},{"name":"resource_index","type":"int","value":855},{"name":"u","type":"string","value":"edD"},{"name":"no","type":"int","value":0},{"name":"zM","type":"int","value":119}],"gid":13,"width":40,"height":21},{"id":859,"x":0,"y":-1169,"visible":true,"properties":[{"name":"layer","type":"int","value":1},{"name":"resource_index","type":"int","value":856},{"name":"u","type":"string","value":"enH1"},{"name":"no","type":"int","value":0},{"name":"zM","type":"int","value":120}],"gid":12,"width":90,"height":31},{"id":860,"x":0,"y":-1200,"visible":true,"properties":[{"name":"layer","type":"int","value":1},{"name":"resource_index","type":"int","value":857},{"name":"u","type":"string","value":"bsc"},{"name":"no","type":"int","value":2},{"name":"zM","type":"int","value":120}],"gid":7,"width":90,"height":60},{"id":861,"x":249,"y":-1179,"visible":true,"properties":[{"name":"layer","type":"int","value":1},{"name":"resource_index","type":"int","value":858},{"name":"u","type":"string","value":"edD"},{"name":"no","type":"int","value":0},{"name":"zM","type":"int","value":119}],"gid":13,"width":40,"height":21},{"id":862,"x":270,"y":-1169,"visible":true,"properties":[{"name":"layer","type":"int","value":1},{"name":"resource_index","type":"int","value":859},{"name":"u","type":"string","value":"enH1"},{"name":"no","type":"int","value":0},{"name":"zM","type":"int","value":119}],"gid":12,"width":90,"height":31},{"id":863,"x":-900,"y":0,"visible":true,"properties":[{"name":"layer","type":"int","value":1},{"name":"resource_index","type":"int","value":860},{"name":"u","type":"string","value":"enH0"},{"name":"no","type":"int","value":0},{"name":"zM","type":"int","value":0}],"gid":9,"width":90,"height":24},{"id":864,"x":-1350,"y":120,"visible":true,"properties":[{"name":"layer","type":"int","value":1},{"name":"resource_index","type":"int","value":861},{"name":"u","type":"string","value":"enH0"},{"name":"no","type":"int","value":0},{"name":"zM","type":"int","value":0}],"gid":9,"width":90,"height":24},{"id":865,"x":-291,"y":-1659,"visible":true,"properties":[{"name":"layer","type":"int","value":1},{"name":"resource_index","type":"int","value":862},{"name":"u","type":"string","value":"edD"},{"name":"no","type":"int","value":0},{"name":"zM","type":"int","value":147}],"gid":13,"width":40,"height":21},{"id":866,"x":-360,"y":-1740,"visible":true,"properties":[{"name":"layer","type":"int","value":1},{"name":"resource_index","type":"int","value":863},{"name":"u","type":"string","value":"enH0"},{"name":"no","type":"int","value":0},{"name":"zM","type":"int","value":147}],"gid":9,"width":90,"height":24},{"id":867,"x":-385,"y":-1740,"visible":true,"properties":[{"name":"layer","type":"int","value":1},{"name":"resource_index","type":"int","value":864},{"name":"u","type":"string","value":"edU"},{"name":"no","type":"int","value":0},{"name":"zM","type":"int","value":147}],"gid":11,"width":47,"height":25},{"id":868,"x":-1735,"y":-120,"visible":true,"properties":[{"name":"layer","type":"int","value":1},{"name":"resource_index","type":"int","value":865},{"name":"u","type":"string","value":"edU"},{"name":"no","type":"int","value":0},{"name":"zM","type":"int","value":0}],"gid":11,"width":47,"height":25},{"id":869,"x":-1730,"y":60,"visible":true,"properties":[{"name":"layer","type":"int","value":1},{"name":"resource_index","type":"int","value":866},{"name":"u","type":"string","value":"enV0"},{"name":"no","type":"int","value":0},{"name":"zM","type":"int","value":0}],"gid":15,"width":20,"height":60},{"id":870,"x":-1730,"y":180,"visible":true,"properties":[{"name":"layer","type":"int","value":1},{"name":"resource_index","type":"int","value":867},{"name":"u","type":"string","value":"enV0"},{"name":"no","type":"int","value":0},{"name":"zM","type":"int","value":0}],"gid":15,"width":20,"height":60},{"id":871,"x":-1730,"y":120,"visible":true,"properties":[{"name":"layer","type":"int","value":1},{"name":"resource_index","type":"int","value":868},{"name":"u","type":"string","value":"enV0"},{"name":"no","type":"int","value":0},{"name":"zM","type":"int","value":0}],"gid":15,"width":20,"height":60},{"id":872,"x":-1640,"y":-1740,"visible":true,"properties":[{"name":"layer","type":"int","value":1},{"name":"resource_index","type":"int","value":869},{"name":"u","type":"string","value":"enV0"},{"name":"no","type":"int","value":0},{"name":"zM","type":"int","value":146}],"gid":15,"width":20,"height":60},{"id":873,"x":-1645,"y":-1800,"visible":true,"properties":[{"name":"layer","type":"int","value":1},{"name":"resource_index","type":"int","value":870},{"name":"u","type":"string","value":"edU"},{"name":"no","type":"int","value":0},{"name":"zM","type":"int","value":146}],"gid":11,"width":47,"height":25},{"id":874,"x":-1640,"y":-1680,"visible":true,"properties":[{"name":"layer","type":"int","value":1},{"name":"resource_index","type":"int","value":871},{"name":"u","type":"string","value":"enV0"},{"name":"no","type":"int","value":0},{"name":"zM","type":"int","value":146}],"gid":15,"width":20,"height":60},{"id":875,"x":-1641,"y":-1659,"visible":true,"properties":[{"name":"layer","type":"int","value":1},{"name":"resource_index","type":"int","value":872},{"name":"u","type":"string","value":"edD"},{"name":"no","type":"int","value":0},{"name":"zM","type":"int","value":146}],"gid":13,"width":40,"height":21}],"properties":[]},{"id":9,"name":"layer_2_obj","type":"objectgroup","visible":true,"opacity":1,"draworder":"index","offsetx":0,"offsety":0,"parallaxx":1,"parallaxy":1,"objects":[{"id":990,"x":-1558,"y":-270,"visible":true,"properties":[{"name":"layer","type":"int","value":2},{"name":"resource_index","type":"int","value":0},{"name":"oS","type":"string","value":"connect"},{"name":"l0","type":"string","value":"ladder"},{"name":"l1","type":"string","value":"0"},{"name":"l2","type":"string","value":"3"},{"name":"z","type":"int","value":3},{"name":"zM","type":"int","value":51},{"name":"f","type":"int","value":0}],"gid":25,"width":47,"height":14},{"id":991,"x":259,"y":-414,"visible":true,"properties":[{"name":"layer","type":"int","value":2},{"name":"resource_index","type":"int","value":1},{"name":"oS","type":"string","value":"connect"},{"name":"l0","type":"string","value":"rope"},{"name":"l1","type":"string","value":"0"},{"name":"l2","type":"string","value":"2"},{"name":"z","type":"int","value":3},{"name":"zM","type":"int","value":59},{"name":"f","type":"int","value":0}],"gid":20,"width":11,"height":30},{"id":992,"x":259,"y":-1040,"visible":true,"properties":[{"name":"layer","type":"int","value":2},{"name":"resource_index","type":"int","value":2},{"name":"oS","type":"string","value":"connect"},{"name":"l0","type":"string","value":"rope"},{"name":"l1","type":"string","value":"0"},{"name":"l2","type":"string","value":"1"},{"name":"z","type":"int","value":3},{"name":"zM","type":"int","value":107},{"name":"f","type":"int","value":0}],"gid":21,"width":5,"height":30},{"id":993,"x":261,"y":-444,"visible":true,"properties":[{"name":"layer","type":"int","value":2},{"name":"resource_index","type":"int","value":3},{"name":"oS","type":"string","value":"connect"},{"name":"l0","type":"string","value":"rope"},{"name":"l1","type":"string","value":"0"},{"name":"l2","type":"string","value":"1"},{"name":"z","type":"int","value":3},{"name":"zM","type":"int","value":60},{"name":"f","type":"int","value":0}],"gid":21,"width":5,"height":30},{"id":994,"x":259,"y":-980,"visible":true,"properties":[{"name":"layer","type":"int","value":2},{"name":"resource_index","type":"int","value":4},{"name":"oS","type":"string","value":"connect"},{"name":"l0","type":"string","value":"rope"},{"name":"l1","type":"string","value":"0"},{"name":"l2","type":"string","value":"1"},{"name":"z","type":"int","value":3},{"name":"zM","type":"int","value":100},{"name":"f","type":"int","value":0}],"gid":21,"width":5,"height":30},{"id":995,"x":259,"y":-1010,"visible":true,"properties":[{"name":"layer","type":"int","value":2},{"name":"resource_index","type":"int","value":5},{"name":"oS","type":"string","value":"connect"},{"name":"l0","type":"string","value":"rope"},{"name":"l1","type":"string","value":"0"},{"name":"l2","type":"string","value":"1"},{"name":"z","type":"int","value":3},{"name":"zM","type":"int","value":106},{"name":"f","type":"int","value":0}],"gid":21,"width":5,"height":30},{"id":996,"x":259,"y":-951,"visible":true,"properties":[{"name":"layer","type":"int","value":2},{"name":"resource_index","type":"int","value":6},{"name":"oS","type":"string","value":"connect"},{"name":"l0","type":"string","value":"rope"},{"name":"l1","type":"string","value":"0"},{"name":"l2","type":"string","value":"1"},{"name":"z","type":"int","value":3},{"name":"zM","type":"int","value":100},{"name":"f","type":"int","value":0}],"gid":21,"width":5,"height":30},{"id":997,"x":259,"y":-921,"visible":true,"properties":[{"name":"layer","type":"int","value":2},{"name":"resource_index","type":"int","value":7},{"name":"oS","type":"string","value":"connect"},{"name":"l0","type":"string","value":"rope"},{"name":"l1","type":"string","value":"0"},{"name":"l2","type":"string","value":"1"},{"name":"z","type":"int","value":3},{"name":"zM","type":"int","value":97},{"name":"f","type":"int","value":0}],"gid":21,"width":5,"height":30},{"id":998,"x":131,"y":-1609,"visible":true,"properties":[{"name":"layer","type":"int","value":2},{"name":"resource_index","type":"int","value":8},{"name":"oS","type":"string","value":"connect"},{"name":"l0","type":"string","value":"rope"},{"name":"l1","type":"string","value":"0"},{"name":"l2","type":"string","value":"0"},{"name":"z","type":"int","value":3},{"name":"zM","type":"int","value":128},{"name":"f","type":"int","value":0}],"gid":18,"width":19,"height":49},{"id":999,"x":134,"y":-1580,"visible":true,"properties":[{"name":"layer","type":"int","value":2},{"name":"resource_index","type":"int","value":9},{"name":"oS","type":"string","value":"connect"},{"name":"l0","type":"string","value":"rope"},{"name":"l1","type":"string","value":"0"},{"name":"l2","type":"string","value":"1"},{"name":"z","type":"int","value":3},{"name":"zM","type":"int","value":128},{"name":"f","type":"int","value":0}],"gid":21,"width":5,"height":30},{"id":1000,"x":134,"y":-1550,"visible":true,"properties":[{"name":"layer","type":"int","value":2},{"name":"resource_index","type":"int","value":10},{"name":"oS","type":"string","value":"connect"},{"name":"l0","type":"string","value":"rope"},{"name":"l1","type":"string","value":"0"},{"name":"l2","type":"string","value":"1"},{"name":"z","type":"int","value":3},{"name":"zM","type":"int","value":137},{"name":"f","type":"int","value":0}],"gid":21,"width":5,"height":30},{"id":1001,"x":134,"y":-1520,"visible":true,"properties":[{"name":"layer","type":"int","value":2},{"name":"resource_index","type":"int","value":11},{"name":"oS","type":"string","value":"connect"},{"name":"l0","type":"string","value":"rope"},{"name":"l1","type":"string","value":"0"},{"name":"l2","type":"string","value":"1"},{"name":"z","type":"int","value":3},{"name":"zM","type":"int","value":133},{"name":"f","type":"int","value":0}],"gid":21,"width":5,"height":30},{"id":1002,"x":134,"y":-1490,"visible":true,"properties":[{"name":"layer","type":"int","value":2},{"name":"resource_index","type":"int","value":12},{"name":"oS","type":"string","value":"connect"},{"name":"l0","type":"string","value":"rope"},{"name":"l1","type":"string","value":"0"},{"name":"l2","type":"string","value":"1"},{"name":"z","type":"int","value":3},{"name":"zM","type":"int","value":131},{"name":"f","type":"int","value":0}],"gid":21,"width":5,"height":30},{"id":1003,"x":134,"y":-1460,"visible":true,"properties":[{"name":"layer","type":"int","value":2},{"name":"resource_index","type":"int","value":13},{"name":"oS","type":"string","value":"connect"},{"name":"l0","type":"string","value":"rope"},{"name":"l1","type":"string","value":"0"},{"name":"l2","type":"string","value":"1"},{"name":"z","type":"int","value":3},{"name":"zM","type":"int","value":129},{"name":"f","type":"int","value":0}],"gid":21,"width":5,"height":30},{"id":1004,"x":134,"y":-1430,"visible":true,"properties":[{"name":"layer","type":"int","value":2},{"name":"resource_index","type":"int","value":14},{"name":"oS","type":"string","value":"connect"},{"name":"l0","type":"string","value":"rope"},{"name":"l1","type":"string","value":"0"},{"name":"l2","type":"string","value":"1"},{"name":"z","type":"int","value":3},{"name":"zM","type":"int","value":127},{"name":"f","type":"int","value":0}],"gid":21,"width":5,"height":30},{"id":1005,"x":134,"y":-1400,"visible":true,"properties":[{"name":"layer","type":"int","value":2},{"name":"resource_index","type":"int","value":15},{"name":"oS","type":"string","value":"connect"},{"name":"l0","type":"string","value":"rope"},{"name":"l1","type":"string","value":"0"},{"name":"l2","type":"string","value":"1"},{"name":"z","type":"int","value":4},{"name":"zM","type":"int","value":125},{"name":"f","type":"int","value":0}],"gid":21,"width":5,"height":30},{"id":1006,"x":134,"y":-1371,"visible":true,"properties":[{"name":"layer","type":"int","value":2},{"name":"resource_index","type":"int","value":16},{"name":"oS","type":"string","value":"connect"},{"name":"l0","type":"string","value":"rope"},{"name":"l1","type":"string","value":"0"},{"name":"l2","type":"string","value":"1"},{"name":"z","type":"int","value":3},{"name":"zM","type":"int","value":125},{"name":"f","type":"int","value":0}],"gid":21,"width":5,"height":30},{"id":1007,"x":134,"y":-1341,"visible":true,"properties":[{"name":"layer","type":"int","value":2},{"name":"resource_index","type":"int","value":17},{"name":"oS","type":"string","value":"connect"},{"name":"l0","type":"string","value":"rope"},{"name":"l1","type":"string","value":"0"},{"name":"l2","type":"string","value":"1"},{"name":"z","type":"int","value":3},{"name":"zM","type":"int","value":124},{"name":"f","type":"int","value":0}],"gid":21,"width":5,"height":30},{"id":1008,"x":132,"y":-1312,"visible":true,"properties":[{"name":"layer","type":"int","value":2},{"name":"resource_index","type":"int","value":18},{"name":"oS","type":"string","value":"connect"},{"name":"l0","type":"string","value":"rope"},{"name":"l1","type":"string","value":"0"},{"name":"l2","type":"string","value":"2"},{"name":"z","type":"int","value":3},{"name":"zM","type":"int","value":124},{"name":"f","type":"int","value":0}],"gid":20,"width":11,"height":30},{"id":1009,"x":-179,"y":-1729,"visible":true,"properties":[{"name":"layer","type":"int","value":2},{"name":"resource_index","type":"int","value":19},{"name":"oS","type":"string","value":"connect"},{"name":"l0","type":"string","value":"rope"},{"name":"l1","type":"string","value":"0"},{"name":"l2","type":"string","value":"0"},{"name":"z","type":"int","value":3},{"name":"zM","type":"int","value":143},{"name":"f","type":"int","value":0}],"gid":18,"width":19,"height":49},{"id":1010,"x":-176,"y":-1699,"visible":true,"properties":[{"name":"layer","type":"int","value":2},{"name":"resource_index","type":"int","value":20},{"name":"oS","type":"string","value":"connect"},{"name":"l0","type":"string","value":"rope"},{"name":"l1","type":"string","value":"0"},{"name":"l2","type":"string","value":"1"},{"name":"z","type":"int","value":3},{"name":"zM","type":"int","value":151},{"name":"f","type":"int","value":0}],"gid":21,"width":5,"height":30},{"id":1011,"x":-176,"y":-1669,"visible":true,"properties":[{"name":"layer","type":"int","value":2},{"name":"resource_index","type":"int","value":21},{"name":"oS","type":"string","value":"connect"},{"name":"l0","type":"string","value":"rope"},{"name":"l1","type":"string","value":"0"},{"name":"l2","type":"string","value":"1"},{"name":"z","type":"int","value":3},{"name":"zM","type":"int","value":148},{"name":"f","type":"int","value":0}],"gid":21,"width":5,"height":30},{"id":1012,"x":-176,"y":-1639,"visible":true,"properties":[{"name":"layer","type":"int","value":2},{"name":"resource_index","type":"int","value":22},{"name":"oS","type":"string","value":"connect"},{"name":"l0","type":"string","value":"rope"},{"name":"l1","type":"string","value":"0"},{"name":"l2","type":"string","value":"1"},{"name":"z","type":"int","value":3},{"name":"zM","type":"int","value":145},{"name":"f","type":"int","value":0}],"gid":21,"width":5,"height":30},{"id":1013,"x":-176,"y":-1609,"visible":true,"properties":[{"name":"layer","type":"int","value":2},{"name":"resource_index","type":"int","value":23},{"name":"oS","type":"string","value":"connect"},{"name":"l0","type":"string","value":"rope"},{"name":"l1","type":"string","value":"0"},{"name":"l2","type":"string","value":"1"},{"name":"z","type":"int","value":3},{"name":"zM","type":"int","value":142},{"name":"f","type":"int","value":0}],"gid":21,"width":5,"height":30},{"id":1014,"x":-176,"y":-1579,"visible":true,"properties":[{"name":"layer","type":"int","value":2},{"name":"resource_index","type":"int","value":24},{"name":"oS","type":"string","value":"connect"},{"name":"l0","type":"string","value":"rope"},{"name":"l1","type":"string","value":"0"},{"name":"l2","type":"string","value":"1"},{"name":"z","type":"int","value":3},{"name":"zM","type":"int","value":139},{"name":"f","type":"int","value":0}],"gid":21,"width":5,"height":30},{"id":1015,"x":-176,"y":-1549,"visible":true,"properties":[{"name":"layer","type":"int","value":2},{"name":"resource_index","type":"int","value":25},{"name":"oS","type":"string","value":"connect"},{"name":"l0","type":"string","value":"rope"},{"name":"l1","type":"string","value":"0"},{"name":"l2","type":"string","value":"1"},{"name":"z","type":"int","value":3},{"name":"zM","type":"int","value":136},{"name":"f","type":"int","value":0}],"gid":21,"width":5,"height":30},{"id":1016,"x":-178,"y":-1519,"visible":true,"properties":[{"name":"layer","type":"int","value":2},{"name":"resource_index","type":"int","value":26},{"name":"oS","type":"string","value":"connect"},{"name":"l0","type":"string","value":"rope"},{"name":"l1","type":"string","value":"0"},{"name":"l2","type":"string","value":"2"},{"name":"z","type":"int","value":3},{"name":"zM","type":"int","value":132},{"name":"f","type":"int","value":0}],"gid":20,"width":11,"height":30},{"id":1017,"x":-454,"y":-1789,"visible":true,"properties":[{"name":"layer","type":"int","value":2},{"name":"resource_index","type":"int","value":27},{"name":"oS","type":"string","value":"connect"},{"name":"l0","type":"string","value":"rope"},{"name":"l1","type":"string","value":"0"},{"name":"l2","type":"string","value":"0"},{"name":"z","type":"int","value":3},{"name":"zM","type":"int","value":153},{"name":"f","type":"int","value":0}],"gid":18,"width":19,"height":49},{"id":1018,"x":-451,"y":-1759,"visible":true,"properties":[{"name":"layer","type":"int","value":2},{"name":"resource_index","type":"int","value":28},{"name":"oS","type":"string","value":"connect"},{"name":"l0","type":"string","value":"rope"},{"name":"l1","type":"string","value":"0"},{"name":"l2","type":"string","value":"1"},{"name":"z","type":"int","value":3},{"name":"zM","type":"int","value":154},{"name":"f","type":"int","value":0}],"gid":21,"width":5,"height":30},{"id":1019,"x":-451,"y":-1729,"visible":true,"properties":[{"name":"layer","type":"int","value":2},{"name":"resource_index","type":"int","value":29},{"name":"oS","type":"string","value":"connect"},{"name":"l0","type":"string","value":"rope"},{"name":"l1","type":"string","value":"0"},{"name":"l2","type":"string","value":"1"},{"name":"z","type":"int","value":3},{"name":"zM","type":"int","value":152},{"name":"f","type":"int","value":0}],"gid":21,"width":5,"height":30},{"id":1020,"x":-451,"y":-1699,"visible":true,"properties":[{"name":"layer","type":"int","value":2},{"name":"resource_index","type":"int","value":30},{"name":"oS","type":"string","value":"connect"},{"name":"l0","type":"string","value":"rope"},{"name":"l1","type":"string","value":"0"},{"name":"l2","type":"string","value":"1"},{"name":"z","type":"int","value":3},{"name":"zM","type":"int","value":150},{"name":"f","type":"int","value":0}],"gid":21,"width":5,"height":30},{"id":1021,"x":-451,"y":-1669,"visible":true,"properties":[{"name":"layer","type":"int","value":2},{"name":"resource_index","type":"int","value":31},{"name":"oS","type":"string","value":"connect"},{"name":"l0","type":"string","value":"rope"},{"name":"l1","type":"string","value":"0"},{"name":"l2","type":"string","value":"1"},{"name":"z","type":"int","value":3},{"name":"zM","type":"int","value":149},{"name":"f","type":"int","value":0}],"gid":21,"width":5,"height":30},{"id":1022,"x":-451,"y":-1639,"visible":true,"properties":[{"name":"layer","type":"int","value":2},{"name":"resource_index","type":"int","value":32},{"name":"oS","type":"string","value":"connect"},{"name":"l0","type":"string","value":"rope"},{"name":"l1","type":"string","value":"0"},{"name":"l2","type":"string","value":"1"},{"name":"z","type":"int","value":3},{"name":"zM","type":"int","value":144},{"name":"f","type":"int","value":0}],"gid":21,"width":5,"height":30},{"id":1023,"x":-453,"y":-1579,"visible":true,"properties":[{"name":"layer","type":"int","value":2},{"name":"resource_index","type":"int","value":33},{"name":"oS","type":"string","value":"connect"},{"name":"l0","type":"string","value":"rope"},{"name":"l1","type":"string","value":"0"},{"name":"l2","type":"string","value":"2"},{"name":"z","type":"int","value":3},{"name":"zM","type":"int","value":138},{"name":"f","type":"int","value":0}],"gid":20,"width":11,"height":30},{"id":1024,"x":256,"y":-1189,"visible":true,"properties":[{"name":"layer","type":"int","value":2},{"name":"resource_index","type":"int","value":34},{"name":"oS","type":"string","value":"connect"},{"name":"l0","type":"string","value":"rope"},{"name":"l1","type":"string","value":"0"},{"name":"l2","type":"string","value":"0"},{"name":"z","type":"int","value":3},{"name":"zM","type":"int","value":117},{"name":"f","type":"int","value":0}],"gid":18,"width":19,"height":49},{"id":1025,"x":259,"y":-1159,"visible":true,"properties":[{"name":"layer","type":"int","value":2},{"name":"resource_index","type":"int","value":35},{"name":"oS","type":"string","value":"connect"},{"name":"l0","type":"string","value":"rope"},{"name":"l1","type":"string","value":"0"},{"name":"l2","type":"string","value":"1"},{"name":"z","type":"int","value":3},{"name":"zM","type":"int","value":115},{"name":"f","type":"int","value":0}],"gid":21,"width":5,"height":30},{"id":1026,"x":259,"y":-1130,"visible":true,"properties":[{"name":"layer","type":"int","value":2},{"name":"resource_index","type":"int","value":36},{"name":"oS","type":"string","value":"connect"},{"name":"l0","type":"string","value":"rope"},{"name":"l1","type":"string","value":"0"},{"name":"l2","type":"string","value":"1"},{"name":"z","type":"int","value":3},{"name":"zM","type":"int","value":115},{"name":"f","type":"int","value":0}],"gid":21,"width":5,"height":30},{"id":1027,"x":259,"y":-1100,"visible":true,"properties":[{"name":"layer","type":"int","value":2},{"name":"resource_index","type":"int","value":37},{"name":"oS","type":"string","value":"connect"},{"name":"l0","type":"string","value":"rope"},{"name":"l1","type":"string","value":"0"},{"name":"l2","type":"string","value":"1"},{"name":"z","type":"int","value":3},{"name":"zM","type":"int","value":111},{"name":"f","type":"int","value":0}],"gid":21,"width":5,"height":30},{"id":1028,"x":259,"y":-1070,"visible":true,"properties":[{"name":"layer","type":"int","value":2},{"name":"resource_index","type":"int","value":38},{"name":"oS","type":"string","value":"connect"},{"name":"l0","type":"string","value":"rope"},{"name":"l1","type":"string","value":"0"},{"name":"l2","type":"string","value":"1"},{"name":"z","type":"int","value":3},{"name":"zM","type":"int","value":110},{"name":"f","type":"int","value":0}],"gid":21,"width":5,"height":30},{"id":1029,"x":257,"y":-831,"visible":true,"properties":[{"name":"layer","type":"int","value":2},{"name":"resource_index","type":"int","value":39},{"name":"oS","type":"string","value":"connect"},{"name":"l0","type":"string","value":"rope"},{"name":"l1","type":"string","value":"0"},{"name":"l2","type":"string","value":"2"},{"name":"z","type":"int","value":3},{"name":"zM","type":"int","value":88},{"name":"f","type":"int","value":0}],"gid":20,"width":11,"height":30},{"id":1030,"x":181,"y":-949,"visible":true,"properties":[{"name":"layer","type":"int","value":2},{"name":"resource_index","type":"int","value":40},{"name":"oS","type":"string","value":"connect"},{"name":"l0","type":"string","value":"rope"},{"name":"l1","type":"string","value":"0"},{"name":"l2","type":"string","value":"0"},{"name":"z","type":"int","value":3},{"name":"zM","type":"int","value":86},{"name":"f","type":"int","value":0}],"gid":18,"width":19,"height":49},{"id":1031,"x":184,"y":-919,"visible":true,"properties":[{"name":"layer","type":"int","value":2},{"name":"resource_index","type":"int","value":41},{"name":"oS","type":"string","value":"connect"},{"name":"l0","type":"string","value":"rope"},{"name":"l1","type":"string","value":"0"},{"name":"l2","type":"string","value":"1"},{"name":"z","type":"int","value":3},{"name":"zM","type":"int","value":90},{"name":"f","type":"int","value":0}],"gid":21,"width":5,"height":30},{"id":1032,"x":184,"y":-890,"visible":true,"properties":[{"name":"layer","type":"int","value":2},{"name":"resource_index","type":"int","value":42},{"name":"oS","type":"string","value":"connect"},{"name":"l0","type":"string","value":"rope"},{"name":"l1","type":"string","value":"0"},{"name":"l2","type":"string","value":"1"},{"name":"z","type":"int","value":3},{"name":"zM","type":"int","value":90},{"name":"f","type":"int","value":0}],"gid":21,"width":5,"height":30},{"id":1033,"x":184,"y":-861,"visible":true,"properties":[{"name":"layer","type":"int","value":2},{"name":"resource_index","type":"int","value":43},{"name":"oS","type":"string","value":"connect"},{"name":"l0","type":"string","value":"rope"},{"name":"l1","type":"string","value":"0"},{"name":"l2","type":"string","value":"1"},{"name":"z","type":"int","value":3},{"name":"zM","type":"int","value":90},{"name":"f","type":"int","value":0}],"gid":21,"width":5,"height":30},{"id":1034,"x":184,"y":-831,"visible":true,"properties":[{"name":"layer","type":"int","value":2},{"name":"resource_index","type":"int","value":44},{"name":"oS","type":"string","value":"connect"},{"name":"l0","type":"string","value":"rope"},{"name":"l1","type":"string","value":"0"},{"name":"l2","type":"string","value":"1"},{"name":"z","type":"int","value":3},{"name":"zM","type":"int","value":84},{"name":"f","type":"int","value":0}],"gid":21,"width":5,"height":30},{"id":1035,"x":184,"y":-802,"visible":true,"properties":[{"name":"layer","type":"int","value":2},{"name":"resource_index","type":"int","value":45},{"name":"oS","type":"string","value":"connect"},{"name":"l0","type":"string","value":"rope"},{"name":"l1","type":"string","value":"0"},{"name":"l2","type":"string","value":"1"},{"name":"z","type":"int","value":3},{"name":"zM","type":"int","value":84},{"name":"f","type":"int","value":0}],"gid":21,"width":5,"height":30},{"id":1036,"x":182,"y":-652,"visible":true,"properties":[{"name":"layer","type":"int","value":2},{"name":"resource_index","type":"int","value":46},{"name":"oS","type":"string","value":"connect"},{"name":"l0","type":"string","value":"rope"},{"name":"l1","type":"string","value":"0"},{"name":"l2","type":"string","value":"2"},{"name":"z","type":"int","value":3},{"name":"zM","type":"int","value":73},{"name":"f","type":"int","value":0}],"gid":20,"width":11,"height":30},{"id":1037,"x":258,"y":-649,"visible":true,"properties":[{"name":"layer","type":"int","value":2},{"name":"resource_index","type":"int","value":47},{"name":"oS","type":"string","value":"connect"},{"name":"l0","type":"string","value":"rope"},{"name":"l1","type":"string","value":"0"},{"name":"l2","type":"string","value":"0"},{"name":"z","type":"int","value":3},{"name":"zM","type":"int","value":67},{"name":"f","type":"int","value":0}],"gid":18,"width":19,"height":49},{"id":1038,"x":261,"y":-620,"visible":true,"properties":[{"name":"layer","type":"int","value":2},{"name":"resource_index","type":"int","value":48},{"name":"oS","type":"string","value":"connect"},{"name":"l0","type":"string","value":"rope"},{"name":"l1","type":"string","value":"0"},{"name":"l2","type":"string","value":"1"},{"name":"z","type":"int","value":3},{"name":"zM","type":"int","value":67},{"name":"f","type":"int","value":0}],"gid":21,"width":5,"height":30},{"id":1039,"x":261,"y":-590,"visible":true,"properties":[{"name":"layer","type":"int","value":2},{"name":"resource_index","type":"int","value":49},{"name":"oS","type":"string","value":"connect"},{"name":"l0","type":"string","value":"rope"},{"name":"l1","type":"string","value":"0"},{"name":"l2","type":"string","value":"1"},{"name":"z","type":"int","value":3},{"name":"zM","type":"int","value":64},{"name":"f","type":"int","value":0}],"gid":21,"width":5,"height":30},{"id":1040,"x":261,"y":-561,"visible":true,"properties":[{"name":"layer","type":"int","value":2},{"name":"resource_index","type":"int","value":50},{"name":"oS","type":"string","value":"connect"},{"name":"l0","type":"string","value":"rope"},{"name":"l1","type":"string","value":"0"},{"name":"l2","type":"string","value":"1"},{"name":"z","type":"int","value":3},{"name":"zM","type":"int","value":64},{"name":"f","type":"int","value":0}],"gid":21,"width":5,"height":30},{"id":1041,"x":261,"y":-532,"visible":true,"properties":[{"name":"layer","type":"int","value":2},{"name":"resource_index","type":"int","value":51},{"name":"oS","type":"string","value":"connect"},{"name":"l0","type":"string","value":"rope"},{"name":"l1","type":"string","value":"0"},{"name":"l2","type":"string","value":"1"},{"name":"z","type":"int","value":3},{"name":"zM","type":"int","value":64},{"name":"f","type":"int","value":0}],"gid":21,"width":5,"height":30},{"id":1042,"x":261,"y":-503,"visible":true,"properties":[{"name":"layer","type":"int","value":2},{"name":"resource_index","type":"int","value":52},{"name":"oS","type":"string","value":"connect"},{"name":"l0","type":"string","value":"rope"},{"name":"l1","type":"string","value":"0"},{"name":"l2","type":"string","value":"1"},{"name":"z","type":"int","value":3},{"name":"zM","type":"int","value":64},{"name":"f","type":"int","value":0}],"gid":21,"width":5,"height":30},{"id":1043,"x":261,"y":-474,"visible":true,"properties":[{"name":"layer","type":"int","value":2},{"name":"resource_index","type":"int","value":53},{"name":"oS","type":"string","value":"connect"},{"name":"l0","type":"string","value":"rope"},{"name":"l1","type":"string","value":"0"},{"name":"l2","type":"string","value":"1"},{"name":"z","type":"int","value":3},{"name":"zM","type":"int","value":64},{"name":"f","type":"int","value":0}],"gid":21,"width":5,"height":30},{"id":1044,"x":-1064,"y":-248,"visible":true,"properties":[{"name":"layer","type":"int","value":2},{"name":"resource_index","type":"int","value":54},{"name":"oS","type":"string","value":"connect"},{"name":"l0","type":"string","value":"rope"},{"name":"l1","type":"string","value":"0"},{"name":"l2","type":"string","value":"0"},{"name":"z","type":"int","value":3},{"name":"zM","type":"int","value":17},{"name":"f","type":"int","value":0}],"gid":18,"width":19,"height":49},{"id":1045,"x":-1061,"y":-218,"visible":true,"properties":[{"name":"layer","type":"int","value":2},{"name":"resource_index","type":"int","value":55},{"name":"oS","type":"string","value":"connect"},{"name":"l0","type":"string","value":"rope"},{"name":"l1","type":"string","value":"0"},{"name":"l2","type":"string","value":"1"},{"name":"z","type":"int","value":3},{"name":"zM","type":"int","value":44},{"name":"f","type":"int","value":0}],"gid":21,"width":5,"height":30},{"id":1046,"x":-1061,"y":-188,"visible":true,"properties":[{"name":"layer","type":"int","value":2},{"name":"resource_index","type":"int","value":56},{"name":"oS","type":"string","value":"connect"},{"name":"l0","type":"string","value":"rope"},{"name":"l1","type":"string","value":"0"},{"name":"l2","type":"string","value":"1"},{"name":"z","type":"int","value":3},{"name":"zM","type":"int","value":35},{"name":"f","type":"int","value":0}],"gid":21,"width":5,"height":30},{"id":1047,"x":-1061,"y":-158,"visible":true,"properties":[{"name":"layer","type":"int","value":2},{"name":"resource_index","type":"int","value":57},{"name":"oS","type":"string","value":"connect"},{"name":"l0","type":"string","value":"rope"},{"name":"l1","type":"string","value":"0"},{"name":"l2","type":"string","value":"1"},{"name":"z","type":"int","value":3},{"name":"zM","type":"int","value":32},{"name":"f","type":"int","value":0}],"gid":21,"width":5,"height":30},{"id":1048,"x":-1061,"y":-128,"visible":true,"properties":[{"name":"layer","type":"int","value":2},{"name":"resource_index","type":"int","value":58},{"name":"oS","type":"string","value":"connect"},{"name":"l0","type":"string","value":"rope"},{"name":"l1","type":"string","value":"0"},{"name":"l2","type":"string","value":"1"},{"name":"z","type":"int","value":3},{"name":"zM","type":"int","value":27},{"name":"f","type":"int","value":0}],"gid":21,"width":5,"height":30},{"id":1049,"x":-1061,"y":-98,"visible":true,"properties":[{"name":"layer","type":"int","value":2},{"name":"resource_index","type":"int","value":59},{"name":"oS","type":"string","value":"connect"},{"name":"l0","type":"string","value":"rope"},{"name":"l1","type":"string","value":"0"},{"name":"l2","type":"string","value":"1"},{"name":"z","type":"int","value":3},{"name":"zM","type":"int","value":22},{"name":"f","type":"int","value":0}],"gid":21,"width":5,"height":30},{"id":1050,"x":28,"y":71,"visible":true,"properties":[{"name":"layer","type":"int","value":2},{"name":"resource_index","type":"int","value":60},{"name":"oS","type":"string","value":"connect"},{"name":"l0","type":"string","value":"rope"},{"name":"l1","type":"string","value":"0"},{"name":"l2","type":"string","value":"1"},{"name":"z","type":"int","value":3},{"name":"zM","type":"int","value":6},{"name":"f","type":"int","value":0}],"gid":21,"width":5,"height":30},{"id":1051,"x":-1138,"y":-290,"visible":true,"properties":[{"name":"layer","type":"int","value":2},{"name":"resource_index","type":"int","value":61},{"name":"oS","type":"string","value":"connect"},{"name":"l0","type":"string","value":"rope"},{"name":"l1","type":"string","value":"0"},{"name":"l2","type":"string","value":"0"},{"name":"z","type":"int","value":3},{"name":"zM","type":"int","value":25},{"name":"f","type":"int","value":0}],"gid":18,"width":19,"height":49},{"id":1052,"x":-1135,"y":-260,"visible":true,"properties":[{"name":"layer","type":"int","value":2},{"name":"resource_index","type":"int","value":62},{"name":"oS","type":"string","value":"connect"},{"name":"l0","type":"string","value":"rope"},{"name":"l1","type":"string","value":"0"},{"name":"l2","type":"string","value":"1"},{"name":"z","type":"int","value":3},{"name":"zM","type":"int","value":49},{"name":"f","type":"int","value":0}],"gid":21,"width":5,"height":30},{"id":1053,"x":-1135,"y":-230,"visible":true,"properties":[{"name":"layer","type":"int","value":2},{"name":"resource_index","type":"int","value":63},{"name":"oS","type":"string","value":"connect"},{"name":"l0","type":"string","value":"rope"},{"name":"l1","type":"string","value":"0"},{"name":"l2","type":"string","value":"1"},{"name":"z","type":"int","value":3},{"name":"zM","type":"int","value":46},{"name":"f","type":"int","value":0}],"gid":21,"width":5,"height":30},{"id":1054,"x":-1135,"y":-200,"visible":true,"properties":[{"name":"layer","type":"int","value":2},{"name":"resource_index","type":"int","value":64},{"name":"oS","type":"string","value":"connect"},{"name":"l0","type":"string","value":"rope"},{"name":"l1","type":"string","value":"0"},{"name":"l2","type":"string","value":"1"},{"name":"z","type":"int","value":3},{"name":"zM","type":"int","value":41},{"name":"f","type":"int","value":0}],"gid":21,"width":5,"height":30},{"id":1055,"x":-1135,"y":-170,"visible":true,"properties":[{"name":"layer","type":"int","value":2},{"name":"resource_index","type":"int","value":65},{"name":"oS","type":"string","value":"connect"},{"name":"l0","type":"string","value":"rope"},{"name":"l1","type":"string","value":"0"},{"name":"l2","type":"string","value":"1"},{"name":"z","type":"int","value":3},{"name":"zM","type":"int","value":34},{"name":"f","type":"int","value":0}],"gid":21,"width":5,"height":30},{"id":1056,"x":-1135,"y":-140,"visible":true,"properties":[{"name":"layer","type":"int","value":2},{"name":"resource_index","type":"int","value":66},{"name":"oS","type":"string","value":"connect"},{"name":"l0","type":"string","value":"rope"},{"name":"l1","type":"string","value":"0"},{"name":"l2","type":"string","value":"1"},{"name":"z","type":"int","value":3},{"name":"zM","type":"int","value":30},{"name":"f","type":"int","value":0}],"gid":21,"width":5,"height":30},{"id":1057,"x":-1135,"y":-110,"visible":true,"properties":[{"name":"layer","type":"int","value":2},{"name":"resource_index","type":"int","value":67},{"name":"oS","type":"string","value":"connect"},{"name":"l0","type":"string","value":"rope"},{"name":"l1","type":"string","value":"0"},{"name":"l2","type":"string","value":"1"},{"name":"z","type":"int","value":3},{"name":"zM","type":"int","value":26},{"name":"f","type":"int","value":0}],"gid":21,"width":5,"height":30},{"id":1058,"x":-1135,"y":-80,"visible":true,"properties":[{"name":"layer","type":"int","value":2},{"name":"resource_index","type":"int","value":68},{"name":"oS","type":"string","value":"connect"},{"name":"l0","type":"string","value":"rope"},{"name":"l1","type":"string","value":"0"},{"name":"l2","type":"string","value":"1"},{"name":"z","type":"int","value":3},{"name":"zM","type":"int","value":20},{"name":"f","type":"int","value":0}],"gid":21,"width":5,"height":30},{"id":1059,"x":-1137,"y":-50,"visible":true,"properties":[{"name":"layer","type":"int","value":2},{"name":"resource_index","type":"int","value":69},{"name":"oS","type":"string","value":"connect"},{"name":"l0","type":"string","value":"rope"},{"name":"l1","type":"string","value":"0"},{"name":"l2","type":"string","value":"2"},{"name":"z","type":"int","value":3},{"name":"zM","type":"int","value":16},{"name":"f","type":"int","value":0}],"gid":20,"width":11,"height":30},{"id":1060,"x":-1223,"y":-309,"visible":true,"properties":[{"name":"layer","type":"int","value":2},{"name":"resource_index","type":"int","value":70},{"name":"oS","type":"string","value":"connect"},{"name":"l0","type":"string","value":"rope"},{"name":"l1","type":"string","value":"0"},{"name":"l2","type":"string","value":"0"},{"name":"z","type":"int","value":3},{"name":"zM","type":"int","value":39},{"name":"f","type":"int","value":0}],"gid":18,"width":19,"height":49},{"id":1061,"x":-1220,"y":-280,"visible":true,"properties":[{"name":"layer","type":"int","value":2},{"name":"resource_index","type":"int","value":71},{"name":"oS","type":"string","value":"connect"},{"name":"l0","type":"string","value":"rope"},{"name":"l1","type":"string","value":"0"},{"name":"l2","type":"string","value":"1"},{"name":"z","type":"int","value":3},{"name":"zM","type":"int","value":39},{"name":"f","type":"int","value":0}],"gid":21,"width":5,"height":30},{"id":1062,"x":-1220,"y":-250,"visible":true,"properties":[{"name":"layer","type":"int","value":2},{"name":"resource_index","type":"int","value":72},{"name":"oS","type":"string","value":"connect"},{"name":"l0","type":"string","value":"rope"},{"name":"l1","type":"string","value":"0"},{"name":"l2","type":"string","value":"1"},{"name":"z","type":"int","value":3},{"name":"zM","type":"int","value":48},{"name":"f","type":"int","value":0}],"gid":21,"width":5,"height":30},{"id":1063,"x":-1220,"y":-220,"visible":true,"properties":[{"name":"layer","type":"int","value":2},{"name":"resource_index","type":"int","value":73},{"name":"oS","type":"string","value":"connect"},{"name":"l0","type":"string","value":"rope"},{"name":"l1","type":"string","value":"0"},{"name":"l2","type":"string","value":"1"},{"name":"z","type":"int","value":3},{"name":"zM","type":"int","value":45},{"name":"f","type":"int","value":0}],"gid":21,"width":5,"height":30},{"id":1064,"x":-1222,"y":-190,"visible":true,"properties":[{"name":"layer","type":"int","value":2},{"name":"resource_index","type":"int","value":74},{"name":"oS","type":"string","value":"connect"},{"name":"l0","type":"string","value":"rope"},{"name":"l1","type":"string","value":"0"},{"name":"l2","type":"string","value":"2"},{"name":"z","type":"int","value":3},{"name":"zM","type":"int","value":36},{"name":"f","type":"int","value":0}],"gid":20,"width":11,"height":30},{"id":1065,"x":-1314,"y":-310,"visible":true,"properties":[{"name":"layer","type":"int","value":2},{"name":"resource_index","type":"int","value":75},{"name":"oS","type":"string","value":"connect"},{"name":"l0","type":"string","value":"rope"},{"name":"l1","type":"string","value":"0"},{"name":"l2","type":"string","value":"0"},{"name":"z","type":"int","value":3},{"name":"zM","type":"int","value":40},{"name":"f","type":"int","value":0}],"gid":18,"width":19,"height":49},{"id":1066,"x":-1311,"y":-280,"visible":true,"properties":[{"name":"layer","type":"int","value":2},{"name":"resource_index","type":"int","value":76},{"name":"oS","type":"string","value":"connect"},{"name":"l0","type":"string","value":"rope"},{"name":"l1","type":"string","value":"0"},{"name":"l2","type":"string","value":"1"},{"name":"z","type":"int","value":3},{"name":"zM","type":"int","value":52},{"name":"f","type":"int","value":0}],"gid":21,"width":5,"height":30},{"id":1067,"x":-1311,"y":-250,"visible":true,"properties":[{"name":"layer","type":"int","value":2},{"name":"resource_index","type":"int","value":77},{"name":"oS","type":"string","value":"connect"},{"name":"l0","type":"string","value":"rope"},{"name":"l1","type":"string","value":"0"},{"name":"l2","type":"string","value":"1"},{"name":"z","type":"int","value":3},{"name":"zM","type":"int","value":47},{"name":"f","type":"int","value":0}],"gid":21,"width":5,"height":30},{"id":1068,"x":-1311,"y":-220,"visible":true,"properties":[{"name":"layer","type":"int","value":2},{"name":"resource_index","type":"int","value":78},{"name":"oS","type":"string","value":"connect"},{"name":"l0","type":"string","value":"rope"},{"name":"l1","type":"string","value":"0"},{"name":"l2","type":"string","value":"1"},{"name":"z","type":"int","value":3},{"name":"zM","type":"int","value":37},{"name":"f","type":"int","value":0}],"gid":21,"width":5,"height":30},{"id":1069,"x":-1311,"y":-191,"visible":true,"properties":[{"name":"layer","type":"int","value":2},{"name":"resource_index","type":"int","value":79},{"name":"oS","type":"string","value":"connect"},{"name":"l0","type":"string","value":"rope"},{"name":"l1","type":"string","value":"0"},{"name":"l2","type":"string","value":"1"},{"name":"z","type":"int","value":3},{"name":"zM","type":"int","value":37},{"name":"f","type":"int","value":0}],"gid":21,"width":5,"height":30},{"id":1070,"x":-1311,"y":-161,"visible":true,"properties":[{"name":"layer","type":"int","value":2},{"name":"resource_index","type":"int","value":80},{"name":"oS","type":"string","value":"connect"},{"name":"l0","type":"string","value":"rope"},{"name":"l1","type":"string","value":"0"},{"name":"l2","type":"string","value":"1"},{"name":"z","type":"int","value":3},{"name":"zM","type":"int","value":29},{"name":"f","type":"int","value":0}],"gid":21,"width":5,"height":30},{"id":1071,"x":-1311,"y":-132,"visible":true,"properties":[{"name":"layer","type":"int","value":2},{"name":"resource_index","type":"int","value":81},{"name":"oS","type":"string","value":"connect"},{"name":"l0","type":"string","value":"rope"},{"name":"l1","type":"string","value":"0"},{"name":"l2","type":"string","value":"1"},{"name":"z","type":"int","value":3},{"name":"zM","type":"int","value":29},{"name":"f","type":"int","value":0}],"gid":21,"width":5,"height":30},{"id":1072,"x":-1313,"y":-14,"visible":true,"properties":[{"name":"layer","type":"int","value":2},{"name":"resource_index","type":"int","value":82},{"name":"oS","type":"string","value":"connect"},{"name":"l0","type":"string","value":"rope"},{"name":"l1","type":"string","value":"0"},{"name":"l2","type":"string","value":"2"},{"name":"z","type":"int","value":3},{"name":"zM","type":"int","value":12},{"name":"f","type":"int","value":0}],"gid":20,"width":11,"height":30},{"id":1073,"x":-1311,"y":-102,"visible":true,"properties":[{"name":"layer","type":"int","value":2},{"name":"resource_index","type":"int","value":83},{"name":"oS","type":"string","value":"connect"},{"name":"l0","type":"string","value":"rope"},{"name":"l1","type":"string","value":"0"},{"name":"l2","type":"string","value":"1"},{"name":"z","type":"int","value":3},{"name":"zM","type":"int","value":24},{"name":"f","type":"int","value":0}],"gid":21,"width":5,"height":30},{"id":1074,"x":-1311,"y":-72,"visible":true,"properties":[{"name":"layer","type":"int","value":2},{"name":"resource_index","type":"int","value":84},{"name":"oS","type":"string","value":"connect"},{"name":"l0","type":"string","value":"rope"},{"name":"l1","type":"string","value":"0"},{"name":"l2","type":"string","value":"1"},{"name":"z","type":"int","value":3},{"name":"zM","type":"int","value":19},{"name":"f","type":"int","value":0}],"gid":21,"width":5,"height":30},{"id":1075,"x":-1311,"y":-43,"visible":true,"properties":[{"name":"layer","type":"int","value":2},{"name":"resource_index","type":"int","value":85},{"name":"oS","type":"string","value":"connect"},{"name":"l0","type":"string","value":"rope"},{"name":"l1","type":"string","value":"0"},{"name":"l2","type":"string","value":"1"},{"name":"z","type":"int","value":3},{"name":"zM","type":"int","value":12},{"name":"f","type":"int","value":0}],"gid":21,"width":5,"height":30},{"id":1076,"x":-1061,"y":-68,"visible":true,"properties":[{"name":"layer","type":"int","value":2},{"name":"resource_index","type":"int","value":86},{"name":"oS","type":"string","value":"connect"},{"name":"l0","type":"string","value":"rope"},{"name":"l1","type":"string","value":"0"},{"name":"l2","type":"string","value":"1"},{"name":"z","type":"int","value":3},{"name":"zM","type":"int","value":5},{"name":"f","type":"int","value":0}],"gid":21,"width":5,"height":30},{"id":1077,"x":25,"y":-19,"visible":true,"properties":[{"name":"layer","type":"int","value":2},{"name":"resource_index","type":"int","value":87},{"name":"oS","type":"string","value":"connect"},{"name":"l0","type":"string","value":"rope"},{"name":"l1","type":"string","value":"0"},{"name":"l2","type":"string","value":"0"},{"name":"z","type":"int","value":3},{"name":"zM","type":"int","value":8},{"name":"f","type":"int","value":0}],"gid":18,"width":19,"height":49},{"id":1078,"x":172,"y":36,"visible":true,"properties":[{"name":"layer","type":"int","value":2},{"name":"resource_index","type":"int","value":88},{"name":"oS","type":"string","value":"acc1"},{"name":"l0","type":"string","value":"darkWood"},{"name":"l1","type":"string","value":"nature"},{"name":"l2","type":"string","value":"22"},{"name":"z","type":"int","value":4},{"name":"zM","type":"int","value":3},{"name":"f","type":"int","value":0}],"gid":49,"width":34,"height":87},{"id":1079,"x":179,"y":130,"visible":true,"properties":[{"name":"layer","type":"int","value":2},{"name":"resource_index","type":"int","value":89},{"name":"oS","type":"string","value":"connect"},{"name":"l0","type":"string","value":"rope"},{"name":"l1","type":"string","value":"0"},{"name":"l2","type":"string","value":"2"},{"name":"z","type":"int","value":3},{"name":"zM","type":"int","value":1},{"name":"f","type":"int","value":0}],"gid":20,"width":11,"height":30},{"id":1080,"x":10,"y":36,"visible":true,"properties":[{"name":"layer","type":"int","value":2},{"name":"resource_index","type":"int","value":90},{"name":"oS","type":"string","value":"acc1"},{"name":"l0","type":"string","value":"darkWood"},{"name":"l1","type":"string","value":"nature"},{"name":"l2","type":"string","value":"23"},{"name":"z","type":"int","value":4},{"name":"zM","type":"int","value":8},{"name":"f","type":"int","value":0}],"gid":50,"width":44,"height":88},{"id":1081,"x":178,"y":-20,"visible":true,"properties":[{"name":"layer","type":"int","value":2},{"name":"resource_index","type":"int","value":91},{"name":"oS","type":"string","value":"connect"},{"name":"l0","type":"string","value":"rope"},{"name":"l1","type":"string","value":"0"},{"name":"l2","type":"string","value":"0"},{"name":"z","type":"int","value":3},{"name":"zM","type":"int","value":3},{"name":"f","type":"int","value":0}],"gid":18,"width":19,"height":49},{"id":1082,"x":28,"y":41,"visible":true,"properties":[{"name":"layer","type":"int","value":2},{"name":"resource_index","type":"int","value":92},{"name":"oS","type":"string","value":"connect"},{"name":"l0","type":"string","value":"rope"},{"name":"l1","type":"string","value":"0"},{"name":"l2","type":"string","value":"1"},{"name":"z","type":"int","value":3},{"name":"zM","type":"int","value":8},{"name":"f","type":"int","value":0}],"gid":21,"width":5,"height":30},{"id":1083,"x":26,"y":101,"visible":true,"properties":[{"name":"layer","type":"int","value":2},{"name":"resource_index","type":"int","value":93},{"name":"oS","type":"string","value":"connect"},{"name":"l0","type":"string","value":"rope"},{"name":"l1","type":"string","value":"0"},{"name":"l2","type":"string","value":"2"},{"name":"z","type":"int","value":3},{"name":"zM","type":"int","value":2},{"name":"f","type":"int","value":0}],"gid":20,"width":11,"height":30},{"id":1084,"x":-1560,"y":-490,"visible":true,"properties":[{"name":"layer","type":"int","value":2},{"name":"resource_index","type":"int","value":94},{"name":"oS","type":"string","value":"connect"},{"name":"l0","type":"string","value":"ladder"},{"name":"l1","type":"string","value":"0"},{"name":"l2","type":"string","value":"0"},{"name":"z","type":"int","value":3},{"name":"zM","type":"int","value":54},{"name":"f","type":"int","value":0}],"gid":22,"width":48,"height":23},{"id":1085,"x":-1561,"y":-444,"visible":true,"properties":[{"name":"layer","type":"int","value":2},{"name":"resource_index","type":"int","value":95},{"name":"oS","type":"string","value":"connect"},{"name":"l0","type":"string","value":"ladder"},{"name":"l1","type":"string","value":"0"},{"name":"l2","type":"string","value":"1"},{"name":"z","type":"int","value":3},{"name":"zM","type":"int","value":54},{"name":"f","type":"int","value":0}],"gid":23,"width":54,"height":48},{"id":1086,"x":-1562,"y":-388,"visible":true,"properties":[{"name":"layer","type":"int","value":2},{"name":"resource_index","type":"int","value":96},{"name":"oS","type":"string","value":"connect"},{"name":"l0","type":"string","value":"ladder"},{"name":"l1","type":"string","value":"0"},{"name":"l2","type":"string","value":"2"},{"name":"z","type":"int","value":3},{"name":"zM","type":"int","value":57},{"name":"f","type":"int","value":0}],"gid":24,"width":53,"height":56},{"id":1087,"x":-1561,"y":-340,"visible":true,"properties":[{"name":"layer","type":"int","value":2},{"name":"resource_index","type":"int","value":97},{"name":"oS","type":"string","value":"connect"},{"name":"l0","type":"string","value":"ladder"},{"name":"l1","type":"string","value":"0"},{"name":"l2","type":"string","value":"1"},{"name":"z","type":"int","value":3},{"name":"zM","type":"int","value":56},{"name":"f","type":"int","value":0}],"gid":23,"width":54,"height":48},{"id":1088,"x":-1562,"y":-284,"visible":true,"properties":[{"name":"layer","type":"int","value":2},{"name":"resource_index","type":"int","value":98},{"name":"oS","type":"string","value":"connect"},{"name":"l0","type":"string","value":"ladder"},{"name":"l1","type":"string","value":"0"},{"name":"l2","type":"string","value":"2"},{"name":"z","type":"int","value":3},{"name":"zM","type":"int","value":53},{"name":"f","type":"int","value":0}],"gid":24,"width":53,"height":56},{"id":1089,"x":-1074,"y":-193,"visible":true,"properties":[{"name":"layer","type":"int","value":2},{"name":"resource_index","type":"int","value":99},{"name":"oS","type":"string","value":"acc1"},{"name":"l0","type":"string","value":"darkWood"},{"name":"l1","type":"string","value":"nature"},{"name":"l2","type":"string","value":"23"},{"name":"z","type":"int","value":1},{"name":"zM","type":"int","value":17},{"name":"f","type":"int","value":0}],"gid":50,"width":44,"height":88},{"id":1090,"x":-1144,"y":-240,"visible":true,"properties":[{"name":"layer","type":"int","value":2},{"name":"resource_index","type":"int","value":100},{"name":"oS","type":"string","value":"acc1"},{"name":"l0","type":"string","value":"darkWood"},{"name":"l1","type":"string","value":"nature"},{"name":"l2","type":"string","value":"22"},{"name":"z","type":"int","value":4},{"name":"zM","type":"int","value":25},{"name":"f","type":"int","value":0}],"gid":49,"width":34,"height":87},{"id":1091,"x":-1156,"y":-168,"visible":true,"properties":[{"name":"layer","type":"int","value":2},{"name":"resource_index","type":"int","value":101},{"name":"oS","type":"string","value":"acc1"},{"name":"l0","type":"string","value":"darkWood"},{"name":"l1","type":"string","value":"nature"},{"name":"l2","type":"string","value":"23"},{"name":"z","type":"int","value":2},{"name":"zM","type":"int","value":25},{"name":"f","type":"int","value":0}],"gid":50,"width":44,"height":88},{"id":1092,"x":-1147,"y":-104,"visible":true,"properties":[{"name":"layer","type":"int","value":2},{"name":"resource_index","type":"int","value":102},{"name":"oS","type":"string","value":"acc1"},{"name":"l0","type":"string","value":"darkWood"},{"name":"l1","type":"string","value":"nature"},{"name":"l2","type":"string","value":"24"},{"name":"z","type":"int","value":4},{"name":"zM","type":"int","value":25},{"name":"f","type":"int","value":0}],"gid":51,"width":34,"height":78},{"id":1093,"x":-1081,"y":-123,"visible":true,"properties":[{"name":"layer","type":"int","value":2},{"name":"resource_index","type":"int","value":103},{"name":"oS","type":"string","value":"acc1"},{"name":"l0","type":"string","value":"darkWood"},{"name":"l1","type":"string","value":"nature"},{"name":"l2","type":"string","value":"23"},{"name":"z","type":"int","value":4},{"name":"zM","type":"int","value":17},{"name":"f","type":"int","value":1}],"gid":50,"width":44,"height":88},{"id":1094,"x":28,"y":11,"visible":true,"properties":[{"name":"layer","type":"int","value":2},{"name":"resource_index","type":"int","value":104},{"name":"oS","type":"string","value":"connect"},{"name":"l0","type":"string","value":"rope"},{"name":"l1","type":"string","value":"0"},{"name":"l2","type":"string","value":"1"},{"name":"z","type":"int","value":3},{"name":"zM","type":"int","value":8},{"name":"f","type":"int","value":0}],"gid":21,"width":5,"height":30},{"id":1095,"x":181,"y":100,"visible":true,"properties":[{"name":"layer","type":"int","value":2},{"name":"resource_index","type":"int","value":105},{"name":"oS","type":"string","value":"connect"},{"name":"l0","type":"string","value":"rope"},{"name":"l1","type":"string","value":"0"},{"name":"l2","type":"string","value":"3"},{"name":"z","type":"int","value":3},{"name":"zM","type":"int","value":3},{"name":"f","type":"int","value":0}],"gid":19,"width":5,"height":120},{"id":1096,"x":-1234,"y":-262,"visible":true,"properties":[{"name":"layer","type":"int","value":2},{"name":"resource_index","type":"int","value":106},{"name":"oS","type":"string","value":"acc1"},{"name":"l0","type":"string","value":"darkWood"},{"name":"l1","type":"string","value":"nature"},{"name":"l2","type":"string","value":"24"},{"name":"z","type":"int","value":4},{"name":"zM","type":"int","value":39},{"name":"f","type":"int","value":0}],"gid":51,"width":34,"height":78},{"id":1097,"x":-1230,"y":-196,"visible":true,"properties":[{"name":"layer","type":"int","value":2},{"name":"resource_index","type":"int","value":107},{"name":"oS","type":"string","value":"acc1"},{"name":"l0","type":"string","value":"darkWood"},{"name":"l1","type":"string","value":"nature"},{"name":"l2","type":"string","value":"24"},{"name":"z","type":"int","value":2},{"name":"zM","type":"int","value":39},{"name":"f","type":"int","value":0}],"gid":51,"width":34,"height":78},{"id":1098,"x":-1329,"y":-255,"visible":true,"properties":[{"name":"layer","type":"int","value":2},{"name":"resource_index","type":"int","value":108},{"name":"oS","type":"string","value":"acc1"},{"name":"l0","type":"string","value":"darkWood"},{"name":"l1","type":"string","value":"nature"},{"name":"l2","type":"string","value":"23"},{"name":"z","type":"int","value":2},{"name":"zM","type":"int","value":40},{"name":"f","type":"int","value":0}],"gid":50,"width":44,"height":88},{"id":1099,"x":-1328,"y":-198,"visible":true,"properties":[{"name":"layer","type":"int","value":2},{"name":"resource_index","type":"int","value":109},{"name":"oS","type":"string","value":"acc1"},{"name":"l0","type":"string","value":"darkWood"},{"name":"l1","type":"string","value":"nature"},{"name":"l2","type":"string","value":"22"},{"name":"z","type":"int","value":4},{"name":"zM","type":"int","value":40},{"name":"f","type":"int","value":0}],"gid":49,"width":34,"height":87},{"id":1100,"x":-1538,"y":-408,"visible":true,"properties":[{"name":"layer","type":"int","value":2},{"name":"resource_index","type":"int","value":110},{"name":"oS","type":"string","value":"acc1"},{"name":"l0","type":"string","value":"darkWood"},{"name":"l1","type":"string","value":"nature"},{"name":"l2","type":"string","value":"23"},{"name":"z","type":"int","value":4},{"name":"zM","type":"int","value":54},{"name":"f","type":"int","value":0}],"gid":50,"width":44,"height":88},{"id":1101,"x":-1547,"y":-350,"visible":true,"properties":[{"name":"layer","type":"int","value":2},{"name":"resource_index","type":"int","value":111},{"name":"oS","type":"string","value":"acc1"},{"name":"l0","type":"string","value":"darkWood"},{"name":"l1","type":"string","value":"nature"},{"name":"l2","type":"string","value":"24"},{"name":"z","type":"int","value":1},{"name":"zM","type":"int","value":54},{"name":"f","type":"int","value":0}],"gid":51,"width":34,"height":78},{"id":1102,"x":-1539,"y":-286,"visible":true,"properties":[{"name":"layer","type":"int","value":2},{"name":"resource_index","type":"int","value":112},{"name":"oS","type":"string","value":"acc1"},{"name":"l0","type":"string","value":"darkWood"},{"name":"l1","type":"string","value":"nature"},{"name":"l2","type":"string","value":"22"},{"name":"z","type":"int","value":2},{"name":"zM","type":"int","value":54},{"name":"f","type":"int","value":0}],"gid":49,"width":34,"height":87},{"id":1103,"x":174,"y":-888,"visible":true,"properties":[{"name":"layer","type":"int","value":2},{"name":"resource_index","type":"int","value":113},{"name":"oS","type":"string","value":"acc1"},{"name":"l0","type":"string","value":"darkWood"},{"name":"l1","type":"string","value":"nature"},{"name":"l2","type":"string","value":"22"},{"name":"z","type":"int","value":4},{"name":"zM","type":"int","value":86},{"name":"f","type":"int","value":0}],"gid":49,"width":34,"height":87},{"id":1104,"x":162,"y":-826,"visible":true,"properties":[{"name":"layer","type":"int","value":2},{"name":"resource_index","type":"int","value":114},{"name":"oS","type":"string","value":"acc1"},{"name":"l0","type":"string","value":"darkWood"},{"name":"l1","type":"string","value":"nature"},{"name":"l2","type":"string","value":"22"},{"name":"z","type":"int","value":2},{"name":"zM","type":"int","value":86},{"name":"f","type":"int","value":1}],"gid":49,"width":34,"height":87},{"id":1105,"x":248,"y":-590,"visible":true,"properties":[{"name":"layer","type":"int","value":2},{"name":"resource_index","type":"int","value":115},{"name":"oS","type":"string","value":"acc1"},{"name":"l0","type":"string","value":"darkWood"},{"name":"l1","type":"string","value":"nature"},{"name":"l2","type":"string","value":"23"},{"name":"z","type":"int","value":4},{"name":"zM","type":"int","value":67},{"name":"f","type":"int","value":0}],"gid":50,"width":44,"height":88},{"id":1106,"x":253,"y":-524,"visible":true,"properties":[{"name":"layer","type":"int","value":2},{"name":"resource_index","type":"int","value":116},{"name":"oS","type":"string","value":"acc1"},{"name":"l0","type":"string","value":"darkWood"},{"name":"l1","type":"string","value":"nature"},{"name":"l2","type":"string","value":"22"},{"name":"z","type":"int","value":4},{"name":"zM","type":"int","value":67},{"name":"f","type":"int","value":0}],"gid":49,"width":34,"height":87},{"id":1107,"x":241,"y":-465,"visible":true,"properties":[{"name":"layer","type":"int","value":2},{"name":"resource_index","type":"int","value":117},{"name":"oS","type":"string","value":"acc1"},{"name":"l0","type":"string","value":"darkWood"},{"name":"l1","type":"string","value":"nature"},{"name":"l2","type":"string","value":"23"},{"name":"z","type":"int","value":2},{"name":"zM","type":"int","value":60},{"name":"f","type":"int","value":1}],"gid":50,"width":44,"height":88},{"id":1108,"x":250,"y":-1131,"visible":true,"properties":[{"name":"layer","type":"int","value":2},{"name":"resource_index","type":"int","value":118},{"name":"oS","type":"string","value":"acc1"},{"name":"l0","type":"string","value":"darkWood"},{"name":"l1","type":"string","value":"nature"},{"name":"l2","type":"string","value":"22"},{"name":"z","type":"int","value":4},{"name":"zM","type":"int","value":117},{"name":"f","type":"int","value":0}],"gid":49,"width":34,"height":87},{"id":1109,"x":234,"y":-1067,"visible":true,"properties":[{"name":"layer","type":"int","value":2},{"name":"resource_index","type":"int","value":119},{"name":"oS","type":"string","value":"acc1"},{"name":"l0","type":"string","value":"darkWood"},{"name":"l1","type":"string","value":"nature"},{"name":"l2","type":"string","value":"23"},{"name":"z","type":"int","value":2},{"name":"zM","type":"int","value":107},{"name":"f","type":"int","value":1}],"gid":50,"width":44,"height":88},{"id":1110,"x":245,"y":-1021,"visible":true,"properties":[{"name":"layer","type":"int","value":2},{"name":"resource_index","type":"int","value":120},{"name":"oS","type":"string","value":"acc1"},{"name":"l0","type":"string","value":"darkWood"},{"name":"l1","type":"string","value":"nature"},{"name":"l2","type":"string","value":"23"},{"name":"z","type":"int","value":2},{"name":"zM","type":"int","value":107},{"name":"f","type":"int","value":0}],"gid":50,"width":44,"height":88},{"id":1111,"x":123,"y":-1549,"visible":true,"properties":[{"name":"layer","type":"int","value":2},{"name":"resource_index","type":"int","value":121},{"name":"oS","type":"string","value":"acc1"},{"name":"l0","type":"string","value":"darkWood"},{"name":"l1","type":"string","value":"nature"},{"name":"l2","type":"string","value":"22"},{"name":"z","type":"int","value":3},{"name":"zM","type":"int","value":128},{"name":"f","type":"int","value":0}],"gid":49,"width":34,"height":87},{"id":1112,"x":111,"y":-1490,"visible":true,"properties":[{"name":"layer","type":"int","value":2},{"name":"resource_index","type":"int","value":122},{"name":"oS","type":"string","value":"acc1"},{"name":"l0","type":"string","value":"darkWood"},{"name":"l1","type":"string","value":"nature"},{"name":"l2","type":"string","value":"23"},{"name":"z","type":"int","value":2},{"name":"zM","type":"int","value":128},{"name":"f","type":"int","value":0}],"gid":50,"width":44,"height":88},{"id":1113,"x":119,"y":-1433,"visible":true,"properties":[{"name":"layer","type":"int","value":2},{"name":"resource_index","type":"int","value":123},{"name":"oS","type":"string","value":"acc1"},{"name":"l0","type":"string","value":"darkWood"},{"name":"l1","type":"string","value":"nature"},{"name":"l2","type":"string","value":"24"},{"name":"z","type":"int","value":2},{"name":"zM","type":"int","value":128},{"name":"f","type":"int","value":0}],"gid":51,"width":34,"height":78},{"id":1114,"x":-186,"y":-1674,"visible":true,"properties":[{"name":"layer","type":"int","value":2},{"name":"resource_index","type":"int","value":124},{"name":"oS","type":"string","value":"acc1"},{"name":"l0","type":"string","value":"darkWood"},{"name":"l1","type":"string","value":"nature"},{"name":"l2","type":"string","value":"22"},{"name":"z","type":"int","value":2},{"name":"zM","type":"int","value":143},{"name":"f","type":"int","value":0}],"gid":49,"width":34,"height":87},{"id":1115,"x":-200,"y":-1616,"visible":true,"properties":[{"name":"layer","type":"int","value":2},{"name":"resource_index","type":"int","value":125},{"name":"oS","type":"string","value":"acc1"},{"name":"l0","type":"string","value":"darkWood"},{"name":"l1","type":"string","value":"nature"},{"name":"l2","type":"string","value":"22"},{"name":"z","type":"int","value":2},{"name":"zM","type":"int","value":143},{"name":"f","type":"int","value":1}],"gid":49,"width":34,"height":87},{"id":1116,"x":-462,"y":-1734,"visible":true,"properties":[{"name":"layer","type":"int","value":2},{"name":"resource_index","type":"int","value":126},{"name":"oS","type":"string","value":"acc1"},{"name":"l0","type":"string","value":"darkWood"},{"name":"l1","type":"string","value":"nature"},{"name":"l2","type":"string","value":"22"},{"name":"z","type":"int","value":4},{"name":"zM","type":"int","value":153},{"name":"f","type":"int","value":0}],"gid":49,"width":34,"height":87},{"id":1117,"x":184,"y":-772,"visible":true,"properties":[{"name":"layer","type":"int","value":2},{"name":"resource_index","type":"int","value":127},{"name":"oS","type":"string","value":"connect"},{"name":"l0","type":"string","value":"rope"},{"name":"l1","type":"string","value":"0"},{"name":"l2","type":"string","value":"1"},{"name":"z","type":"int","value":3},{"name":"zM","type":"int","value":82},{"name":"f","type":"int","value":0}],"gid":21,"width":5,"height":30},{"id":1118,"x":184,"y":-742,"visible":true,"properties":[{"name":"layer","type":"int","value":2},{"name":"resource_index","type":"int","value":128},{"name":"oS","type":"string","value":"connect"},{"name":"l0","type":"string","value":"rope"},{"name":"l1","type":"string","value":"0"},{"name":"l2","type":"string","value":"1"},{"name":"z","type":"int","value":3},{"name":"zM","type":"int","value":78},{"name":"f","type":"int","value":0}],"gid":21,"width":5,"height":30},{"id":1119,"x":184,"y":-712,"visible":true,"properties":[{"name":"layer","type":"int","value":2},{"name":"resource_index","type":"int","value":129},{"name":"oS","type":"string","value":"connect"},{"name":"l0","type":"string","value":"rope"},{"name":"l1","type":"string","value":"0"},{"name":"l2","type":"string","value":"1"},{"name":"z","type":"int","value":3},{"name":"zM","type":"int","value":76},{"name":"f","type":"int","value":0}],"gid":21,"width":5,"height":30},{"id":1120,"x":184,"y":-682,"visible":true,"properties":[{"name":"layer","type":"int","value":2},{"name":"resource_index","type":"int","value":130},{"name":"oS","type":"string","value":"connect"},{"name":"l0","type":"string","value":"rope"},{"name":"l1","type":"string","value":"0"},{"name":"l2","type":"string","value":"1"},{"name":"z","type":"int","value":3},{"name":"zM","type":"int","value":74},{"name":"f","type":"int","value":0}],"gid":21,"width":5,"height":30},{"id":1121,"x":-451,"y":-1609,"visible":true,"properties":[{"name":"layer","type":"int","value":2},{"name":"resource_index","type":"int","value":131},{"name":"oS","type":"string","value":"connect"},{"name":"l0","type":"string","value":"rope"},{"name":"l1","type":"string","value":"0"},{"name":"l2","type":"string","value":"1"},{"name":"z","type":"int","value":3},{"name":"zM","type":"int","value":141},{"name":"f","type":"int","value":0}],"gid":21,"width":5,"height":30},{"id":1122,"x":259,"y":-891,"visible":true,"properties":[{"name":"layer","type":"int","value":2},{"name":"resource_index","type":"int","value":132},{"name":"oS","type":"string","value":"connect"},{"name":"l0","type":"string","value":"rope"},{"name":"l1","type":"string","value":"0"},{"name":"l2","type":"string","value":"1"},{"name":"z","type":"int","value":3},{"name":"zM","type":"int","value":95},{"name":"f","type":"int","value":0}],"gid":21,"width":5,"height":30},{"id":1123,"x":259,"y":-861,"visible":true,"properties":[{"name":"layer","type":"int","value":2},{"name":"resource_index","type":"int","value":133},{"name":"oS","type":"string","value":"connect"},{"name":"l0","type":"string","value":"rope"},{"name":"l1","type":"string","value":"0"},{"name":"l2","type":"string","value":"1"},{"name":"z","type":"int","value":3},{"name":"zM","type":"int","value":91},{"name":"f","type":"int","value":0}],"gid":21,"width":5,"height":30},{"id":1124,"x":-1061,"y":51,"visible":true,"properties":[{"name":"layer","type":"int","value":2},{"name":"resource_index","type":"int","value":134},{"name":"oS","type":"string","value":"connect"},{"name":"l0","type":"string","value":"rope"},{"name":"l1","type":"string","value":"0"},{"name":"l2","type":"string","value":"3"},{"name":"z","type":"int","value":3},{"name":"zM","type":"int","value":5},{"name":"f","type":"int","value":0}],"gid":19,"width":5,"height":120},{"id":1125,"x":-1063,"y":80,"visible":true,"properties":[{"name":"layer","type":"int","value":2},{"name":"resource_index","type":"int","value":135},{"name":"oS","type":"string","value":"connect"},{"name":"l0","type":"string","value":"rope"},{"name":"l1","type":"string","value":"0"},{"name":"l2","type":"string","value":"2"},{"name":"z","type":"int","value":3},{"name":"zM","type":"int","value":5},{"name":"f","type":"int","value":0}],"gid":20,"width":11,"height":30},{"id":1126,"x":-1080,"y":-53,"visible":true,"properties":[{"name":"layer","type":"int","value":2},{"name":"resource_index","type":"int","value":136},{"name":"oS","type":"string","value":"acc1"},{"name":"l0","type":"string","value":"darkWood"},{"name":"l1","type":"string","value":"nature"},{"name":"l2","type":"string","value":"22"},{"name":"z","type":"int","value":2},{"name":"zM","type":"int","value":17},{"name":"f","type":"int","value":1}],"gid":49,"width":34,"height":87},{"id":1127,"x":-1359,"y":-60,"visible":true,"properties":[{"name":"layer","type":"int","value":2},{"name":"resource_index","type":"int","value":137},{"name":"oS","type":"string","value":"acc1"},{"name":"l0","type":"string","value":"darkWood"},{"name":"l1","type":"string","value":"nature"},{"name":"l2","type":"string","value":"23"},{"name":"z","type":"int","value":3},{"name":"zM","type":"int","value":18},{"name":"f","type":"int","value":0}],"gid":50,"width":44,"height":88},{"id":1128,"x":-1477,"y":1,"visible":true,"properties":[{"name":"layer","type":"int","value":2},{"name":"resource_index","type":"int","value":138},{"name":"oS","type":"string","value":"acc1"},{"name":"l0","type":"string","value":"darkWood"},{"name":"l1","type":"string","value":"nature"},{"name":"l2","type":"string","value":"22"},{"name":"z","type":"int","value":3},{"name":"zM","type":"int","value":11},{"name":"f","type":"int","value":1}],"gid":49,"width":34,"height":87},{"id":1129,"x":-1437,"y":-132,"visible":true,"properties":[{"name":"layer","type":"int","value":2},{"name":"resource_index","type":"int","value":139},{"name":"oS","type":"string","value":"acc1"},{"name":"l0","type":"string","value":"darkWood"},{"name":"l1","type":"string","value":"nature"},{"name":"l2","type":"string","value":"24"},{"name":"z","type":"int","value":3},{"name":"zM","type":"int","value":28},{"name":"f","type":"int","value":0}],"gid":51,"width":34,"height":78},{"id":1130,"x":-1350,"y":49,"visible":true,"properties":[{"name":"layer","type":"int","value":2},{"name":"resource_index","type":"int","value":140},{"name":"oS","type":"string","value":"acc1"},{"name":"l0","type":"string","value":"darkWood"},{"name":"l1","type":"string","value":"nature"},{"name":"l2","type":"string","value":"24"},{"name":"z","type":"int","value":3},{"name":"zM","type":"int","value":7},{"name":"f","type":"int","value":0}],"gid":51,"width":34,"height":78},{"id":1131,"x":-1600,"y":-1159,"visible":true,"properties":[{"name":"layer","type":"int","value":2},{"name":"resource_index","type":"int","value":141},{"name":"oS","type":"string","value":"connect"},{"name":"l0","type":"string","value":"rope"},{"name":"l1","type":"string","value":"0"},{"name":"l2","type":"string","value":"1"},{"name":"z","type":"int","value":3},{"name":"zM","type":"int","value":118},{"name":"f","type":"int","value":0}],"gid":21,"width":5,"height":30},{"id":1132,"x":-1613,"y":-949,"visible":true,"properties":[{"name":"layer","type":"int","value":2},{"name":"resource_index","type":"int","value":142},{"name":"oS","type":"string","value":"connect"},{"name":"l0","type":"string","value":"rope"},{"name":"l1","type":"string","value":"0"},{"name":"l2","type":"string","value":"1"},{"name":"z","type":"int","value":3},{"name":"zM","type":"int","value":99},{"name":"f","type":"int","value":0}],"gid":21,"width":5,"height":30},{"id":1133,"x":-1615,"y":-919,"visible":true,"properties":[{"name":"layer","type":"int","value":2},{"name":"resource_index","type":"int","value":143},{"name":"oS","type":"string","value":"connect"},{"name":"l0","type":"string","value":"rope"},{"name":"l1","type":"string","value":"0"},{"name":"l2","type":"string","value":"2"},{"name":"z","type":"int","value":3},{"name":"zM","type":"int","value":96},{"name":"f","type":"int","value":0}],"gid":20,"width":11,"height":30},{"id":1134,"x":-1603,"y":-1309,"visible":true,"properties":[{"name":"layer","type":"int","value":2},{"name":"resource_index","type":"int","value":144},{"name":"oS","type":"string","value":"connect"},{"name":"l0","type":"string","value":"rope"},{"name":"l1","type":"string","value":"0"},{"name":"l2","type":"string","value":"0"},{"name":"z","type":"int","value":3},{"name":"zM","type":"int","value":123},{"name":"f","type":"int","value":0}],"gid":18,"width":19,"height":49},{"id":1135,"x":-1600,"y":-1189,"visible":true,"properties":[{"name":"layer","type":"int","value":2},{"name":"resource_index","type":"int","value":145},{"name":"oS","type":"string","value":"connect"},{"name":"l0","type":"string","value":"rope"},{"name":"l1","type":"string","value":"0"},{"name":"l2","type":"string","value":"3"},{"name":"z","type":"int","value":3},{"name":"zM","type":"int","value":121},{"name":"f","type":"int","value":0}],"gid":19,"width":5,"height":120},{"id":1136,"x":-1616,"y":-1009,"visible":true,"properties":[{"name":"layer","type":"int","value":2},{"name":"resource_index","type":"int","value":146},{"name":"oS","type":"string","value":"connect"},{"name":"l0","type":"string","value":"rope"},{"name":"l1","type":"string","value":"0"},{"name":"l2","type":"string","value":"0"},{"name":"z","type":"int","value":3},{"name":"zM","type":"int","value":105},{"name":"f","type":"int","value":0}],"gid":18,"width":19,"height":49},{"id":1137,"x":-1602,"y":-1129,"visible":true,"properties":[{"name":"layer","type":"int","value":2},{"name":"resource_index","type":"int","value":147},{"name":"oS","type":"string","value":"connect"},{"name":"l0","type":"string","value":"rope"},{"name":"l1","type":"string","value":"0"},{"name":"l2","type":"string","value":"2"},{"name":"z","type":"int","value":3},{"name":"zM","type":"int","value":114},{"name":"f","type":"int","value":0}],"gid":20,"width":11,"height":30},{"id":1138,"x":-1573,"y":-829,"visible":true,"properties":[{"name":"layer","type":"int","value":2},{"name":"resource_index","type":"int","value":148},{"name":"oS","type":"string","value":"connect"},{"name":"l0","type":"string","value":"rope"},{"name":"l1","type":"string","value":"0"},{"name":"l2","type":"string","value":"0"},{"name":"z","type":"int","value":3},{"name":"zM","type":"int","value":87},{"name":"f","type":"int","value":0}],"gid":18,"width":19,"height":49},{"id":1139,"x":-1570,"y":-799,"visible":true,"properties":[{"name":"layer","type":"int","value":2},{"name":"resource_index","type":"int","value":149},{"name":"oS","type":"string","value":"connect"},{"name":"l0","type":"string","value":"rope"},{"name":"l1","type":"string","value":"0"},{"name":"l2","type":"string","value":"1"},{"name":"z","type":"int","value":3},{"name":"zM","type":"int","value":83},{"name":"f","type":"int","value":0}],"gid":21,"width":5,"height":30},{"id":1140,"x":-1570,"y":-769,"visible":true,"properties":[{"name":"layer","type":"int","value":2},{"name":"resource_index","type":"int","value":150},{"name":"oS","type":"string","value":"connect"},{"name":"l0","type":"string","value":"rope"},{"name":"l1","type":"string","value":"0"},{"name":"l2","type":"string","value":"1"},{"name":"z","type":"int","value":3},{"name":"zM","type":"int","value":81},{"name":"f","type":"int","value":0}],"gid":21,"width":5,"height":30},{"id":1141,"x":-1572,"y":-739,"visible":true,"properties":[{"name":"layer","type":"int","value":2},{"name":"resource_index","type":"int","value":151},{"name":"oS","type":"string","value":"connect"},{"name":"l0","type":"string","value":"rope"},{"name":"l1","type":"string","value":"0"},{"name":"l2","type":"string","value":"2"},{"name":"z","type":"int","value":3},{"name":"zM","type":"int","value":77},{"name":"f","type":"int","value":0}],"gid":20,"width":11,"height":30},{"id":1142,"x":-1613,"y":-979,"visible":true,"properties":[{"name":"layer","type":"int","value":2},{"name":"resource_index","type":"int","value":152},{"name":"oS","type":"string","value":"connect"},{"name":"l0","type":"string","value":"rope"},{"name":"l1","type":"string","value":"0"},{"name":"l2","type":"string","value":"1"},{"name":"z","type":"int","value":3},{"name":"zM","type":"int","value":102},{"name":"f","type":"int","value":0}],"gid":21,"width":5,"height":30}],"properties":[]},{"id":10,"name":"layer_3_obj","type":"objectgroup","visible":true,"opacity":1,"draworder":"index","offsetx":0,"offsety":0,"parallaxx":1,"parallaxy":1,"objects":[{"id":1143,"x":-284,"y":-1201,"visible":true,"properties":[{"name":"layer","type":"int","value":3},{"name":"resource_index","type":"int","value":0},{"name":"oS","type":"string","value":"acc1"},{"name":"l0","type":"string","value":"darkWood"},{"name":"l1","type":"string","value":"nature"},{"name":"l2","type":"string","value":"23"},{"name":"z","type":"int","value":2},{"name":"zM","type":"int","value":112},{"name":"f","type":"int","value":0}],"gid":50,"width":44,"height":88},{"id":1144,"x":89,"y":-1131,"visible":true,"properties":[{"name":"layer","type":"int","value":3},{"name":"resource_index","type":"int","value":1},{"name":"oS","type":"string","value":"acc1"},{"name":"l0","type":"string","value":"darkWood"},{"name":"l1","type":"string","value":"nature"},{"name":"l2","type":"string","value":"23"},{"name":"z","type":"int","value":3},{"name":"zM","type":"int","value":116},{"name":"f","type":"int","value":0}],"gid":50,"width":44,"height":88},{"id":1145,"x":-242,"y":-1211,"visible":true,"properties":[{"name":"layer","type":"int","value":3},{"name":"resource_index","type":"int","value":2},{"name":"oS","type":"string","value":"acc1"},{"name":"l0","type":"string","value":"darkWood"},{"name":"l1","type":"string","value":"nature"},{"name":"l2","type":"string","value":"24"},{"name":"z","type":"int","value":3},{"name":"zM","type":"int","value":112},{"name":"f","type":"int","value":0}],"gid":51,"width":34,"height":78},{"id":1146,"x":-1479,"y":-193,"visible":true,"properties":[{"name":"layer","type":"int","value":3},{"name":"resource_index","type":"int","value":3},{"name":"oS","type":"string","value":"acc1"},{"name":"l0","type":"string","value":"darkWood"},{"name":"l1","type":"string","value":"nature"},{"name":"l2","type":"string","value":"24"},{"name":"z","type":"int","value":3},{"name":"zM","type":"int","value":38},{"name":"f","type":"int","value":1}],"gid":51,"width":34,"height":78},{"id":1147,"x":-287,"y":-855,"visible":true,"properties":[{"name":"layer","type":"int","value":3},{"name":"resource_index","type":"int","value":4},{"name":"oS","type":"string","value":"acc1"},{"name":"l0","type":"string","value":"darkWood"},{"name":"l1","type":"string","value":"nature"},{"name":"l2","type":"string","value":"24"},{"name":"z","type":"int","value":5},{"name":"zM","type":"int","value":89},{"name":"f","type":"int","value":0}],"gid":51,"width":34,"height":78},{"id":1148,"x":-277,"y":-838,"visible":true,"properties":[{"name":"layer","type":"int","value":3},{"name":"resource_index","type":"int","value":5},{"name":"oS","type":"string","value":"acc1"},{"name":"l0","type":"string","value":"darkWood"},{"name":"l1","type":"string","value":"nature"},{"name":"l2","type":"string","value":"23"},{"name":"z","type":"int","value":2},{"name":"zM","type":"int","value":89},{"name":"f","type":"int","value":0}],"gid":50,"width":44,"height":88},{"id":1149,"x":-251,"y":-1119,"visible":true,"properties":[{"name":"layer","type":"int","value":3},{"name":"resource_index","type":"int","value":6},{"name":"oS","type":"string","value":"acc1"},{"name":"l0","type":"string","value":"darkWood"},{"name":"l1","type":"string","value":"nature"},{"name":"l2","type":"string","value":"23"},{"name":"z","type":"int","value":3},{"name":"zM","type":"int","value":112},{"name":"f","type":"int","value":0}],"gid":50,"width":44,"height":88},{"id":1150,"x":-269,"y":-965,"visible":true,"properties":[{"name":"layer","type":"int","value":3},{"name":"resource_index","type":"int","value":7},{"name":"oS","type":"string","value":"acc1"},{"name":"l0","type":"string","value":"darkWood"},{"name":"l1","type":"string","value":"nature"},{"name":"l2","type":"string","value":"23"},{"name":"z","type":"int","value":3},{"name":"zM","type":"int","value":101},{"name":"f","type":"int","value":0}],"gid":50,"width":44,"height":88},{"id":1151,"x":-302,"y":-848,"visible":true,"properties":[{"name":"layer","type":"int","value":3},{"name":"resource_index","type":"int","value":8},{"name":"oS","type":"string","value":"acc1"},{"name":"l0","type":"string","value":"darkWood"},{"name":"l1","type":"string","value":"nature"},{"name":"l2","type":"string","value":"24"},{"name":"z","type":"int","value":3},{"name":"zM","type":"int","value":89},{"name":"f","type":"int","value":0}],"gid":51,"width":34,"height":78},{"id":1152,"x":125,"y":-1151,"visible":true,"properties":[{"name":"layer","type":"int","value":3},{"name":"resource_index","type":"int","value":9},{"name":"oS","type":"string","value":"acc1"},{"name":"l0","type":"string","value":"darkWood"},{"name":"l1","type":"string","value":"nature"},{"name":"l2","type":"string","value":"24"},{"name":"z","type":"int","value":3},{"name":"zM","type":"int","value":116},{"name":"f","type":"int","value":0}],"gid":51,"width":34,"height":78},{"id":1153,"x":-282,"y":-969,"visible":true,"properties":[{"name":"layer","type":"int","value":3},{"name":"resource_index","type":"int","value":10},{"name":"oS","type":"string","value":"acc1"},{"name":"l0","type":"string","value":"darkWood"},{"name":"l1","type":"string","value":"nature"},{"name":"l2","type":"string","value":"24"},{"name":"z","type":"int","value":4},{"name":"zM","type":"int","value":101},{"name":"f","type":"int","value":0}],"gid":51,"width":34,"height":78},{"id":1154,"x":-183,"y":-1120,"visible":true,"properties":[{"name":"layer","type":"int","value":3},{"name":"resource_index","type":"int","value":11},{"name":"oS","type":"string","value":"acc1"},{"name":"l0","type":"string","value":"darkWood"},{"name":"l1","type":"string","value":"nature"},{"name":"l2","type":"string","value":"22"},{"name":"z","type":"int","value":3},{"name":"zM","type":"int","value":113},{"name":"f","type":"int","value":0}],"gid":49,"width":34,"height":87},{"id":1155,"x":-261,"y":-1208,"visible":true,"properties":[{"name":"layer","type":"int","value":3},{"name":"resource_index","type":"int","value":12},{"name":"oS","type":"string","value":"acc1"},{"name":"l0","type":"string","value":"darkWood"},{"name":"l1","type":"string","value":"nature"},{"name":"l2","type":"string","value":"22"},{"name":"z","type":"int","value":4},{"name":"zM","type":"int","value":112},{"name":"f","type":"int","value":0}],"gid":49,"width":34,"height":87},{"id":1156,"x":-144,"y":-1056,"visible":true,"properties":[{"name":"layer","type":"int","value":3},{"name":"resource_index","type":"int","value":13},{"name":"oS","type":"string","value":"acc1"},{"name":"l0","type":"string","value":"darkWood"},{"name":"l1","type":"string","value":"nature"},{"name":"l2","type":"string","value":"28"},{"name":"z","type":"int","value":3},{"name":"zM","type":"int","value":109},{"name":"f","type":"int","value":0}],"gid":40,"width":228,"height":150}],"properties":[]},{"id":11,"name":"portal","type":"objectgroup","visible":true,"opacity":1,"draworder":"index","offsetx":0,"offsety":0,"parallaxx":1,"parallaxy":1,"objects":[{"id":1157,"x":-166,"y":32,"visible":true,"properties":[{"name":"x","type":"int","value":-166},{"name":"y","type":"int","value":32},{"name":"pn","type":"string","value":"sp"},{"name":"pt","type":"int","value":0},{"name":"tm","type":"int","value":999999999},{"name":"tn","type":"string","value":""},{"name":"portal_id","type":"int","value":0}],"point":true},{"id":1158,"x":-950,"y":-119,"visible":true,"properties":[{"name":"x","type":"int","value":-950},{"name":"y","type":"int","value":-119},{"name":"pn","type":"string","value":"sp"},{"name":"pt","type":"int","value":0},{"name":"tm","type":"int","value":999999999},{"name":"tn","type":"string","value":""},{"name":"portal_id","type":"int","value":1}],"point":true},{"id":1159,"x":-1662,"y":-242,"visible":true,"properties":[{"name":"x","type":"int","value":-1662},{"name":"y","type":"int","value":-242},{"name":"pn","type":"string","value":"sp"},{"name":"pt","type":"int","value":0},{"name":"tm","type":"int","value":999999999},{"name":"tn","type":"string","value":""},{"name":"portal_id","type":"int","value":2}],"point":true},{"id":1160,"x":-613,"y":-584,"visible":true,"properties":[{"name":"x","type":"int","value":-613},{"name":"y","type":"int","value":-584},{"name":"pn","type":"string","value":"sp"},{"name":"pt","type":"int","value":0},{"name":"tm","type":"int","value":999999999},{"name":"tn","type":"string","value":""},{"name":"portal_id","type":"int","value":3}],"point":true},{"id":1161,"x":-1591,"y":-718,"visible":true,"properties":[{"name":"x","type":"int","value":-1591},{"name":"y","type":"int","value":-718},{"name":"pn","type":"string","value":"sp"},{"name":"pt","type":"int","value":0},{"name":"tm","type":"int","value":999999999},{"name":"tn","type":"string","value":""},{"name":"portal_id","type":"int","value":4}],"point":true},{"id":1162,"x":-647,"y":-955,"visible":true,"properties":[{"name":"x","type":"int","value":-647},{"name":"y","type":"int","value":-955},{"name":"pn","type":"string","value":"sp"},{"name":"pt","type":"int","value":0},{"name":"tm","type":"int","value":999999999},{"name":"tn","type":"string","value":""},{"name":"portal_id","type":"int","value":5}],"point":true},{"id":1163,"x":299,"y":-1280,"visible":true,"properties":[{"name":"x","type":"int","value":299},{"name":"y","type":"int","value":-1280},{"name":"pn","type":"string","value":"sp"},{"name":"pt","type":"int","value":0},{"name":"tm","type":"int","value":999999999},{"name":"tn","type":"string","value":""},{"name":"portal_id","type":"int","value":6}],"point":true},{"id":1164,"x":-663,"y":-1666,"visible":true,"properties":[{"name":"x","type":"int","value":-663},{"name":"y","type":"int","value":-1666},{"name":"pn","type":"string","value":"sp"},{"name":"pt","type":"int","value":0},{"name":"tm","type":"int","value":999999999},{"name":"tn","type":"string","value":""},{"name":"portal_id","type":"int","value":7}],"point":true},{"id":1165,"x":-1543,"y":-1113,"visible":true,"properties":[{"name":"x","type":"int","value":-1543},{"name":"y","type":"int","value":-1113},{"name":"pn","type":"string","value":"sp"},{"name":"pt","type":"int","value":0},{"name":"tm","type":"int","value":999999999},{"name":"tn","type":"string","value":""},{"name":"portal_id","type":"int","value":8}],"point":true},{"id":1166,"x":-1231,"y":-1898,"visible":true,"properties":[{"name":"x","type":"int","value":-1231},{"name":"y","type":"int","value":-1898},{"name":"pn","type":"string","value":"sp"},{"name":"pt","type":"int","value":0},{"name":"tm","type":"int","value":999999999},{"name":"tn","type":"string","value":""},{"name":"portal_id","type":"int","value":9}],"point":true},{"id":1167,"x":-826,"y":-2404,"visible":true,"properties":[{"name":"x","type":"int","value":-826},{"name":"y","type":"int","value":-2404},{"name":"pn","type":"string","value":"sp"},{"name":"pt","type":"int","value":0},{"name":"tm","type":"int","value":999999999},{"name":"tn","type":"string","value":""},{"name":"portal_id","type":"int","value":10}],"point":true},{"id":1168,"x":-235,"y":-2573,"visible":true,"properties":[{"name":"x","type":"int","value":-235},{"name":"y","type":"int","value":-2573},{"name":"pn","type":"string","value":"sp"},{"name":"pt","type":"int","value":0},{"name":"tm","type":"int","value":999999999},{"name":"tn","type":"string","value":""},{"name":"portal_id","type":"int","value":11}],"point":true},{"id":1169,"x":-843,"y":-352,"visible":true,"properties":[{"name":"x","type":"int","value":-843},{"name":"y","type":"int","value":-352},{"name":"pn","type":"string","value":"sp"},{"name":"pt","type":"int","value":0},{"name":"tm","type":"int","value":999999999},{"name":"tn","type":"string","value":""},{"name":"portal_id","type":"int","value":12}],"point":true},{"id":1170,"x":-561,"y":-163,"visible":true,"properties":[{"name":"x","type":"int","value":-561},{"name":"y","type":"int","value":-163},{"name":"pn","type":"string","value":"sp"},{"name":"pt","type":"int","value":0},{"name":"tm","type":"int","value":999999999},{"name":"tn","type":"string","value":""},{"name":"portal_id","type":"int","value":13}],"point":true},{"id":1171,"x":322,"y":-752,"visible":true,"properties":[{"name":"x","type":"int","value":322},{"name":"y","type":"int","value":-752},{"name":"pn","type":"string","value":"sp"},{"name":"pt","type":"int","value":0},{"name":"tm","type":"int","value":999999999},{"name":"tn","type":"string","value":""},{"name":"portal_id","type":"int","value":14}],"point":true},{"id":1172,"x":-318,"y":-1067,"visible":true,"properties":[{"name":"x","type":"int","value":-318},{"name":"y","type":"int","value":-1067},{"name":"pn","type":"string","value":"sp"},{"name":"pt","type":"int","value":0},{"name":"tm","type":"int","value":999999999},{"name":"tn","type":"string","value":""},{"name":"portal_id","type":"int","value":15}],"point":true},{"id":1173,"x":9,"y":-1704,"visible":true,"properties":[{"name":"x","type":"int","value":9},{"name":"y","type":"int","value":-1704},{"name":"pn","type":"string","value":"sp"},{"name":"pt","type":"int","value":0},{"name":"tm","type":"int","value":999999999},{"name":"tn","type":"string","value":""},{"name":"portal_id","type":"int","value":16}],"point":true},{"id":1174,"x":-647,"y":-2134,"visible":true,"properties":[{"name":"x","type":"int","value":-647},{"name":"y","type":"int","value":-2134},{"name":"pn","type":"string","value":"sp"},{"name":"pt","type":"int","value":0},{"name":"tm","type":"int","value":999999999},{"name":"tn","type":"string","value":""},{"name":"portal_id","type":"int","value":17}],"point":true},{"id":1175,"x":77,"y":173,"visible":true,"properties":[{"name":"x","type":"int","value":121},{"name":"y","type":"int","value":164},{"name":"pn","type":"string","value":"under00"},{"name":"pt","type":"int","value":2},{"name":"tm","type":"int","value":105040000},{"name":"tn","type":"string","value":"top00"},{"name":"portal_id","type":"int","value":18}],"gid":66,"width":89,"height":257},{"id":1176,"x":14,"y":-2577,"visible":true,"properties":[{"name":"x","type":"int","value":58},{"name":"y","type":"int","value":-2586},{"name":"pn","type":"string","value":"east00"},{"name":"pt","type":"int","value":2},{"name":"tm","type":"int","value":106000300},{"name":"tn","type":"string","value":"under00"},{"name":"portal_id","type":"int","value":19}],"gid":66,"width":89,"height":257},{"id":1177,"x":-1534,"y":-1807,"visible":true,"properties":[{"name":"x","type":"int","value":-1490},{"name":"y","type":"int","value":-1816},{"name":"pn","type":"string","value":"west00"},{"name":"pt","type":"int","value":2},{"name":"tm","type":"int","value":107000500},{"name":"tn","type":"string","value":"east00"},{"name":"portal_id","type":"int","value":20}],"gid":66,"width":89,"height":257}],"properties":[]},{"id":12,"name":"life","type":"objectgroup","visible":true,"opacity":1,"draworder":"index","offsetx":0,"offsety":0,"parallaxx":1,"parallaxy":1,"objects":[{"id":1178,"x":-1379,"y":93,"visible":true,"properties":[{"name":"f","type":"int","value":0},{"name":"x","type":"int","value":-1379},{"name":"y","type":"int","value":93},{"name":"cy","type":"int","value":105},{"name":"fh","type":"int","value":35},{"name":"id","type":"int","value":2130100},{"name":"rx0","type":"int","value":-1725},{"name":"rx1","type":"int","value":375},{"name":"hide","type":"int","value":0},{"name":"type","type":"string","value":"m"},{"name":"mobTime","type":"int","value":0}],"point":true},{"id":1179,"x":-1267,"y":71,"visible":true,"properties":[{"name":"f","type":"int","value":0},{"name":"x","type":"int","value":-1267},{"name":"y","type":"int","value":71},{"name":"cy","type":"int","value":105},{"name":"fh","type":"int","value":57},{"name":"id","type":"int","value":2130100},{"name":"rx0","type":"int","value":-1725},{"name":"rx1","type":"int","value":375},{"name":"hide","type":"int","value":0},{"name":"type","type":"string","value":"m"},{"name":"mobTime","type":"int","value":0}],"point":true},{"id":1180,"x":-1178,"y":60,"visible":true,"properties":[{"name":"f","type":"int","value":0},{"name":"x","type":"int","value":-1178},{"name":"y","type":"int","value":60},{"name":"cy","type":"int","value":105},{"name":"fh","type":"int","value":22},{"name":"id","type":"int","value":2130100},{"name":"rx0","type":"int","value":-1725},{"name":"rx1","type":"int","value":375},{"name":"hide","type":"int","value":0},{"name":"type","type":"string","value":"m"},{"name":"mobTime","type":"int","value":0}],"point":true},{"id":1181,"x":-1164,"y":50,"visible":true,"properties":[{"name":"f","type":"int","value":0},{"name":"x","type":"int","value":-1164},{"name":"y","type":"int","value":50},{"name":"cy","type":"int","value":105},{"name":"fh","type":"int","value":23},{"name":"id","type":"int","value":2130100},{"name":"rx0","type":"int","value":-1725},{"name":"rx1","type":"int","value":375},{"name":"hide","type":"int","value":0},{"name":"type","type":"string","value":"m"},{"name":"mobTime","type":"int","value":0}],"point":true},{"id":1182,"x":-1123,"y":46,"visible":true,"properties":[{"name":"f","type":"int","value":0},{"name":"x","type":"int","value":-1123},{"name":"y","type":"int","value":46},{"name":"cy","type":"int","value":105},{"name":"fh","type":"int","value":23},{"name":"id","type":"int","value":2130100},{"name":"rx0","type":"int","value":-1725},{"name":"rx1","type":"int","value":375},{"name":"hide","type":"int","value":0},{"name":"type","type":"string","value":"m"},{"name":"mobTime","type":"int","value":0}],"point":true},{"id":1183,"x":-1007,"y":73,"visible":true,"properties":[{"name":"f","type":"int","value":0},{"name":"x","type":"int","value":-1007},{"name":"y","type":"int","value":73},{"name":"cy","type":"int","value":105},{"name":"fh","type":"int","value":25},{"name":"id","type":"int","value":2130100},{"name":"rx0","type":"int","value":-1725},{"name":"rx1","type":"int","value":375},{"name":"hide","type":"int","value":0},{"name":"type","type":"string","value":"m"},{"name":"mobTime","type":"int","value":0}],"point":true},{"id":1184,"x":-1397,"y":-469,"visible":true,"properties":[{"name":"f","type":"int","value":0},{"name":"x","type":"int","value":-1397},{"name":"y","type":"int","value":-469},{"name":"cy","type":"int","value":-435},{"name":"fh","type":"int","value":202},{"name":"id","type":"int","value":2130100},{"name":"rx0","type":"int","value":-1455},{"name":"rx1","type":"int","value":-615},{"name":"hide","type":"int","value":0},{"name":"type","type":"string","value":"m"},{"name":"mobTime","type":"int","value":0}],"point":true},{"id":1185,"x":-1198,"y":-465,"visible":true,"properties":[{"name":"f","type":"int","value":0},{"name":"x","type":"int","value":-1198},{"name":"y","type":"int","value":-465},{"name":"cy","type":"int","value":-435},{"name":"fh","type":"int","value":187},{"name":"id","type":"int","value":2130100},{"name":"rx0","type":"int","value":-1455},{"name":"rx1","type":"int","value":-615},{"name":"hide","type":"int","value":0},{"name":"type","type":"string","value":"m"},{"name":"mobTime","type":"int","value":0}],"point":true},{"id":1186,"x":-1105,"y":-479,"visible":true,"properties":[{"name":"f","type":"int","value":0},{"name":"x","type":"int","value":-1105},{"name":"y","type":"int","value":-479},{"name":"cy","type":"int","value":-452},{"name":"fh","type":"int","value":207},{"name":"id","type":"int","value":2130100},{"name":"rx0","type":"int","value":-1455},{"name":"rx1","type":"int","value":-615},{"name":"hide","type":"int","value":0},{"name":"type","type":"string","value":"m"},{"name":"mobTime","type":"int","value":0}],"point":true},{"id":1187,"x":-1072,"y":-483,"visible":true,"properties":[{"name":"f","type":"int","value":0},{"name":"x","type":"int","value":-1072},{"name":"y","type":"int","value":-483},{"name":"cy","type":"int","value":-435},{"name":"fh","type":"int","value":191},{"name":"id","type":"int","value":2130100},{"name":"rx0","type":"int","value":-1455},{"name":"rx1","type":"int","value":-615},{"name":"hide","type":"int","value":0},{"name":"type","type":"string","value":"m"},{"name":"mobTime","type":"int","value":0}],"point":true},{"id":1188,"x":-226,"y":-363,"visible":true,"properties":[{"name":"f","type":"int","value":0},{"name":"x","type":"int","value":-226},{"name":"y","type":"int","value":-363},{"name":"cy","type":"int","value":-315},{"name":"fh","type":"int","value":255},{"name":"id","type":"int","value":2130100},{"name":"rx0","type":"int","value":-555},{"name":"rx1","type":"int","value":285},{"name":"hide","type":"int","value":0},{"name":"type","type":"string","value":"m"},{"name":"mobTime","type":"int","value":0}],"point":true},{"id":1189,"x":-72,"y":-353,"visible":true,"properties":[{"name":"f","type":"int","value":0},{"name":"x","type":"int","value":-72},{"name":"y","type":"int","value":-353},{"name":"cy","type":"int","value":-315},{"name":"fh","type":"int","value":253},{"name":"id","type":"int","value":2130100},{"name":"rx0","type":"int","value":-555},{"name":"rx1","type":"int","value":285},{"name":"hide","type":"int","value":0},{"name":"type","type":"string","value":"m"},{"name":"mobTime","type":"int","value":0}],"point":true},{"id":1190,"x":41,"y":-333,"visible":true,"properties":[{"name":"f","type":"int","value":0},{"name":"x","type":"int","value":41},{"name":"y","type":"int","value":-333},{"name":"cy","type":"int","value":-315},{"name":"fh","type":"int","value":252},{"name":"id","type":"int","value":2130100},{"name":"rx0","type":"int","value":-555},{"name":"rx1","type":"int","value":285},{"name":"hide","type":"int","value":0},{"name":"type","type":"string","value":"m"},{"name":"mobTime","type":"int","value":0}],"point":true},{"id":1191,"x":-153,"y":-402,"visible":true,"properties":[{"name":"f","type":"int","value":0},{"name":"x","type":"int","value":-153},{"name":"y","type":"int","value":-402},{"name":"cy","type":"int","value":-370},{"name":"fh","type":"int","value":274},{"name":"id","type":"int","value":2230101},{"name":"rx0","type":"int","value":-555},{"name":"rx1","type":"int","value":285},{"name":"hide","type":"int","value":0},{"name":"type","type":"string","value":"m"},{"name":"mobTime","type":"int","value":0}],"point":true},{"id":1192,"x":118,"y":-401,"visible":true,"properties":[{"name":"f","type":"int","value":0},{"name":"x","type":"int","value":118},{"name":"y","type":"int","value":-401},{"name":"cy","type":"int","value":-315},{"name":"fh","type":"int","value":256},{"name":"id","type":"int","value":2230101},{"name":"rx0","type":"int","value":-555},{"name":"rx1","type":"int","value":285},{"name":"hide","type":"int","value":0},{"name":"type","type":"string","value":"m"},{"name":"mobTime","type":"int","value":0}],"point":true},{"id":1193,"x":-1271,"y":-470,"visible":true,"properties":[{"name":"f","type":"int","value":0},{"name":"x","type":"int","value":-1271},{"name":"y","type":"int","value":-470},{"name":"cy","type":"int","value":-435},{"name":"fh","type":"int","value":178},{"name":"id","type":"int","value":2230101},{"name":"rx0","type":"int","value":-1455},{"name":"rx1","type":"int","value":-615},{"name":"hide","type":"int","value":0},{"name":"type","type":"string","value":"m"},{"name":"mobTime","type":"int","value":0}],"point":true},{"id":1194,"x":-1357,"y":-895,"visible":true,"properties":[{"name":"f","type":"int","value":0},{"name":"x","type":"int","value":-1357},{"name":"y","type":"int","value":-895},{"name":"cy","type":"int","value":-855},{"name":"fh","type":"int","value":174},{"name":"id","type":"int","value":2230101},{"name":"rx0","type":"int","value":-1635},{"name":"rx1","type":"int","value":-705},{"name":"hide","type":"int","value":0},{"name":"type","type":"string","value":"m"},{"name":"mobTime","type":"int","value":0}],"point":true},{"id":1195,"x":-1257,"y":-885,"visible":true,"properties":[{"name":"f","type":"int","value":0},{"name":"x","type":"int","value":-1257},{"name":"y","type":"int","value":-885},{"name":"cy","type":"int","value":-855},{"name":"fh","type":"int","value":166},{"name":"id","type":"int","value":2230101},{"name":"rx0","type":"int","value":-1635},{"name":"rx1","type":"int","value":-705},{"name":"hide","type":"int","value":0},{"name":"type","type":"string","value":"m"},{"name":"mobTime","type":"int","value":0}],"point":true},{"id":1196,"x":-1071,"y":-877,"visible":true,"properties":[{"name":"f","type":"int","value":0},{"name":"x","type":"int","value":-1071},{"name":"y","type":"int","value":-877},{"name":"cy","type":"int","value":-855},{"name":"fh","type":"int","value":165},{"name":"id","type":"int","value":2230101},{"name":"rx0","type":"int","value":-1635},{"name":"rx1","type":"int","value":-705},{"name":"hide","type":"int","value":0},{"name":"type","type":"string","value":"m"},{"name":"mobTime","type":"int","value":0}],"point":true},{"id":1197,"x":-1077,"y":-913,"visible":true,"properties":[{"name":"f","type":"int","value":0},{"name":"x","type":"int","value":-1077},{"name":"y","type":"int","value":-913},{"name":"cy","type":"int","value":-855},{"name":"fh","type":"int","value":165},{"name":"id","type":"int","value":2230101},{"name":"rx0","type":"int","value":-1635},{"name":"rx1","type":"int","value":-705},{"name":"hide","type":"int","value":0},{"name":"type","type":"string","value":"m"},{"name":"mobTime","type":"int","value":0}],"point":true},{"id":1198,"x":-984,"y":-896,"visible":true,"properties":[{"name":"f","type":"int","value":0},{"name":"x","type":"int","value":-984},{"name":"y","type":"int","value":-896},{"name":"cy","type":"int","value":-855},{"name":"fh","type":"int","value":164},{"name":"id","type":"int","value":2230101},{"name":"rx0","type":"int","value":-1635},{"name":"rx1","type":"int","value":-705},{"name":"hide","type":"int","value":0},{"name":"type","type":"string","value":"m"},{"name":"mobTime","type":"int","value":0}],"point":true},{"id":1199,"x":-32,"y":-1016,"visible":true,"properties":[{"name":"f","type":"int","value":0},{"name":"x","type":"int","value":-32},{"name":"y","type":"int","value":-1016},{"name":"cy","type":"int","value":-975},{"name":"fh","type":"int","value":236},{"name":"id","type":"int","value":2230101},{"name":"rx0","type":"int","value":-195},{"name":"rx1","type":"int","value":195},{"name":"hide","type":"int","value":0},{"name":"type","type":"string","value":"m"},{"name":"mobTime","type":"int","value":0}],"point":true},{"id":1200,"x":126,"y":-1051,"visible":true,"properties":[{"name":"f","type":"int","value":0},{"name":"x","type":"int","value":126},{"name":"y","type":"int","value":-1051},{"name":"cy","type":"int","value":-975},{"name":"fh","type":"int","value":241},{"name":"id","type":"int","value":2230101},{"name":"rx0","type":"int","value":-195},{"name":"rx1","type":"int","value":195},{"name":"hide","type":"int","value":0},{"name":"type","type":"string","value":"m"},{"name":"mobTime","type":"int","value":0}],"point":true},{"id":1201,"x":-84,"y":-1033,"visible":true,"properties":[{"name":"f","type":"int","value":0},{"name":"x","type":"int","value":-84},{"name":"y","type":"int","value":-1033},{"name":"cy","type":"int","value":-975},{"name":"fh","type":"int","value":236},{"name":"id","type":"int","value":2230101},{"name":"rx0","type":"int","value":-195},{"name":"rx1","type":"int","value":195},{"name":"hide","type":"int","value":0},{"name":"type","type":"string","value":"m"},{"name":"mobTime","type":"int","value":0}],"point":true},{"id":1202,"x":-79,"y":-1308,"visible":true,"properties":[{"name":"f","type":"int","value":0},{"name":"x","type":"int","value":-79},{"name":"y","type":"int","value":-1308},{"name":"cy","type":"int","value":-1275},{"name":"fh","type":"int","value":345},{"name":"id","type":"int","value":2230101},{"name":"rx0","type":"int","value":-285},{"name":"rx1","type":"int","value":195},{"name":"hide","type":"int","value":0},{"name":"type","type":"string","value":"m"},{"name":"mobTime","type":"int","value":0}],"point":true},{"id":1203,"x":28,"y":-1290,"visible":true,"properties":[{"name":"f","type":"int","value":0},{"name":"x","type":"int","value":28},{"name":"y","type":"int","value":-1290},{"name":"cy","type":"int","value":-1275},{"name":"fh","type":"int","value":346},{"name":"id","type":"int","value":2230101},{"name":"rx0","type":"int","value":-285},{"name":"rx1","type":"int","value":195},{"name":"hide","type":"int","value":0},{"name":"type","type":"string","value":"m"},{"name":"mobTime","type":"int","value":0}],"point":true},{"id":1204,"x":-1393,"y":-1359,"visible":true,"properties":[{"name":"f","type":"int","value":0},{"name":"x","type":"int","value":-1393},{"name":"y","type":"int","value":-1359},{"name":"cy","type":"int","value":-1335},{"name":"fh","type":"int","value":376},{"name":"id","type":"int","value":2230101},{"name":"rx0","type":"int","value":-1635},{"name":"rx1","type":"int","value":-345},{"name":"hide","type":"int","value":0},{"name":"type","type":"string","value":"m"},{"name":"mobTime","type":"int","value":0}],"point":true},{"id":1205,"x":-1254,"y":-1361,"visible":true,"properties":[{"name":"f","type":"int","value":0},{"name":"x","type":"int","value":-1254},{"name":"y","type":"int","value":-1361},{"name":"cy","type":"int","value":-1335},{"name":"fh","type":"int","value":384},{"name":"id","type":"int","value":2230101},{"name":"rx0","type":"int","value":-1635},{"name":"rx1","type":"int","value":-345},{"name":"hide","type":"int","value":0},{"name":"type","type":"string","value":"m"},{"name":"mobTime","type":"int","value":0}],"point":true},{"id":1206,"x":-1059,"y":-1372,"visible":true,"properties":[{"name":"f","type":"int","value":0},{"name":"x","type":"int","value":-1059},{"name":"y","type":"int","value":-1372},{"name":"cy","type":"int","value":-1335},{"name":"fh","type":"int","value":382},{"name":"id","type":"int","value":2230101},{"name":"rx0","type":"int","value":-1635},{"name":"rx1","type":"int","value":-345},{"name":"hide","type":"int","value":0},{"name":"type","type":"string","value":"m"},{"name":"mobTime","type":"int","value":0}],"point":true},{"id":1207,"x":-885,"y":-1381,"visible":true,"properties":[{"name":"f","type":"int","value":0},{"name":"x","type":"int","value":-885},{"name":"y","type":"int","value":-1381},{"name":"cy","type":"int","value":-1335},{"name":"fh","type":"int","value":386},{"name":"id","type":"int","value":2230101},{"name":"rx0","type":"int","value":-1635},{"name":"rx1","type":"int","value":-345},{"name":"hide","type":"int","value":0},{"name":"type","type":"string","value":"m"},{"name":"mobTime","type":"int","value":0}],"point":true},{"id":1208,"x":-468,"y":-1388,"visible":true,"properties":[{"name":"f","type":"int","value":0},{"name":"x","type":"int","value":-468},{"name":"y","type":"int","value":-1388},{"name":"cy","type":"int","value":-1335},{"name":"fh","type":"int","value":389},{"name":"id","type":"int","value":2230101},{"name":"rx0","type":"int","value":-1635},{"name":"rx1","type":"int","value":-345},{"name":"hide","type":"int","value":0},{"name":"type","type":"string","value":"m"},{"name":"mobTime","type":"int","value":0}],"point":true},{"id":1209,"x":-540,"y":-1362,"visible":true,"properties":[{"name":"f","type":"int","value":0},{"name":"x","type":"int","value":-540},{"name":"y","type":"int","value":-1362},{"name":"cy","type":"int","value":-1335},{"name":"fh","type":"int","value":397},{"name":"id","type":"int","value":2110200},{"name":"rx0","type":"int","value":-1635},{"name":"rx1","type":"int","value":-345},{"name":"hide","type":"int","value":0},{"name":"type","type":"string","value":"m"},{"name":"mobTime","type":"int","value":0}],"point":true},{"id":1210,"x":-982,"y":-1390,"visible":true,"properties":[{"name":"f","type":"int","value":0},{"name":"x","type":"int","value":-982},{"name":"y","type":"int","value":-1390},{"name":"cy","type":"int","value":-1335},{"name":"fh","type":"int","value":385},{"name":"id","type":"int","value":2110200},{"name":"rx0","type":"int","value":-1635},{"name":"rx1","type":"int","value":-345},{"name":"hide","type":"int","value":0},{"name":"type","type":"string","value":"m"},{"name":"mobTime","type":"int","value":0}],"point":true},{"id":1211,"x":-1323,"y":-1404,"visible":true,"properties":[{"name":"f","type":"int","value":0},{"name":"x","type":"int","value":-1323},{"name":"y","type":"int","value":-1404},{"name":"cy","type":"int","value":-1335},{"name":"fh","type":"int","value":383},{"name":"id","type":"int","value":2110200},{"name":"rx0","type":"int","value":-1635},{"name":"rx1","type":"int","value":-345},{"name":"hide","type":"int","value":0},{"name":"type","type":"string","value":"m"},{"name":"mobTime","type":"int","value":0}],"point":true},{"id":1212,"x":-1037,"y":-1802,"visible":true,"properties":[{"name":"f","type":"int","value":0},{"name":"x","type":"int","value":-1037},{"name":"y","type":"int","value":-1802},{"name":"cy","type":"int","value":-1755},{"name":"fh","type":"int","value":129},{"name":"id","type":"int","value":2110200},{"name":"rx0","type":"int","value":-1635},{"name":"rx1","type":"int","value":-705},{"name":"hide","type":"int","value":0},{"name":"type","type":"string","value":"m"},{"name":"mobTime","type":"int","value":0}],"point":true},{"id":1213,"x":-1013,"y":-1773,"visible":true,"properties":[{"name":"f","type":"int","value":0},{"name":"x","type":"int","value":-1013},{"name":"y","type":"int","value":-1773},{"name":"cy","type":"int","value":-1755},{"name":"fh","type":"int","value":129},{"name":"id","type":"int","value":2110200},{"name":"rx0","type":"int","value":-1635},{"name":"rx1","type":"int","value":-705},{"name":"hide","type":"int","value":0},{"name":"type","type":"string","value":"m"},{"name":"mobTime","type":"int","value":0}],"point":true},{"id":1214,"x":-461,"y":-2091,"visible":true,"properties":[{"name":"f","type":"int","value":0},{"name":"x","type":"int","value":-461},{"name":"y","type":"int","value":-2091},{"name":"cy","type":"int","value":-2055},{"name":"fh","type":"int","value":218},{"name":"id","type":"int","value":2110200},{"name":"rx0","type":"int","value":-735},{"name":"rx1","type":"int","value":375},{"name":"hide","type":"int","value":0},{"name":"type","type":"string","value":"m"},{"name":"mobTime","type":"int","value":0}],"point":true},{"id":1215,"x":-320,"y":-2086,"visible":true,"properties":[{"name":"f","type":"int","value":0},{"name":"x","type":"int","value":-320},{"name":"y","type":"int","value":-2086},{"name":"cy","type":"int","value":-2055},{"name":"fh","type":"int","value":219},{"name":"id","type":"int","value":2110200},{"name":"rx0","type":"int","value":-735},{"name":"rx1","type":"int","value":375},{"name":"hide","type":"int","value":0},{"name":"type","type":"string","value":"m"},{"name":"mobTime","type":"int","value":0}],"point":true},{"id":1216,"x":-118,"y":-2125,"visible":true,"properties":[{"name":"f","type":"int","value":0},{"name":"x","type":"int","value":-118},{"name":"y","type":"int","value":-2125},{"name":"cy","type":"int","value":-2055},{"name":"fh","type":"int","value":223},{"name":"id","type":"int","value":2110200},{"name":"rx0","type":"int","value":-735},{"name":"rx1","type":"int","value":375},{"name":"hide","type":"int","value":0},{"name":"type","type":"string","value":"m"},{"name":"mobTime","type":"int","value":0}],"point":true},{"id":1217,"x":-243,"y":-2112,"visible":true,"properties":[{"name":"f","type":"int","value":0},{"name":"x","type":"int","value":-243},{"name":"y","type":"int","value":-2112},{"name":"cy","type":"int","value":-2055},{"name":"fh","type":"int","value":221},{"name":"id","type":"int","value":2110200},{"name":"rx0","type":"int","value":-735},{"name":"rx1","type":"int","value":375},{"name":"hide","type":"int","value":0},{"name":"type","type":"string","value":"m"},{"name":"mobTime","type":"int","value":0}],"point":true},{"id":1218,"x":81,"y":-2128,"visible":true,"properties":[{"name":"f","type":"int","value":0},{"name":"x","type":"int","value":81},{"name":"y","type":"int","value":-2128},{"name":"cy","type":"int","value":-2055},{"name":"fh","type":"int","value":225},{"name":"id","type":"int","value":2110200},{"name":"rx0","type":"int","value":-735},{"name":"rx1","type":"int","value":375},{"name":"hide","type":"int","value":0},{"name":"type","type":"string","value":"m"},{"name":"mobTime","type":"int","value":0}],"point":true},{"id":1219,"x":-76,"y":-2123,"visible":true,"properties":[{"name":"f","type":"int","value":0},{"name":"x","type":"int","value":-76},{"name":"y","type":"int","value":-2123},{"name":"cy","type":"int","value":-2055},{"name":"fh","type":"int","value":224},{"name":"id","type":"int","value":2110200},{"name":"rx0","type":"int","value":-735},{"name":"rx1","type":"int","value":375},{"name":"hide","type":"int","value":0},{"name":"type","type":"string","value":"m"},{"name":"mobTime","type":"int","value":0}],"point":true},{"id":1220,"x":221,"y":-2144,"visible":true,"properties":[{"name":"f","type":"int","value":0},{"name":"x","type":"int","value":221},{"name":"y","type":"int","value":-2144},{"name":"cy","type":"int","value":-2055},{"name":"fh","type":"int","value":210},{"name":"id","type":"int","value":2110200},{"name":"rx0","type":"int","value":-735},{"name":"rx1","type":"int","value":375},{"name":"hide","type":"int","value":0},{"name":"type","type":"string","value":"m"},{"name":"mobTime","type":"int","value":0}],"point":true},{"id":1221,"x":310,"y":157,"visible":true,"properties":[{"name":"f","type":"int","value":0},{"name":"x","type":"int","value":310},{"name":"y","type":"int","value":157},{"name":"cy","type":"int","value":165},{"name":"fh","type":"int","value":45},{"name":"id","type":"int","value":1063003},{"name":"rx0","type":"int","value":260},{"name":"rx1","type":"int","value":360},{"name":"hide","type":"int","value":0},{"name":"type","type":"string","value":"n"},{"name":"mobTime","type":"int","value":0}],"point":true}],"properties":[]},{"id":13,"name":"foothold","type":"objectgroup","visible":true,"opacity":1,"draworder":"index","offsetx":0,"offsety":0,"parallaxx":1,"parallaxy":1,"objects":[{"id":1222,"x":180,"y":165,"visible":true,"properties":[{"name":"layer","type":"int","value":1},{"name":"group","type":"int","value":0},{"name":"id","type":"int","value":1},{"name":"fh_layer","type":"int","value":1},{"name":"fh_group","type":"int","value":0},{"name":"fh_id","type":"int","value":1},{"name":"x1","type":"int","value":180},{"name":"x2","type":"int","value":270},{"name":"y1","type":"int","value":165},{"name":"y2","type":"int","value":165},{"name":"next","type":"int","value":45},{"name":"prev","type":"int","value":2}],"polyline":[{"x":0,"y":0},{"x":90,"y":0}]},{"id":1223,"x":90,"y":165,"visible":true,"properties":[{"name":"layer","type":"int","value":1},{"name":"group","type":"int","value":0},{"name":"id","type":"int","value":2},{"name":"fh_layer","type":"int","value":1},{"name":"fh_group","type":"int","value":0},{"name":"fh_id","type":"int","value":2},{"name":"x1","type":"int","value":90},{"name":"x2","type":"int","value":180},{"name":"y1","type":"int","value":165},{"name":"y2","type":"int","value":165},{"name":"next","type":"int","value":1},{"name":"prev","type":"int","value":3}],"polyline":[{"x":0,"y":0},{"x":90,"y":0}]},{"id":1224,"x":0,"y":165,"visible":true,"properties":[{"name":"layer","type":"int","value":1},{"name":"group","type":"int","value":0},{"name":"id","type":"int","value":3},{"name":"fh_layer","type":"int","value":1},{"name":"fh_group","type":"int","value":0},{"name":"fh_id","type":"int","value":3},{"name":"x1","type":"int","value":0},{"name":"x2","type":"int","value":90},{"name":"y1","type":"int","value":165},{"name":"y2","type":"int","value":165},{"name":"next","type":"int","value":2},{"name":"prev","type":"int","value":4}],"polyline":[{"x":0,"y":0},{"x":90,"y":0}]},{"id":1225,"x":-90,"y":165,"visible":true,"properties":[{"name":"layer","type":"int","value":1},{"name":"group","type":"int","value":0},{"name":"id","type":"int","value":4},{"name":"fh_layer","type":"int","value":1},{"name":"fh_group","type":"int","value":0},{"name":"fh_id","type":"int","value":4},{"name":"x1","type":"int","value":-90},{"name":"x2","type":"int","value":0},{"name":"y1","type":"int","value":165},{"name":"y2","type":"int","value":165},{"name":"next","type":"int","value":3},{"name":"prev","type":"int","value":5}],"polyline":[{"x":0,"y":0},{"x":90,"y":0}]},{"id":1226,"x":-180,"y":165,"visible":true,"properties":[{"name":"layer","type":"int","value":1},{"name":"group","type":"int","value":0},{"name":"id","type":"int","value":5},{"name":"fh_layer","type":"int","value":1},{"name":"fh_group","type":"int","value":0},{"name":"fh_id","type":"int","value":5},{"name":"x1","type":"int","value":-180},{"name":"x2","type":"int","value":-90},{"name":"y1","type":"int","value":165},{"name":"y2","type":"int","value":165},{"name":"next","type":"int","value":4},{"name":"prev","type":"int","value":6}],"polyline":[{"x":0,"y":0},{"x":90,"y":0}]},{"id":1227,"x":-270,"y":165,"visible":true,"properties":[{"name":"layer","type":"int","value":1},{"name":"group","type":"int","value":0},{"name":"id","type":"int","value":6},{"name":"fh_layer","type":"int","value":1},{"name":"fh_group","type":"int","value":0},{"name":"fh_id","type":"int","value":6},{"name":"x1","type":"int","value":-270},{"name":"x2","type":"int","value":-180},{"name":"y1","type":"int","value":165},{"name":"y2","type":"int","value":165},{"name":"next","type":"int","value":5},{"name":"prev","type":"int","value":8}],"polyline":[{"x":0,"y":0},{"x":90,"y":0}]},{"id":1228,"x":395,"y":240,"visible":true,"properties":[{"name":"layer","type":"int","value":1},{"name":"group","type":"int","value":0},{"name":"id","type":"int","value":7},{"name":"fh_layer","type":"int","value":1},{"name":"fh_group","type":"int","value":0},{"name":"fh_id","type":"int","value":7},{"name":"x1","type":"int","value":395},{"name":"x2","type":"int","value":395},{"name":"y1","type":"int","value":240},{"name":"y2","type":"int","value":300},{"name":"next","type":"int","value":55},{"name":"prev","type":"int","value":44}],"polyline":[{"x":0,"y":0},{"x":0,"y":60}]},{"id":1229,"x":-360,"y":165,"visible":true,"properties":[{"name":"layer","type":"int","value":1},{"name":"group","type":"int","value":0},{"name":"id","type":"int","value":8},{"name":"fh_layer","type":"int","value":1},{"name":"fh_group","type":"int","value":0},{"name":"fh_id","type":"int","value":8},{"name":"x1","type":"int","value":-360},{"name":"x2","type":"int","value":-270},{"name":"y1","type":"int","value":165},{"name":"y2","type":"int","value":165},{"name":"next","type":"int","value":6},{"name":"prev","type":"int","value":9}],"polyline":[{"x":0,"y":0},{"x":90,"y":0}]},{"id":1230,"x":-450,"y":165,"visible":true,"properties":[{"name":"layer","type":"int","value":1},{"name":"group","type":"int","value":0},{"name":"id","type":"int","value":9},{"name":"fh_layer","type":"int","value":1},{"name":"fh_group","type":"int","value":0},{"name":"fh_id","type":"int","value":9},{"name":"x1","type":"int","value":-450},{"name":"x2","type":"int","value":-360},{"name":"y1","type":"int","value":165},{"name":"y2","type":"int","value":165},{"name":"next","type":"int","value":8},{"name":"prev","type":"int","value":12}],"polyline":[{"x":0,"y":0},{"x":90,"y":0}]},{"id":1231,"x":-630,"y":105,"visible":true,"properties":[{"name":"layer","type":"int","value":1},{"name":"group","type":"int","value":0},{"name":"id","type":"int","value":10},{"name":"fh_layer","type":"int","value":1},{"name":"fh_group","type":"int","value":0},{"name":"fh_id","type":"int","value":10},{"name":"x1","type":"int","value":-630},{"name":"x2","type":"int","value":-575},{"name":"y1","type":"int","value":105},{"name":"y2","type":"int","value":105},{"name":"next","type":"int","value":17},{"name":"prev","type":"int","value":16}],"polyline":[{"x":0,"y":0},{"x":55,"y":0}]},{"id":1232,"x":-505,"y":120,"visible":true,"properties":[{"name":"layer","type":"int","value":1},{"name":"group","type":"int","value":0},{"name":"id","type":"int","value":11},{"name":"fh_layer","type":"int","value":1},{"name":"fh_group","type":"int","value":0},{"name":"fh_id","type":"int","value":11},{"name":"x1","type":"int","value":-505},{"name":"x2","type":"int","value":-505},{"name":"y1","type":"int","value":120},{"name":"y2","type":"int","value":165},{"name":"next","type":"int","value":12},{"name":"prev","type":"int","value":19}],"polyline":[{"x":0,"y":0},{"x":0,"y":45}]},{"id":1233,"x":-505,"y":165,"visible":true,"properties":[{"name":"layer","type":"int","value":1},{"name":"group","type":"int","value":0},{"name":"id","type":"int","value":12},{"name":"fh_layer","type":"int","value":1},{"name":"fh_group","type":"int","value":0},{"name":"fh_id","type":"int","value":12},{"name":"x1","type":"int","value":-505},{"name":"x2","type":"int","value":-450},{"name":"y1","type":"int","value":165},{"name":"y2","type":"int","value":165},{"name":"next","type":"int","value":9},{"name":"prev","type":"int","value":11}],"polyline":[{"x":0,"y":0},{"x":55,"y":0}]},{"id":1234,"x":-755,"y":45,"visible":true,"properties":[{"name":"layer","type":"int","value":1},{"name":"group","type":"int","value":0},{"name":"id","type":"int","value":13},{"name":"fh_layer","type":"int","value":1},{"name":"fh_group","type":"int","value":0},{"name":"fh_id","type":"int","value":13},{"name":"x1","type":"int","value":-755},{"name":"x2","type":"int","value":-685},{"name":"y1","type":"int","value":45},{"name":"y2","type":"int","value":45},{"name":"next","type":"int","value":14},{"name":"prev","type":"int","value":21}],"polyline":[{"x":0,"y":0},{"x":70,"y":0}]},{"id":1235,"x":-685,"y":45,"visible":true,"properties":[{"name":"layer","type":"int","value":1},{"name":"group","type":"int","value":0},{"name":"id","type":"int","value":14},{"name":"fh_layer","type":"int","value":1},{"name":"fh_group","type":"int","value":0},{"name":"fh_id","type":"int","value":14},{"name":"x1","type":"int","value":-685},{"name":"x2","type":"int","value":-685},{"name":"y1","type":"int","value":45},{"name":"y2","type":"int","value":60},{"name":"next","type":"int","value":15},{"name":"prev","type":"int","value":13}],"polyline":[{"x":0,"y":0},{"x":0,"y":15}]},{"id":1236,"x":-685,"y":60,"visible":true,"properties":[{"name":"layer","type":"int","value":1},{"name":"group","type":"int","value":0},{"name":"id","type":"int","value":15},{"name":"fh_layer","type":"int","value":1},{"name":"fh_group","type":"int","value":0},{"name":"fh_id","type":"int","value":15},{"name":"x1","type":"int","value":-685},{"name":"x2","type":"int","value":-685},{"name":"y1","type":"int","value":60},{"name":"y2","type":"int","value":105},{"name":"next","type":"int","value":16},{"name":"prev","type":"int","value":14}],"polyline":[{"x":0,"y":0},{"x":0,"y":45}]},{"id":1237,"x":-685,"y":105,"visible":true,"properties":[{"name":"layer","type":"int","value":1},{"name":"group","type":"int","value":0},{"name":"id","type":"int","value":16},{"name":"fh_layer","type":"int","value":1},{"name":"fh_group","type":"int","value":0},{"name":"fh_id","type":"int","value":16},{"name":"x1","type":"int","value":-685},{"name":"x2","type":"int","value":-630},{"name":"y1","type":"int","value":105},{"name":"y2","type":"int","value":105},{"name":"next","type":"int","value":10},{"name":"prev","type":"int","value":15}],"polyline":[{"x":0,"y":0},{"x":55,"y":0}]},{"id":1238,"x":-575,"y":105,"visible":true,"properties":[{"name":"layer","type":"int","value":1},{"name":"group","type":"int","value":0},{"name":"id","type":"int","value":17},{"name":"fh_layer","type":"int","value":1},{"name":"fh_group","type":"int","value":0},{"name":"fh_id","type":"int","value":17},{"name":"x1","type":"int","value":-575},{"name":"x2","type":"int","value":-540},{"name":"y1","type":"int","value":105},{"name":"y2","type":"int","value":105},{"name":"next","type":"int","value":18},{"name":"prev","type":"int","value":10}],"polyline":[{"x":0,"y":0},{"x":35,"y":0}]},{"id":1239,"x":-540,"y":105,"visible":true,"properties":[{"name":"layer","type":"int","value":1},{"name":"group","type":"int","value":0},{"name":"id","type":"int","value":18},{"name":"fh_layer","type":"int","value":1},{"name":"fh_group","type":"int","value":0},{"name":"fh_id","type":"int","value":18},{"name":"x1","type":"int","value":-540},{"name":"x2","type":"int","value":-505},{"name":"y1","type":"int","value":105},{"name":"y2","type":"int","value":105},{"name":"next","type":"int","value":19},{"name":"prev","type":"int","value":17}],"polyline":[{"x":0,"y":0},{"x":35,"y":0}]},{"id":1240,"x":-505,"y":105,"visible":true,"properties":[{"name":"layer","type":"int","value":1},{"name":"group","type":"int","value":0},{"name":"id","type":"int","value":19},{"name":"fh_layer","type":"int","value":1},{"name":"fh_group","type":"int","value":0},{"name":"fh_id","type":"int","value":19},{"name":"x1","type":"int","value":-505},{"name":"x2","type":"int","value":-505},{"name":"y1","type":"int","value":105},{"name":"y2","type":"int","value":120},{"name":"next","type":"int","value":11},{"name":"prev","type":"int","value":18}],"polyline":[{"x":0,"y":0},{"x":0,"y":15}]},{"id":1241,"x":-775,"y":0,"visible":true,"properties":[{"name":"layer","type":"int","value":1},{"name":"group","type":"int","value":0},{"name":"id","type":"int","value":20},{"name":"fh_layer","type":"int","value":1},{"name":"fh_group","type":"int","value":0},{"name":"fh_id","type":"int","value":20},{"name":"x1","type":"int","value":-775},{"name":"x2","type":"int","value":-775},{"name":"y1","type":"int","value":0},{"name":"y2","type":"int","value":45},{"name":"next","type":"int","value":21},{"name":"prev","type":"int","value":40}],"polyline":[{"x":0,"y":0},{"x":0,"y":45}]},{"id":1242,"x":-775,"y":45,"visible":true,"properties":[{"name":"layer","type":"int","value":1},{"name":"group","type":"int","value":0},{"name":"id","type":"int","value":21},{"name":"fh_layer","type":"int","value":1},{"name":"fh_group","type":"int","value":0},{"name":"fh_id","type":"int","value":21},{"name":"x1","type":"int","value":-775},{"name":"x2","type":"int","value":-755},{"name":"y1","type":"int","value":45},{"name":"y2","type":"int","value":45},{"name":"next","type":"int","value":13},{"name":"prev","type":"int","value":20}],"polyline":[{"x":0,"y":0},{"x":20,"y":0}]},{"id":1243,"x":-1260,"y":105,"visible":true,"properties":[{"name":"layer","type":"int","value":1},{"name":"group","type":"int","value":0},{"name":"id","type":"int","value":22},{"name":"fh_layer","type":"int","value":1},{"name":"fh_group","type":"int","value":0},{"name":"fh_id","type":"int","value":22},{"name":"x1","type":"int","value":-1260},{"name":"x2","type":"int","value":-1170},{"name":"y1","type":"int","value":105},{"name":"y2","type":"int","value":105},{"name":"next","type":"int","value":23},{"name":"prev","type":"int","value":57}],"polyline":[{"x":0,"y":0},{"x":90,"y":0}]},{"id":1244,"x":-1170,"y":105,"visible":true,"properties":[{"name":"layer","type":"int","value":1},{"name":"group","type":"int","value":0},{"name":"id","type":"int","value":23},{"name":"fh_layer","type":"int","value":1},{"name":"fh_group","type":"int","value":0},{"name":"fh_id","type":"int","value":23},{"name":"x1","type":"int","value":-1170},{"name":"x2","type":"int","value":-1080},{"name":"y1","type":"int","value":105},{"name":"y2","type":"int","value":105},{"name":"next","type":"int","value":25},{"name":"prev","type":"int","value":22}],"polyline":[{"x":0,"y":0},{"x":90,"y":0}]},{"id":1245,"x":-990,"y":105,"visible":true,"properties":[{"name":"layer","type":"int","value":1},{"name":"group","type":"int","value":0},{"name":"id","type":"int","value":24},{"name":"fh_layer","type":"int","value":1},{"name":"fh_group","type":"int","value":0},{"name":"fh_id","type":"int","value":24},{"name":"x1","type":"int","value":-990},{"name":"x2","type":"int","value":-935},{"name":"y1","type":"int","value":105},{"name":"y2","type":"int","value":105},{"name":"next","type":"int","value":38},{"name":"prev","type":"int","value":25}],"polyline":[{"x":0,"y":0},{"x":55,"y":0}]},{"id":1246,"x":-1080,"y":105,"visible":true,"properties":[{"name":"layer","type":"int","value":1},{"name":"group","type":"int","value":0},{"name":"id","type":"int","value":25},{"name":"fh_layer","type":"int","value":1},{"name":"fh_group","type":"int","value":0},{"name":"fh_id","type":"int","value":25},{"name":"x1","type":"int","value":-1080},{"name":"x2","type":"int","value":-990},{"name":"y1","type":"int","value":105},{"name":"y2","type":"int","value":105},{"name":"next","type":"int","value":24},{"name":"prev","type":"int","value":23}],"polyline":[{"x":0,"y":0},{"x":90,"y":0}]},{"id":1247,"x":-1710,"y":-135,"visible":true,"properties":[{"name":"layer","type":"int","value":1},{"name":"group","type":"int","value":0},{"name":"id","type":"int","value":26},{"name":"fh_layer","type":"int","value":1},{"name":"fh_group","type":"int","value":0},{"name":"fh_id","type":"int","value":26},{"name":"x1","type":"int","value":-1710},{"name":"x2","type":"int","value":-1675},{"name":"y1","type":"int","value":-135},{"name":"y2","type":"int","value":-135},{"name":"next","type":"int","value":60},{"name":"prev","type":"int","value":59}],"polyline":[{"x":0,"y":0},{"x":35,"y":0}]},{"id":1248,"x":-1620,"y":-135,"visible":true,"properties":[{"name":"layer","type":"int","value":1},{"name":"group","type":"int","value":0},{"name":"id","type":"int","value":27},{"name":"fh_layer","type":"int","value":1},{"name":"fh_group","type":"int","value":0},{"name":"fh_id","type":"int","value":27},{"name":"x1","type":"int","value":-1620},{"name":"x2","type":"int","value":-1565},{"name":"y1","type":"int","value":-135},{"name":"y2","type":"int","value":-135},{"name":"next","type":"int","value":31},{"name":"prev","type":"int","value":60}],"polyline":[{"x":0,"y":0},{"x":55,"y":0}]},{"id":1249,"x":-1745,"y":360,"visible":true,"properties":[{"name":"layer","type":"int","value":1},{"name":"group","type":"int","value":0},{"name":"id","type":"int","value":28},{"name":"fh_layer","type":"int","value":1},{"name":"fh_group","type":"int","value":0},{"name":"fh_id","type":"int","value":28},{"name":"x1","type":"int","value":-1745},{"name":"x2","type":"int","value":-1745},{"name":"y1","type":"int","value":360},{"name":"y2","type":"int","value":300},{"name":"next","type":"int","value":29},{"name":"prev","type":"int","value":34}],"polyline":[{"x":0,"y":0},{"x":0,"y":-60}]},{"id":1250,"x":-1745,"y":300,"visible":true,"properties":[{"name":"layer","type":"int","value":1},{"name":"group","type":"int","value":0},{"name":"id","type":"int","value":29},{"name":"fh_layer","type":"int","value":1},{"name":"fh_group","type":"int","value":0},{"name":"fh_id","type":"int","value":29},{"name":"x1","type":"int","value":-1745},{"name":"x2","type":"int","value":-1745},{"name":"y1","type":"int","value":300},{"name":"y2","type":"int","value":240},{"name":"next","type":"int","value":53},{"name":"prev","type":"int","value":28}],"polyline":[{"x":0,"y":0},{"x":0,"y":-60}]},{"id":1251,"x":-1745,"y":0,"visible":true,"properties":[{"name":"layer","type":"int","value":1},{"name":"group","type":"int","value":0},{"name":"id","type":"int","value":30},{"name":"fh_layer","type":"int","value":1},{"name":"fh_group","type":"int","value":0},{"name":"fh_id","type":"int","value":30},{"name":"x1","type":"int","value":-1745},{"name":"x2","type":"int","value":-1745},{"name":"y1","type":"int","value":0},{"name":"y2","type":"int","value":-60},{"name":"next","type":"int","value":54},{"name":"prev","type":"int","value":61}],"polyline":[{"x":0,"y":0},{"x":0,"y":-60}]},{"id":1252,"x":-1565,"y":-135,"visible":true,"properties":[{"name":"layer","type":"int","value":1},{"name":"group","type":"int","value":0},{"name":"id","type":"int","value":31},{"name":"fh_layer","type":"int","value":1},{"name":"fh_group","type":"int","value":0},{"name":"fh_id","type":"int","value":31},{"name":"x1","type":"int","value":-1565},{"name":"x2","type":"int","value":-1530},{"name":"y1","type":"int","value":-135},{"name":"y2","type":"int","value":-135},{"name":"next","type":"int","value":32},{"name":"prev","type":"int","value":27}],"polyline":[{"x":0,"y":0},{"x":35,"y":0}]},{"id":1253,"x":-1530,"y":-135,"visible":true,"properties":[{"name":"layer","type":"int","value":1},{"name":"group","type":"int","value":0},{"name":"id","type":"int","value":32},{"name":"fh_layer","type":"int","value":1},{"name":"fh_group","type":"int","value":0},{"name":"fh_id","type":"int","value":32},{"name":"x1","type":"int","value":-1530},{"name":"x2","type":"int","value":-1495},{"name":"y1","type":"int","value":-135},{"name":"y2","type":"int","value":-135},{"name":"next","type":"int","value":33},{"name":"prev","type":"int","value":31}],"polyline":[{"x":0,"y":0},{"x":35,"y":0}]},{"id":1254,"x":-1495,"y":-135,"visible":true,"properties":[{"name":"layer","type":"int","value":1},{"name":"group","type":"int","value":0},{"name":"id","type":"int","value":33},{"name":"fh_layer","type":"int","value":1},{"name":"fh_group","type":"int","value":0},{"name":"fh_id","type":"int","value":33},{"name":"x1","type":"int","value":-1495},{"name":"x2","type":"int","value":-1495},{"name":"y1","type":"int","value":-135},{"name":"y2","type":"int","value":-120},{"name":"next","type":"int","value":37},{"name":"prev","type":"int","value":32}],"polyline":[{"x":0,"y":0},{"x":0,"y":15}]},{"id":1255,"x":-1745,"y":420,"visible":true,"properties":[{"name":"layer","type":"int","value":1},{"name":"group","type":"int","value":0},{"name":"id","type":"int","value":34},{"name":"fh_layer","type":"int","value":1},{"name":"fh_group","type":"int","value":0},{"name":"fh_id","type":"int","value":34},{"name":"x1","type":"int","value":-1745},{"name":"x2","type":"int","value":-1745},{"name":"y1","type":"int","value":420},{"name":"y2","type":"int","value":360},{"name":"next","type":"int","value":28},{"name":"prev","type":"int","value":0}],"polyline":[{"x":0,"y":0},{"x":0,"y":-60}]},{"id":1256,"x":-1440,"y":105,"visible":true,"properties":[{"name":"layer","type":"int","value":1},{"name":"group","type":"int","value":0},{"name":"id","type":"int","value":35},{"name":"fh_layer","type":"int","value":1},{"name":"fh_group","type":"int","value":0},{"name":"fh_id","type":"int","value":35},{"name":"x1","type":"int","value":-1440},{"name":"x2","type":"int","value":-1350},{"name":"y1","type":"int","value":105},{"name":"y2","type":"int","value":105},{"name":"next","type":"int","value":57},{"name":"prev","type":"int","value":51}],"polyline":[{"x":0,"y":0},{"x":90,"y":0}]},{"id":1257,"x":-935,"y":60,"visible":true,"properties":[{"name":"layer","type":"int","value":1},{"name":"group","type":"int","value":0},{"name":"id","type":"int","value":36},{"name":"fh_layer","type":"int","value":1},{"name":"fh_group","type":"int","value":0},{"name":"fh_id","type":"int","value":36},{"name":"x1","type":"int","value":-935},{"name":"x2","type":"int","value":-935},{"name":"y1","type":"int","value":60},{"name":"y2","type":"int","value":0},{"name":"next","type":"int","value":41},{"name":"prev","type":"int","value":38}],"polyline":[{"x":0,"y":0},{"x":0,"y":-60}]},{"id":1258,"x":-1495,"y":-120,"visible":true,"properties":[{"name":"layer","type":"int","value":1},{"name":"group","type":"int","value":0},{"name":"id","type":"int","value":37},{"name":"fh_layer","type":"int","value":1},{"name":"fh_group","type":"int","value":0},{"name":"fh_id","type":"int","value":37},{"name":"x1","type":"int","value":-1495},{"name":"x2","type":"int","value":-1495},{"name":"y1","type":"int","value":-120},{"name":"y2","type":"int","value":-60},{"name":"next","type":"int","value":52},{"name":"prev","type":"int","value":33}],"polyline":[{"x":0,"y":0},{"x":0,"y":60}]},{"id":1259,"x":-935,"y":105,"visible":true,"properties":[{"name":"layer","type":"int","value":1},{"name":"group","type":"int","value":0},{"name":"id","type":"int","value":38},{"name":"fh_layer","type":"int","value":1},{"name":"fh_group","type":"int","value":0},{"name":"fh_id","type":"int","value":38},{"name":"x1","type":"int","value":-935},{"name":"x2","type":"int","value":-935},{"name":"y1","type":"int","value":105},{"name":"y2","type":"int","value":60},{"name":"next","type":"int","value":36},{"name":"prev","type":"int","value":24}],"polyline":[{"x":0,"y":0},{"x":0,"y":-45}]},{"id":1260,"x":-845,"y":-15,"visible":true,"properties":[{"name":"layer","type":"int","value":1},{"name":"group","type":"int","value":0},{"name":"id","type":"int","value":39},{"name":"fh_layer","type":"int","value":1},{"name":"fh_group","type":"int","value":0},{"name":"fh_id","type":"int","value":39},{"name":"x1","type":"int","value":-845},{"name":"x2","type":"int","value":-775},{"name":"y1","type":"int","value":-15},{"name":"y2","type":"int","value":-15},{"name":"next","type":"int","value":40},{"name":"prev","type":"int","value":56}],"polyline":[{"x":0,"y":0},{"x":70,"y":0}]},{"id":1261,"x":-775,"y":-15,"visible":true,"properties":[{"name":"layer","type":"int","value":1},{"name":"group","type":"int","value":0},{"name":"id","type":"int","value":40},{"name":"fh_layer","type":"int","value":1},{"name":"fh_group","type":"int","value":0},{"name":"fh_id","type":"int","value":40},{"name":"x1","type":"int","value":-775},{"name":"x2","type":"int","value":-775},{"name":"y1","type":"int","value":-15},{"name":"y2","type":"int","value":0},{"name":"next","type":"int","value":20},{"name":"prev","type":"int","value":39}],"polyline":[{"x":0,"y":0},{"x":0,"y":15}]},{"id":1262,"x":-935,"y":0,"visible":true,"properties":[{"name":"layer","type":"int","value":1},{"name":"group","type":"int","value":0},{"name":"id","type":"int","value":41},{"name":"fh_layer","type":"int","value":1},{"name":"fh_group","type":"int","value":0},{"name":"fh_id","type":"int","value":41},{"name":"x1","type":"int","value":-935},{"name":"x2","type":"int","value":-935},{"name":"y1","type":"int","value":0},{"name":"y2","type":"int","value":-15},{"name":"next","type":"int","value":42},{"name":"prev","type":"int","value":36}],"polyline":[{"x":0,"y":0},{"x":0,"y":-15}]},{"id":1263,"x":-935,"y":-15,"visible":true,"properties":[{"name":"layer","type":"int","value":1},{"name":"group","type":"int","value":0},{"name":"id","type":"int","value":42},{"name":"fh_layer","type":"int","value":1},{"name":"fh_group","type":"int","value":0},{"name":"fh_id","type":"int","value":42},{"name":"x1","type":"int","value":-935},{"name":"x2","type":"int","value":-865},{"name":"y1","type":"int","value":-15},{"name":"y2","type":"int","value":-15},{"name":"next","type":"int","value":56},{"name":"prev","type":"int","value":41}],"polyline":[{"x":0,"y":0},{"x":70,"y":0}]},{"id":1264,"x":-1495,"y":0,"visible":true,"properties":[{"name":"layer","type":"int","value":1},{"name":"group","type":"int","value":0},{"name":"id","type":"int","value":43},{"name":"fh_layer","type":"int","value":1},{"name":"fh_group","type":"int","value":0},{"name":"fh_id","type":"int","value":43},{"name":"x1","type":"int","value":-1495},{"name":"x2","type":"int","value":-1495},{"name":"y1","type":"int","value":0},{"name":"y2","type":"int","value":60},{"name":"next","type":"int","value":50},{"name":"prev","type":"int","value":52}],"polyline":[{"x":0,"y":0},{"x":0,"y":60}]},{"id":1265,"x":395,"y":180,"visible":true,"properties":[{"name":"layer","type":"int","value":1},{"name":"group","type":"int","value":0},{"name":"id","type":"int","value":44},{"name":"fh_layer","type":"int","value":1},{"name":"fh_group","type":"int","value":0},{"name":"fh_id","type":"int","value":44},{"name":"x1","type":"int","value":395},{"name":"x2","type":"int","value":395},{"name":"y1","type":"int","value":180},{"name":"y2","type":"int","value":240},{"name":"next","type":"int","value":7},{"name":"prev","type":"int","value":49}],"polyline":[{"x":0,"y":0},{"x":0,"y":60}]},{"id":1266,"x":270,"y":165,"visible":true,"properties":[{"name":"layer","type":"int","value":1},{"name":"group","type":"int","value":0},{"name":"id","type":"int","value":45},{"name":"fh_layer","type":"int","value":1},{"name":"fh_group","type":"int","value":0},{"name":"fh_id","type":"int","value":45},{"name":"x1","type":"int","value":270},{"name":"x2","type":"int","value":325},{"name":"y1","type":"int","value":165},{"name":"y2","type":"int","value":165},{"name":"next","type":"int","value":47},{"name":"prev","type":"int","value":1}],"polyline":[{"x":0,"y":0},{"x":55,"y":0}]},{"id":1267,"x":395,"y":360,"visible":true,"properties":[{"name":"layer","type":"int","value":1},{"name":"group","type":"int","value":0},{"name":"id","type":"int","value":46},{"name":"fh_layer","type":"int","value":1},{"name":"fh_group","type":"int","value":0},{"name":"fh_id","type":"int","value":46},{"name":"x1","type":"int","value":395},{"name":"x2","type":"int","value":395},{"name":"y1","type":"int","value":360},{"name":"y2","type":"int","value":420},{"name":"next","type":"int","value":0},{"name":"prev","type":"int","value":55}],"polyline":[{"x":0,"y":0},{"x":0,"y":60}]},{"id":1268,"x":325,"y":165,"visible":true,"properties":[{"name":"layer","type":"int","value":1},{"name":"group","type":"int","value":0},{"name":"id","type":"int","value":47},{"name":"fh_layer","type":"int","value":1},{"name":"fh_group","type":"int","value":0},{"name":"fh_id","type":"int","value":47},{"name":"x1","type":"int","value":325},{"name":"x2","type":"int","value":360},{"name":"y1","type":"int","value":165},{"name":"y2","type":"int","value":165},{"name":"next","type":"int","value":48},{"name":"prev","type":"int","value":45}],"polyline":[{"x":0,"y":0},{"x":35,"y":0}]},{"id":1269,"x":360,"y":165,"visible":true,"properties":[{"name":"layer","type":"int","value":1},{"name":"group","type":"int","value":0},{"name":"id","type":"int","value":48},{"name":"fh_layer","type":"int","value":1},{"name":"fh_group","type":"int","value":0},{"name":"fh_id","type":"int","value":48},{"name":"x1","type":"int","value":360},{"name":"x2","type":"int","value":395},{"name":"y1","type":"int","value":165},{"name":"y2","type":"int","value":165},{"name":"next","type":"int","value":49},{"name":"prev","type":"int","value":47}],"polyline":[{"x":0,"y":0},{"x":35,"y":0}]},{"id":1270,"x":395,"y":165,"visible":true,"properties":[{"name":"layer","type":"int","value":1},{"name":"group","type":"int","value":0},{"name":"id","type":"int","value":49},{"name":"fh_layer","type":"int","value":1},{"name":"fh_group","type":"int","value":0},{"name":"fh_id","type":"int","value":49},{"name":"x1","type":"int","value":395},{"name":"x2","type":"int","value":395},{"name":"y1","type":"int","value":165},{"name":"y2","type":"int","value":180},{"name":"next","type":"int","value":44},{"name":"prev","type":"int","value":48}],"polyline":[{"x":0,"y":0},{"x":0,"y":15}]},{"id":1271,"x":-1495,"y":60,"visible":true,"properties":[{"name":"layer","type":"int","value":1},{"name":"group","type":"int","value":0},{"name":"id","type":"int","value":50},{"name":"fh_layer","type":"int","value":1},{"name":"fh_group","type":"int","value":0},{"name":"fh_id","type":"int","value":50},{"name":"x1","type":"int","value":-1495},{"name":"x2","type":"int","value":-1495},{"name":"y1","type":"int","value":60},{"name":"y2","type":"int","value":105},{"name":"next","type":"int","value":51},{"name":"prev","type":"int","value":43}],"polyline":[{"x":0,"y":0},{"x":0,"y":45}]},{"id":1272,"x":-1495,"y":105,"visible":true,"properties":[{"name":"layer","type":"int","value":1},{"name":"group","type":"int","value":0},{"name":"id","type":"int","value":51},{"name":"fh_layer","type":"int","value":1},{"name":"fh_group","type":"int","value":0},{"name":"fh_id","type":"int","value":51},{"name":"x1","type":"int","value":-1495},{"name":"x2","type":"int","value":-1440},{"name":"y1","type":"int","value":105},{"name":"y2","type":"int","value":105},{"name":"next","type":"int","value":35},{"name":"prev","type":"int","value":50}],"polyline":[{"x":0,"y":0},{"x":55,"y":0}]},{"id":1273,"x":-1495,"y":-60,"visible":true,"properties":[{"name":"layer","type":"int","value":1},{"name":"group","type":"int","value":0},{"name":"id","type":"int","value":52},{"name":"fh_layer","type":"int","value":1},{"name":"fh_group","type":"int","value":0},{"name":"fh_id","type":"int","value":52},{"name":"x1","type":"int","value":-1495},{"name":"x2","type":"int","value":-1495},{"name":"y1","type":"int","value":-60},{"name":"y2","type":"int","value":0},{"name":"next","type":"int","value":43},{"name":"prev","type":"int","value":37}],"polyline":[{"x":0,"y":0},{"x":0,"y":60}]},{"id":1274,"x":-1745,"y":240,"visible":true,"properties":[{"name":"layer","type":"int","value":1},{"name":"group","type":"int","value":0},{"name":"id","type":"int","value":53},{"name":"fh_layer","type":"int","value":1},{"name":"fh_group","type":"int","value":0},{"name":"fh_id","type":"int","value":53},{"name":"x1","type":"int","value":-1745},{"name":"x2","type":"int","value":-1745},{"name":"y1","type":"int","value":240},{"name":"y2","type":"int","value":180},{"name":"next","type":"int","value":62},{"name":"prev","type":"int","value":29}],"polyline":[{"x":0,"y":0},{"x":0,"y":-60}]},{"id":1275,"x":-1745,"y":-60,"visible":true,"properties":[{"name":"layer","type":"int","value":1},{"name":"group","type":"int","value":0},{"name":"id","type":"int","value":54},{"name":"fh_layer","type":"int","value":1},{"name":"fh_group","type":"int","value":0},{"name":"fh_id","type":"int","value":54},{"name":"x1","type":"int","value":-1745},{"name":"x2","type":"int","value":-1745},{"name":"y1","type":"int","value":-60},{"name":"y2","type":"int","value":-120},{"name":"next","type":"int","value":58},{"name":"prev","type":"int","value":30}],"polyline":[{"x":0,"y":0},{"x":0,"y":-60}]},{"id":1276,"x":395,"y":300,"visible":true,"properties":[{"name":"layer","type":"int","value":1},{"name":"group","type":"int","value":0},{"name":"id","type":"int","value":55},{"name":"fh_layer","type":"int","value":1},{"name":"fh_group","type":"int","value":0},{"name":"fh_id","type":"int","value":55},{"name":"x1","type":"int","value":395},{"name":"x2","type":"int","value":395},{"name":"y1","type":"int","value":300},{"name":"y2","type":"int","value":360},{"name":"next","type":"int","value":46},{"name":"prev","type":"int","value":7}],"polyline":[{"x":0,"y":0},{"x":0,"y":60}]},{"id":1277,"x":-865,"y":-15,"visible":true,"properties":[{"name":"layer","type":"int","value":1},{"name":"group","type":"int","value":0},{"name":"id","type":"int","value":56},{"name":"fh_layer","type":"int","value":1},{"name":"fh_group","type":"int","value":0},{"name":"fh_id","type":"int","value":56},{"name":"x1","type":"int","value":-865},{"name":"x2","type":"int","value":-845},{"name":"y1","type":"int","value":-15},{"name":"y2","type":"int","value":-15},{"name":"next","type":"int","value":39},{"name":"prev","type":"int","value":42}],"polyline":[{"x":0,"y":0},{"x":20,"y":0}]},{"id":1278,"x":-1350,"y":105,"visible":true,"properties":[{"name":"layer","type":"int","value":1},{"name":"group","type":"int","value":0},{"name":"id","type":"int","value":57},{"name":"fh_layer","type":"int","value":1},{"name":"fh_group","type":"int","value":0},{"name":"fh_id","type":"int","value":57},{"name":"x1","type":"int","value":-1350},{"name":"x2","type":"int","value":-1260},{"name":"y1","type":"int","value":105},{"name":"y2","type":"int","value":105},{"name":"next","type":"int","value":22},{"name":"prev","type":"int","value":35}],"polyline":[{"x":0,"y":0},{"x":90,"y":0}]},{"id":1279,"x":-1745,"y":-120,"visible":true,"properties":[{"name":"layer","type":"int","value":1},{"name":"group","type":"int","value":0},{"name":"id","type":"int","value":58},{"name":"fh_layer","type":"int","value":1},{"name":"fh_group","type":"int","value":0},{"name":"fh_id","type":"int","value":58},{"name":"x1","type":"int","value":-1745},{"name":"x2","type":"int","value":-1745},{"name":"y1","type":"int","value":-120},{"name":"y2","type":"int","value":-135},{"name":"next","type":"int","value":59},{"name":"prev","type":"int","value":54}],"polyline":[{"x":0,"y":0},{"x":0,"y":-15}]},{"id":1280,"x":-1745,"y":-135,"visible":true,"properties":[{"name":"layer","type":"int","value":1},{"name":"group","type":"int","value":0},{"name":"id","type":"int","value":59},{"name":"fh_layer","type":"int","value":1},{"name":"fh_group","type":"int","value":0},{"name":"fh_id","type":"int","value":59},{"name":"x1","type":"int","value":-1745},{"name":"x2","type":"int","value":-1710},{"name":"y1","type":"int","value":-135},{"name":"y2","type":"int","value":-135},{"name":"next","type":"int","value":26},{"name":"prev","type":"int","value":58}],"polyline":[{"x":0,"y":0},{"x":35,"y":0}]},{"id":1281,"x":-1675,"y":-135,"visible":true,"properties":[{"name":"layer","type":"int","value":1},{"name":"group","type":"int","value":0},{"name":"id","type":"int","value":60},{"name":"fh_layer","type":"int","value":1},{"name":"fh_group","type":"int","value":0},{"name":"fh_id","type":"int","value":60},{"name":"x1","type":"int","value":-1675},{"name":"x2","type":"int","value":-1620},{"name":"y1","type":"int","value":-135},{"name":"y2","type":"int","value":-135},{"name":"next","type":"int","value":27},{"name":"prev","type":"int","value":26}],"polyline":[{"x":0,"y":0},{"x":55,"y":0}]},{"id":1282,"x":-1745,"y":60,"visible":true,"properties":[{"name":"layer","type":"int","value":1},{"name":"group","type":"int","value":0},{"name":"id","type":"int","value":61},{"name":"fh_layer","type":"int","value":1},{"name":"fh_group","type":"int","value":0},{"name":"fh_id","type":"int","value":61},{"name":"x1","type":"int","value":-1745},{"name":"x2","type":"int","value":-1745},{"name":"y1","type":"int","value":60},{"name":"y2","type":"int","value":0},{"name":"next","type":"int","value":30},{"name":"prev","type":"int","value":63}],"polyline":[{"x":0,"y":0},{"x":0,"y":-60}]},{"id":1283,"x":-1745,"y":180,"visible":true,"properties":[{"name":"layer","type":"int","value":1},{"name":"group","type":"int","value":0},{"name":"id","type":"int","value":62},{"name":"fh_layer","type":"int","value":1},{"name":"fh_group","type":"int","value":0},{"name":"fh_id","type":"int","value":62},{"name":"x1","type":"int","value":-1745},{"name":"x2","type":"int","value":-1745},{"name":"y1","type":"int","value":180},{"name":"y2","type":"int","value":120},{"name":"next","type":"int","value":63},{"name":"prev","type":"int","value":53}],"polyline":[{"x":0,"y":0},{"x":0,"y":-60}]},{"id":1284,"x":-1745,"y":120,"visible":true,"properties":[{"name":"layer","type":"int","value":1},{"name":"group","type":"int","value":0},{"name":"id","type":"int","value":63},{"name":"fh_layer","type":"int","value":1},{"name":"fh_group","type":"int","value":0},{"name":"fh_id","type":"int","value":63},{"name":"x1","type":"int","value":-1745},{"name":"x2","type":"int","value":-1745},{"name":"y1","type":"int","value":120},{"name":"y2","type":"int","value":60},{"name":"next","type":"int","value":61},{"name":"prev","type":"int","value":62}],"polyline":[{"x":0,"y":0},{"x":0,"y":-60}]},{"id":1285,"x":45,"y":-73,"visible":true,"properties":[{"name":"layer","type":"int","value":1},{"name":"group","type":"int","value":0},{"name":"id","type":"int","value":64},{"name":"fh_layer","type":"int","value":1},{"name":"fh_group","type":"int","value":0},{"name":"fh_id","type":"int","value":64},{"name":"x1","type":"int","value":45},{"name":"x2","type":"int","value":250},{"name":"y1","type":"int","value":-73},{"name":"y2","type":"int","value":-73},{"name":"next","type":"int","value":0},{"name":"prev","type":"int","value":0}],"polyline":[{"x":0,"y":0},{"x":205,"y":0}]},{"id":1286,"x":34,"y":-6,"visible":true,"properties":[{"name":"layer","type":"int","value":1},{"name":"group","type":"int","value":0},{"name":"id","type":"int","value":65},{"name":"fh_layer","type":"int","value":1},{"name":"fh_group","type":"int","value":0},{"name":"fh_id","type":"int","value":65},{"name":"x1","type":"int","value":34},{"name":"x2","type":"int","value":86},{"name":"y1","type":"int","value":-6},{"name":"y2","type":"int","value":-6},{"name":"next","type":"int","value":0},{"name":"prev","type":"int","value":0}],"polyline":[{"x":0,"y":0},{"x":52,"y":0}]},{"id":1287,"x":187,"y":-7,"visible":true,"properties":[{"name":"layer","type":"int","value":1},{"name":"group","type":"int","value":0},{"name":"id","type":"int","value":66},{"name":"fh_layer","type":"int","value":1},{"name":"fh_group","type":"int","value":0},{"name":"fh_id","type":"int","value":66},{"name":"x1","type":"int","value":187},{"name":"x2","type":"int","value":239},{"name":"y1","type":"int","value":-7},{"name":"y2","type":"int","value":-7},{"name":"next","type":"int","value":0},{"name":"prev","type":"int","value":0}],"polyline":[{"x":0,"y":0},{"x":52,"y":0}]},{"id":1288,"x":-3,"y":-45,"visible":true,"properties":[{"name":"layer","type":"int","value":1},{"name":"group","type":"int","value":0},{"name":"id","type":"int","value":67},{"name":"fh_layer","type":"int","value":1},{"name":"fh_group","type":"int","value":0},{"name":"fh_id","type":"int","value":67},{"name":"x1","type":"int","value":-3},{"name":"x2","type":"int","value":44},{"name":"y1","type":"int","value":-45},{"name":"y2","type":"int","value":-45},{"name":"next","type":"int","value":0},{"name":"prev","type":"int","value":0}],"polyline":[{"x":0,"y":0},{"x":47,"y":0}]},{"id":1289,"x":-1475,"y":60,"visible":true,"properties":[{"name":"layer","type":"int","value":1},{"name":"group","type":"int","value":4},{"name":"id","type":"int","value":482},{"name":"fh_layer","type":"int","value":1},{"name":"fh_group","type":"int","value":4},{"name":"fh_id","type":"int","value":482},{"name":"x1","type":"int","value":-1475},{"name":"x2","type":"int","value":-1475},{"name":"y1","type":"int","value":60},{"name":"y2","type":"int","value":45},{"name":"next","type":"int","value":483},{"name":"prev","type":"int","value":0}],"polyline":[{"x":0,"y":0},{"x":0,"y":-15}]},{"id":1290,"x":-1475,"y":45,"visible":true,"properties":[{"name":"layer","type":"int","value":1},{"name":"group","type":"int","value":4},{"name":"id","type":"int","value":483},{"name":"fh_layer","type":"int","value":1},{"name":"fh_group","type":"int","value":4},{"name":"fh_id","type":"int","value":483},{"name":"x1","type":"int","value":-1475},{"name":"x2","type":"int","value":-1405},{"name":"y1","type":"int","value":45},{"name":"y2","type":"int","value":45},{"name":"next","type":"int","value":484},{"name":"prev","type":"int","value":482}],"polyline":[{"x":0,"y":0},{"x":70,"y":0}]},{"id":1291,"x":-1405,"y":45,"visible":true,"properties":[{"name":"layer","type":"int","value":1},{"name":"group","type":"int","value":4},{"name":"id","type":"int","value":484},{"name":"fh_layer","type":"int","value":1},{"name":"fh_group","type":"int","value":4},{"name":"fh_id","type":"int","value":484},{"name":"x1","type":"int","value":-1405},{"name":"x2","type":"int","value":-1405},{"name":"y1","type":"int","value":45},{"name":"y2","type":"int","value":60},{"name":"next","type":"int","value":0},{"name":"prev","type":"int","value":483}],"polyline":[{"x":0,"y":0},{"x":0,"y":15}]},{"id":1292,"x":-665,"y":0,"visible":true,"properties":[{"name":"layer","type":"int","value":1},{"name":"group","type":"int","value":9},{"name":"id","type":"int","value":297},{"name":"fh_layer","type":"int","value":1},{"name":"fh_group","type":"int","value":9},{"name":"fh_id","type":"int","value":297},{"name":"x1","type":"int","value":-665},{"name":"x2","type":"int","value":-665},{"name":"y1","type":"int","value":0},{"name":"y2","type":"int","value":-15},{"name":"next","type":"int","value":298},{"name":"prev","type":"int","value":0}],"polyline":[{"x":0,"y":0},{"x":0,"y":-15}]},{"id":1293,"x":-665,"y":-15,"visible":true,"properties":[{"name":"layer","type":"int","value":1},{"name":"group","type":"int","value":9},{"name":"id","type":"int","value":298},{"name":"fh_layer","type":"int","value":1},{"name":"fh_group","type":"int","value":9},{"name":"fh_id","type":"int","value":298},{"name":"x1","type":"int","value":-665},{"name":"x2","type":"int","value":-595},{"name":"y1","type":"int","value":-15},{"name":"y2","type":"int","value":-15},{"name":"next","type":"int","value":301},{"name":"prev","type":"int","value":297}],"polyline":[{"x":0,"y":0},{"x":70,"y":0}]},{"id":1294,"x":-575,"y":-15,"visible":true,"properties":[{"name":"layer","type":"int","value":1},{"name":"group","type":"int","value":9},{"name":"id","type":"int","value":299},{"name":"fh_layer","type":"int","value":1},{"name":"fh_group","type":"int","value":9},{"name":"fh_id","type":"int","value":299},{"name":"x1","type":"int","value":-575},{"name":"x2","type":"int","value":-505},{"name":"y1","type":"int","value":-15},{"name":"y2","type":"int","value":-15},{"name":"next","type":"int","value":300},{"name":"prev","type":"int","value":301}],"polyline":[{"x":0,"y":0},{"x":70,"y":0}]},{"id":1295,"x":-505,"y":-15,"visible":true,"properties":[{"name":"layer","type":"int","value":1},{"name":"group","type":"int","value":9},{"name":"id","type":"int","value":300},{"name":"fh_layer","type":"int","value":1},{"name":"fh_group","type":"int","value":9},{"name":"fh_id","type":"int","value":300},{"name":"x1","type":"int","value":-505},{"name":"x2","type":"int","value":-505},{"name":"y1","type":"int","value":-15},{"name":"y2","type":"int","value":0},{"name":"next","type":"int","value":0},{"name":"prev","type":"int","value":299}],"polyline":[{"x":0,"y":0},{"x":0,"y":15}]},{"id":1296,"x":-595,"y":-15,"visible":true,"properties":[{"name":"layer","type":"int","value":1},{"name":"group","type":"int","value":9},{"name":"id","type":"int","value":301},{"name":"fh_layer","type":"int","value":1},{"name":"fh_group","type":"int","value":9},{"name":"fh_id","type":"int","value":301},{"name":"x1","type":"int","value":-595},{"name":"x2","type":"int","value":-575},{"name":"y1","type":"int","value":-15},{"name":"y2","type":"int","value":-15},{"name":"next","type":"int","value":299},{"name":"prev","type":"int","value":298}],"polyline":[{"x":0,"y":0},{"x":20,"y":0}]},{"id":1297,"x":-1385,"y":0,"visible":true,"properties":[{"name":"layer","type":"int","value":1},{"name":"group","type":"int","value":10},{"name":"id","type":"int","value":327},{"name":"fh_layer","type":"int","value":1},{"name":"fh_group","type":"int","value":10},{"name":"fh_id","type":"int","value":327},{"name":"x1","type":"int","value":-1385},{"name":"x2","type":"int","value":-1385},{"name":"y1","type":"int","value":0},{"name":"y2","type":"int","value":-15},{"name":"next","type":"int","value":328},{"name":"prev","type":"int","value":0}],"polyline":[{"x":0,"y":0},{"x":0,"y":-15}]},{"id":1298,"x":-1385,"y":-15,"visible":true,"properties":[{"name":"layer","type":"int","value":1},{"name":"group","type":"int","value":10},{"name":"id","type":"int","value":328},{"name":"fh_layer","type":"int","value":1},{"name":"fh_group","type":"int","value":10},{"name":"fh_id","type":"int","value":328},{"name":"x1","type":"int","value":-1385},{"name":"x2","type":"int","value":-1315},{"name":"y1","type":"int","value":-15},{"name":"y2","type":"int","value":-15},{"name":"next","type":"int","value":329},{"name":"prev","type":"int","value":327}],"polyline":[{"x":0,"y":0},{"x":70,"y":0}]},{"id":1299,"x":-1315,"y":-15,"visible":true,"properties":[{"name":"layer","type":"int","value":1},{"name":"group","type":"int","value":10},{"name":"id","type":"int","value":329},{"name":"fh_layer","type":"int","value":1},{"name":"fh_group","type":"int","value":10},{"name":"fh_id","type":"int","value":329},{"name":"x1","type":"int","value":-1315},{"name":"x2","type":"int","value":-1315},{"name":"y1","type":"int","value":-15},{"name":"y2","type":"int","value":0},{"name":"next","type":"int","value":0},{"name":"prev","type":"int","value":328}],"polyline":[{"x":0,"y":0},{"x":0,"y":15}]},{"id":1300,"x":-935,"y":-75,"visible":true,"properties":[{"name":"layer","type":"int","value":1},{"name":"group","type":"int","value":13},{"name":"id","type":"int","value":142},{"name":"fh_layer","type":"int","value":1},{"name":"fh_group","type":"int","value":13},{"name":"fh_id","type":"int","value":142},{"name":"x1","type":"int","value":-935},{"name":"x2","type":"int","value":-865},{"name":"y1","type":"int","value":-75},{"name":"y2","type":"int","value":-75},{"name":"next","type":"int","value":143},{"name":"prev","type":"int","value":147}],"polyline":[{"x":0,"y":0},{"x":70,"y":0}]},{"id":1301,"x":-865,"y":-75,"visible":true,"properties":[{"name":"layer","type":"int","value":1},{"name":"group","type":"int","value":13},{"name":"id","type":"int","value":143},{"name":"fh_layer","type":"int","value":1},{"name":"fh_group","type":"int","value":13},{"name":"fh_id","type":"int","value":143},{"name":"x1","type":"int","value":-865},{"name":"x2","type":"int","value":-865},{"name":"y1","type":"int","value":-75},{"name":"y2","type":"int","value":-60},{"name":"next","type":"int","value":0},{"name":"prev","type":"int","value":142}],"polyline":[{"x":0,"y":0},{"x":0,"y":15}]},{"id":1302,"x":-990,"y":-75,"visible":true,"properties":[{"name":"layer","type":"int","value":1},{"name":"group","type":"int","value":13},{"name":"id","type":"int","value":144},{"name":"fh_layer","type":"int","value":1},{"name":"fh_group","type":"int","value":13},{"name":"fh_id","type":"int","value":144},{"name":"x1","type":"int","value":-990},{"name":"x2","type":"int","value":-955},{"name":"y1","type":"int","value":-75},{"name":"y2","type":"int","value":-75},{"name":"next","type":"int","value":147},{"name":"prev","type":"int","value":146}],"polyline":[{"x":0,"y":0},{"x":35,"y":0}]},{"id":1303,"x":-1025,"y":-60,"visible":true,"properties":[{"name":"layer","type":"int","value":1},{"name":"group","type":"int","value":13},{"name":"id","type":"int","value":145},{"name":"fh_layer","type":"int","value":1},{"name":"fh_group","type":"int","value":13},{"name":"fh_id","type":"int","value":145},{"name":"x1","type":"int","value":-1025},{"name":"x2","type":"int","value":-1025},{"name":"y1","type":"int","value":-60},{"name":"y2","type":"int","value":-75},{"name":"next","type":"int","value":146},{"name":"prev","type":"int","value":0}],"polyline":[{"x":0,"y":0},{"x":0,"y":-15}]},{"id":1304,"x":-1025,"y":-75,"visible":true,"properties":[{"name":"layer","type":"int","value":1},{"name":"group","type":"int","value":13},{"name":"id","type":"int","value":146},{"name":"fh_layer","type":"int","value":1},{"name":"fh_group","type":"int","value":13},{"name":"fh_id","type":"int","value":146},{"name":"x1","type":"int","value":-1025},{"name":"x2","type":"int","value":-990},{"name":"y1","type":"int","value":-75},{"name":"y2","type":"int","value":-75},{"name":"next","type":"int","value":144},{"name":"prev","type":"int","value":145}],"polyline":[{"x":0,"y":0},{"x":35,"y":0}]},{"id":1305,"x":-955,"y":-75,"visible":true,"properties":[{"name":"layer","type":"int","value":1},{"name":"group","type":"int","value":13},{"name":"id","type":"int","value":147},{"name":"fh_layer","type":"int","value":1},{"name":"fh_group","type":"int","value":13},{"name":"fh_id","type":"int","value":147},{"name":"x1","type":"int","value":-955},{"name":"x2","type":"int","value":-935},{"name":"y1","type":"int","value":-75},{"name":"y2","type":"int","value":-75},{"name":"next","type":"int","value":142},{"name":"prev","type":"int","value":144}],"polyline":[{"x":0,"y":0},{"x":20,"y":0}]},{"id":1306,"x":-665,"y":-60,"visible":true,"properties":[{"name":"layer","type":"int","value":1},{"name":"group","type":"int","value":14},{"name":"id","type":"int","value":302},{"name":"fh_layer","type":"int","value":1},{"name":"fh_group","type":"int","value":14},{"name":"fh_id","type":"int","value":302},{"name":"x1","type":"int","value":-665},{"name":"x2","type":"int","value":-665},{"name":"y1","type":"int","value":-60},{"name":"y2","type":"int","value":-75},{"name":"next","type":"int","value":303},{"name":"prev","type":"int","value":0}],"polyline":[{"x":0,"y":0},{"x":0,"y":-15}]},{"id":1307,"x":-665,"y":-75,"visible":true,"properties":[{"name":"layer","type":"int","value":1},{"name":"group","type":"int","value":14},{"name":"id","type":"int","value":303},{"name":"fh_layer","type":"int","value":1},{"name":"fh_group","type":"int","value":14},{"name":"fh_id","type":"int","value":303},{"name":"x1","type":"int","value":-665},{"name":"x2","type":"int","value":-595},{"name":"y1","type":"int","value":-75},{"name":"y2","type":"int","value":-75},{"name":"next","type":"int","value":306},{"name":"prev","type":"int","value":302}],"polyline":[{"x":0,"y":0},{"x":70,"y":0}]},{"id":1308,"x":-575,"y":-75,"visible":true,"properties":[{"name":"layer","type":"int","value":1},{"name":"group","type":"int","value":14},{"name":"id","type":"int","value":304},{"name":"fh_layer","type":"int","value":1},{"name":"fh_group","type":"int","value":14},{"name":"fh_id","type":"int","value":304},{"name":"x1","type":"int","value":-575},{"name":"x2","type":"int","value":-505},{"name":"y1","type":"int","value":-75},{"name":"y2","type":"int","value":-75},{"name":"next","type":"int","value":305},{"name":"prev","type":"int","value":306}],"polyline":[{"x":0,"y":0},{"x":70,"y":0}]},{"id":1309,"x":-505,"y":-75,"visible":true,"properties":[{"name":"layer","type":"int","value":1},{"name":"group","type":"int","value":14},{"name":"id","type":"int","value":305},{"name":"fh_layer","type":"int","value":1},{"name":"fh_group","type":"int","value":14},{"name":"fh_id","type":"int","value":305},{"name":"x1","type":"int","value":-505},{"name":"x2","type":"int","value":-505},{"name":"y1","type":"int","value":-75},{"name":"y2","type":"int","value":-60},{"name":"next","type":"int","value":0},{"name":"prev","type":"int","value":304}],"polyline":[{"x":0,"y":0},{"x":0,"y":15}]},{"id":1310,"x":-595,"y":-75,"visible":true,"properties":[{"name":"layer","type":"int","value":1},{"name":"group","type":"int","value":14},{"name":"id","type":"int","value":306},{"name":"fh_layer","type":"int","value":1},{"name":"fh_group","type":"int","value":14},{"name":"fh_id","type":"int","value":306},{"name":"x1","type":"int","value":-595},{"name":"x2","type":"int","value":-575},{"name":"y1","type":"int","value":-75},{"name":"y2","type":"int","value":-75},{"name":"next","type":"int","value":304},{"name":"prev","type":"int","value":303}],"polyline":[{"x":0,"y":0},{"x":20,"y":0}]},{"id":1311,"x":-1475,"y":-60,"visible":true,"properties":[{"name":"layer","type":"int","value":1},{"name":"group","type":"int","value":15},{"name":"id","type":"int","value":476},{"name":"fh_layer","type":"int","value":1},{"name":"fh_group","type":"int","value":15},{"name":"fh_id","type":"int","value":476},{"name":"x1","type":"int","value":-1475},{"name":"x2","type":"int","value":-1475},{"name":"y1","type":"int","value":-60},{"name":"y2","type":"int","value":-75},{"name":"next","type":"int","value":477},{"name":"prev","type":"int","value":0}],"polyline":[{"x":0,"y":0},{"x":0,"y":-15}]},{"id":1312,"x":-1475,"y":-75,"visible":true,"properties":[{"name":"layer","type":"int","value":1},{"name":"group","type":"int","value":15},{"name":"id","type":"int","value":477},{"name":"fh_layer","type":"int","value":1},{"name":"fh_group","type":"int","value":15},{"name":"fh_id","type":"int","value":477},{"name":"x1","type":"int","value":-1475},{"name":"x2","type":"int","value":-1405},{"name":"y1","type":"int","value":-75},{"name":"y2","type":"int","value":-75},{"name":"next","type":"int","value":478},{"name":"prev","type":"int","value":476}],"polyline":[{"x":0,"y":0},{"x":70,"y":0}]},{"id":1313,"x":-1405,"y":-75,"visible":true,"properties":[{"name":"layer","type":"int","value":1},{"name":"group","type":"int","value":15},{"name":"id","type":"int","value":478},{"name":"fh_layer","type":"int","value":1},{"name":"fh_group","type":"int","value":15},{"name":"fh_id","type":"int","value":478},{"name":"x1","type":"int","value":-1405},{"name":"x2","type":"int","value":-1405},{"name":"y1","type":"int","value":-75},{"name":"y2","type":"int","value":-60},{"name":"next","type":"int","value":0},{"name":"prev","type":"int","value":477}],"polyline":[{"x":0,"y":0},{"x":0,"y":15}]},{"id":1314,"x":-665,"y":-120,"visible":true,"properties":[{"name":"layer","type":"int","value":1},{"name":"group","type":"int","value":21},{"name":"id","type":"int","value":307},{"name":"fh_layer","type":"int","value":1},{"name":"fh_group","type":"int","value":21},{"name":"fh_id","type":"int","value":307},{"name":"x1","type":"int","value":-665},{"name":"x2","type":"int","value":-665},{"name":"y1","type":"int","value":-120},{"name":"y2","type":"int","value":-135},{"name":"next","type":"int","value":308},{"name":"prev","type":"int","value":0}],"polyline":[{"x":0,"y":0},{"x":0,"y":-15}]},{"id":1315,"x":-665,"y":-135,"visible":true,"properties":[{"name":"layer","type":"int","value":1},{"name":"group","type":"int","value":21},{"name":"id","type":"int","value":308},{"name":"fh_layer","type":"int","value":1},{"name":"fh_group","type":"int","value":21},{"name":"fh_id","type":"int","value":308},{"name":"x1","type":"int","value":-665},{"name":"x2","type":"int","value":-595},{"name":"y1","type":"int","value":-135},{"name":"y2","type":"int","value":-135},{"name":"next","type":"int","value":311},{"name":"prev","type":"int","value":307}],"polyline":[{"x":0,"y":0},{"x":70,"y":0}]},{"id":1316,"x":-575,"y":-135,"visible":true,"properties":[{"name":"layer","type":"int","value":1},{"name":"group","type":"int","value":21},{"name":"id","type":"int","value":309},{"name":"fh_layer","type":"int","value":1},{"name":"fh_group","type":"int","value":21},{"name":"fh_id","type":"int","value":309},{"name":"x1","type":"int","value":-575},{"name":"x2","type":"int","value":-505},{"name":"y1","type":"int","value":-135},{"name":"y2","type":"int","value":-135},{"name":"next","type":"int","value":310},{"name":"prev","type":"int","value":311}],"polyline":[{"x":0,"y":0},{"x":70,"y":0}]},{"id":1317,"x":-505,"y":-135,"visible":true,"properties":[{"name":"layer","type":"int","value":1},{"name":"group","type":"int","value":21},{"name":"id","type":"int","value":310},{"name":"fh_layer","type":"int","value":1},{"name":"fh_group","type":"int","value":21},{"name":"fh_id","type":"int","value":310},{"name":"x1","type":"int","value":-505},{"name":"x2","type":"int","value":-505},{"name":"y1","type":"int","value":-135},{"name":"y2","type":"int","value":-120},{"name":"next","type":"int","value":0},{"name":"prev","type":"int","value":309}],"polyline":[{"x":0,"y":0},{"x":0,"y":15}]},{"id":1318,"x":-595,"y":-135,"visible":true,"properties":[{"name":"layer","type":"int","value":1},{"name":"group","type":"int","value":21},{"name":"id","type":"int","value":311},{"name":"fh_layer","type":"int","value":1},{"name":"fh_group","type":"int","value":21},{"name":"fh_id","type":"int","value":311},{"name":"x1","type":"int","value":-595},{"name":"x2","type":"int","value":-575},{"name":"y1","type":"int","value":-135},{"name":"y2","type":"int","value":-135},{"name":"next","type":"int","value":309},{"name":"prev","type":"int","value":308}],"polyline":[{"x":0,"y":0},{"x":20,"y":0}]},{"id":1319,"x":-1385,"y":-120,"visible":true,"properties":[{"name":"layer","type":"int","value":1},{"name":"group","type":"int","value":23},{"name":"id","type":"int","value":490},{"name":"fh_layer","type":"int","value":1},{"name":"fh_group","type":"int","value":23},{"name":"fh_id","type":"int","value":490},{"name":"x1","type":"int","value":-1385},{"name":"x2","type":"int","value":-1385},{"name":"y1","type":"int","value":-120},{"name":"y2","type":"int","value":-135},{"name":"next","type":"int","value":491},{"name":"prev","type":"int","value":0}],"polyline":[{"x":0,"y":0},{"x":0,"y":-15}]},{"id":1320,"x":-1385,"y":-135,"visible":true,"properties":[{"name":"layer","type":"int","value":1},{"name":"group","type":"int","value":23},{"name":"id","type":"int","value":491},{"name":"fh_layer","type":"int","value":1},{"name":"fh_group","type":"int","value":23},{"name":"fh_id","type":"int","value":491},{"name":"x1","type":"int","value":-1385},{"name":"x2","type":"int","value":-1315},{"name":"y1","type":"int","value":-135},{"name":"y2","type":"int","value":-135},{"name":"next","type":"int","value":492},{"name":"prev","type":"int","value":490}],"polyline":[{"x":0,"y":0},{"x":70,"y":0}]},{"id":1321,"x":-1315,"y":-135,"visible":true,"properties":[{"name":"layer","type":"int","value":1},{"name":"group","type":"int","value":23},{"name":"id","type":"int","value":492},{"name":"fh_layer","type":"int","value":1},{"name":"fh_group","type":"int","value":23},{"name":"fh_id","type":"int","value":492},{"name":"x1","type":"int","value":-1315},{"name":"x2","type":"int","value":-1315},{"name":"y1","type":"int","value":-135},{"name":"y2","type":"int","value":-120},{"name":"next","type":"int","value":0},{"name":"prev","type":"int","value":491}],"polyline":[{"x":0,"y":0},{"x":0,"y":15}]},{"id":1322,"x":-575,"y":-180,"visible":true,"properties":[{"name":"layer","type":"int","value":1},{"name":"group","type":"int","value":31},{"name":"id","type":"int","value":249},{"name":"fh_layer","type":"int","value":1},{"name":"fh_group","type":"int","value":31},{"name":"fh_id","type":"int","value":249},{"name":"x1","type":"int","value":-575},{"name":"x2","type":"int","value":-575},{"name":"y1","type":"int","value":-180},{"name":"y2","type":"int","value":-195},{"name":"next","type":"int","value":250},{"name":"prev","type":"int","value":0}],"polyline":[{"x":0,"y":0},{"x":0,"y":-15}]},{"id":1323,"x":-575,"y":-195,"visible":true,"properties":[{"name":"layer","type":"int","value":1},{"name":"group","type":"int","value":31},{"name":"id","type":"int","value":250},{"name":"fh_layer","type":"int","value":1},{"name":"fh_group","type":"int","value":31},{"name":"fh_id","type":"int","value":250},{"name":"x1","type":"int","value":-575},{"name":"x2","type":"int","value":-505},{"name":"y1","type":"int","value":-195},{"name":"y2","type":"int","value":-195},{"name":"next","type":"int","value":263},{"name":"prev","type":"int","value":249}],"polyline":[{"x":0,"y":0},{"x":70,"y":0}]},{"id":1324,"x":-450,"y":-255,"visible":true,"properties":[{"name":"layer","type":"int","value":1},{"name":"group","type":"int","value":31},{"name":"id","type":"int","value":251},{"name":"fh_layer","type":"int","value":1},{"name":"fh_group","type":"int","value":31},{"name":"fh_id","type":"int","value":251},{"name":"x1","type":"int","value":-450},{"name":"x2","type":"int","value":-415},{"name":"y1","type":"int","value":-255},{"name":"y2","type":"int","value":-255},{"name":"next","type":"int","value":271},{"name":"prev","type":"int","value":270}],"polyline":[{"x":0,"y":0},{"x":35,"y":0}]},{"id":1325,"x":0,"y":-315,"visible":true,"properties":[{"name":"layer","type":"int","value":1},{"name":"group","type":"int","value":31},{"name":"id","type":"int","value":252},{"name":"fh_layer","type":"int","value":1},{"name":"fh_group","type":"int","value":31},{"name":"fh_id","type":"int","value":252},{"name":"x1","type":"int","value":0},{"name":"x2","type":"int","value":90},{"name":"y1","type":"int","value":-315},{"name":"y2","type":"int","value":-315},{"name":"next","type":"int","value":256},{"name":"prev","type":"int","value":253}],"polyline":[{"x":0,"y":0},{"x":90,"y":0}]},{"id":1326,"x":-90,"y":-315,"visible":true,"properties":[{"name":"layer","type":"int","value":1},{"name":"group","type":"int","value":31},{"name":"id","type":"int","value":253},{"name":"fh_layer","type":"int","value":1},{"name":"fh_group","type":"int","value":31},{"name":"fh_id","type":"int","value":253},{"name":"x1","type":"int","value":-90},{"name":"x2","type":"int","value":0},{"name":"y1","type":"int","value":-315},{"name":"y2","type":"int","value":-315},{"name":"next","type":"int","value":252},{"name":"prev","type":"int","value":254}],"polyline":[{"x":0,"y":0},{"x":90,"y":0}]},{"id":1327,"x":-180,"y":-315,"visible":true,"properties":[{"name":"layer","type":"int","value":1},{"name":"group","type":"int","value":31},{"name":"id","type":"int","value":254},{"name":"fh_layer","type":"int","value":1},{"name":"fh_group","type":"int","value":31},{"name":"fh_id","type":"int","value":254},{"name":"x1","type":"int","value":-180},{"name":"x2","type":"int","value":-90},{"name":"y1","type":"int","value":-315},{"name":"y2","type":"int","value":-315},{"name":"next","type":"int","value":253},{"name":"prev","type":"int","value":255}],"polyline":[{"x":0,"y":0},{"x":90,"y":0}]},{"id":1328,"x":-270,"y":-315,"visible":true,"properties":[{"name":"layer","type":"int","value":1},{"name":"group","type":"int","value":31},{"name":"id","type":"int","value":255},{"name":"fh_layer","type":"int","value":1},{"name":"fh_group","type":"int","value":31},{"name":"fh_id","type":"int","value":255},{"name":"x1","type":"int","value":-270},{"name":"x2","type":"int","value":-180},{"name":"y1","type":"int","value":-315},{"name":"y2","type":"int","value":-315},{"name":"next","type":"int","value":254},{"name":"prev","type":"int","value":260}],"polyline":[{"x":0,"y":0},{"x":90,"y":0}]},{"id":1329,"x":90,"y":-315,"visible":true,"properties":[{"name":"layer","type":"int","value":1},{"name":"group","type":"int","value":31},{"name":"id","type":"int","value":256},{"name":"fh_layer","type":"int","value":1},{"name":"fh_group","type":"int","value":31},{"name":"fh_id","type":"int","value":256},{"name":"x1","type":"int","value":90},{"name":"x2","type":"int","value":180},{"name":"y1","type":"int","value":-315},{"name":"y2","type":"int","value":-315},{"name":"next","type":"int","value":262},{"name":"prev","type":"int","value":252}],"polyline":[{"x":0,"y":0},{"x":90,"y":0}]},{"id":1330,"x":-395,"y":-300,"visible":true,"properties":[{"name":"layer","type":"int","value":1},{"name":"group","type":"int","value":31},{"name":"id","type":"int","value":257},{"name":"fh_layer","type":"int","value":1},{"name":"fh_group","type":"int","value":31},{"name":"fh_id","type":"int","value":257},{"name":"x1","type":"int","value":-395},{"name":"x2","type":"int","value":-395},{"name":"y1","type":"int","value":-300},{"name":"y2","type":"int","value":-315},{"name":"next","type":"int","value":258},{"name":"prev","type":"int","value":259}],"polyline":[{"x":0,"y":0},{"x":0,"y":-15}]},{"id":1331,"x":-395,"y":-315,"visible":true,"properties":[{"name":"layer","type":"int","value":1},{"name":"group","type":"int","value":31},{"name":"id","type":"int","value":258},{"name":"fh_layer","type":"int","value":1},{"name":"fh_group","type":"int","value":31},{"name":"fh_id","type":"int","value":258},{"name":"x1","type":"int","value":-395},{"name":"x2","type":"int","value":-325},{"name":"y1","type":"int","value":-315},{"name":"y2","type":"int","value":-315},{"name":"next","type":"int","value":260},{"name":"prev","type":"int","value":257}],"polyline":[{"x":0,"y":0},{"x":70,"y":0}]},{"id":1332,"x":-395,"y":-255,"visible":true,"properties":[{"name":"layer","type":"int","value":1},{"name":"group","type":"int","value":31},{"name":"id","type":"int","value":259},{"name":"fh_layer","type":"int","value":1},{"name":"fh_group","type":"int","value":31},{"name":"fh_id","type":"int","value":259},{"name":"x1","type":"int","value":-395},{"name":"x2","type":"int","value":-395},{"name":"y1","type":"int","value":-255},{"name":"y2","type":"int","value":-300},{"name":"next","type":"int","value":257},{"name":"prev","type":"int","value":271}],"polyline":[{"x":0,"y":0},{"x":0,"y":-45}]},{"id":1333,"x":-325,"y":-315,"visible":true,"properties":[{"name":"layer","type":"int","value":1},{"name":"group","type":"int","value":31},{"name":"id","type":"int","value":260},{"name":"fh_layer","type":"int","value":1},{"name":"fh_group","type":"int","value":31},{"name":"fh_id","type":"int","value":260},{"name":"x1","type":"int","value":-325},{"name":"x2","type":"int","value":-270},{"name":"y1","type":"int","value":-315},{"name":"y2","type":"int","value":-315},{"name":"next","type":"int","value":255},{"name":"prev","type":"int","value":258}],"polyline":[{"x":0,"y":0},{"x":55,"y":0}]},{"id":1334,"x":305,"y":-300,"visible":true,"properties":[{"name":"layer","type":"int","value":1},{"name":"group","type":"int","value":31},{"name":"id","type":"int","value":261},{"name":"fh_layer","type":"int","value":1},{"name":"fh_group","type":"int","value":31},{"name":"fh_id","type":"int","value":261},{"name":"x1","type":"int","value":305},{"name":"x2","type":"int","value":305},{"name":"y1","type":"int","value":-300},{"name":"y2","type":"int","value":-240},{"name":"next","type":"int","value":264},{"name":"prev","type":"int","value":267}],"polyline":[{"x":0,"y":0},{"x":0,"y":60}]},{"id":1335,"x":180,"y":-315,"visible":true,"properties":[{"name":"layer","type":"int","value":1},{"name":"group","type":"int","value":31},{"name":"id","type":"int","value":262},{"name":"fh_layer","type":"int","value":1},{"name":"fh_group","type":"int","value":31},{"name":"fh_id","type":"int","value":262},{"name":"x1","type":"int","value":180},{"name":"x2","type":"int","value":235},{"name":"y1","type":"int","value":-315},{"name":"y2","type":"int","value":-315},{"name":"next","type":"int","value":265},{"name":"prev","type":"int","value":256}],"polyline":[{"x":0,"y":0},{"x":55,"y":0}]},{"id":1336,"x":-505,"y":-195,"visible":true,"properties":[{"name":"layer","type":"int","value":1},{"name":"group","type":"int","value":31},{"name":"id","type":"int","value":263},{"name":"fh_layer","type":"int","value":1},{"name":"fh_group","type":"int","value":31},{"name":"fh_id","type":"int","value":263},{"name":"x1","type":"int","value":-505},{"name":"x2","type":"int","value":-485},{"name":"y1","type":"int","value":-195},{"name":"y2","type":"int","value":-195},{"name":"next","type":"int","value":268},{"name":"prev","type":"int","value":250}],"polyline":[{"x":0,"y":0},{"x":20,"y":0}]},{"id":1337,"x":305,"y":-240,"visible":true,"properties":[{"name":"layer","type":"int","value":1},{"name":"group","type":"int","value":31},{"name":"id","type":"int","value":264},{"name":"fh_layer","type":"int","value":1},{"name":"fh_group","type":"int","value":31},{"name":"fh_id","type":"int","value":264},{"name":"x1","type":"int","value":305},{"name":"x2","type":"int","value":305},{"name":"y1","type":"int","value":-240},{"name":"y2","type":"int","value":-180},{"name":"next","type":"int","value":0},{"name":"prev","type":"int","value":261}],"polyline":[{"x":0,"y":0},{"x":0,"y":60}]},{"id":1338,"x":235,"y":-315,"visible":true,"properties":[{"name":"layer","type":"int","value":1},{"name":"group","type":"int","value":31},{"name":"id","type":"int","value":265},{"name":"fh_layer","type":"int","value":1},{"name":"fh_group","type":"int","value":31},{"name":"fh_id","type":"int","value":265},{"name":"x1","type":"int","value":235},{"name":"x2","type":"int","value":270},{"name":"y1","type":"int","value":-315},{"name":"y2","type":"int","value":-315},{"name":"next","type":"int","value":266},{"name":"prev","type":"int","value":262}],"polyline":[{"x":0,"y":0},{"x":35,"y":0}]},{"id":1339,"x":270,"y":-315,"visible":true,"properties":[{"name":"layer","type":"int","value":1},{"name":"group","type":"int","value":31},{"name":"id","type":"int","value":266},{"name":"fh_layer","type":"int","value":1},{"name":"fh_group","type":"int","value":31},{"name":"fh_id","type":"int","value":266},{"name":"x1","type":"int","value":270},{"name":"x2","type":"int","value":305},{"name":"y1","type":"int","value":-315},{"name":"y2","type":"int","value":-315},{"name":"next","type":"int","value":267},{"name":"prev","type":"int","value":265}],"polyline":[{"x":0,"y":0},{"x":35,"y":0}]},{"id":1340,"x":305,"y":-315,"visible":true,"properties":[{"name":"layer","type":"int","value":1},{"name":"group","type":"int","value":31},{"name":"id","type":"int","value":267},{"name":"fh_layer","type":"int","value":1},{"name":"fh_group","type":"int","value":31},{"name":"fh_id","type":"int","value":267},{"name":"x1","type":"int","value":305},{"name":"x2","type":"int","value":305},{"name":"y1","type":"int","value":-315},{"name":"y2","type":"int","value":-300},{"name":"next","type":"int","value":261},{"name":"prev","type":"int","value":266}],"polyline":[{"x":0,"y":0},{"x":0,"y":15}]},{"id":1341,"x":-485,"y":-195,"visible":true,"properties":[{"name":"layer","type":"int","value":1},{"name":"group","type":"int","value":31},{"name":"id","type":"int","value":268},{"name":"fh_layer","type":"int","value":1},{"name":"fh_group","type":"int","value":31},{"name":"fh_id","type":"int","value":268},{"name":"x1","type":"int","value":-485},{"name":"x2","type":"int","value":-485},{"name":"y1","type":"int","value":-195},{"name":"y2","type":"int","value":-240},{"name":"next","type":"int","value":269},{"name":"prev","type":"int","value":263}],"polyline":[{"x":0,"y":0},{"x":0,"y":-45}]},{"id":1342,"x":-485,"y":-240,"visible":true,"properties":[{"name":"layer","type":"int","value":1},{"name":"group","type":"int","value":31},{"name":"id","type":"int","value":269},{"name":"fh_layer","type":"int","value":1},{"name":"fh_group","type":"int","value":31},{"name":"fh_id","type":"int","value":269},{"name":"x1","type":"int","value":-485},{"name":"x2","type":"int","value":-485},{"name":"y1","type":"int","value":-240},{"name":"y2","type":"int","value":-255},{"name":"next","type":"int","value":270},{"name":"prev","type":"int","value":268}],"polyline":[{"x":0,"y":0},{"x":0,"y":-15}]},{"id":1343,"x":-485,"y":-255,"visible":true,"properties":[{"name":"layer","type":"int","value":1},{"name":"group","type":"int","value":31},{"name":"id","type":"int","value":270},{"name":"fh_layer","type":"int","value":1},{"name":"fh_group","type":"int","value":31},{"name":"fh_id","type":"int","value":270},{"name":"x1","type":"int","value":-485},{"name":"x2","type":"int","value":-450},{"name":"y1","type":"int","value":-255},{"name":"y2","type":"int","value":-255},{"name":"next","type":"int","value":251},{"name":"prev","type":"int","value":269}],"polyline":[{"x":0,"y":0},{"x":35,"y":0}]},{"id":1344,"x":-415,"y":-255,"visible":true,"properties":[{"name":"layer","type":"int","value":1},{"name":"group","type":"int","value":31},{"name":"id","type":"int","value":271},{"name":"fh_layer","type":"int","value":1},{"name":"fh_group","type":"int","value":31},{"name":"fh_id","type":"int","value":271},{"name":"x1","type":"int","value":-415},{"name":"x2","type":"int","value":-395},{"name":"y1","type":"int","value":-255},{"name":"y2","type":"int","value":-255},{"name":"next","type":"int","value":259},{"name":"prev","type":"int","value":251}],"polyline":[{"x":0,"y":0},{"x":20,"y":0}]},{"id":1345,"x":255,"y":-731,"visible":true,"properties":[{"name":"layer","type":"int","value":1},{"name":"group","type":"int","value":31},{"name":"id","type":"int","value":272},{"name":"fh_layer","type":"int","value":1},{"name":"fh_group","type":"int","value":31},{"name":"fh_id","type":"int","value":272},{"name":"x1","type":"int","value":255},{"name":"x2","type":"int","value":292},{"name":"y1","type":"int","value":-731},{"name":"y2","type":"int","value":-731},{"name":"next","type":"int","value":0},{"name":"prev","type":"int","value":0}],"polyline":[{"x":0,"y":0},{"x":37,"y":0}]},{"id":1346,"x":233,"y":-368,"visible":true,"properties":[{"name":"layer","type":"int","value":1},{"name":"group","type":"int","value":31},{"name":"id","type":"int","value":273},{"name":"fh_layer","type":"int","value":1},{"name":"fh_group","type":"int","value":31},{"name":"fh_id","type":"int","value":273},{"name":"x1","type":"int","value":233},{"name":"x2","type":"int","value":270},{"name":"y1","type":"int","value":-368},{"name":"y2","type":"int","value":-368},{"name":"next","type":"int","value":0},{"name":"prev","type":"int","value":0}],"polyline":[{"x":0,"y":0},{"x":37,"y":0}]},{"id":1347,"x":-158,"y":-370,"visible":true,"properties":[{"name":"layer","type":"int","value":1},{"name":"group","type":"int","value":31},{"name":"id","type":"int","value":274},{"name":"fh_layer","type":"int","value":1},{"name":"fh_group","type":"int","value":31},{"name":"fh_id","type":"int","value":274},{"name":"x1","type":"int","value":-158},{"name":"x2","type":"int","value":-121},{"name":"y1","type":"int","value":-370},{"name":"y2","type":"int","value":-370},{"name":"next","type":"int","value":0},{"name":"prev","type":"int","value":0}],"polyline":[{"x":0,"y":0},{"x":37,"y":0}]},{"id":1348,"x":137,"y":-363,"visible":true,"properties":[{"name":"layer","type":"int","value":1},{"name":"group","type":"int","value":31},{"name":"id","type":"int","value":275},{"name":"fh_layer","type":"int","value":1},{"name":"fh_group","type":"int","value":31},{"name":"fh_id","type":"int","value":275},{"name":"x1","type":"int","value":137},{"name":"x2","type":"int","value":149},{"name":"y1","type":"int","value":-363},{"name":"y2","type":"int","value":-370},{"name":"next","type":"int","value":276},{"name":"prev","type":"int","value":0}],"polyline":[{"x":0,"y":0},{"x":12,"y":-7}]},{"id":1349,"x":149,"y":-370,"visible":true,"properties":[{"name":"layer","type":"int","value":1},{"name":"group","type":"int","value":31},{"name":"id","type":"int","value":276},{"name":"fh_layer","type":"int","value":1},{"name":"fh_group","type":"int","value":31},{"name":"fh_id","type":"int","value":276},{"name":"x1","type":"int","value":149},{"name":"x2","type":"int","value":180},{"name":"y1","type":"int","value":-370},{"name":"y2","type":"int","value":-370},{"name":"next","type":"int","value":277},{"name":"prev","type":"int","value":275}],"polyline":[{"x":0,"y":0},{"x":31,"y":0}]},{"id":1350,"x":180,"y":-370,"visible":true,"properties":[{"name":"layer","type":"int","value":1},{"name":"group","type":"int","value":31},{"name":"id","type":"int","value":277},{"name":"fh_layer","type":"int","value":1},{"name":"fh_group","type":"int","value":31},{"name":"fh_id","type":"int","value":277},{"name":"x1","type":"int","value":180},{"name":"x2","type":"int","value":184},{"name":"y1","type":"int","value":-370},{"name":"y2","type":"int","value":-368},{"name":"next","type":"int","value":278},{"name":"prev","type":"int","value":276}],"polyline":[{"x":0,"y":0},{"x":4,"y":2}]},{"id":1351,"x":184,"y":-368,"visible":true,"properties":[{"name":"layer","type":"int","value":1},{"name":"group","type":"int","value":31},{"name":"id","type":"int","value":278},{"name":"fh_layer","type":"int","value":1},{"name":"fh_group","type":"int","value":31},{"name":"fh_id","type":"int","value":278},{"name":"x1","type":"int","value":184},{"name":"x2","type":"int","value":187},{"name":"y1","type":"int","value":-368},{"name":"y2","type":"int","value":-369},{"name":"next","type":"int","value":279},{"name":"prev","type":"int","value":277}],"polyline":[{"x":0,"y":0},{"x":3,"y":-1}]},{"id":1352,"x":187,"y":-369,"visible":true,"properties":[{"name":"layer","type":"int","value":1},{"name":"group","type":"int","value":31},{"name":"id","type":"int","value":279},{"name":"fh_layer","type":"int","value":1},{"name":"fh_group","type":"int","value":31},{"name":"fh_id","type":"int","value":279},{"name":"x1","type":"int","value":187},{"name":"x2","type":"int","value":218},{"name":"y1","type":"int","value":-369},{"name":"y2","type":"int","value":-369},{"name":"next","type":"int","value":280},{"name":"prev","type":"int","value":278}],"polyline":[{"x":0,"y":0},{"x":31,"y":0}]},{"id":1353,"x":218,"y":-369,"visible":true,"properties":[{"name":"layer","type":"int","value":1},{"name":"group","type":"int","value":31},{"name":"id","type":"int","value":280},{"name":"fh_layer","type":"int","value":1},{"name":"fh_group","type":"int","value":31},{"name":"fh_id","type":"int","value":280},{"name":"x1","type":"int","value":218},{"name":"x2","type":"int","value":228},{"name":"y1","type":"int","value":-369},{"name":"y2","type":"int","value":-364},{"name":"next","type":"int","value":0},{"name":"prev","type":"int","value":279}],"polyline":[{"x":0,"y":0},{"x":10,"y":5}]},{"id":1354,"x":155,"y":-391,"visible":true,"properties":[{"name":"layer","type":"int","value":1},{"name":"group","type":"int","value":31},{"name":"id","type":"int","value":281},{"name":"fh_layer","type":"int","value":1},{"name":"fh_group","type":"int","value":31},{"name":"fh_id","type":"int","value":281},{"name":"x1","type":"int","value":155},{"name":"x2","type":"int","value":167},{"name":"y1","type":"int","value":-391},{"name":"y2","type":"int","value":-398},{"name":"next","type":"int","value":282},{"name":"prev","type":"int","value":0}],"polyline":[{"x":0,"y":0},{"x":12,"y":-7}]},{"id":1355,"x":167,"y":-398,"visible":true,"properties":[{"name":"layer","type":"int","value":1},{"name":"group","type":"int","value":31},{"name":"id","type":"int","value":282},{"name":"fh_layer","type":"int","value":1},{"name":"fh_group","type":"int","value":31},{"name":"fh_id","type":"int","value":282},{"name":"x1","type":"int","value":167},{"name":"x2","type":"int","value":198},{"name":"y1","type":"int","value":-398},{"name":"y2","type":"int","value":-398},{"name":"next","type":"int","value":283},{"name":"prev","type":"int","value":281}],"polyline":[{"x":0,"y":0},{"x":31,"y":0}]},{"id":1356,"x":198,"y":-398,"visible":true,"properties":[{"name":"layer","type":"int","value":1},{"name":"group","type":"int","value":31},{"name":"id","type":"int","value":283},{"name":"fh_layer","type":"int","value":1},{"name":"fh_group","type":"int","value":31},{"name":"fh_id","type":"int","value":283},{"name":"x1","type":"int","value":198},{"name":"x2","type":"int","value":208},{"name":"y1","type":"int","value":-398},{"name":"y2","type":"int","value":-393},{"name":"next","type":"int","value":0},{"name":"prev","type":"int","value":282}],"polyline":[{"x":0,"y":0},{"x":10,"y":5}]},{"id":1357,"x":-1475,"y":-180,"visible":true,"properties":[{"name":"layer","type":"int","value":1},{"name":"group","type":"int","value":33},{"name":"id","type":"int","value":479},{"name":"fh_layer","type":"int","value":1},{"name":"fh_group","type":"int","value":33},{"name":"fh_id","type":"int","value":479},{"name":"x1","type":"int","value":-1475},{"name":"x2","type":"int","value":-1475},{"name":"y1","type":"int","value":-180},{"name":"y2","type":"int","value":-195},{"name":"next","type":"int","value":480},{"name":"prev","type":"int","value":0}],"polyline":[{"x":0,"y":0},{"x":0,"y":-15}]},{"id":1358,"x":-1475,"y":-195,"visible":true,"properties":[{"name":"layer","type":"int","value":1},{"name":"group","type":"int","value":33},{"name":"id","type":"int","value":480},{"name":"fh_layer","type":"int","value":1},{"name":"fh_group","type":"int","value":33},{"name":"fh_id","type":"int","value":480},{"name":"x1","type":"int","value":-1475},{"name":"x2","type":"int","value":-1405},{"name":"y1","type":"int","value":-195},{"name":"y2","type":"int","value":-195},{"name":"next","type":"int","value":481},{"name":"prev","type":"int","value":479}],"polyline":[{"x":0,"y":0},{"x":70,"y":0}]},{"id":1359,"x":-1405,"y":-195,"visible":true,"properties":[{"name":"layer","type":"int","value":1},{"name":"group","type":"int","value":33},{"name":"id","type":"int","value":481},{"name":"fh_layer","type":"int","value":1},{"name":"fh_group","type":"int","value":33},{"name":"fh_id","type":"int","value":481},{"name":"x1","type":"int","value":-1405},{"name":"x2","type":"int","value":-1405},{"name":"y1","type":"int","value":-195},{"name":"y2","type":"int","value":-180},{"name":"next","type":"int","value":0},{"name":"prev","type":"int","value":480}],"polyline":[{"x":0,"y":0},{"x":0,"y":15}]},{"id":1360,"x":-1475,"y":-240,"visible":true,"properties":[{"name":"layer","type":"int","value":1},{"name":"group","type":"int","value":42},{"name":"id","type":"int","value":444},{"name":"fh_layer","type":"int","value":1},{"name":"fh_group","type":"int","value":42},{"name":"fh_id","type":"int","value":444},{"name":"x1","type":"int","value":-1475},{"name":"x2","type":"int","value":-1475},{"name":"y1","type":"int","value":-240},{"name":"y2","type":"int","value":-255},{"name":"next","type":"int","value":445},{"name":"prev","type":"int","value":0}],"polyline":[{"x":0,"y":0},{"x":0,"y":-15}]},{"id":1361,"x":-1475,"y":-255,"visible":true,"properties":[{"name":"layer","type":"int","value":1},{"name":"group","type":"int","value":42},{"name":"id","type":"int","value":445},{"name":"fh_layer","type":"int","value":1},{"name":"fh_group","type":"int","value":42},{"name":"fh_id","type":"int","value":445},{"name":"x1","type":"int","value":-1475},{"name":"x2","type":"int","value":-1405},{"name":"y1","type":"int","value":-255},{"name":"y2","type":"int","value":-255},{"name":"next","type":"int","value":446},{"name":"prev","type":"int","value":444}],"polyline":[{"x":0,"y":0},{"x":70,"y":0}]},{"id":1362,"x":-1405,"y":-255,"visible":true,"properties":[{"name":"layer","type":"int","value":1},{"name":"group","type":"int","value":42},{"name":"id","type":"int","value":446},{"name":"fh_layer","type":"int","value":1},{"name":"fh_group","type":"int","value":42},{"name":"fh_id","type":"int","value":446},{"name":"x1","type":"int","value":-1405},{"name":"x2","type":"int","value":-1405},{"name":"y1","type":"int","value":-255},{"name":"y2","type":"int","value":-240},{"name":"next","type":"int","value":0},{"name":"prev","type":"int","value":445}],"polyline":[{"x":0,"y":0},{"x":0,"y":15}]},{"id":1363,"x":-665,"y":-195,"visible":true,"properties":[{"name":"layer","type":"int","value":1},{"name":"group","type":"int","value":43},{"name":"id","type":"int","value":176},{"name":"fh_layer","type":"int","value":1},{"name":"fh_group","type":"int","value":43},{"name":"fh_id","type":"int","value":176},{"name":"x1","type":"int","value":-665},{"name":"x2","type":"int","value":-595},{"name":"y1","type":"int","value":-195},{"name":"y2","type":"int","value":-195},{"name":"next","type":"int","value":177},{"name":"prev","type":"int","value":180}],"polyline":[{"x":0,"y":0},{"x":70,"y":0}]},{"id":1364,"x":-595,"y":-195,"visible":true,"properties":[{"name":"layer","type":"int","value":1},{"name":"group","type":"int","value":43},{"name":"id","type":"int","value":177},{"name":"fh_layer","type":"int","value":1},{"name":"fh_group","type":"int","value":43},{"name":"fh_id","type":"int","value":177},{"name":"x1","type":"int","value":-595},{"name":"x2","type":"int","value":-595},{"name":"y1","type":"int","value":-195},{"name":"y2","type":"int","value":-180},{"name":"next","type":"int","value":0},{"name":"prev","type":"int","value":176}],"polyline":[{"x":0,"y":0},{"x":0,"y":15}]},{"id":1365,"x":-1350,"y":-435,"visible":true,"properties":[{"name":"layer","type":"int","value":1},{"name":"group","type":"int","value":43},{"name":"id","type":"int","value":178},{"name":"fh_layer","type":"int","value":1},{"name":"fh_group","type":"int","value":43},{"name":"fh_id","type":"int","value":178},{"name":"x1","type":"int","value":-1350},{"name":"x2","type":"int","value":-1260},{"name":"y1","type":"int","value":-435},{"name":"y2","type":"int","value":-435},{"name":"next","type":"int","value":187},{"name":"prev","type":"int","value":202}],"polyline":[{"x":0,"y":0},{"x":90,"y":0}]},{"id":1366,"x":-685,"y":-240,"visible":true,"properties":[{"name":"layer","type":"int","value":1},{"name":"group","type":"int","value":43},{"name":"id","type":"int","value":179},{"name":"fh_layer","type":"int","value":1},{"name":"fh_group","type":"int","value":43},{"name":"fh_id","type":"int","value":179},{"name":"x1","type":"int","value":-685},{"name":"x2","type":"int","value":-685},{"name":"y1","type":"int","value":-240},{"name":"y2","type":"int","value":-195},{"name":"next","type":"int","value":180},{"name":"prev","type":"int","value":182}],"polyline":[{"x":0,"y":0},{"x":0,"y":45}]},{"id":1367,"x":-685,"y":-195,"visible":true,"properties":[{"name":"layer","type":"int","value":1},{"name":"group","type":"int","value":43},{"name":"id","type":"int","value":180},{"name":"fh_layer","type":"int","value":1},{"name":"fh_group","type":"int","value":43},{"name":"fh_id","type":"int","value":180},{"name":"x1","type":"int","value":-685},{"name":"x2","type":"int","value":-665},{"name":"y1","type":"int","value":-195},{"name":"y2","type":"int","value":-195},{"name":"next","type":"int","value":176},{"name":"prev","type":"int","value":179}],"polyline":[{"x":0,"y":0},{"x":20,"y":0}]},{"id":1368,"x":-755,"y":-255,"visible":true,"properties":[{"name":"layer","type":"int","value":1},{"name":"group","type":"int","value":43},{"name":"id","type":"int","value":181},{"name":"fh_layer","type":"int","value":1},{"name":"fh_group","type":"int","value":43},{"name":"fh_id","type":"int","value":181},{"name":"x1","type":"int","value":-755},{"name":"x2","type":"int","value":-685},{"name":"y1","type":"int","value":-255},{"name":"y2","type":"int","value":-255},{"name":"next","type":"int","value":182},{"name":"prev","type":"int","value":196}],"polyline":[{"x":0,"y":0},{"x":70,"y":0}]},{"id":1369,"x":-685,"y":-255,"visible":true,"properties":[{"name":"layer","type":"int","value":1},{"name":"group","type":"int","value":43},{"name":"id","type":"int","value":182},{"name":"fh_layer","type":"int","value":1},{"name":"fh_group","type":"int","value":43},{"name":"fh_id","type":"int","value":182},{"name":"x1","type":"int","value":-685},{"name":"x2","type":"int","value":-685},{"name":"y1","type":"int","value":-255},{"name":"y2","type":"int","value":-240},{"name":"next","type":"int","value":179},{"name":"prev","type":"int","value":181}],"polyline":[{"x":0,"y":0},{"x":0,"y":15}]},{"id":1370,"x":-865,"y":-360,"visible":true,"properties":[{"name":"layer","type":"int","value":1},{"name":"group","type":"int","value":43},{"name":"id","type":"int","value":183},{"name":"fh_layer","type":"int","value":1},{"name":"fh_group","type":"int","value":43},{"name":"fh_id","type":"int","value":183},{"name":"x1","type":"int","value":-865},{"name":"x2","type":"int","value":-865},{"name":"y1","type":"int","value":-360},{"name":"y2","type":"int","value":-315},{"name":"next","type":"int","value":184},{"name":"prev","type":"int","value":186}],"polyline":[{"x":0,"y":0},{"x":0,"y":45}]},{"id":1371,"x":-865,"y":-315,"visible":true,"properties":[{"name":"layer","type":"int","value":1},{"name":"group","type":"int","value":43},{"name":"id","type":"int","value":184},{"name":"fh_layer","type":"int","value":1},{"name":"fh_group","type":"int","value":43},{"name":"fh_id","type":"int","value":184},{"name":"x1","type":"int","value":-865},{"name":"x2","type":"int","value":-845},{"name":"y1","type":"int","value":-315},{"name":"y2","type":"int","value":-315},{"name":"next","type":"int","value":192},{"name":"prev","type":"int","value":183}],"polyline":[{"x":0,"y":0},{"x":20,"y":0}]},{"id":1372,"x":-935,"y":-375,"visible":true,"properties":[{"name":"layer","type":"int","value":1},{"name":"group","type":"int","value":43},{"name":"id","type":"int","value":185},{"name":"fh_layer","type":"int","value":1},{"name":"fh_group","type":"int","value":43},{"name":"fh_id","type":"int","value":185},{"name":"x1","type":"int","value":-935},{"name":"x2","type":"int","value":-865},{"name":"y1","type":"int","value":-375},{"name":"y2","type":"int","value":-375},{"name":"next","type":"int","value":186},{"name":"prev","type":"int","value":201}],"polyline":[{"x":0,"y":0},{"x":70,"y":0}]},{"id":1373,"x":-865,"y":-375,"visible":true,"properties":[{"name":"layer","type":"int","value":1},{"name":"group","type":"int","value":43},{"name":"id","type":"int","value":186},{"name":"fh_layer","type":"int","value":1},{"name":"fh_group","type":"int","value":43},{"name":"fh_id","type":"int","value":186},{"name":"x1","type":"int","value":-865},{"name":"x2","type":"int","value":-865},{"name":"y1","type":"int","value":-375},{"name":"y2","type":"int","value":-360},{"name":"next","type":"int","value":183},{"name":"prev","type":"int","value":185}],"polyline":[{"x":0,"y":0},{"x":0,"y":15}]},{"id":1374,"x":-1260,"y":-435,"visible":true,"properties":[{"name":"layer","type":"int","value":1},{"name":"group","type":"int","value":43},{"name":"id","type":"int","value":187},{"name":"fh_layer","type":"int","value":1},{"name":"fh_group","type":"int","value":43},{"name":"fh_id","type":"int","value":187},{"name":"x1","type":"int","value":-1260},{"name":"x2","type":"int","value":-1170},{"name":"y1","type":"int","value":-435},{"name":"y2","type":"int","value":-435},{"name":"next","type":"int","value":188},{"name":"prev","type":"int","value":178}],"polyline":[{"x":0,"y":0},{"x":90,"y":0}]},{"id":1375,"x":-1170,"y":-435,"visible":true,"properties":[{"name":"layer","type":"int","value":1},{"name":"group","type":"int","value":43},{"name":"id","type":"int","value":188},{"name":"fh_layer","type":"int","value":1},{"name":"fh_group","type":"int","value":43},{"name":"fh_id","type":"int","value":188},{"name":"x1","type":"int","value":-1170},{"name":"x2","type":"int","value":-1080},{"name":"y1","type":"int","value":-435},{"name":"y2","type":"int","value":-435},{"name":"next","type":"int","value":191},{"name":"prev","type":"int","value":187}],"polyline":[{"x":0,"y":0},{"x":90,"y":0}]},{"id":1376,"x":-1475,"y":-420,"visible":true,"properties":[{"name":"layer","type":"int","value":1},{"name":"group","type":"int","value":43},{"name":"id","type":"int","value":189},{"name":"fh_layer","type":"int","value":1},{"name":"fh_group","type":"int","value":43},{"name":"fh_id","type":"int","value":189},{"name":"x1","type":"int","value":-1475},{"name":"x2","type":"int","value":-1475},{"name":"y1","type":"int","value":-420},{"name":"y2","type":"int","value":-435},{"name":"next","type":"int","value":190},{"name":"prev","type":"int","value":0}],"polyline":[{"x":0,"y":0},{"x":0,"y":-15}]},{"id":1377,"x":-1475,"y":-435,"visible":true,"properties":[{"name":"layer","type":"int","value":1},{"name":"group","type":"int","value":43},{"name":"id","type":"int","value":190},{"name":"fh_layer","type":"int","value":1},{"name":"fh_group","type":"int","value":43},{"name":"fh_id","type":"int","value":190},{"name":"x1","type":"int","value":-1475},{"name":"x2","type":"int","value":-1405},{"name":"y1","type":"int","value":-435},{"name":"y2","type":"int","value":-435},{"name":"next","type":"int","value":202},{"name":"prev","type":"int","value":189}],"polyline":[{"x":0,"y":0},{"x":70,"y":0}]},{"id":1378,"x":-1080,"y":-435,"visible":true,"properties":[{"name":"layer","type":"int","value":1},{"name":"group","type":"int","value":43},{"name":"id","type":"int","value":191},{"name":"fh_layer","type":"int","value":1},{"name":"fh_group","type":"int","value":43},{"name":"fh_id","type":"int","value":191},{"name":"x1","type":"int","value":-1080},{"name":"x2","type":"int","value":-1025},{"name":"y1","type":"int","value":-435},{"name":"y2","type":"int","value":-435},{"name":"next","type":"int","value":197},{"name":"prev","type":"int","value":188}],"polyline":[{"x":0,"y":0},{"x":55,"y":0}]},{"id":1379,"x":-845,"y":-315,"visible":true,"properties":[{"name":"layer","type":"int","value":1},{"name":"group","type":"int","value":43},{"name":"id","type":"int","value":192},{"name":"fh_layer","type":"int","value":1},{"name":"fh_group","type":"int","value":43},{"name":"fh_id","type":"int","value":192},{"name":"x1","type":"int","value":-845},{"name":"x2","type":"int","value":-810},{"name":"y1","type":"int","value":-315},{"name":"y2","type":"int","value":-315},{"name":"next","type":"int","value":193},{"name":"prev","type":"int","value":184}],"polyline":[{"x":0,"y":0},{"x":35,"y":0}]},{"id":1380,"x":-810,"y":-315,"visible":true,"properties":[{"name":"layer","type":"int","value":1},{"name":"group","type":"int","value":43},{"name":"id","type":"int","value":193},{"name":"fh_layer","type":"int","value":1},{"name":"fh_group","type":"int","value":43},{"name":"fh_id","type":"int","value":193},{"name":"x1","type":"int","value":-810},{"name":"x2","type":"int","value":-775},{"name":"y1","type":"int","value":-315},{"name":"y2","type":"int","value":-315},{"name":"next","type":"int","value":194},{"name":"prev","type":"int","value":192}],"polyline":[{"x":0,"y":0},{"x":35,"y":0}]},{"id":1381,"x":-775,"y":-315,"visible":true,"properties":[{"name":"layer","type":"int","value":1},{"name":"group","type":"int","value":43},{"name":"id","type":"int","value":194},{"name":"fh_layer","type":"int","value":1},{"name":"fh_group","type":"int","value":43},{"name":"fh_id","type":"int","value":194},{"name":"x1","type":"int","value":-775},{"name":"x2","type":"int","value":-775},{"name":"y1","type":"int","value":-315},{"name":"y2","type":"int","value":-300},{"name":"next","type":"int","value":195},{"name":"prev","type":"int","value":193}],"polyline":[{"x":0,"y":0},{"x":0,"y":15}]},{"id":1382,"x":-775,"y":-300,"visible":true,"properties":[{"name":"layer","type":"int","value":1},{"name":"group","type":"int","value":43},{"name":"id","type":"int","value":195},{"name":"fh_layer","type":"int","value":1},{"name":"fh_group","type":"int","value":43},{"name":"fh_id","type":"int","value":195},{"name":"x1","type":"int","value":-775},{"name":"x2","type":"int","value":-775},{"name":"y1","type":"int","value":-300},{"name":"y2","type":"int","value":-255},{"name":"next","type":"int","value":196},{"name":"prev","type":"int","value":194}],"polyline":[{"x":0,"y":0},{"x":0,"y":45}]},{"id":1383,"x":-775,"y":-255,"visible":true,"properties":[{"name":"layer","type":"int","value":1},{"name":"group","type":"int","value":43},{"name":"id","type":"int","value":196},{"name":"fh_layer","type":"int","value":1},{"name":"fh_group","type":"int","value":43},{"name":"fh_id","type":"int","value":196},{"name":"x1","type":"int","value":-775},{"name":"x2","type":"int","value":-755},{"name":"y1","type":"int","value":-255},{"name":"y2","type":"int","value":-255},{"name":"next","type":"int","value":181},{"name":"prev","type":"int","value":195}],"polyline":[{"x":0,"y":0},{"x":20,"y":0}]},{"id":1384,"x":-1025,"y":-435,"visible":true,"properties":[{"name":"layer","type":"int","value":1},{"name":"group","type":"int","value":43},{"name":"id","type":"int","value":197},{"name":"fh_layer","type":"int","value":1},{"name":"fh_group","type":"int","value":43},{"name":"fh_id","type":"int","value":197},{"name":"x1","type":"int","value":-1025},{"name":"x2","type":"int","value":-990},{"name":"y1","type":"int","value":-435},{"name":"y2","type":"int","value":-435},{"name":"next","type":"int","value":198},{"name":"prev","type":"int","value":191}],"polyline":[{"x":0,"y":0},{"x":35,"y":0}]},{"id":1385,"x":-990,"y":-435,"visible":true,"properties":[{"name":"layer","type":"int","value":1},{"name":"group","type":"int","value":43},{"name":"id","type":"int","value":198},{"name":"fh_layer","type":"int","value":1},{"name":"fh_group","type":"int","value":43},{"name":"fh_id","type":"int","value":198},{"name":"x1","type":"int","value":-990},{"name":"x2","type":"int","value":-955},{"name":"y1","type":"int","value":-435},{"name":"y2","type":"int","value":-435},{"name":"next","type":"int","value":199},{"name":"prev","type":"int","value":197}],"polyline":[{"x":0,"y":0},{"x":35,"y":0}]},{"id":1386,"x":-955,"y":-435,"visible":true,"properties":[{"name":"layer","type":"int","value":1},{"name":"group","type":"int","value":43},{"name":"id","type":"int","value":199},{"name":"fh_layer","type":"int","value":1},{"name":"fh_group","type":"int","value":43},{"name":"fh_id","type":"int","value":199},{"name":"x1","type":"int","value":-955},{"name":"x2","type":"int","value":-955},{"name":"y1","type":"int","value":-435},{"name":"y2","type":"int","value":-420},{"name":"next","type":"int","value":200},{"name":"prev","type":"int","value":198}],"polyline":[{"x":0,"y":0},{"x":0,"y":15}]},{"id":1387,"x":-955,"y":-420,"visible":true,"properties":[{"name":"layer","type":"int","value":1},{"name":"group","type":"int","value":43},{"name":"id","type":"int","value":200},{"name":"fh_layer","type":"int","value":1},{"name":"fh_group","type":"int","value":43},{"name":"fh_id","type":"int","value":200},{"name":"x1","type":"int","value":-955},{"name":"x2","type":"int","value":-955},{"name":"y1","type":"int","value":-420},{"name":"y2","type":"int","value":-375},{"name":"next","type":"int","value":201},{"name":"prev","type":"int","value":199}],"polyline":[{"x":0,"y":0},{"x":0,"y":45}]},{"id":1388,"x":-955,"y":-375,"visible":true,"properties":[{"name":"layer","type":"int","value":1},{"name":"group","type":"int","value":43},{"name":"id","type":"int","value":201},{"name":"fh_layer","type":"int","value":1},{"name":"fh_group","type":"int","value":43},{"name":"fh_id","type":"int","value":201},{"name":"x1","type":"int","value":-955},{"name":"x2","type":"int","value":-935},{"name":"y1","type":"int","value":-375},{"name":"y2","type":"int","value":-375},{"name":"next","type":"int","value":185},{"name":"prev","type":"int","value":200}],"polyline":[{"x":0,"y":0},{"x":20,"y":0}]},{"id":1389,"x":-1405,"y":-435,"visible":true,"properties":[{"name":"layer","type":"int","value":1},{"name":"group","type":"int","value":43},{"name":"id","type":"int","value":202},{"name":"fh_layer","type":"int","value":1},{"name":"fh_group","type":"int","value":43},{"name":"fh_id","type":"int","value":202},{"name":"x1","type":"int","value":-1405},{"name":"x2","type":"int","value":-1350},{"name":"y1","type":"int","value":-435},{"name":"y2","type":"int","value":-435},{"name":"next","type":"int","value":178},{"name":"prev","type":"int","value":190}],"polyline":[{"x":0,"y":0},{"x":55,"y":0}]},{"id":1390,"x":-1319,"y":-485,"visible":true,"properties":[{"name":"layer","type":"int","value":1},{"name":"group","type":"int","value":43},{"name":"id","type":"int","value":203},{"name":"fh_layer","type":"int","value":1},{"name":"fh_group","type":"int","value":43},{"name":"fh_id","type":"int","value":203},{"name":"x1","type":"int","value":-1319},{"name":"x2","type":"int","value":-1155},{"name":"y1","type":"int","value":-485},{"name":"y2","type":"int","value":-485},{"name":"next","type":"int","value":204},{"name":"prev","type":"int","value":0}],"polyline":[{"x":0,"y":0},{"x":164,"y":0}]},{"id":1391,"x":-1155,"y":-485,"visible":true,"properties":[{"name":"layer","type":"int","value":1},{"name":"group","type":"int","value":43},{"name":"id","type":"int","value":204},{"name":"fh_layer","type":"int","value":1},{"name":"fh_group","type":"int","value":43},{"name":"fh_id","type":"int","value":204},{"name":"x1","type":"int","value":-1155},{"name":"x2","type":"int","value":-1143},{"name":"y1","type":"int","value":-485},{"name":"y2","type":"int","value":-460},{"name":"next","type":"int","value":205},{"name":"prev","type":"int","value":203}],"polyline":[{"x":0,"y":0},{"x":12,"y":25}]},{"id":1392,"x":-1143,"y":-460,"visible":true,"properties":[{"name":"layer","type":"int","value":1},{"name":"group","type":"int","value":43},{"name":"id","type":"int","value":205},{"name":"fh_layer","type":"int","value":1},{"name":"fh_group","type":"int","value":43},{"name":"fh_id","type":"int","value":205},{"name":"x1","type":"int","value":-1143},{"name":"x2","type":"int","value":-1134},{"name":"y1","type":"int","value":-460},{"name":"y2","type":"int","value":-460},{"name":"next","type":"int","value":206},{"name":"prev","type":"int","value":204}],"polyline":[{"x":0,"y":0},{"x":9,"y":0}]},{"id":1393,"x":-1134,"y":-460,"visible":true,"properties":[{"name":"layer","type":"int","value":1},{"name":"group","type":"int","value":43},{"name":"id","type":"int","value":206},{"name":"fh_layer","type":"int","value":1},{"name":"fh_group","type":"int","value":43},{"name":"fh_id","type":"int","value":206},{"name":"x1","type":"int","value":-1134},{"name":"x2","type":"int","value":-1124},{"name":"y1","type":"int","value":-460},{"name":"y2","type":"int","value":-452},{"name":"next","type":"int","value":207},{"name":"prev","type":"int","value":205}],"polyline":[{"x":0,"y":0},{"x":10,"y":8}]},{"id":1394,"x":-1124,"y":-452,"visible":true,"properties":[{"name":"layer","type":"int","value":1},{"name":"group","type":"int","value":43},{"name":"id","type":"int","value":207},{"name":"fh_layer","type":"int","value":1},{"name":"fh_group","type":"int","value":43},{"name":"fh_id","type":"int","value":207},{"name":"x1","type":"int","value":-1124},{"name":"x2","type":"int","value":-1094},{"name":"y1","type":"int","value":-452},{"name":"y2","type":"int","value":-452},{"name":"next","type":"int","value":0},{"name":"prev","type":"int","value":206}],"polyline":[{"x":0,"y":0},{"x":30,"y":0}]},{"id":1395,"x":-630,"y":-315,"visible":true,"properties":[{"name":"layer","type":"int","value":1},{"name":"group","type":"int","value":50},{"name":"id","type":"int","value":362},{"name":"fh_layer","type":"int","value":1},{"name":"fh_group","type":"int","value":50},{"name":"fh_id","type":"int","value":362},{"name":"x1","type":"int","value":-630},{"name":"x2","type":"int","value":-595},{"name":"y1","type":"int","value":-315},{"name":"y2","type":"int","value":-315},{"name":"next","type":"int","value":365},{"name":"prev","type":"int","value":364}],"polyline":[{"x":0,"y":0},{"x":35,"y":0}]},{"id":1396,"x":-665,"y":-300,"visible":true,"properties":[{"name":"layer","type":"int","value":1},{"name":"group","type":"int","value":50},{"name":"id","type":"int","value":363},{"name":"fh_layer","type":"int","value":1},{"name":"fh_group","type":"int","value":50},{"name":"fh_id","type":"int","value":363},{"name":"x1","type":"int","value":-665},{"name":"x2","type":"int","value":-665},{"name":"y1","type":"int","value":-300},{"name":"y2","type":"int","value":-315},{"name":"next","type":"int","value":364},{"name":"prev","type":"int","value":0}],"polyline":[{"x":0,"y":0},{"x":0,"y":-15}]},{"id":1397,"x":-665,"y":-315,"visible":true,"properties":[{"name":"layer","type":"int","value":1},{"name":"group","type":"int","value":50},{"name":"id","type":"int","value":364},{"name":"fh_layer","type":"int","value":1},{"name":"fh_group","type":"int","value":50},{"name":"fh_id","type":"int","value":364},{"name":"x1","type":"int","value":-665},{"name":"x2","type":"int","value":-630},{"name":"y1","type":"int","value":-315},{"name":"y2","type":"int","value":-315},{"name":"next","type":"int","value":362},{"name":"prev","type":"int","value":363}],"polyline":[{"x":0,"y":0},{"x":35,"y":0}]},{"id":1398,"x":-595,"y":-315,"visible":true,"properties":[{"name":"layer","type":"int","value":1},{"name":"group","type":"int","value":50},{"name":"id","type":"int","value":365},{"name":"fh_layer","type":"int","value":1},{"name":"fh_group","type":"int","value":50},{"name":"fh_id","type":"int","value":365},{"name":"x1","type":"int","value":-595},{"name":"x2","type":"int","value":-575},{"name":"y1","type":"int","value":-315},{"name":"y2","type":"int","value":-315},{"name":"next","type":"int","value":366},{"name":"prev","type":"int","value":362}],"polyline":[{"x":0,"y":0},{"x":20,"y":0}]},{"id":1399,"x":-575,"y":-315,"visible":true,"properties":[{"name":"layer","type":"int","value":1},{"name":"group","type":"int","value":50},{"name":"id","type":"int","value":366},{"name":"fh_layer","type":"int","value":1},{"name":"fh_group","type":"int","value":50},{"name":"fh_id","type":"int","value":366},{"name":"x1","type":"int","value":-575},{"name":"x2","type":"int","value":-540},{"name":"y1","type":"int","value":-315},{"name":"y2","type":"int","value":-315},{"name":"next","type":"int","value":367},{"name":"prev","type":"int","value":365}],"polyline":[{"x":0,"y":0},{"x":35,"y":0}]},{"id":1400,"x":-540,"y":-315,"visible":true,"properties":[{"name":"layer","type":"int","value":1},{"name":"group","type":"int","value":50},{"name":"id","type":"int","value":367},{"name":"fh_layer","type":"int","value":1},{"name":"fh_group","type":"int","value":50},{"name":"fh_id","type":"int","value":367},{"name":"x1","type":"int","value":-540},{"name":"x2","type":"int","value":-505},{"name":"y1","type":"int","value":-315},{"name":"y2","type":"int","value":-315},{"name":"next","type":"int","value":368},{"name":"prev","type":"int","value":366}],"polyline":[{"x":0,"y":0},{"x":35,"y":0}]},{"id":1401,"x":-505,"y":-315,"visible":true,"properties":[{"name":"layer","type":"int","value":1},{"name":"group","type":"int","value":50},{"name":"id","type":"int","value":368},{"name":"fh_layer","type":"int","value":1},{"name":"fh_group","type":"int","value":50},{"name":"fh_id","type":"int","value":368},{"name":"x1","type":"int","value":-505},{"name":"x2","type":"int","value":-505},{"name":"y1","type":"int","value":-315},{"name":"y2","type":"int","value":-300},{"name":"next","type":"int","value":0},{"name":"prev","type":"int","value":367}],"polyline":[{"x":0,"y":0},{"x":0,"y":15}]},{"id":1402,"x":-575,"y":-375,"visible":true,"properties":[{"name":"layer","type":"int","value":1},{"name":"group","type":"int","value":55},{"name":"id","type":"int","value":102},{"name":"fh_layer","type":"int","value":1},{"name":"fh_group","type":"int","value":55},{"name":"fh_id","type":"int","value":102},{"name":"x1","type":"int","value":-575},{"name":"x2","type":"int","value":-505},{"name":"y1","type":"int","value":-375},{"name":"y2","type":"int","value":-375},{"name":"next","type":"int","value":103},{"name":"prev","type":"int","value":106}],"polyline":[{"x":0,"y":0},{"x":70,"y":0}]},{"id":1403,"x":-505,"y":-375,"visible":true,"properties":[{"name":"layer","type":"int","value":1},{"name":"group","type":"int","value":55},{"name":"id","type":"int","value":103},{"name":"fh_layer","type":"int","value":1},{"name":"fh_group","type":"int","value":55},{"name":"fh_id","type":"int","value":103},{"name":"x1","type":"int","value":-505},{"name":"x2","type":"int","value":-505},{"name":"y1","type":"int","value":-375},{"name":"y2","type":"int","value":-360},{"name":"next","type":"int","value":0},{"name":"prev","type":"int","value":102}],"polyline":[{"x":0,"y":0},{"x":0,"y":15}]},{"id":1404,"x":-665,"y":-360,"visible":true,"properties":[{"name":"layer","type":"int","value":1},{"name":"group","type":"int","value":55},{"name":"id","type":"int","value":104},{"name":"fh_layer","type":"int","value":1},{"name":"fh_group","type":"int","value":55},{"name":"fh_id","type":"int","value":104},{"name":"x1","type":"int","value":-665},{"name":"x2","type":"int","value":-665},{"name":"y1","type":"int","value":-360},{"name":"y2","type":"int","value":-375},{"name":"next","type":"int","value":105},{"name":"prev","type":"int","value":0}],"polyline":[{"x":0,"y":0},{"x":0,"y":-15}]},{"id":1405,"x":-665,"y":-375,"visible":true,"properties":[{"name":"layer","type":"int","value":1},{"name":"group","type":"int","value":55},{"name":"id","type":"int","value":105},{"name":"fh_layer","type":"int","value":1},{"name":"fh_group","type":"int","value":55},{"name":"fh_id","type":"int","value":105},{"name":"x1","type":"int","value":-665},{"name":"x2","type":"int","value":-595},{"name":"y1","type":"int","value":-375},{"name":"y2","type":"int","value":-375},{"name":"next","type":"int","value":106},{"name":"prev","type":"int","value":104}],"polyline":[{"x":0,"y":0},{"x":70,"y":0}]},{"id":1406,"x":-595,"y":-375,"visible":true,"properties":[{"name":"layer","type":"int","value":1},{"name":"group","type":"int","value":55},{"name":"id","type":"int","value":106},{"name":"fh_layer","type":"int","value":1},{"name":"fh_group","type":"int","value":55},{"name":"fh_id","type":"int","value":106},{"name":"x1","type":"int","value":-595},{"name":"x2","type":"int","value":-575},{"name":"y1","type":"int","value":-375},{"name":"y2","type":"int","value":-375},{"name":"next","type":"int","value":102},{"name":"prev","type":"int","value":105}],"polyline":[{"x":0,"y":0},{"x":20,"y":0}]},{"id":1407,"x":-665,"y":-420,"visible":true,"properties":[{"name":"layer","type":"int","value":1},{"name":"group","type":"int","value":58},{"name":"id","type":"int","value":347},{"name":"fh_layer","type":"int","value":1},{"name":"fh_group","type":"int","value":58},{"name":"fh_id","type":"int","value":347},{"name":"x1","type":"int","value":-665},{"name":"x2","type":"int","value":-665},{"name":"y1","type":"int","value":-420},{"name":"y2","type":"int","value":-435},{"name":"next","type":"int","value":348},{"name":"prev","type":"int","value":0}],"polyline":[{"x":0,"y":0},{"x":0,"y":-15}]},{"id":1408,"x":-665,"y":-435,"visible":true,"properties":[{"name":"layer","type":"int","value":1},{"name":"group","type":"int","value":58},{"name":"id","type":"int","value":348},{"name":"fh_layer","type":"int","value":1},{"name":"fh_group","type":"int","value":58},{"name":"fh_id","type":"int","value":348},{"name":"x1","type":"int","value":-665},{"name":"x2","type":"int","value":-595},{"name":"y1","type":"int","value":-435},{"name":"y2","type":"int","value":-435},{"name":"next","type":"int","value":351},{"name":"prev","type":"int","value":347}],"polyline":[{"x":0,"y":0},{"x":70,"y":0}]},{"id":1409,"x":-575,"y":-435,"visible":true,"properties":[{"name":"layer","type":"int","value":1},{"name":"group","type":"int","value":58},{"name":"id","type":"int","value":349},{"name":"fh_layer","type":"int","value":1},{"name":"fh_group","type":"int","value":58},{"name":"fh_id","type":"int","value":349},{"name":"x1","type":"int","value":-575},{"name":"x2","type":"int","value":-505},{"name":"y1","type":"int","value":-435},{"name":"y2","type":"int","value":-435},{"name":"next","type":"int","value":350},{"name":"prev","type":"int","value":351}],"polyline":[{"x":0,"y":0},{"x":70,"y":0}]},{"id":1410,"x":-505,"y":-435,"visible":true,"properties":[{"name":"layer","type":"int","value":1},{"name":"group","type":"int","value":58},{"name":"id","type":"int","value":350},{"name":"fh_layer","type":"int","value":1},{"name":"fh_group","type":"int","value":58},{"name":"fh_id","type":"int","value":350},{"name":"x1","type":"int","value":-505},{"name":"x2","type":"int","value":-505},{"name":"y1","type":"int","value":-435},{"name":"y2","type":"int","value":-420},{"name":"next","type":"int","value":0},{"name":"prev","type":"int","value":349}],"polyline":[{"x":0,"y":0},{"x":0,"y":15}]},{"id":1411,"x":-595,"y":-435,"visible":true,"properties":[{"name":"layer","type":"int","value":1},{"name":"group","type":"int","value":58},{"name":"id","type":"int","value":351},{"name":"fh_layer","type":"int","value":1},{"name":"fh_group","type":"int","value":58},{"name":"fh_id","type":"int","value":351},{"name":"x1","type":"int","value":-595},{"name":"x2","type":"int","value":-575},{"name":"y1","type":"int","value":-435},{"name":"y2","type":"int","value":-435},{"name":"next","type":"int","value":349},{"name":"prev","type":"int","value":348}],"polyline":[{"x":0,"y":0},{"x":20,"y":0}]},{"id":1412,"x":-665,"y":-480,"visible":true,"properties":[{"name":"layer","type":"int","value":1},{"name":"group","type":"int","value":62},{"name":"id","type":"int","value":352},{"name":"fh_layer","type":"int","value":1},{"name":"fh_group","type":"int","value":62},{"name":"fh_id","type":"int","value":352},{"name":"x1","type":"int","value":-665},{"name":"x2","type":"int","value":-665},{"name":"y1","type":"int","value":-480},{"name":"y2","type":"int","value":-495},{"name":"next","type":"int","value":353},{"name":"prev","type":"int","value":0}],"polyline":[{"x":0,"y":0},{"x":0,"y":-15}]},{"id":1413,"x":-665,"y":-495,"visible":true,"properties":[{"name":"layer","type":"int","value":1},{"name":"group","type":"int","value":62},{"name":"id","type":"int","value":353},{"name":"fh_layer","type":"int","value":1},{"name":"fh_group","type":"int","value":62},{"name":"fh_id","type":"int","value":353},{"name":"x1","type":"int","value":-665},{"name":"x2","type":"int","value":-595},{"name":"y1","type":"int","value":-495},{"name":"y2","type":"int","value":-495},{"name":"next","type":"int","value":356},{"name":"prev","type":"int","value":352}],"polyline":[{"x":0,"y":0},{"x":70,"y":0}]},{"id":1414,"x":-575,"y":-495,"visible":true,"properties":[{"name":"layer","type":"int","value":1},{"name":"group","type":"int","value":62},{"name":"id","type":"int","value":354},{"name":"fh_layer","type":"int","value":1},{"name":"fh_group","type":"int","value":62},{"name":"fh_id","type":"int","value":354},{"name":"x1","type":"int","value":-575},{"name":"x2","type":"int","value":-505},{"name":"y1","type":"int","value":-495},{"name":"y2","type":"int","value":-495},{"name":"next","type":"int","value":355},{"name":"prev","type":"int","value":356}],"polyline":[{"x":0,"y":0},{"x":70,"y":0}]},{"id":1415,"x":-505,"y":-495,"visible":true,"properties":[{"name":"layer","type":"int","value":1},{"name":"group","type":"int","value":62},{"name":"id","type":"int","value":355},{"name":"fh_layer","type":"int","value":1},{"name":"fh_group","type":"int","value":62},{"name":"fh_id","type":"int","value":355},{"name":"x1","type":"int","value":-505},{"name":"x2","type":"int","value":-505},{"name":"y1","type":"int","value":-495},{"name":"y2","type":"int","value":-480},{"name":"next","type":"int","value":0},{"name":"prev","type":"int","value":354}],"polyline":[{"x":0,"y":0},{"x":0,"y":15}]},{"id":1416,"x":-595,"y":-495,"visible":true,"properties":[{"name":"layer","type":"int","value":1},{"name":"group","type":"int","value":62},{"name":"id","type":"int","value":356},{"name":"fh_layer","type":"int","value":1},{"name":"fh_group","type":"int","value":62},{"name":"fh_id","type":"int","value":356},{"name":"x1","type":"int","value":-595},{"name":"x2","type":"int","value":-575},{"name":"y1","type":"int","value":-495},{"name":"y2","type":"int","value":-495},{"name":"next","type":"int","value":354},{"name":"prev","type":"int","value":353}],"polyline":[{"x":0,"y":0},{"x":20,"y":0}]},{"id":1417,"x":-1655,"y":-480,"visible":true,"properties":[{"name":"layer","type":"int","value":1},{"name":"group","type":"int","value":63},{"name":"id","type":"int","value":284},{"name":"fh_layer","type":"int","value":1},{"name":"fh_group","type":"int","value":63},{"name":"fh_id","type":"int","value":284},{"name":"x1","type":"int","value":-1655},{"name":"x2","type":"int","value":-1655},{"name":"y1","type":"int","value":-480},{"name":"y2","type":"int","value":-495},{"name":"next","type":"int","value":285},{"name":"prev","type":"int","value":0}],"polyline":[{"x":0,"y":0},{"x":0,"y":-15}]},{"id":1418,"x":-1655,"y":-495,"visible":true,"properties":[{"name":"layer","type":"int","value":1},{"name":"group","type":"int","value":63},{"name":"id","type":"int","value":285},{"name":"fh_layer","type":"int","value":1},{"name":"fh_group","type":"int","value":63},{"name":"fh_id","type":"int","value":285},{"name":"x1","type":"int","value":-1655},{"name":"x2","type":"int","value":-1585},{"name":"y1","type":"int","value":-495},{"name":"y2","type":"int","value":-495},{"name":"next","type":"int","value":286},{"name":"prev","type":"int","value":284}],"polyline":[{"x":0,"y":0},{"x":70,"y":0}]},{"id":1419,"x":-1585,"y":-495,"visible":true,"properties":[{"name":"layer","type":"int","value":1},{"name":"group","type":"int","value":63},{"name":"id","type":"int","value":286},{"name":"fh_layer","type":"int","value":1},{"name":"fh_group","type":"int","value":63},{"name":"fh_id","type":"int","value":286},{"name":"x1","type":"int","value":-1585},{"name":"x2","type":"int","value":-1565},{"name":"y1","type":"int","value":-495},{"name":"y2","type":"int","value":-495},{"name":"next","type":"int","value":287},{"name":"prev","type":"int","value":285}],"polyline":[{"x":0,"y":0},{"x":20,"y":0}]},{"id":1420,"x":-1565,"y":-495,"visible":true,"properties":[{"name":"layer","type":"int","value":1},{"name":"group","type":"int","value":63},{"name":"id","type":"int","value":287},{"name":"fh_layer","type":"int","value":1},{"name":"fh_group","type":"int","value":63},{"name":"fh_id","type":"int","value":287},{"name":"x1","type":"int","value":-1565},{"name":"x2","type":"int","value":-1530},{"name":"y1","type":"int","value":-495},{"name":"y2","type":"int","value":-495},{"name":"next","type":"int","value":288},{"name":"prev","type":"int","value":286}],"polyline":[{"x":0,"y":0},{"x":35,"y":0}]},{"id":1421,"x":-1530,"y":-495,"visible":true,"properties":[{"name":"layer","type":"int","value":1},{"name":"group","type":"int","value":63},{"name":"id","type":"int","value":288},{"name":"fh_layer","type":"int","value":1},{"name":"fh_group","type":"int","value":63},{"name":"fh_id","type":"int","value":288},{"name":"x1","type":"int","value":-1530},{"name":"x2","type":"int","value":-1495},{"name":"y1","type":"int","value":-495},{"name":"y2","type":"int","value":-495},{"name":"next","type":"int","value":289},{"name":"prev","type":"int","value":287}],"polyline":[{"x":0,"y":0},{"x":35,"y":0}]},{"id":1422,"x":-1495,"y":-495,"visible":true,"properties":[{"name":"layer","type":"int","value":1},{"name":"group","type":"int","value":63},{"name":"id","type":"int","value":289},{"name":"fh_layer","type":"int","value":1},{"name":"fh_group","type":"int","value":63},{"name":"fh_id","type":"int","value":289},{"name":"x1","type":"int","value":-1495},{"name":"x2","type":"int","value":-1495},{"name":"y1","type":"int","value":-495},{"name":"y2","type":"int","value":-480},{"name":"next","type":"int","value":0},{"name":"prev","type":"int","value":288}],"polyline":[{"x":0,"y":0},{"x":0,"y":15}]},{"id":1423,"x":-665,"y":-540,"visible":true,"properties":[{"name":"layer","type":"int","value":1},{"name":"group","type":"int","value":65},{"name":"id","type":"int","value":357},{"name":"fh_layer","type":"int","value":1},{"name":"fh_group","type":"int","value":65},{"name":"fh_id","type":"int","value":357},{"name":"x1","type":"int","value":-665},{"name":"x2","type":"int","value":-665},{"name":"y1","type":"int","value":-540},{"name":"y2","type":"int","value":-555},{"name":"next","type":"int","value":358},{"name":"prev","type":"int","value":0}],"polyline":[{"x":0,"y":0},{"x":0,"y":-15}]},{"id":1424,"x":-665,"y":-555,"visible":true,"properties":[{"name":"layer","type":"int","value":1},{"name":"group","type":"int","value":65},{"name":"id","type":"int","value":358},{"name":"fh_layer","type":"int","value":1},{"name":"fh_group","type":"int","value":65},{"name":"fh_id","type":"int","value":358},{"name":"x1","type":"int","value":-665},{"name":"x2","type":"int","value":-595},{"name":"y1","type":"int","value":-555},{"name":"y2","type":"int","value":-555},{"name":"next","type":"int","value":361},{"name":"prev","type":"int","value":357}],"polyline":[{"x":0,"y":0},{"x":70,"y":0}]},{"id":1425,"x":-575,"y":-555,"visible":true,"properties":[{"name":"layer","type":"int","value":1},{"name":"group","type":"int","value":65},{"name":"id","type":"int","value":359},{"name":"fh_layer","type":"int","value":1},{"name":"fh_group","type":"int","value":65},{"name":"fh_id","type":"int","value":359},{"name":"x1","type":"int","value":-575},{"name":"x2","type":"int","value":-505},{"name":"y1","type":"int","value":-555},{"name":"y2","type":"int","value":-555},{"name":"next","type":"int","value":360},{"name":"prev","type":"int","value":361}],"polyline":[{"x":0,"y":0},{"x":70,"y":0}]},{"id":1426,"x":-505,"y":-555,"visible":true,"properties":[{"name":"layer","type":"int","value":1},{"name":"group","type":"int","value":65},{"name":"id","type":"int","value":360},{"name":"fh_layer","type":"int","value":1},{"name":"fh_group","type":"int","value":65},{"name":"fh_id","type":"int","value":360},{"name":"x1","type":"int","value":-505},{"name":"x2","type":"int","value":-505},{"name":"y1","type":"int","value":-555},{"name":"y2","type":"int","value":-540},{"name":"next","type":"int","value":0},{"name":"prev","type":"int","value":359}],"polyline":[{"x":0,"y":0},{"x":0,"y":15}]},{"id":1427,"x":-595,"y":-555,"visible":true,"properties":[{"name":"layer","type":"int","value":1},{"name":"group","type":"int","value":65},{"name":"id","type":"int","value":361},{"name":"fh_layer","type":"int","value":1},{"name":"fh_group","type":"int","value":65},{"name":"fh_id","type":"int","value":361},{"name":"x1","type":"int","value":-595},{"name":"x2","type":"int","value":-575},{"name":"y1","type":"int","value":-555},{"name":"y2","type":"int","value":-555},{"name":"next","type":"int","value":359},{"name":"prev","type":"int","value":358}],"polyline":[{"x":0,"y":0},{"x":20,"y":0}]},{"id":1428,"x":-1655,"y":-555,"visible":true,"properties":[{"name":"layer","type":"int","value":1},{"name":"group","type":"int","value":66},{"name":"id","type":"int","value":317},{"name":"fh_layer","type":"int","value":1},{"name":"fh_group","type":"int","value":66},{"name":"fh_id","type":"int","value":317},{"name":"x1","type":"int","value":-1655},{"name":"x2","type":"int","value":-1585},{"name":"y1","type":"int","value":-555},{"name":"y2","type":"int","value":-555},{"name":"next","type":"int","value":318},{"name":"prev","type":"int","value":321}],"polyline":[{"x":0,"y":0},{"x":70,"y":0}]},{"id":1429,"x":-1585,"y":-555,"visible":true,"properties":[{"name":"layer","type":"int","value":1},{"name":"group","type":"int","value":66},{"name":"id","type":"int","value":318},{"name":"fh_layer","type":"int","value":1},{"name":"fh_group","type":"int","value":66},{"name":"fh_id","type":"int","value":318},{"name":"x1","type":"int","value":-1585},{"name":"x2","type":"int","value":-1585},{"name":"y1","type":"int","value":-555},{"name":"y2","type":"int","value":-540},{"name":"next","type":"int","value":0},{"name":"prev","type":"int","value":317}],"polyline":[{"x":0,"y":0},{"x":0,"y":15}]},{"id":1430,"x":-1745,"y":-540,"visible":true,"properties":[{"name":"layer","type":"int","value":1},{"name":"group","type":"int","value":66},{"name":"id","type":"int","value":319},{"name":"fh_layer","type":"int","value":1},{"name":"fh_group","type":"int","value":66},{"name":"fh_id","type":"int","value":319},{"name":"x1","type":"int","value":-1745},{"name":"x2","type":"int","value":-1745},{"name":"y1","type":"int","value":-540},{"name":"y2","type":"int","value":-555},{"name":"next","type":"int","value":320},{"name":"prev","type":"int","value":0}],"polyline":[{"x":0,"y":0},{"x":0,"y":-15}]},{"id":1431,"x":-1745,"y":-555,"visible":true,"properties":[{"name":"layer","type":"int","value":1},{"name":"group","type":"int","value":66},{"name":"id","type":"int","value":320},{"name":"fh_layer","type":"int","value":1},{"name":"fh_group","type":"int","value":66},{"name":"fh_id","type":"int","value":320},{"name":"x1","type":"int","value":-1745},{"name":"x2","type":"int","value":-1675},{"name":"y1","type":"int","value":-555},{"name":"y2","type":"int","value":-555},{"name":"next","type":"int","value":321},{"name":"prev","type":"int","value":319}],"polyline":[{"x":0,"y":0},{"x":70,"y":0}]},{"id":1432,"x":-1675,"y":-555,"visible":true,"properties":[{"name":"layer","type":"int","value":1},{"name":"group","type":"int","value":66},{"name":"id","type":"int","value":321},{"name":"fh_layer","type":"int","value":1},{"name":"fh_group","type":"int","value":66},{"name":"fh_id","type":"int","value":321},{"name":"x1","type":"int","value":-1675},{"name":"x2","type":"int","value":-1655},{"name":"y1","type":"int","value":-555},{"name":"y2","type":"int","value":-555},{"name":"next","type":"int","value":317},{"name":"prev","type":"int","value":320}],"polyline":[{"x":0,"y":0},{"x":20,"y":0}]},{"id":1433,"x":-485,"y":-615,"visible":true,"properties":[{"name":"layer","type":"int","value":1},{"name":"group","type":"int","value":68},{"name":"id","type":"int","value":330},{"name":"fh_layer","type":"int","value":1},{"name":"fh_group","type":"int","value":68},{"name":"fh_id","type":"int","value":330},{"name":"x1","type":"int","value":-485},{"name":"x2","type":"int","value":-415},{"name":"y1","type":"int","value":-615},{"name":"y2","type":"int","value":-615},{"name":"next","type":"int","value":331},{"name":"prev","type":"int","value":335}],"polyline":[{"x":0,"y":0},{"x":70,"y":0}]},{"id":1434,"x":-415,"y":-615,"visible":true,"properties":[{"name":"layer","type":"int","value":1},{"name":"group","type":"int","value":68},{"name":"id","type":"int","value":331},{"name":"fh_layer","type":"int","value":1},{"name":"fh_group","type":"int","value":68},{"name":"fh_id","type":"int","value":331},{"name":"x1","type":"int","value":-415},{"name":"x2","type":"int","value":-415},{"name":"y1","type":"int","value":-615},{"name":"y2","type":"int","value":-600},{"name":"next","type":"int","value":0},{"name":"prev","type":"int","value":330}],"polyline":[{"x":0,"y":0},{"x":0,"y":15}]},{"id":1435,"x":-540,"y":-615,"visible":true,"properties":[{"name":"layer","type":"int","value":1},{"name":"group","type":"int","value":68},{"name":"id","type":"int","value":332},{"name":"fh_layer","type":"int","value":1},{"name":"fh_group","type":"int","value":68},{"name":"fh_id","type":"int","value":332},{"name":"x1","type":"int","value":-540},{"name":"x2","type":"int","value":-505},{"name":"y1","type":"int","value":-615},{"name":"y2","type":"int","value":-615},{"name":"next","type":"int","value":335},{"name":"prev","type":"int","value":334}],"polyline":[{"x":0,"y":0},{"x":35,"y":0}]},{"id":1436,"x":-575,"y":-600,"visible":true,"properties":[{"name":"layer","type":"int","value":1},{"name":"group","type":"int","value":68},{"name":"id","type":"int","value":333},{"name":"fh_layer","type":"int","value":1},{"name":"fh_group","type":"int","value":68},{"name":"fh_id","type":"int","value":333},{"name":"x1","type":"int","value":-575},{"name":"x2","type":"int","value":-575},{"name":"y1","type":"int","value":-600},{"name":"y2","type":"int","value":-615},{"name":"next","type":"int","value":334},{"name":"prev","type":"int","value":0}],"polyline":[{"x":0,"y":0},{"x":0,"y":-15}]},{"id":1437,"x":-575,"y":-615,"visible":true,"properties":[{"name":"layer","type":"int","value":1},{"name":"group","type":"int","value":68},{"name":"id","type":"int","value":334},{"name":"fh_layer","type":"int","value":1},{"name":"fh_group","type":"int","value":68},{"name":"fh_id","type":"int","value":334},{"name":"x1","type":"int","value":-575},{"name":"x2","type":"int","value":-540},{"name":"y1","type":"int","value":-615},{"name":"y2","type":"int","value":-615},{"name":"next","type":"int","value":332},{"name":"prev","type":"int","value":333}],"polyline":[{"x":0,"y":0},{"x":35,"y":0}]},{"id":1438,"x":-505,"y":-615,"visible":true,"properties":[{"name":"layer","type":"int","value":1},{"name":"group","type":"int","value":68},{"name":"id","type":"int","value":335},{"name":"fh_layer","type":"int","value":1},{"name":"fh_group","type":"int","value":68},{"name":"fh_id","type":"int","value":335},{"name":"x1","type":"int","value":-505},{"name":"x2","type":"int","value":-485},{"name":"y1","type":"int","value":-615},{"name":"y2","type":"int","value":-615},{"name":"next","type":"int","value":330},{"name":"prev","type":"int","value":332}],"polyline":[{"x":0,"y":0},{"x":20,"y":0}]},{"id":1439,"x":-1655,"y":-615,"visible":true,"properties":[{"name":"layer","type":"int","value":1},{"name":"group","type":"int","value":69},{"name":"id","type":"int","value":322},{"name":"fh_layer","type":"int","value":1},{"name":"fh_group","type":"int","value":69},{"name":"fh_id","type":"int","value":322},{"name":"x1","type":"int","value":-1655},{"name":"x2","type":"int","value":-1585},{"name":"y1","type":"int","value":-615},{"name":"y2","type":"int","value":-615},{"name":"next","type":"int","value":323},{"name":"prev","type":"int","value":326}],"polyline":[{"x":0,"y":0},{"x":70,"y":0}]},{"id":1440,"x":-1585,"y":-615,"visible":true,"properties":[{"name":"layer","type":"int","value":1},{"name":"group","type":"int","value":69},{"name":"id","type":"int","value":323},{"name":"fh_layer","type":"int","value":1},{"name":"fh_group","type":"int","value":69},{"name":"fh_id","type":"int","value":323},{"name":"x1","type":"int","value":-1585},{"name":"x2","type":"int","value":-1585},{"name":"y1","type":"int","value":-615},{"name":"y2","type":"int","value":-600},{"name":"next","type":"int","value":0},{"name":"prev","type":"int","value":322}],"polyline":[{"x":0,"y":0},{"x":0,"y":15}]},{"id":1441,"x":-1745,"y":-600,"visible":true,"properties":[{"name":"layer","type":"int","value":1},{"name":"group","type":"int","value":69},{"name":"id","type":"int","value":324},{"name":"fh_layer","type":"int","value":1},{"name":"fh_group","type":"int","value":69},{"name":"fh_id","type":"int","value":324},{"name":"x1","type":"int","value":-1745},{"name":"x2","type":"int","value":-1745},{"name":"y1","type":"int","value":-600},{"name":"y2","type":"int","value":-615},{"name":"next","type":"int","value":325},{"name":"prev","type":"int","value":0}],"polyline":[{"x":0,"y":0},{"x":0,"y":-15}]},{"id":1442,"x":-1745,"y":-615,"visible":true,"properties":[{"name":"layer","type":"int","value":1},{"name":"group","type":"int","value":69},{"name":"id","type":"int","value":325},{"name":"fh_layer","type":"int","value":1},{"name":"fh_group","type":"int","value":69},{"name":"fh_id","type":"int","value":325},{"name":"x1","type":"int","value":-1745},{"name":"x2","type":"int","value":-1675},{"name":"y1","type":"int","value":-615},{"name":"y2","type":"int","value":-615},{"name":"next","type":"int","value":326},{"name":"prev","type":"int","value":324}],"polyline":[{"x":0,"y":0},{"x":70,"y":0}]},{"id":1443,"x":-1675,"y":-615,"visible":true,"properties":[{"name":"layer","type":"int","value":1},{"name":"group","type":"int","value":69},{"name":"id","type":"int","value":326},{"name":"fh_layer","type":"int","value":1},{"name":"fh_group","type":"int","value":69},{"name":"fh_id","type":"int","value":326},{"name":"x1","type":"int","value":-1675},{"name":"x2","type":"int","value":-1655},{"name":"y1","type":"int","value":-615},{"name":"y2","type":"int","value":-615},{"name":"next","type":"int","value":322},{"name":"prev","type":"int","value":325}],"polyline":[{"x":0,"y":0},{"x":20,"y":0}]},{"id":1444,"x":-1565,"y":-675,"visible":true,"properties":[{"name":"layer","type":"int","value":1},{"name":"group","type":"int","value":70},{"name":"id","type":"int","value":402},{"name":"fh_layer","type":"int","value":1},{"name":"fh_group","type":"int","value":70},{"name":"fh_id","type":"int","value":402},{"name":"x1","type":"int","value":-1565},{"name":"x2","type":"int","value":-1495},{"name":"y1","type":"int","value":-675},{"name":"y2","type":"int","value":-675},{"name":"next","type":"int","value":403},{"name":"prev","type":"int","value":406}],"polyline":[{"x":0,"y":0},{"x":70,"y":0}]},{"id":1445,"x":-1495,"y":-675,"visible":true,"properties":[{"name":"layer","type":"int","value":1},{"name":"group","type":"int","value":70},{"name":"id","type":"int","value":403},{"name":"fh_layer","type":"int","value":1},{"name":"fh_group","type":"int","value":70},{"name":"fh_id","type":"int","value":403},{"name":"x1","type":"int","value":-1495},{"name":"x2","type":"int","value":-1495},{"name":"y1","type":"int","value":-675},{"name":"y2","type":"int","value":-660},{"name":"next","type":"int","value":0},{"name":"prev","type":"int","value":402}],"polyline":[{"x":0,"y":0},{"x":0,"y":15}]},{"id":1446,"x":-1655,"y":-660,"visible":true,"properties":[{"name":"layer","type":"int","value":1},{"name":"group","type":"int","value":70},{"name":"id","type":"int","value":404},{"name":"fh_layer","type":"int","value":1},{"name":"fh_group","type":"int","value":70},{"name":"fh_id","type":"int","value":404},{"name":"x1","type":"int","value":-1655},{"name":"x2","type":"int","value":-1655},{"name":"y1","type":"int","value":-660},{"name":"y2","type":"int","value":-675},{"name":"next","type":"int","value":405},{"name":"prev","type":"int","value":0}],"polyline":[{"x":0,"y":0},{"x":0,"y":-15}]},{"id":1447,"x":-1655,"y":-675,"visible":true,"properties":[{"name":"layer","type":"int","value":1},{"name":"group","type":"int","value":70},{"name":"id","type":"int","value":405},{"name":"fh_layer","type":"int","value":1},{"name":"fh_group","type":"int","value":70},{"name":"fh_id","type":"int","value":405},{"name":"x1","type":"int","value":-1655},{"name":"x2","type":"int","value":-1585},{"name":"y1","type":"int","value":-675},{"name":"y2","type":"int","value":-675},{"name":"next","type":"int","value":406},{"name":"prev","type":"int","value":404}],"polyline":[{"x":0,"y":0},{"x":70,"y":0}]},{"id":1448,"x":-1585,"y":-675,"visible":true,"properties":[{"name":"layer","type":"int","value":1},{"name":"group","type":"int","value":70},{"name":"id","type":"int","value":406},{"name":"fh_layer","type":"int","value":1},{"name":"fh_group","type":"int","value":70},{"name":"fh_id","type":"int","value":406},{"name":"x1","type":"int","value":-1585},{"name":"x2","type":"int","value":-1565},{"name":"y1","type":"int","value":-675},{"name":"y2","type":"int","value":-675},{"name":"next","type":"int","value":402},{"name":"prev","type":"int","value":405}],"polyline":[{"x":0,"y":0},{"x":20,"y":0}]},{"id":1449,"x":270,"y":-675,"visible":true,"properties":[{"name":"layer","type":"int","value":1},{"name":"group","type":"int","value":71},{"name":"id","type":"int","value":242},{"name":"fh_layer","type":"int","value":1},{"name":"fh_group","type":"int","value":71},{"name":"fh_id","type":"int","value":242},{"name":"x1","type":"int","value":270},{"name":"x2","type":"int","value":305},{"name":"y1","type":"int","value":-675},{"name":"y2","type":"int","value":-675},{"name":"next","type":"int","value":245},{"name":"prev","type":"int","value":244}],"polyline":[{"x":0,"y":0},{"x":35,"y":0}]},{"id":1450,"x":235,"y":-660,"visible":true,"properties":[{"name":"layer","type":"int","value":1},{"name":"group","type":"int","value":71},{"name":"id","type":"int","value":243},{"name":"fh_layer","type":"int","value":1},{"name":"fh_group","type":"int","value":71},{"name":"fh_id","type":"int","value":243},{"name":"x1","type":"int","value":235},{"name":"x2","type":"int","value":235},{"name":"y1","type":"int","value":-660},{"name":"y2","type":"int","value":-675},{"name":"next","type":"int","value":244},{"name":"prev","type":"int","value":0}],"polyline":[{"x":0,"y":0},{"x":0,"y":-15}]},{"id":1451,"x":235,"y":-675,"visible":true,"properties":[{"name":"layer","type":"int","value":1},{"name":"group","type":"int","value":71},{"name":"id","type":"int","value":244},{"name":"fh_layer","type":"int","value":1},{"name":"fh_group","type":"int","value":71},{"name":"fh_id","type":"int","value":244},{"name":"x1","type":"int","value":235},{"name":"x2","type":"int","value":270},{"name":"y1","type":"int","value":-675},{"name":"y2","type":"int","value":-675},{"name":"next","type":"int","value":242},{"name":"prev","type":"int","value":243}],"polyline":[{"x":0,"y":0},{"x":35,"y":0}]},{"id":1452,"x":305,"y":-675,"visible":true,"properties":[{"name":"layer","type":"int","value":1},{"name":"group","type":"int","value":71},{"name":"id","type":"int","value":245},{"name":"fh_layer","type":"int","value":1},{"name":"fh_group","type":"int","value":71},{"name":"fh_id","type":"int","value":245},{"name":"x1","type":"int","value":305},{"name":"x2","type":"int","value":325},{"name":"y1","type":"int","value":-675},{"name":"y2","type":"int","value":-675},{"name":"next","type":"int","value":246},{"name":"prev","type":"int","value":242}],"polyline":[{"x":0,"y":0},{"x":20,"y":0}]},{"id":1453,"x":325,"y":-675,"visible":true,"properties":[{"name":"layer","type":"int","value":1},{"name":"group","type":"int","value":71},{"name":"id","type":"int","value":246},{"name":"fh_layer","type":"int","value":1},{"name":"fh_group","type":"int","value":71},{"name":"fh_id","type":"int","value":246},{"name":"x1","type":"int","value":325},{"name":"x2","type":"int","value":360},{"name":"y1","type":"int","value":-675},{"name":"y2","type":"int","value":-675},{"name":"next","type":"int","value":247},{"name":"prev","type":"int","value":245}],"polyline":[{"x":0,"y":0},{"x":35,"y":0}]},{"id":1454,"x":360,"y":-675,"visible":true,"properties":[{"name":"layer","type":"int","value":1},{"name":"group","type":"int","value":71},{"name":"id","type":"int","value":247},{"name":"fh_layer","type":"int","value":1},{"name":"fh_group","type":"int","value":71},{"name":"fh_id","type":"int","value":247},{"name":"x1","type":"int","value":360},{"name":"x2","type":"int","value":395},{"name":"y1","type":"int","value":-675},{"name":"y2","type":"int","value":-675},{"name":"next","type":"int","value":248},{"name":"prev","type":"int","value":246}],"polyline":[{"x":0,"y":0},{"x":35,"y":0}]},{"id":1455,"x":395,"y":-675,"visible":true,"properties":[{"name":"layer","type":"int","value":1},{"name":"group","type":"int","value":71},{"name":"id","type":"int","value":248},{"name":"fh_layer","type":"int","value":1},{"name":"fh_group","type":"int","value":71},{"name":"fh_id","type":"int","value":248},{"name":"x1","type":"int","value":395},{"name":"x2","type":"int","value":395},{"name":"y1","type":"int","value":-675},{"name":"y2","type":"int","value":-660},{"name":"next","type":"int","value":0},{"name":"prev","type":"int","value":247}],"polyline":[{"x":0,"y":0},{"x":0,"y":15}]},{"id":1456,"x":-485,"y":-660,"visible":true,"properties":[{"name":"layer","type":"int","value":1},{"name":"group","type":"int","value":72},{"name":"id","type":"int","value":369},{"name":"fh_layer","type":"int","value":1},{"name":"fh_group","type":"int","value":72},{"name":"fh_id","type":"int","value":369},{"name":"x1","type":"int","value":-485},{"name":"x2","type":"int","value":-485},{"name":"y1","type":"int","value":-660},{"name":"y2","type":"int","value":-675},{"name":"next","type":"int","value":370},{"name":"prev","type":"int","value":0}],"polyline":[{"x":0,"y":0},{"x":0,"y":-15}]},{"id":1457,"x":-485,"y":-675,"visible":true,"properties":[{"name":"layer","type":"int","value":1},{"name":"group","type":"int","value":72},{"name":"id","type":"int","value":370},{"name":"fh_layer","type":"int","value":1},{"name":"fh_group","type":"int","value":72},{"name":"fh_id","type":"int","value":370},{"name":"x1","type":"int","value":-485},{"name":"x2","type":"int","value":-415},{"name":"y1","type":"int","value":-675},{"name":"y2","type":"int","value":-675},{"name":"next","type":"int","value":371},{"name":"prev","type":"int","value":369}],"polyline":[{"x":0,"y":0},{"x":70,"y":0}]},{"id":1458,"x":-415,"y":-675,"visible":true,"properties":[{"name":"layer","type":"int","value":1},{"name":"group","type":"int","value":72},{"name":"id","type":"int","value":371},{"name":"fh_layer","type":"int","value":1},{"name":"fh_group","type":"int","value":72},{"name":"fh_id","type":"int","value":371},{"name":"x1","type":"int","value":-415},{"name":"x2","type":"int","value":-395},{"name":"y1","type":"int","value":-675},{"name":"y2","type":"int","value":-675},{"name":"next","type":"int","value":372},{"name":"prev","type":"int","value":370}],"polyline":[{"x":0,"y":0},{"x":20,"y":0}]},{"id":1459,"x":-395,"y":-675,"visible":true,"properties":[{"name":"layer","type":"int","value":1},{"name":"group","type":"int","value":72},{"name":"id","type":"int","value":372},{"name":"fh_layer","type":"int","value":1},{"name":"fh_group","type":"int","value":72},{"name":"fh_id","type":"int","value":372},{"name":"x1","type":"int","value":-395},{"name":"x2","type":"int","value":-360},{"name":"y1","type":"int","value":-675},{"name":"y2","type":"int","value":-675},{"name":"next","type":"int","value":373},{"name":"prev","type":"int","value":371}],"polyline":[{"x":0,"y":0},{"x":35,"y":0}]},{"id":1460,"x":-360,"y":-675,"visible":true,"properties":[{"name":"layer","type":"int","value":1},{"name":"group","type":"int","value":72},{"name":"id","type":"int","value":373},{"name":"fh_layer","type":"int","value":1},{"name":"fh_group","type":"int","value":72},{"name":"fh_id","type":"int","value":373},{"name":"x1","type":"int","value":-360},{"name":"x2","type":"int","value":-325},{"name":"y1","type":"int","value":-675},{"name":"y2","type":"int","value":-675},{"name":"next","type":"int","value":374},{"name":"prev","type":"int","value":372}],"polyline":[{"x":0,"y":0},{"x":35,"y":0}]},{"id":1461,"x":-325,"y":-675,"visible":true,"properties":[{"name":"layer","type":"int","value":1},{"name":"group","type":"int","value":72},{"name":"id","type":"int","value":374},{"name":"fh_layer","type":"int","value":1},{"name":"fh_group","type":"int","value":72},{"name":"fh_id","type":"int","value":374},{"name":"x1","type":"int","value":-325},{"name":"x2","type":"int","value":-325},{"name":"y1","type":"int","value":-675},{"name":"y2","type":"int","value":-660},{"name":"next","type":"int","value":0},{"name":"prev","type":"int","value":373}],"polyline":[{"x":0,"y":0},{"x":0,"y":15}]},{"id":1462,"x":-485,"y":-720,"visible":true,"properties":[{"name":"layer","type":"int","value":1},{"name":"group","type":"int","value":75},{"name":"id","type":"int","value":407},{"name":"fh_layer","type":"int","value":1},{"name":"fh_group","type":"int","value":75},{"name":"fh_id","type":"int","value":407},{"name":"x1","type":"int","value":-485},{"name":"x2","type":"int","value":-485},{"name":"y1","type":"int","value":-720},{"name":"y2","type":"int","value":-735},{"name":"next","type":"int","value":408},{"name":"prev","type":"int","value":0}],"polyline":[{"x":0,"y":0},{"x":0,"y":-15}]},{"id":1463,"x":-485,"y":-735,"visible":true,"properties":[{"name":"layer","type":"int","value":1},{"name":"group","type":"int","value":75},{"name":"id","type":"int","value":408},{"name":"fh_layer","type":"int","value":1},{"name":"fh_group","type":"int","value":75},{"name":"fh_id","type":"int","value":408},{"name":"x1","type":"int","value":-485},{"name":"x2","type":"int","value":-415},{"name":"y1","type":"int","value":-735},{"name":"y2","type":"int","value":-735},{"name":"next","type":"int","value":411},{"name":"prev","type":"int","value":407}],"polyline":[{"x":0,"y":0},{"x":70,"y":0}]},{"id":1464,"x":-395,"y":-735,"visible":true,"properties":[{"name":"layer","type":"int","value":1},{"name":"group","type":"int","value":75},{"name":"id","type":"int","value":409},{"name":"fh_layer","type":"int","value":1},{"name":"fh_group","type":"int","value":75},{"name":"fh_id","type":"int","value":409},{"name":"x1","type":"int","value":-395},{"name":"x2","type":"int","value":-325},{"name":"y1","type":"int","value":-735},{"name":"y2","type":"int","value":-735},{"name":"next","type":"int","value":410},{"name":"prev","type":"int","value":411}],"polyline":[{"x":0,"y":0},{"x":70,"y":0}]},{"id":1465,"x":-325,"y":-735,"visible":true,"properties":[{"name":"layer","type":"int","value":1},{"name":"group","type":"int","value":75},{"name":"id","type":"int","value":410},{"name":"fh_layer","type":"int","value":1},{"name":"fh_group","type":"int","value":75},{"name":"fh_id","type":"int","value":410},{"name":"x1","type":"int","value":-325},{"name":"x2","type":"int","value":-325},{"name":"y1","type":"int","value":-735},{"name":"y2","type":"int","value":-720},{"name":"next","type":"int","value":0},{"name":"prev","type":"int","value":409}],"polyline":[{"x":0,"y":0},{"x":0,"y":15}]},{"id":1466,"x":-415,"y":-735,"visible":true,"properties":[{"name":"layer","type":"int","value":1},{"name":"group","type":"int","value":75},{"name":"id","type":"int","value":411},{"name":"fh_layer","type":"int","value":1},{"name":"fh_group","type":"int","value":75},{"name":"fh_id","type":"int","value":411},{"name":"x1","type":"int","value":-415},{"name":"x2","type":"int","value":-395},{"name":"y1","type":"int","value":-735},{"name":"y2","type":"int","value":-735},{"name":"next","type":"int","value":409},{"name":"prev","type":"int","value":408}],"polyline":[{"x":0,"y":0},{"x":20,"y":0}]},{"id":1467,"x":-1620,"y":-855,"visible":true,"properties":[{"name":"layer","type":"int","value":1},{"name":"group","type":"int","value":79},{"name":"id","type":"int","value":160},{"name":"fh_layer","type":"int","value":1},{"name":"fh_group","type":"int","value":79},{"name":"fh_id","type":"int","value":160},{"name":"x1","type":"int","value":-1620},{"name":"x2","type":"int","value":-1585},{"name":"y1","type":"int","value":-855},{"name":"y2","type":"int","value":-855},{"name":"next","type":"int","value":163},{"name":"prev","type":"int","value":162}],"polyline":[{"x":0,"y":0},{"x":35,"y":0}]},{"id":1468,"x":-1655,"y":-840,"visible":true,"properties":[{"name":"layer","type":"int","value":1},{"name":"group","type":"int","value":79},{"name":"id","type":"int","value":161},{"name":"fh_layer","type":"int","value":1},{"name":"fh_group","type":"int","value":79},{"name":"fh_id","type":"int","value":161},{"name":"x1","type":"int","value":-1655},{"name":"x2","type":"int","value":-1655},{"name":"y1","type":"int","value":-840},{"name":"y2","type":"int","value":-855},{"name":"next","type":"int","value":162},{"name":"prev","type":"int","value":173}],"polyline":[{"x":0,"y":0},{"x":0,"y":-15}]},{"id":1469,"x":-1655,"y":-855,"visible":true,"properties":[{"name":"layer","type":"int","value":1},{"name":"group","type":"int","value":79},{"name":"id","type":"int","value":162},{"name":"fh_layer","type":"int","value":1},{"name":"fh_group","type":"int","value":79},{"name":"fh_id","type":"int","value":162},{"name":"x1","type":"int","value":-1655},{"name":"x2","type":"int","value":-1620},{"name":"y1","type":"int","value":-855},{"name":"y2","type":"int","value":-855},{"name":"next","type":"int","value":160},{"name":"prev","type":"int","value":161}],"polyline":[{"x":0,"y":0},{"x":35,"y":0}]},{"id":1470,"x":-1585,"y":-855,"visible":true,"properties":[{"name":"layer","type":"int","value":1},{"name":"group","type":"int","value":79},{"name":"id","type":"int","value":163},{"name":"fh_layer","type":"int","value":1},{"name":"fh_group","type":"int","value":79},{"name":"fh_id","type":"int","value":163},{"name":"x1","type":"int","value":-1585},{"name":"x2","type":"int","value":-1530},{"name":"y1","type":"int","value":-855},{"name":"y2","type":"int","value":-855},{"name":"next","type":"int","value":175},{"name":"prev","type":"int","value":160}],"polyline":[{"x":0,"y":0},{"x":55,"y":0}]},{"id":1471,"x":-990,"y":-855,"visible":true,"properties":[{"name":"layer","type":"int","value":1},{"name":"group","type":"int","value":79},{"name":"id","type":"int","value":164},{"name":"fh_layer","type":"int","value":1},{"name":"fh_group","type":"int","value":79},{"name":"fh_id","type":"int","value":164},{"name":"x1","type":"int","value":-990},{"name":"x2","type":"int","value":-900},{"name":"y1","type":"int","value":-855},{"name":"y2","type":"int","value":-855},{"name":"next","type":"int","value":169},{"name":"prev","type":"int","value":165}],"polyline":[{"x":0,"y":0},{"x":90,"y":0}]},{"id":1472,"x":-1080,"y":-855,"visible":true,"properties":[{"name":"layer","type":"int","value":1},{"name":"group","type":"int","value":79},{"name":"id","type":"int","value":165},{"name":"fh_layer","type":"int","value":1},{"name":"fh_group","type":"int","value":79},{"name":"fh_id","type":"int","value":165},{"name":"x1","type":"int","value":-1080},{"name":"x2","type":"int","value":-990},{"name":"y1","type":"int","value":-855},{"name":"y2","type":"int","value":-855},{"name":"next","type":"int","value":164},{"name":"prev","type":"int","value":168}],"polyline":[{"x":0,"y":0},{"x":90,"y":0}]},{"id":1473,"x":-1260,"y":-855,"visible":true,"properties":[{"name":"layer","type":"int","value":1},{"name":"group","type":"int","value":79},{"name":"id","type":"int","value":166},{"name":"fh_layer","type":"int","value":1},{"name":"fh_group","type":"int","value":79},{"name":"fh_id","type":"int","value":166},{"name":"x1","type":"int","value":-1260},{"name":"x2","type":"int","value":-1170},{"name":"y1","type":"int","value":-855},{"name":"y2","type":"int","value":-855},{"name":"next","type":"int","value":168},{"name":"prev","type":"int","value":167}],"polyline":[{"x":0,"y":0},{"x":90,"y":0}]},{"id":1474,"x":-1350,"y":-855,"visible":true,"properties":[{"name":"layer","type":"int","value":1},{"name":"group","type":"int","value":79},{"name":"id","type":"int","value":167},{"name":"fh_layer","type":"int","value":1},{"name":"fh_group","type":"int","value":79},{"name":"fh_id","type":"int","value":167},{"name":"x1","type":"int","value":-1350},{"name":"x2","type":"int","value":-1260},{"name":"y1","type":"int","value":-855},{"name":"y2","type":"int","value":-855},{"name":"next","type":"int","value":166},{"name":"prev","type":"int","value":174}],"polyline":[{"x":0,"y":0},{"x":90,"y":0}]},{"id":1475,"x":-1170,"y":-855,"visible":true,"properties":[{"name":"layer","type":"int","value":1},{"name":"group","type":"int","value":79},{"name":"id","type":"int","value":168},{"name":"fh_layer","type":"int","value":1},{"name":"fh_group","type":"int","value":79},{"name":"fh_id","type":"int","value":168},{"name":"x1","type":"int","value":-1170},{"name":"x2","type":"int","value":-1080},{"name":"y1","type":"int","value":-855},{"name":"y2","type":"int","value":-855},{"name":"next","type":"int","value":165},{"name":"prev","type":"int","value":166}],"polyline":[{"x":0,"y":0},{"x":90,"y":0}]},{"id":1476,"x":-900,"y":-855,"visible":true,"properties":[{"name":"layer","type":"int","value":1},{"name":"group","type":"int","value":79},{"name":"id","type":"int","value":169},{"name":"fh_layer","type":"int","value":1},{"name":"fh_group","type":"int","value":79},{"name":"fh_id","type":"int","value":169},{"name":"x1","type":"int","value":-900},{"name":"x2","type":"int","value":-810},{"name":"y1","type":"int","value":-855},{"name":"y2","type":"int","value":-855},{"name":"next","type":"int","value":172},{"name":"prev","type":"int","value":164}],"polyline":[{"x":0,"y":0},{"x":90,"y":0}]},{"id":1477,"x":-755,"y":-855,"visible":true,"properties":[{"name":"layer","type":"int","value":1},{"name":"group","type":"int","value":79},{"name":"id","type":"int","value":170},{"name":"fh_layer","type":"int","value":1},{"name":"fh_group","type":"int","value":79},{"name":"fh_id","type":"int","value":170},{"name":"x1","type":"int","value":-755},{"name":"x2","type":"int","value":-685},{"name":"y1","type":"int","value":-855},{"name":"y2","type":"int","value":-855},{"name":"next","type":"int","value":171},{"name":"prev","type":"int","value":172}],"polyline":[{"x":0,"y":0},{"x":70,"y":0}]},{"id":1478,"x":-685,"y":-855,"visible":true,"properties":[{"name":"layer","type":"int","value":1},{"name":"group","type":"int","value":79},{"name":"id","type":"int","value":171},{"name":"fh_layer","type":"int","value":1},{"name":"fh_group","type":"int","value":79},{"name":"fh_id","type":"int","value":171},{"name":"x1","type":"int","value":-685},{"name":"x2","type":"int","value":-685},{"name":"y1","type":"int","value":-855},{"name":"y2","type":"int","value":-840},{"name":"next","type":"int","value":0},{"name":"prev","type":"int","value":170}],"polyline":[{"x":0,"y":0},{"x":0,"y":15}]},{"id":1479,"x":-810,"y":-855,"visible":true,"properties":[{"name":"layer","type":"int","value":1},{"name":"group","type":"int","value":79},{"name":"id","type":"int","value":172},{"name":"fh_layer","type":"int","value":1},{"name":"fh_group","type":"int","value":79},{"name":"fh_id","type":"int","value":172},{"name":"x1","type":"int","value":-810},{"name":"x2","type":"int","value":-755},{"name":"y1","type":"int","value":-855},{"name":"y2","type":"int","value":-855},{"name":"next","type":"int","value":170},{"name":"prev","type":"int","value":169}],"polyline":[{"x":0,"y":0},{"x":55,"y":0}]},{"id":1480,"x":-1655,"y":-780,"visible":true,"properties":[{"name":"layer","type":"int","value":1},{"name":"group","type":"int","value":79},{"name":"id","type":"int","value":173},{"name":"fh_layer","type":"int","value":1},{"name":"fh_group","type":"int","value":79},{"name":"fh_id","type":"int","value":173},{"name":"x1","type":"int","value":-1655},{"name":"x2","type":"int","value":-1655},{"name":"y1","type":"int","value":-780},{"name":"y2","type":"int","value":-840},{"name":"next","type":"int","value":161},{"name":"prev","type":"int","value":0}],"polyline":[{"x":0,"y":0},{"x":0,"y":-60}]},{"id":1481,"x":-1440,"y":-855,"visible":true,"properties":[{"name":"layer","type":"int","value":1},{"name":"group","type":"int","value":79},{"name":"id","type":"int","value":174},{"name":"fh_layer","type":"int","value":1},{"name":"fh_group","type":"int","value":79},{"name":"fh_id","type":"int","value":174},{"name":"x1","type":"int","value":-1440},{"name":"x2","type":"int","value":-1350},{"name":"y1","type":"int","value":-855},{"name":"y2","type":"int","value":-855},{"name":"next","type":"int","value":167},{"name":"prev","type":"int","value":175}],"polyline":[{"x":0,"y":0},{"x":90,"y":0}]},{"id":1482,"x":-1530,"y":-855,"visible":true,"properties":[{"name":"layer","type":"int","value":1},{"name":"group","type":"int","value":79},{"name":"id","type":"int","value":175},{"name":"fh_layer","type":"int","value":1},{"name":"fh_group","type":"int","value":79},{"name":"fh_id","type":"int","value":175},{"name":"x1","type":"int","value":-1530},{"name":"x2","type":"int","value":-1440},{"name":"y1","type":"int","value":-855},{"name":"y2","type":"int","value":-855},{"name":"next","type":"int","value":174},{"name":"prev","type":"int","value":163}],"polyline":[{"x":0,"y":0},{"x":90,"y":0}]},{"id":1483,"x":-485,"y":-780,"visible":true,"properties":[{"name":"layer","type":"int","value":1},{"name":"group","type":"int","value":80},{"name":"id","type":"int","value":412},{"name":"fh_layer","type":"int","value":1},{"name":"fh_group","type":"int","value":80},{"name":"fh_id","type":"int","value":412},{"name":"x1","type":"int","value":-485},{"name":"x2","type":"int","value":-485},{"name":"y1","type":"int","value":-780},{"name":"y2","type":"int","value":-795},{"name":"next","type":"int","value":413},{"name":"prev","type":"int","value":0}],"polyline":[{"x":0,"y":0},{"x":0,"y":-15}]},{"id":1484,"x":-485,"y":-795,"visible":true,"properties":[{"name":"layer","type":"int","value":1},{"name":"group","type":"int","value":80},{"name":"id","type":"int","value":413},{"name":"fh_layer","type":"int","value":1},{"name":"fh_group","type":"int","value":80},{"name":"fh_id","type":"int","value":413},{"name":"x1","type":"int","value":-485},{"name":"x2","type":"int","value":-415},{"name":"y1","type":"int","value":-795},{"name":"y2","type":"int","value":-795},{"name":"next","type":"int","value":416},{"name":"prev","type":"int","value":412}],"polyline":[{"x":0,"y":0},{"x":70,"y":0}]},{"id":1485,"x":-395,"y":-795,"visible":true,"properties":[{"name":"layer","type":"int","value":1},{"name":"group","type":"int","value":80},{"name":"id","type":"int","value":414},{"name":"fh_layer","type":"int","value":1},{"name":"fh_group","type":"int","value":80},{"name":"fh_id","type":"int","value":414},{"name":"x1","type":"int","value":-395},{"name":"x2","type":"int","value":-325},{"name":"y1","type":"int","value":-795},{"name":"y2","type":"int","value":-795},{"name":"next","type":"int","value":415},{"name":"prev","type":"int","value":416}],"polyline":[{"x":0,"y":0},{"x":70,"y":0}]},{"id":1486,"x":-325,"y":-795,"visible":true,"properties":[{"name":"layer","type":"int","value":1},{"name":"group","type":"int","value":80},{"name":"id","type":"int","value":415},{"name":"fh_layer","type":"int","value":1},{"name":"fh_group","type":"int","value":80},{"name":"fh_id","type":"int","value":415},{"name":"x1","type":"int","value":-325},{"name":"x2","type":"int","value":-325},{"name":"y1","type":"int","value":-795},{"name":"y2","type":"int","value":-780},{"name":"next","type":"int","value":0},{"name":"prev","type":"int","value":414}],"polyline":[{"x":0,"y":0},{"x":0,"y":15}]},{"id":1487,"x":-415,"y":-795,"visible":true,"properties":[{"name":"layer","type":"int","value":1},{"name":"group","type":"int","value":80},{"name":"id","type":"int","value":416},{"name":"fh_layer","type":"int","value":1},{"name":"fh_group","type":"int","value":80},{"name":"fh_id","type":"int","value":416},{"name":"x1","type":"int","value":-415},{"name":"x2","type":"int","value":-395},{"name":"y1","type":"int","value":-795},{"name":"y2","type":"int","value":-795},{"name":"next","type":"int","value":414},{"name":"prev","type":"int","value":413}],"polyline":[{"x":0,"y":0},{"x":20,"y":0}]},{"id":1488,"x":-485,"y":-840,"visible":true,"properties":[{"name":"layer","type":"int","value":1},{"name":"group","type":"int","value":85},{"name":"id","type":"int","value":417},{"name":"fh_layer","type":"int","value":1},{"name":"fh_group","type":"int","value":85},{"name":"fh_id","type":"int","value":417},{"name":"x1","type":"int","value":-485},{"name":"x2","type":"int","value":-485},{"name":"y1","type":"int","value":-840},{"name":"y2","type":"int","value":-855},{"name":"next","type":"int","value":418},{"name":"prev","type":"int","value":0}],"polyline":[{"x":0,"y":0},{"x":0,"y":-15}]},{"id":1489,"x":-485,"y":-855,"visible":true,"properties":[{"name":"layer","type":"int","value":1},{"name":"group","type":"int","value":85},{"name":"id","type":"int","value":418},{"name":"fh_layer","type":"int","value":1},{"name":"fh_group","type":"int","value":85},{"name":"fh_id","type":"int","value":418},{"name":"x1","type":"int","value":-485},{"name":"x2","type":"int","value":-415},{"name":"y1","type":"int","value":-855},{"name":"y2","type":"int","value":-855},{"name":"next","type":"int","value":421},{"name":"prev","type":"int","value":417}],"polyline":[{"x":0,"y":0},{"x":70,"y":0}]},{"id":1490,"x":-395,"y":-855,"visible":true,"properties":[{"name":"layer","type":"int","value":1},{"name":"group","type":"int","value":85},{"name":"id","type":"int","value":419},{"name":"fh_layer","type":"int","value":1},{"name":"fh_group","type":"int","value":85},{"name":"fh_id","type":"int","value":419},{"name":"x1","type":"int","value":-395},{"name":"x2","type":"int","value":-325},{"name":"y1","type":"int","value":-855},{"name":"y2","type":"int","value":-855},{"name":"next","type":"int","value":420},{"name":"prev","type":"int","value":421}],"polyline":[{"x":0,"y":0},{"x":70,"y":0}]},{"id":1491,"x":-325,"y":-855,"visible":true,"properties":[{"name":"layer","type":"int","value":1},{"name":"group","type":"int","value":85},{"name":"id","type":"int","value":420},{"name":"fh_layer","type":"int","value":1},{"name":"fh_group","type":"int","value":85},{"name":"fh_id","type":"int","value":420},{"name":"x1","type":"int","value":-325},{"name":"x2","type":"int","value":-325},{"name":"y1","type":"int","value":-855},{"name":"y2","type":"int","value":-840},{"name":"next","type":"int","value":0},{"name":"prev","type":"int","value":419}],"polyline":[{"x":0,"y":0},{"x":0,"y":15}]},{"id":1492,"x":-415,"y":-855,"visible":true,"properties":[{"name":"layer","type":"int","value":1},{"name":"group","type":"int","value":85},{"name":"id","type":"int","value":421},{"name":"fh_layer","type":"int","value":1},{"name":"fh_group","type":"int","value":85},{"name":"fh_id","type":"int","value":421},{"name":"x1","type":"int","value":-415},{"name":"x2","type":"int","value":-395},{"name":"y1","type":"int","value":-855},{"name":"y2","type":"int","value":-855},{"name":"next","type":"int","value":419},{"name":"prev","type":"int","value":418}],"polyline":[{"x":0,"y":0},{"x":20,"y":0}]},{"id":1493,"x":-215,"y":-960,"visible":true,"properties":[{"name":"layer","type":"int","value":1},{"name":"group","type":"int","value":92},{"name":"id","type":"int","value":234},{"name":"fh_layer","type":"int","value":1},{"name":"fh_group","type":"int","value":92},{"name":"fh_id","type":"int","value":234},{"name":"x1","type":"int","value":-215},{"name":"x2","type":"int","value":-215},{"name":"y1","type":"int","value":-960},{"name":"y2","type":"int","value":-975},{"name":"next","type":"int","value":235},{"name":"prev","type":"int","value":0}],"polyline":[{"x":0,"y":0},{"x":0,"y":-15}]},{"id":1494,"x":-215,"y":-975,"visible":true,"properties":[{"name":"layer","type":"int","value":1},{"name":"group","type":"int","value":92},{"name":"id","type":"int","value":235},{"name":"fh_layer","type":"int","value":1},{"name":"fh_group","type":"int","value":92},{"name":"fh_id","type":"int","value":235},{"name":"x1","type":"int","value":-215},{"name":"x2","type":"int","value":-145},{"name":"y1","type":"int","value":-975},{"name":"y2","type":"int","value":-975},{"name":"next","type":"int","value":237},{"name":"prev","type":"int","value":234}],"polyline":[{"x":0,"y":0},{"x":70,"y":0}]},{"id":1495,"x":-90,"y":-975,"visible":true,"properties":[{"name":"layer","type":"int","value":1},{"name":"group","type":"int","value":92},{"name":"id","type":"int","value":236},{"name":"fh_layer","type":"int","value":1},{"name":"fh_group","type":"int","value":92},{"name":"fh_id","type":"int","value":236},{"name":"x1","type":"int","value":-90},{"name":"x2","type":"int","value":0},{"name":"y1","type":"int","value":-975},{"name":"y2","type":"int","value":-975},{"name":"next","type":"int","value":240},{"name":"prev","type":"int","value":237}],"polyline":[{"x":0,"y":0},{"x":90,"y":0}]},{"id":1496,"x":-145,"y":-975,"visible":true,"properties":[{"name":"layer","type":"int","value":1},{"name":"group","type":"int","value":92},{"name":"id","type":"int","value":237},{"name":"fh_layer","type":"int","value":1},{"name":"fh_group","type":"int","value":92},{"name":"fh_id","type":"int","value":237},{"name":"x1","type":"int","value":-145},{"name":"x2","type":"int","value":-90},{"name":"y1","type":"int","value":-975},{"name":"y2","type":"int","value":-975},{"name":"next","type":"int","value":236},{"name":"prev","type":"int","value":235}],"polyline":[{"x":0,"y":0},{"x":55,"y":0}]},{"id":1497,"x":145,"y":-975,"visible":true,"properties":[{"name":"layer","type":"int","value":1},{"name":"group","type":"int","value":92},{"name":"id","type":"int","value":238},{"name":"fh_layer","type":"int","value":1},{"name":"fh_group","type":"int","value":92},{"name":"fh_id","type":"int","value":238},{"name":"x1","type":"int","value":145},{"name":"x2","type":"int","value":215},{"name":"y1","type":"int","value":-975},{"name":"y2","type":"int","value":-975},{"name":"next","type":"int","value":239},{"name":"prev","type":"int","value":241}],"polyline":[{"x":0,"y":0},{"x":70,"y":0}]},{"id":1498,"x":215,"y":-975,"visible":true,"properties":[{"name":"layer","type":"int","value":1},{"name":"group","type":"int","value":92},{"name":"id","type":"int","value":239},{"name":"fh_layer","type":"int","value":1},{"name":"fh_group","type":"int","value":92},{"name":"fh_id","type":"int","value":239},{"name":"x1","type":"int","value":215},{"name":"x2","type":"int","value":215},{"name":"y1","type":"int","value":-975},{"name":"y2","type":"int","value":-960},{"name":"next","type":"int","value":0},{"name":"prev","type":"int","value":238}],"polyline":[{"x":0,"y":0},{"x":0,"y":15}]},{"id":1499,"x":0,"y":-975,"visible":true,"properties":[{"name":"layer","type":"int","value":1},{"name":"group","type":"int","value":92},{"name":"id","type":"int","value":240},{"name":"fh_layer","type":"int","value":1},{"name":"fh_group","type":"int","value":92},{"name":"fh_id","type":"int","value":240},{"name":"x1","type":"int","value":0},{"name":"x2","type":"int","value":90},{"name":"y1","type":"int","value":-975},{"name":"y2","type":"int","value":-975},{"name":"next","type":"int","value":241},{"name":"prev","type":"int","value":236}],"polyline":[{"x":0,"y":0},{"x":90,"y":0}]},{"id":1500,"x":90,"y":-975,"visible":true,"properties":[{"name":"layer","type":"int","value":1},{"name":"group","type":"int","value":92},{"name":"id","type":"int","value":241},{"name":"fh_layer","type":"int","value":1},{"name":"fh_group","type":"int","value":92},{"name":"fh_id","type":"int","value":241},{"name":"x1","type":"int","value":90},{"name":"x2","type":"int","value":145},{"name":"y1","type":"int","value":-975},{"name":"y2","type":"int","value":-975},{"name":"next","type":"int","value":238},{"name":"prev","type":"int","value":240}],"polyline":[{"x":0,"y":0},{"x":55,"y":0}]},{"id":1501,"x":-720,"y":-915,"visible":true,"properties":[{"name":"layer","type":"int","value":1},{"name":"group","type":"int","value":93},{"name":"id","type":"int","value":422},{"name":"fh_layer","type":"int","value":1},{"name":"fh_group","type":"int","value":93},{"name":"fh_id","type":"int","value":422},{"name":"x1","type":"int","value":-720},{"name":"x2","type":"int","value":-685},{"name":"y1","type":"int","value":-915},{"name":"y2","type":"int","value":-915},{"name":"next","type":"int","value":428},{"name":"prev","type":"int","value":427}],"polyline":[{"x":0,"y":0},{"x":35,"y":0}]},{"id":1502,"x":-575,"y":-915,"visible":true,"properties":[{"name":"layer","type":"int","value":1},{"name":"group","type":"int","value":93},{"name":"id","type":"int","value":423},{"name":"fh_layer","type":"int","value":1},{"name":"fh_group","type":"int","value":93},{"name":"fh_id","type":"int","value":423},{"name":"x1","type":"int","value":-575},{"name":"x2","type":"int","value":-505},{"name":"y1","type":"int","value":-915},{"name":"y2","type":"int","value":-915},{"name":"next","type":"int","value":424},{"name":"prev","type":"int","value":425}],"polyline":[{"x":0,"y":0},{"x":70,"y":0}]},{"id":1503,"x":-505,"y":-915,"visible":true,"properties":[{"name":"layer","type":"int","value":1},{"name":"group","type":"int","value":93},{"name":"id","type":"int","value":424},{"name":"fh_layer","type":"int","value":1},{"name":"fh_group","type":"int","value":93},{"name":"fh_id","type":"int","value":424},{"name":"x1","type":"int","value":-505},{"name":"x2","type":"int","value":-505},{"name":"y1","type":"int","value":-915},{"name":"y2","type":"int","value":-900},{"name":"next","type":"int","value":0},{"name":"prev","type":"int","value":423}],"polyline":[{"x":0,"y":0},{"x":0,"y":15}]},{"id":1504,"x":-630,"y":-915,"visible":true,"properties":[{"name":"layer","type":"int","value":1},{"name":"group","type":"int","value":93},{"name":"id","type":"int","value":425},{"name":"fh_layer","type":"int","value":1},{"name":"fh_group","type":"int","value":93},{"name":"fh_id","type":"int","value":425},{"name":"x1","type":"int","value":-630},{"name":"x2","type":"int","value":-575},{"name":"y1","type":"int","value":-915},{"name":"y2","type":"int","value":-915},{"name":"next","type":"int","value":423},{"name":"prev","type":"int","value":428}],"polyline":[{"x":0,"y":0},{"x":55,"y":0}]},{"id":1505,"x":-755,"y":-900,"visible":true,"properties":[{"name":"layer","type":"int","value":1},{"name":"group","type":"int","value":93},{"name":"id","type":"int","value":426},{"name":"fh_layer","type":"int","value":1},{"name":"fh_group","type":"int","value":93},{"name":"fh_id","type":"int","value":426},{"name":"x1","type":"int","value":-755},{"name":"x2","type":"int","value":-755},{"name":"y1","type":"int","value":-900},{"name":"y2","type":"int","value":-915},{"name":"next","type":"int","value":427},{"name":"prev","type":"int","value":0}],"polyline":[{"x":0,"y":0},{"x":0,"y":-15}]},{"id":1506,"x":-755,"y":-915,"visible":true,"properties":[{"name":"layer","type":"int","value":1},{"name":"group","type":"int","value":93},{"name":"id","type":"int","value":427},{"name":"fh_layer","type":"int","value":1},{"name":"fh_group","type":"int","value":93},{"name":"fh_id","type":"int","value":427},{"name":"x1","type":"int","value":-755},{"name":"x2","type":"int","value":-720},{"name":"y1","type":"int","value":-915},{"name":"y2","type":"int","value":-915},{"name":"next","type":"int","value":422},{"name":"prev","type":"int","value":426}],"polyline":[{"x":0,"y":0},{"x":35,"y":0}]},{"id":1507,"x":-685,"y":-915,"visible":true,"properties":[{"name":"layer","type":"int","value":1},{"name":"group","type":"int","value":93},{"name":"id","type":"int","value":428},{"name":"fh_layer","type":"int","value":1},{"name":"fh_group","type":"int","value":93},{"name":"fh_id","type":"int","value":428},{"name":"x1","type":"int","value":-685},{"name":"x2","type":"int","value":-630},{"name":"y1","type":"int","value":-915},{"name":"y2","type":"int","value":-915},{"name":"next","type":"int","value":425},{"name":"prev","type":"int","value":422}],"polyline":[{"x":0,"y":0},{"x":55,"y":0}]},{"id":1508,"x":-305,"y":-915,"visible":true,"properties":[{"name":"layer","type":"int","value":1},{"name":"group","type":"int","value":94},{"name":"id","type":"int","value":439},{"name":"fh_layer","type":"int","value":1},{"name":"fh_group","type":"int","value":94},{"name":"fh_id","type":"int","value":439},{"name":"x1","type":"int","value":-305},{"name":"x2","type":"int","value":-235},{"name":"y1","type":"int","value":-915},{"name":"y2","type":"int","value":-915},{"name":"next","type":"int","value":440},{"name":"prev","type":"int","value":443}],"polyline":[{"x":0,"y":0},{"x":70,"y":0}]},{"id":1509,"x":-235,"y":-915,"visible":true,"properties":[{"name":"layer","type":"int","value":1},{"name":"group","type":"int","value":94},{"name":"id","type":"int","value":440},{"name":"fh_layer","type":"int","value":1},{"name":"fh_group","type":"int","value":94},{"name":"fh_id","type":"int","value":440},{"name":"x1","type":"int","value":-235},{"name":"x2","type":"int","value":-235},{"name":"y1","type":"int","value":-915},{"name":"y2","type":"int","value":-900},{"name":"next","type":"int","value":0},{"name":"prev","type":"int","value":439}],"polyline":[{"x":0,"y":0},{"x":0,"y":15}]},{"id":1510,"x":-395,"y":-900,"visible":true,"properties":[{"name":"layer","type":"int","value":1},{"name":"group","type":"int","value":94},{"name":"id","type":"int","value":441},{"name":"fh_layer","type":"int","value":1},{"name":"fh_group","type":"int","value":94},{"name":"fh_id","type":"int","value":441},{"name":"x1","type":"int","value":-395},{"name":"x2","type":"int","value":-395},{"name":"y1","type":"int","value":-900},{"name":"y2","type":"int","value":-915},{"name":"next","type":"int","value":442},{"name":"prev","type":"int","value":0}],"polyline":[{"x":0,"y":0},{"x":0,"y":-15}]},{"id":1511,"x":-395,"y":-915,"visible":true,"properties":[{"name":"layer","type":"int","value":1},{"name":"group","type":"int","value":94},{"name":"id","type":"int","value":442},{"name":"fh_layer","type":"int","value":1},{"name":"fh_group","type":"int","value":94},{"name":"fh_id","type":"int","value":442},{"name":"x1","type":"int","value":-395},{"name":"x2","type":"int","value":-325},{"name":"y1","type":"int","value":-915},{"name":"y2","type":"int","value":-915},{"name":"next","type":"int","value":443},{"name":"prev","type":"int","value":441}],"polyline":[{"x":0,"y":0},{"x":70,"y":0}]},{"id":1512,"x":-325,"y":-915,"visible":true,"properties":[{"name":"layer","type":"int","value":1},{"name":"group","type":"int","value":94},{"name":"id","type":"int","value":443},{"name":"fh_layer","type":"int","value":1},{"name":"fh_group","type":"int","value":94},{"name":"fh_id","type":"int","value":443},{"name":"x1","type":"int","value":-325},{"name":"x2","type":"int","value":-305},{"name":"y1","type":"int","value":-915},{"name":"y2","type":"int","value":-915},{"name":"next","type":"int","value":439},{"name":"prev","type":"int","value":442}],"polyline":[{"x":0,"y":0},{"x":20,"y":0}]},{"id":1513,"x":-485,"y":-960,"visible":true,"properties":[{"name":"layer","type":"int","value":1},{"name":"group","type":"int","value":98},{"name":"id","type":"int","value":434},{"name":"fh_layer","type":"int","value":1},{"name":"fh_group","type":"int","value":98},{"name":"fh_id","type":"int","value":434},{"name":"x1","type":"int","value":-485},{"name":"x2","type":"int","value":-485},{"name":"y1","type":"int","value":-960},{"name":"y2","type":"int","value":-975},{"name":"next","type":"int","value":435},{"name":"prev","type":"int","value":0}],"polyline":[{"x":0,"y":0},{"x":0,"y":-15}]},{"id":1514,"x":-485,"y":-975,"visible":true,"properties":[{"name":"layer","type":"int","value":1},{"name":"group","type":"int","value":98},{"name":"id","type":"int","value":435},{"name":"fh_layer","type":"int","value":1},{"name":"fh_group","type":"int","value":98},{"name":"fh_id","type":"int","value":435},{"name":"x1","type":"int","value":-485},{"name":"x2","type":"int","value":-415},{"name":"y1","type":"int","value":-975},{"name":"y2","type":"int","value":-975},{"name":"next","type":"int","value":438},{"name":"prev","type":"int","value":434}],"polyline":[{"x":0,"y":0},{"x":70,"y":0}]},{"id":1515,"x":-395,"y":-975,"visible":true,"properties":[{"name":"layer","type":"int","value":1},{"name":"group","type":"int","value":98},{"name":"id","type":"int","value":436},{"name":"fh_layer","type":"int","value":1},{"name":"fh_group","type":"int","value":98},{"name":"fh_id","type":"int","value":436},{"name":"x1","type":"int","value":-395},{"name":"x2","type":"int","value":-325},{"name":"y1","type":"int","value":-975},{"name":"y2","type":"int","value":-975},{"name":"next","type":"int","value":437},{"name":"prev","type":"int","value":438}],"polyline":[{"x":0,"y":0},{"x":70,"y":0}]},{"id":1516,"x":-325,"y":-975,"visible":true,"properties":[{"name":"layer","type":"int","value":1},{"name":"group","type":"int","value":98},{"name":"id","type":"int","value":437},{"name":"fh_layer","type":"int","value":1},{"name":"fh_group","type":"int","value":98},{"name":"fh_id","type":"int","value":437},{"name":"x1","type":"int","value":-325},{"name":"x2","type":"int","value":-325},{"name":"y1","type":"int","value":-975},{"name":"y2","type":"int","value":-960},{"name":"next","type":"int","value":0},{"name":"prev","type":"int","value":436}],"polyline":[{"x":0,"y":0},{"x":0,"y":15}]},{"id":1517,"x":-415,"y":-975,"visible":true,"properties":[{"name":"layer","type":"int","value":1},{"name":"group","type":"int","value":98},{"name":"id","type":"int","value":438},{"name":"fh_layer","type":"int","value":1},{"name":"fh_group","type":"int","value":98},{"name":"fh_id","type":"int","value":438},{"name":"x1","type":"int","value":-415},{"name":"x2","type":"int","value":-395},{"name":"y1","type":"int","value":-975},{"name":"y2","type":"int","value":-975},{"name":"next","type":"int","value":436},{"name":"prev","type":"int","value":435}],"polyline":[{"x":0,"y":0},{"x":20,"y":0}]},{"id":1518,"x":-1565,"y":-1035,"visible":true,"properties":[{"name":"layer","type":"int","value":1},{"name":"group","type":"int","value":103},{"name":"id","type":"int","value":447},{"name":"fh_layer","type":"int","value":1},{"name":"fh_group","type":"int","value":103},{"name":"fh_id","type":"int","value":447},{"name":"x1","type":"int","value":-1565},{"name":"x2","type":"int","value":-1495},{"name":"y1","type":"int","value":-1035},{"name":"y2","type":"int","value":-1035},{"name":"next","type":"int","value":448},{"name":"prev","type":"int","value":451}],"polyline":[{"x":0,"y":0},{"x":70,"y":0}]},{"id":1519,"x":-1495,"y":-1035,"visible":true,"properties":[{"name":"layer","type":"int","value":1},{"name":"group","type":"int","value":103},{"name":"id","type":"int","value":448},{"name":"fh_layer","type":"int","value":1},{"name":"fh_group","type":"int","value":103},{"name":"fh_id","type":"int","value":448},{"name":"x1","type":"int","value":-1495},{"name":"x2","type":"int","value":-1495},{"name":"y1","type":"int","value":-1035},{"name":"y2","type":"int","value":-1020},{"name":"next","type":"int","value":0},{"name":"prev","type":"int","value":447}],"polyline":[{"x":0,"y":0},{"x":0,"y":15}]},{"id":1520,"x":-1655,"y":-1020,"visible":true,"properties":[{"name":"layer","type":"int","value":1},{"name":"group","type":"int","value":103},{"name":"id","type":"int","value":449},{"name":"fh_layer","type":"int","value":1},{"name":"fh_group","type":"int","value":103},{"name":"fh_id","type":"int","value":449},{"name":"x1","type":"int","value":-1655},{"name":"x2","type":"int","value":-1655},{"name":"y1","type":"int","value":-1020},{"name":"y2","type":"int","value":-1035},{"name":"next","type":"int","value":450},{"name":"prev","type":"int","value":0}],"polyline":[{"x":0,"y":0},{"x":0,"y":-15}]},{"id":1521,"x":-1655,"y":-1035,"visible":true,"properties":[{"name":"layer","type":"int","value":1},{"name":"group","type":"int","value":103},{"name":"id","type":"int","value":450},{"name":"fh_layer","type":"int","value":1},{"name":"fh_group","type":"int","value":103},{"name":"fh_id","type":"int","value":450},{"name":"x1","type":"int","value":-1655},{"name":"x2","type":"int","value":-1585},{"name":"y1","type":"int","value":-1035},{"name":"y2","type":"int","value":-1035},{"name":"next","type":"int","value":451},{"name":"prev","type":"int","value":449}],"polyline":[{"x":0,"y":0},{"x":70,"y":0}]},{"id":1522,"x":-1585,"y":-1035,"visible":true,"properties":[{"name":"layer","type":"int","value":1},{"name":"group","type":"int","value":103},{"name":"id","type":"int","value":451},{"name":"fh_layer","type":"int","value":1},{"name":"fh_group","type":"int","value":103},{"name":"fh_id","type":"int","value":451},{"name":"x1","type":"int","value":-1585},{"name":"x2","type":"int","value":-1565},{"name":"y1","type":"int","value":-1035},{"name":"y2","type":"int","value":-1035},{"name":"next","type":"int","value":447},{"name":"prev","type":"int","value":450}],"polyline":[{"x":0,"y":0},{"x":20,"y":0}]},{"id":1523,"x":-395,"y":-1020,"visible":true,"properties":[{"name":"layer","type":"int","value":1},{"name":"group","type":"int","value":104},{"name":"id","type":"int","value":522},{"name":"fh_layer","type":"int","value":1},{"name":"fh_group","type":"int","value":104},{"name":"fh_id","type":"int","value":522},{"name":"x1","type":"int","value":-395},{"name":"x2","type":"int","value":-395},{"name":"y1","type":"int","value":-1020},{"name":"y2","type":"int","value":-1035},{"name":"next","type":"int","value":523},{"name":"prev","type":"int","value":0}],"polyline":[{"x":0,"y":0},{"x":0,"y":-15}]},{"id":1524,"x":-395,"y":-1035,"visible":true,"properties":[{"name":"layer","type":"int","value":1},{"name":"group","type":"int","value":104},{"name":"id","type":"int","value":523},{"name":"fh_layer","type":"int","value":1},{"name":"fh_group","type":"int","value":104},{"name":"fh_id","type":"int","value":523},{"name":"x1","type":"int","value":-395},{"name":"x2","type":"int","value":-325},{"name":"y1","type":"int","value":-1035},{"name":"y2","type":"int","value":-1035},{"name":"next","type":"int","value":526},{"name":"prev","type":"int","value":522}],"polyline":[{"x":0,"y":0},{"x":70,"y":0}]},{"id":1525,"x":-305,"y":-1035,"visible":true,"properties":[{"name":"layer","type":"int","value":1},{"name":"group","type":"int","value":104},{"name":"id","type":"int","value":524},{"name":"fh_layer","type":"int","value":1},{"name":"fh_group","type":"int","value":104},{"name":"fh_id","type":"int","value":524},{"name":"x1","type":"int","value":-305},{"name":"x2","type":"int","value":-235},{"name":"y1","type":"int","value":-1035},{"name":"y2","type":"int","value":-1035},{"name":"next","type":"int","value":525},{"name":"prev","type":"int","value":526}],"polyline":[{"x":0,"y":0},{"x":70,"y":0}]},{"id":1526,"x":-235,"y":-1035,"visible":true,"properties":[{"name":"layer","type":"int","value":1},{"name":"group","type":"int","value":104},{"name":"id","type":"int","value":525},{"name":"fh_layer","type":"int","value":1},{"name":"fh_group","type":"int","value":104},{"name":"fh_id","type":"int","value":525},{"name":"x1","type":"int","value":-235},{"name":"x2","type":"int","value":-235},{"name":"y1","type":"int","value":-1035},{"name":"y2","type":"int","value":-1020},{"name":"next","type":"int","value":0},{"name":"prev","type":"int","value":524}],"polyline":[{"x":0,"y":0},{"x":0,"y":15}]},{"id":1527,"x":-325,"y":-1035,"visible":true,"properties":[{"name":"layer","type":"int","value":1},{"name":"group","type":"int","value":104},{"name":"id","type":"int","value":526},{"name":"fh_layer","type":"int","value":1},{"name":"fh_group","type":"int","value":104},{"name":"fh_id","type":"int","value":526},{"name":"x1","type":"int","value":-325},{"name":"x2","type":"int","value":-305},{"name":"y1","type":"int","value":-1035},{"name":"y2","type":"int","value":-1035},{"name":"next","type":"int","value":524},{"name":"prev","type":"int","value":523}],"polyline":[{"x":0,"y":0},{"x":20,"y":0}]},{"id":1528,"x":325,"y":-1215,"visible":true,"properties":[{"name":"layer","type":"int","value":1},{"name":"group","type":"int","value":119},{"name":"id","type":"int","value":429},{"name":"fh_layer","type":"int","value":1},{"name":"fh_group","type":"int","value":119},{"name":"fh_id","type":"int","value":429},{"name":"x1","type":"int","value":325},{"name":"x2","type":"int","value":395},{"name":"y1","type":"int","value":-1215},{"name":"y2","type":"int","value":-1215},{"name":"next","type":"int","value":430},{"name":"prev","type":"int","value":433}],"polyline":[{"x":0,"y":0},{"x":70,"y":0}]},{"id":1529,"x":395,"y":-1215,"visible":true,"properties":[{"name":"layer","type":"int","value":1},{"name":"group","type":"int","value":119},{"name":"id","type":"int","value":430},{"name":"fh_layer","type":"int","value":1},{"name":"fh_group","type":"int","value":119},{"name":"fh_id","type":"int","value":430},{"name":"x1","type":"int","value":395},{"name":"x2","type":"int","value":395},{"name":"y1","type":"int","value":-1215},{"name":"y2","type":"int","value":-1200},{"name":"next","type":"int","value":0},{"name":"prev","type":"int","value":429}],"polyline":[{"x":0,"y":0},{"x":0,"y":15}]},{"id":1530,"x":235,"y":-1200,"visible":true,"properties":[{"name":"layer","type":"int","value":1},{"name":"group","type":"int","value":119},{"name":"id","type":"int","value":431},{"name":"fh_layer","type":"int","value":1},{"name":"fh_group","type":"int","value":119},{"name":"fh_id","type":"int","value":431},{"name":"x1","type":"int","value":235},{"name":"x2","type":"int","value":235},{"name":"y1","type":"int","value":-1200},{"name":"y2","type":"int","value":-1215},{"name":"next","type":"int","value":432},{"name":"prev","type":"int","value":0}],"polyline":[{"x":0,"y":0},{"x":0,"y":-15}]},{"id":1531,"x":235,"y":-1215,"visible":true,"properties":[{"name":"layer","type":"int","value":1},{"name":"group","type":"int","value":119},{"name":"id","type":"int","value":432},{"name":"fh_layer","type":"int","value":1},{"name":"fh_group","type":"int","value":119},{"name":"fh_id","type":"int","value":432},{"name":"x1","type":"int","value":235},{"name":"x2","type":"int","value":305},{"name":"y1","type":"int","value":-1215},{"name":"y2","type":"int","value":-1215},{"name":"next","type":"int","value":433},{"name":"prev","type":"int","value":431}],"polyline":[{"x":0,"y":0},{"x":70,"y":0}]},{"id":1532,"x":305,"y":-1215,"visible":true,"properties":[{"name":"layer","type":"int","value":1},{"name":"group","type":"int","value":119},{"name":"id","type":"int","value":433},{"name":"fh_layer","type":"int","value":1},{"name":"fh_group","type":"int","value":119},{"name":"fh_id","type":"int","value":433},{"name":"x1","type":"int","value":305},{"name":"x2","type":"int","value":325},{"name":"y1","type":"int","value":-1215},{"name":"y2","type":"int","value":-1215},{"name":"next","type":"int","value":429},{"name":"prev","type":"int","value":432}],"polyline":[{"x":0,"y":0},{"x":20,"y":0}]},{"id":1533,"x":-270,"y":-1275,"visible":true,"properties":[{"name":"layer","type":"int","value":1},{"name":"group","type":"int","value":120},{"name":"id","type":"int","value":336},{"name":"fh_layer","type":"int","value":1},{"name":"fh_group","type":"int","value":120},{"name":"fh_id","type":"int","value":336},{"name":"x1","type":"int","value":-270},{"name":"x2","type":"int","value":-235},{"name":"y1","type":"int","value":-1275},{"name":"y2","type":"int","value":-1275},{"name":"next","type":"int","value":340},{"name":"prev","type":"int","value":339}],"polyline":[{"x":0,"y":0},{"x":35,"y":0}]},{"id":1534,"x":90,"y":-1275,"visible":true,"properties":[{"name":"layer","type":"int","value":1},{"name":"group","type":"int","value":120},{"name":"id","type":"int","value":337},{"name":"fh_layer","type":"int","value":1},{"name":"fh_group","type":"int","value":120},{"name":"fh_id","type":"int","value":337},{"name":"x1","type":"int","value":90},{"name":"x2","type":"int","value":145},{"name":"y1","type":"int","value":-1275},{"name":"y2","type":"int","value":-1275},{"name":"next","type":"int","value":341},{"name":"prev","type":"int","value":346}],"polyline":[{"x":0,"y":0},{"x":55,"y":0}]},{"id":1535,"x":-305,"y":-1260,"visible":true,"properties":[{"name":"layer","type":"int","value":1},{"name":"group","type":"int","value":120},{"name":"id","type":"int","value":338},{"name":"fh_layer","type":"int","value":1},{"name":"fh_group","type":"int","value":120},{"name":"fh_id","type":"int","value":338},{"name":"x1","type":"int","value":-305},{"name":"x2","type":"int","value":-305},{"name":"y1","type":"int","value":-1260},{"name":"y2","type":"int","value":-1275},{"name":"next","type":"int","value":339},{"name":"prev","type":"int","value":0}],"polyline":[{"x":0,"y":0},{"x":0,"y":-15}]},{"id":1536,"x":-305,"y":-1275,"visible":true,"properties":[{"name":"layer","type":"int","value":1},{"name":"group","type":"int","value":120},{"name":"id","type":"int","value":339},{"name":"fh_layer","type":"int","value":1},{"name":"fh_group","type":"int","value":120},{"name":"fh_id","type":"int","value":339},{"name":"x1","type":"int","value":-305},{"name":"x2","type":"int","value":-270},{"name":"y1","type":"int","value":-1275},{"name":"y2","type":"int","value":-1275},{"name":"next","type":"int","value":336},{"name":"prev","type":"int","value":338}],"polyline":[{"x":0,"y":0},{"x":35,"y":0}]},{"id":1537,"x":-235,"y":-1275,"visible":true,"properties":[{"name":"layer","type":"int","value":1},{"name":"group","type":"int","value":120},{"name":"id","type":"int","value":340},{"name":"fh_layer","type":"int","value":1},{"name":"fh_group","type":"int","value":120},{"name":"fh_id","type":"int","value":340},{"name":"x1","type":"int","value":-235},{"name":"x2","type":"int","value":-180},{"name":"y1","type":"int","value":-1275},{"name":"y2","type":"int","value":-1275},{"name":"next","type":"int","value":344},{"name":"prev","type":"int","value":336}],"polyline":[{"x":0,"y":0},{"x":55,"y":0}]},{"id":1538,"x":145,"y":-1275,"visible":true,"properties":[{"name":"layer","type":"int","value":1},{"name":"group","type":"int","value":120},{"name":"id","type":"int","value":341},{"name":"fh_layer","type":"int","value":1},{"name":"fh_group","type":"int","value":120},{"name":"fh_id","type":"int","value":341},{"name":"x1","type":"int","value":145},{"name":"x2","type":"int","value":180},{"name":"y1","type":"int","value":-1275},{"name":"y2","type":"int","value":-1275},{"name":"next","type":"int","value":342},{"name":"prev","type":"int","value":337}],"polyline":[{"x":0,"y":0},{"x":35,"y":0}]},{"id":1539,"x":180,"y":-1275,"visible":true,"properties":[{"name":"layer","type":"int","value":1},{"name":"group","type":"int","value":120},{"name":"id","type":"int","value":342},{"name":"fh_layer","type":"int","value":1},{"name":"fh_group","type":"int","value":120},{"name":"fh_id","type":"int","value":342},{"name":"x1","type":"int","value":180},{"name":"x2","type":"int","value":215},{"name":"y1","type":"int","value":-1275},{"name":"y2","type":"int","value":-1275},{"name":"next","type":"int","value":343},{"name":"prev","type":"int","value":341}],"polyline":[{"x":0,"y":0},{"x":35,"y":0}]},{"id":1540,"x":215,"y":-1275,"visible":true,"properties":[{"name":"layer","type":"int","value":1},{"name":"group","type":"int","value":120},{"name":"id","type":"int","value":343},{"name":"fh_layer","type":"int","value":1},{"name":"fh_group","type":"int","value":120},{"name":"fh_id","type":"int","value":343},{"name":"x1","type":"int","value":215},{"name":"x2","type":"int","value":215},{"name":"y1","type":"int","value":-1275},{"name":"y2","type":"int","value":-1260},{"name":"next","type":"int","value":0},{"name":"prev","type":"int","value":342}],"polyline":[{"x":0,"y":0},{"x":0,"y":15}]},{"id":1541,"x":-180,"y":-1275,"visible":true,"properties":[{"name":"layer","type":"int","value":1},{"name":"group","type":"int","value":120},{"name":"id","type":"int","value":344},{"name":"fh_layer","type":"int","value":1},{"name":"fh_group","type":"int","value":120},{"name":"fh_id","type":"int","value":344},{"name":"x1","type":"int","value":-180},{"name":"x2","type":"int","value":-90},{"name":"y1","type":"int","value":-1275},{"name":"y2","type":"int","value":-1275},{"name":"next","type":"int","value":345},{"name":"prev","type":"int","value":340}],"polyline":[{"x":0,"y":0},{"x":90,"y":0}]},{"id":1542,"x":-90,"y":-1275,"visible":true,"properties":[{"name":"layer","type":"int","value":1},{"name":"group","type":"int","value":120},{"name":"id","type":"int","value":345},{"name":"fh_layer","type":"int","value":1},{"name":"fh_group","type":"int","value":120},{"name":"fh_id","type":"int","value":345},{"name":"x1","type":"int","value":-90},{"name":"x2","type":"int","value":0},{"name":"y1","type":"int","value":-1275},{"name":"y2","type":"int","value":-1275},{"name":"next","type":"int","value":346},{"name":"prev","type":"int","value":344}],"polyline":[{"x":0,"y":0},{"x":90,"y":0}]},{"id":1543,"x":0,"y":-1275,"visible":true,"properties":[{"name":"layer","type":"int","value":1},{"name":"group","type":"int","value":120},{"name":"id","type":"int","value":346},{"name":"fh_layer","type":"int","value":1},{"name":"fh_group","type":"int","value":120},{"name":"fh_id","type":"int","value":346},{"name":"x1","type":"int","value":0},{"name":"x2","type":"int","value":90},{"name":"y1","type":"int","value":-1275},{"name":"y2","type":"int","value":-1275},{"name":"next","type":"int","value":337},{"name":"prev","type":"int","value":345}],"polyline":[{"x":0,"y":0},{"x":90,"y":0}]},{"id":1544,"x":-1530,"y":-1335,"visible":true,"properties":[{"name":"layer","type":"int","value":1},{"name":"group","type":"int","value":122},{"name":"id","type":"int","value":375},{"name":"fh_layer","type":"int","value":1},{"name":"fh_group","type":"int","value":122},{"name":"fh_id","type":"int","value":375},{"name":"x1","type":"int","value":-1530},{"name":"x2","type":"int","value":-1440},{"name":"y1","type":"int","value":-1335},{"name":"y2","type":"int","value":-1335},{"name":"next","type":"int","value":376},{"name":"prev","type":"int","value":380}],"polyline":[{"x":0,"y":0},{"x":90,"y":0}]},{"id":1545,"x":-1440,"y":-1335,"visible":true,"properties":[{"name":"layer","type":"int","value":1},{"name":"group","type":"int","value":122},{"name":"id","type":"int","value":376},{"name":"fh_layer","type":"int","value":1},{"name":"fh_group","type":"int","value":122},{"name":"fh_id","type":"int","value":376},{"name":"x1","type":"int","value":-1440},{"name":"x2","type":"int","value":-1350},{"name":"y1","type":"int","value":-1335},{"name":"y2","type":"int","value":-1335},{"name":"next","type":"int","value":383},{"name":"prev","type":"int","value":375}],"polyline":[{"x":0,"y":0},{"x":90,"y":0}]},{"id":1546,"x":-1620,"y":-1335,"visible":true,"properties":[{"name":"layer","type":"int","value":1},{"name":"group","type":"int","value":122},{"name":"id","type":"int","value":377},{"name":"fh_layer","type":"int","value":1},{"name":"fh_group","type":"int","value":122},{"name":"fh_id","type":"int","value":377},{"name":"x1","type":"int","value":-1620},{"name":"x2","type":"int","value":-1585},{"name":"y1","type":"int","value":-1335},{"name":"y2","type":"int","value":-1335},{"name":"next","type":"int","value":380},{"name":"prev","type":"int","value":379}],"polyline":[{"x":0,"y":0},{"x":35,"y":0}]},{"id":1547,"x":-1655,"y":-1320,"visible":true,"properties":[{"name":"layer","type":"int","value":1},{"name":"group","type":"int","value":122},{"name":"id","type":"int","value":378},{"name":"fh_layer","type":"int","value":1},{"name":"fh_group","type":"int","value":122},{"name":"fh_id","type":"int","value":378},{"name":"x1","type":"int","value":-1655},{"name":"x2","type":"int","value":-1655},{"name":"y1","type":"int","value":-1320},{"name":"y2","type":"int","value":-1335},{"name":"next","type":"int","value":379},{"name":"prev","type":"int","value":381}],"polyline":[{"x":0,"y":0},{"x":0,"y":-15}]},{"id":1548,"x":-1655,"y":-1335,"visible":true,"properties":[{"name":"layer","type":"int","value":1},{"name":"group","type":"int","value":122},{"name":"id","type":"int","value":379},{"name":"fh_layer","type":"int","value":1},{"name":"fh_group","type":"int","value":122},{"name":"fh_id","type":"int","value":379},{"name":"x1","type":"int","value":-1655},{"name":"x2","type":"int","value":-1620},{"name":"y1","type":"int","value":-1335},{"name":"y2","type":"int","value":-1335},{"name":"next","type":"int","value":377},{"name":"prev","type":"int","value":378}],"polyline":[{"x":0,"y":0},{"x":35,"y":0}]},{"id":1549,"x":-1585,"y":-1335,"visible":true,"properties":[{"name":"layer","type":"int","value":1},{"name":"group","type":"int","value":122},{"name":"id","type":"int","value":380},{"name":"fh_layer","type":"int","value":1},{"name":"fh_group","type":"int","value":122},{"name":"fh_id","type":"int","value":380},{"name":"x1","type":"int","value":-1585},{"name":"x2","type":"int","value":-1530},{"name":"y1","type":"int","value":-1335},{"name":"y2","type":"int","value":-1335},{"name":"next","type":"int","value":375},{"name":"prev","type":"int","value":377}],"polyline":[{"x":0,"y":0},{"x":55,"y":0}]},{"id":1550,"x":-1655,"y":-1260,"visible":true,"properties":[{"name":"layer","type":"int","value":1},{"name":"group","type":"int","value":122},{"name":"id","type":"int","value":381},{"name":"fh_layer","type":"int","value":1},{"name":"fh_group","type":"int","value":122},{"name":"fh_id","type":"int","value":381},{"name":"x1","type":"int","value":-1655},{"name":"x2","type":"int","value":-1655},{"name":"y1","type":"int","value":-1260},{"name":"y2","type":"int","value":-1320},{"name":"next","type":"int","value":378},{"name":"prev","type":"int","value":0}],"polyline":[{"x":0,"y":0},{"x":0,"y":-60}]},{"id":1551,"x":-1080,"y":-1335,"visible":true,"properties":[{"name":"layer","type":"int","value":1},{"name":"group","type":"int","value":122},{"name":"id","type":"int","value":382},{"name":"fh_layer","type":"int","value":1},{"name":"fh_group","type":"int","value":122},{"name":"fh_id","type":"int","value":382},{"name":"x1","type":"int","value":-1080},{"name":"x2","type":"int","value":-990},{"name":"y1","type":"int","value":-1335},{"name":"y2","type":"int","value":-1335},{"name":"next","type":"int","value":385},{"name":"prev","type":"int","value":388}],"polyline":[{"x":0,"y":0},{"x":90,"y":0}]},{"id":1552,"x":-1350,"y":-1335,"visible":true,"properties":[{"name":"layer","type":"int","value":1},{"name":"group","type":"int","value":122},{"name":"id","type":"int","value":383},{"name":"fh_layer","type":"int","value":1},{"name":"fh_group","type":"int","value":122},{"name":"fh_id","type":"int","value":383},{"name":"x1","type":"int","value":-1350},{"name":"x2","type":"int","value":-1260},{"name":"y1","type":"int","value":-1335},{"name":"y2","type":"int","value":-1335},{"name":"next","type":"int","value":384},{"name":"prev","type":"int","value":376}],"polyline":[{"x":0,"y":0},{"x":90,"y":0}]},{"id":1553,"x":-1260,"y":-1335,"visible":true,"properties":[{"name":"layer","type":"int","value":1},{"name":"group","type":"int","value":122},{"name":"id","type":"int","value":384},{"name":"fh_layer","type":"int","value":1},{"name":"fh_group","type":"int","value":122},{"name":"fh_id","type":"int","value":384},{"name":"x1","type":"int","value":-1260},{"name":"x2","type":"int","value":-1170},{"name":"y1","type":"int","value":-1335},{"name":"y2","type":"int","value":-1335},{"name":"next","type":"int","value":388},{"name":"prev","type":"int","value":383}],"polyline":[{"x":0,"y":0},{"x":90,"y":0}]},{"id":1554,"x":-990,"y":-1335,"visible":true,"properties":[{"name":"layer","type":"int","value":1},{"name":"group","type":"int","value":122},{"name":"id","type":"int","value":385},{"name":"fh_layer","type":"int","value":1},{"name":"fh_group","type":"int","value":122},{"name":"fh_id","type":"int","value":385},{"name":"x1","type":"int","value":-990},{"name":"x2","type":"int","value":-900},{"name":"y1","type":"int","value":-1335},{"name":"y2","type":"int","value":-1335},{"name":"next","type":"int","value":386},{"name":"prev","type":"int","value":382}],"polyline":[{"x":0,"y":0},{"x":90,"y":0}]},{"id":1555,"x":-900,"y":-1335,"visible":true,"properties":[{"name":"layer","type":"int","value":1},{"name":"group","type":"int","value":122},{"name":"id","type":"int","value":386},{"name":"fh_layer","type":"int","value":1},{"name":"fh_group","type":"int","value":122},{"name":"fh_id","type":"int","value":386},{"name":"x1","type":"int","value":-900},{"name":"x2","type":"int","value":-810},{"name":"y1","type":"int","value":-1335},{"name":"y2","type":"int","value":-1335},{"name":"next","type":"int","value":387},{"name":"prev","type":"int","value":385}],"polyline":[{"x":0,"y":0},{"x":90,"y":0}]},{"id":1556,"x":-810,"y":-1335,"visible":true,"properties":[{"name":"layer","type":"int","value":1},{"name":"group","type":"int","value":122},{"name":"id","type":"int","value":387},{"name":"fh_layer","type":"int","value":1},{"name":"fh_group","type":"int","value":122},{"name":"fh_id","type":"int","value":387},{"name":"x1","type":"int","value":-810},{"name":"x2","type":"int","value":-755},{"name":"y1","type":"int","value":-1335},{"name":"y2","type":"int","value":-1335},{"name":"next","type":"int","value":400},{"name":"prev","type":"int","value":386}],"polyline":[{"x":0,"y":0},{"x":55,"y":0}]},{"id":1557,"x":-1170,"y":-1335,"visible":true,"properties":[{"name":"layer","type":"int","value":1},{"name":"group","type":"int","value":122},{"name":"id","type":"int","value":388},{"name":"fh_layer","type":"int","value":1},{"name":"fh_group","type":"int","value":122},{"name":"fh_id","type":"int","value":388},{"name":"x1","type":"int","value":-1170},{"name":"x2","type":"int","value":-1080},{"name":"y1","type":"int","value":-1335},{"name":"y2","type":"int","value":-1335},{"name":"next","type":"int","value":382},{"name":"prev","type":"int","value":384}],"polyline":[{"x":0,"y":0},{"x":90,"y":0}]},{"id":1558,"x":-540,"y":-1335,"visible":true,"properties":[{"name":"layer","type":"int","value":1},{"name":"group","type":"int","value":122},{"name":"id","type":"int","value":389},{"name":"fh_layer","type":"int","value":1},{"name":"fh_group","type":"int","value":122},{"name":"fh_id","type":"int","value":389},{"name":"x1","type":"int","value":-540},{"name":"x2","type":"int","value":-450},{"name":"y1","type":"int","value":-1335},{"name":"y2","type":"int","value":-1335},{"name":"next","type":"int","value":393},{"name":"prev","type":"int","value":397}],"polyline":[{"x":0,"y":0},{"x":90,"y":0}]},{"id":1559,"x":-395,"y":-1335,"visible":true,"properties":[{"name":"layer","type":"int","value":1},{"name":"group","type":"int","value":122},{"name":"id","type":"int","value":390},{"name":"fh_layer","type":"int","value":1},{"name":"fh_group","type":"int","value":122},{"name":"fh_id","type":"int","value":390},{"name":"x1","type":"int","value":-395},{"name":"x2","type":"int","value":-325},{"name":"y1","type":"int","value":-1335},{"name":"y2","type":"int","value":-1335},{"name":"next","type":"int","value":391},{"name":"prev","type":"int","value":393}],"polyline":[{"x":0,"y":0},{"x":70,"y":0}]},{"id":1560,"x":-325,"y":-1335,"visible":true,"properties":[{"name":"layer","type":"int","value":1},{"name":"group","type":"int","value":122},{"name":"id","type":"int","value":391},{"name":"fh_layer","type":"int","value":1},{"name":"fh_group","type":"int","value":122},{"name":"fh_id","type":"int","value":391},{"name":"x1","type":"int","value":-325},{"name":"x2","type":"int","value":-325},{"name":"y1","type":"int","value":-1335},{"name":"y2","type":"int","value":-1320},{"name":"next","type":"int","value":392},{"name":"prev","type":"int","value":390}],"polyline":[{"x":0,"y":0},{"x":0,"y":15}]},{"id":1561,"x":-325,"y":-1320,"visible":true,"properties":[{"name":"layer","type":"int","value":1},{"name":"group","type":"int","value":122},{"name":"id","type":"int","value":392},{"name":"fh_layer","type":"int","value":1},{"name":"fh_group","type":"int","value":122},{"name":"fh_id","type":"int","value":392},{"name":"x1","type":"int","value":-325},{"name":"x2","type":"int","value":-325},{"name":"y1","type":"int","value":-1320},{"name":"y2","type":"int","value":-1260},{"name":"next","type":"int","value":0},{"name":"prev","type":"int","value":391}],"polyline":[{"x":0,"y":0},{"x":0,"y":60}]},{"id":1562,"x":-450,"y":-1335,"visible":true,"properties":[{"name":"layer","type":"int","value":1},{"name":"group","type":"int","value":122},{"name":"id","type":"int","value":393},{"name":"fh_layer","type":"int","value":1},{"name":"fh_group","type":"int","value":122},{"name":"fh_id","type":"int","value":393},{"name":"x1","type":"int","value":-450},{"name":"x2","type":"int","value":-395},{"name":"y1","type":"int","value":-1335},{"name":"y2","type":"int","value":-1335},{"name":"next","type":"int","value":390},{"name":"prev","type":"int","value":389}],"polyline":[{"x":0,"y":0},{"x":55,"y":0}]},{"id":1563,"x":-665,"y":-1395,"visible":true,"properties":[{"name":"layer","type":"int","value":1},{"name":"group","type":"int","value":122},{"name":"id","type":"int","value":394},{"name":"fh_layer","type":"int","value":1},{"name":"fh_group","type":"int","value":122},{"name":"fh_id","type":"int","value":394},{"name":"x1","type":"int","value":-665},{"name":"x2","type":"int","value":-595},{"name":"y1","type":"int","value":-1395},{"name":"y2","type":"int","value":-1395},{"name":"next","type":"int","value":395},{"name":"prev","type":"int","value":401}],"polyline":[{"x":0,"y":0},{"x":70,"y":0}]},{"id":1564,"x":-595,"y":-1395,"visible":true,"properties":[{"name":"layer","type":"int","value":1},{"name":"group","type":"int","value":122},{"name":"id","type":"int","value":395},{"name":"fh_layer","type":"int","value":1},{"name":"fh_group","type":"int","value":122},{"name":"fh_id","type":"int","value":395},{"name":"x1","type":"int","value":-595},{"name":"x2","type":"int","value":-595},{"name":"y1","type":"int","value":-1395},{"name":"y2","type":"int","value":-1380},{"name":"next","type":"int","value":396},{"name":"prev","type":"int","value":394}],"polyline":[{"x":0,"y":0},{"x":0,"y":15}]},{"id":1565,"x":-595,"y":-1380,"visible":true,"properties":[{"name":"layer","type":"int","value":1},{"name":"group","type":"int","value":122},{"name":"id","type":"int","value":396},{"name":"fh_layer","type":"int","value":1},{"name":"fh_group","type":"int","value":122},{"name":"fh_id","type":"int","value":396},{"name":"x1","type":"int","value":-595},{"name":"x2","type":"int","value":-595},{"name":"y1","type":"int","value":-1380},{"name":"y2","type":"int","value":-1335},{"name":"next","type":"int","value":397},{"name":"prev","type":"int","value":395}],"polyline":[{"x":0,"y":0},{"x":0,"y":45}]},{"id":1566,"x":-595,"y":-1335,"visible":true,"properties":[{"name":"layer","type":"int","value":1},{"name":"group","type":"int","value":122},{"name":"id","type":"int","value":397},{"name":"fh_layer","type":"int","value":1},{"name":"fh_group","type":"int","value":122},{"name":"fh_id","type":"int","value":397},{"name":"x1","type":"int","value":-595},{"name":"x2","type":"int","value":-540},{"name":"y1","type":"int","value":-1335},{"name":"y2","type":"int","value":-1335},{"name":"next","type":"int","value":389},{"name":"prev","type":"int","value":396}],"polyline":[{"x":0,"y":0},{"x":55,"y":0}]},{"id":1567,"x":-755,"y":-1380,"visible":true,"properties":[{"name":"layer","type":"int","value":1},{"name":"group","type":"int","value":122},{"name":"id","type":"int","value":398},{"name":"fh_layer","type":"int","value":1},{"name":"fh_group","type":"int","value":122},{"name":"fh_id","type":"int","value":398},{"name":"x1","type":"int","value":-755},{"name":"x2","type":"int","value":-755},{"name":"y1","type":"int","value":-1380},{"name":"y2","type":"int","value":-1395},{"name":"next","type":"int","value":399},{"name":"prev","type":"int","value":400}],"polyline":[{"x":0,"y":0},{"x":0,"y":-15}]},{"id":1568,"x":-755,"y":-1395,"visible":true,"properties":[{"name":"layer","type":"int","value":1},{"name":"group","type":"int","value":122},{"name":"id","type":"int","value":399},{"name":"fh_layer","type":"int","value":1},{"name":"fh_group","type":"int","value":122},{"name":"fh_id","type":"int","value":399},{"name":"x1","type":"int","value":-755},{"name":"x2","type":"int","value":-685},{"name":"y1","type":"int","value":-1395},{"name":"y2","type":"int","value":-1395},{"name":"next","type":"int","value":401},{"name":"prev","type":"int","value":398}],"polyline":[{"x":0,"y":0},{"x":70,"y":0}]},{"id":1569,"x":-755,"y":-1335,"visible":true,"properties":[{"name":"layer","type":"int","value":1},{"name":"group","type":"int","value":122},{"name":"id","type":"int","value":400},{"name":"fh_layer","type":"int","value":1},{"name":"fh_group","type":"int","value":122},{"name":"fh_id","type":"int","value":400},{"name":"x1","type":"int","value":-755},{"name":"x2","type":"int","value":-755},{"name":"y1","type":"int","value":-1335},{"name":"y2","type":"int","value":-1380},{"name":"next","type":"int","value":398},{"name":"prev","type":"int","value":387}],"polyline":[{"x":0,"y":0},{"x":0,"y":-45}]},{"id":1570,"x":-685,"y":-1395,"visible":true,"properties":[{"name":"layer","type":"int","value":1},{"name":"group","type":"int","value":122},{"name":"id","type":"int","value":401},{"name":"fh_layer","type":"int","value":1},{"name":"fh_group","type":"int","value":122},{"name":"fh_id","type":"int","value":401},{"name":"x1","type":"int","value":-685},{"name":"x2","type":"int","value":-665},{"name":"y1","type":"int","value":-1395},{"name":"y2","type":"int","value":-1395},{"name":"next","type":"int","value":394},{"name":"prev","type":"int","value":399}],"polyline":[{"x":0,"y":0},{"x":20,"y":0}]},{"id":1571,"x":-575,"y":-1455,"visible":true,"properties":[{"name":"layer","type":"int","value":1},{"name":"group","type":"int","value":126},{"name":"id","type":"int","value":155},{"name":"fh_layer","type":"int","value":1},{"name":"fh_group","type":"int","value":126},{"name":"fh_id","type":"int","value":155},{"name":"x1","type":"int","value":-575},{"name":"x2","type":"int","value":-505},{"name":"y1","type":"int","value":-1455},{"name":"y2","type":"int","value":-1455},{"name":"next","type":"int","value":156},{"name":"prev","type":"int","value":159}],"polyline":[{"x":0,"y":0},{"x":70,"y":0}]},{"id":1572,"x":-505,"y":-1455,"visible":true,"properties":[{"name":"layer","type":"int","value":1},{"name":"group","type":"int","value":126},{"name":"id","type":"int","value":156},{"name":"fh_layer","type":"int","value":1},{"name":"fh_group","type":"int","value":126},{"name":"fh_id","type":"int","value":156},{"name":"x1","type":"int","value":-505},{"name":"x2","type":"int","value":-505},{"name":"y1","type":"int","value":-1455},{"name":"y2","type":"int","value":-1440},{"name":"next","type":"int","value":0},{"name":"prev","type":"int","value":155}],"polyline":[{"x":0,"y":0},{"x":0,"y":15}]},{"id":1573,"x":-665,"y":-1440,"visible":true,"properties":[{"name":"layer","type":"int","value":1},{"name":"group","type":"int","value":126},{"name":"id","type":"int","value":157},{"name":"fh_layer","type":"int","value":1},{"name":"fh_group","type":"int","value":126},{"name":"fh_id","type":"int","value":157},{"name":"x1","type":"int","value":-665},{"name":"x2","type":"int","value":-665},{"name":"y1","type":"int","value":-1440},{"name":"y2","type":"int","value":-1455},{"name":"next","type":"int","value":158},{"name":"prev","type":"int","value":0}],"polyline":[{"x":0,"y":0},{"x":0,"y":-15}]},{"id":1574,"x":-665,"y":-1455,"visible":true,"properties":[{"name":"layer","type":"int","value":1},{"name":"group","type":"int","value":126},{"name":"id","type":"int","value":158},{"name":"fh_layer","type":"int","value":1},{"name":"fh_group","type":"int","value":126},{"name":"fh_id","type":"int","value":158},{"name":"x1","type":"int","value":-665},{"name":"x2","type":"int","value":-595},{"name":"y1","type":"int","value":-1455},{"name":"y2","type":"int","value":-1455},{"name":"next","type":"int","value":159},{"name":"prev","type":"int","value":157}],"polyline":[{"x":0,"y":0},{"x":70,"y":0}]},{"id":1575,"x":-595,"y":-1455,"visible":true,"properties":[{"name":"layer","type":"int","value":1},{"name":"group","type":"int","value":126},{"name":"id","type":"int","value":159},{"name":"fh_layer","type":"int","value":1},{"name":"fh_group","type":"int","value":126},{"name":"fh_id","type":"int","value":159},{"name":"x1","type":"int","value":-595},{"name":"x2","type":"int","value":-575},{"name":"y1","type":"int","value":-1455},{"name":"y2","type":"int","value":-1455},{"name":"next","type":"int","value":155},{"name":"prev","type":"int","value":158}],"polyline":[{"x":0,"y":0},{"x":20,"y":0}]},{"id":1576,"x":-665,"y":-1515,"visible":true,"properties":[{"name":"layer","type":"int","value":1},{"name":"group","type":"int","value":130},{"name":"id","type":"int","value":485},{"name":"fh_layer","type":"int","value":1},{"name":"fh_group","type":"int","value":130},{"name":"fh_id","type":"int","value":485},{"name":"x1","type":"int","value":-665},{"name":"x2","type":"int","value":-595},{"name":"y1","type":"int","value":-1515},{"name":"y2","type":"int","value":-1515},{"name":"next","type":"int","value":486},{"name":"prev","type":"int","value":489}],"polyline":[{"x":0,"y":0},{"x":70,"y":0}]},{"id":1577,"x":-595,"y":-1515,"visible":true,"properties":[{"name":"layer","type":"int","value":1},{"name":"group","type":"int","value":130},{"name":"id","type":"int","value":486},{"name":"fh_layer","type":"int","value":1},{"name":"fh_group","type":"int","value":130},{"name":"fh_id","type":"int","value":486},{"name":"x1","type":"int","value":-595},{"name":"x2","type":"int","value":-595},{"name":"y1","type":"int","value":-1515},{"name":"y2","type":"int","value":-1500},{"name":"next","type":"int","value":0},{"name":"prev","type":"int","value":485}],"polyline":[{"x":0,"y":0},{"x":0,"y":15}]},{"id":1578,"x":-755,"y":-1500,"visible":true,"properties":[{"name":"layer","type":"int","value":1},{"name":"group","type":"int","value":130},{"name":"id","type":"int","value":487},{"name":"fh_layer","type":"int","value":1},{"name":"fh_group","type":"int","value":130},{"name":"fh_id","type":"int","value":487},{"name":"x1","type":"int","value":-755},{"name":"x2","type":"int","value":-755},{"name":"y1","type":"int","value":-1500},{"name":"y2","type":"int","value":-1515},{"name":"next","type":"int","value":488},{"name":"prev","type":"int","value":0}],"polyline":[{"x":0,"y":0},{"x":0,"y":-15}]},{"id":1579,"x":-755,"y":-1515,"visible":true,"properties":[{"name":"layer","type":"int","value":1},{"name":"group","type":"int","value":130},{"name":"id","type":"int","value":488},{"name":"fh_layer","type":"int","value":1},{"name":"fh_group","type":"int","value":130},{"name":"fh_id","type":"int","value":488},{"name":"x1","type":"int","value":-755},{"name":"x2","type":"int","value":-685},{"name":"y1","type":"int","value":-1515},{"name":"y2","type":"int","value":-1515},{"name":"next","type":"int","value":489},{"name":"prev","type":"int","value":487}],"polyline":[{"x":0,"y":0},{"x":70,"y":0}]},{"id":1580,"x":-685,"y":-1515,"visible":true,"properties":[{"name":"layer","type":"int","value":1},{"name":"group","type":"int","value":130},{"name":"id","type":"int","value":489},{"name":"fh_layer","type":"int","value":1},{"name":"fh_group","type":"int","value":130},{"name":"fh_id","type":"int","value":489},{"name":"x1","type":"int","value":-685},{"name":"x2","type":"int","value":-665},{"name":"y1","type":"int","value":-1515},{"name":"y2","type":"int","value":-1515},{"name":"next","type":"int","value":485},{"name":"prev","type":"int","value":488}],"polyline":[{"x":0,"y":0},{"x":20,"y":0}]},{"id":1581,"x":145,"y":-1635,"visible":true,"properties":[{"name":"layer","type":"int","value":1},{"name":"group","type":"int","value":134},{"name":"id","type":"int","value":290},{"name":"fh_layer","type":"int","value":1},{"name":"fh_group","type":"int","value":134},{"name":"fh_id","type":"int","value":290},{"name":"x1","type":"int","value":145},{"name":"x2","type":"int","value":215},{"name":"y1","type":"int","value":-1635},{"name":"y2","type":"int","value":-1635},{"name":"next","type":"int","value":291},{"name":"prev","type":"int","value":296}],"polyline":[{"x":0,"y":0},{"x":70,"y":0}]},{"id":1582,"x":215,"y":-1635,"visible":true,"properties":[{"name":"layer","type":"int","value":1},{"name":"group","type":"int","value":134},{"name":"id","type":"int","value":291},{"name":"fh_layer","type":"int","value":1},{"name":"fh_group","type":"int","value":134},{"name":"fh_id","type":"int","value":291},{"name":"x1","type":"int","value":215},{"name":"x2","type":"int","value":215},{"name":"y1","type":"int","value":-1635},{"name":"y2","type":"int","value":-1620},{"name":"next","type":"int","value":0},{"name":"prev","type":"int","value":290}],"polyline":[{"x":0,"y":0},{"x":0,"y":15}]},{"id":1583,"x":-125,"y":-1620,"visible":true,"properties":[{"name":"layer","type":"int","value":1},{"name":"group","type":"int","value":134},{"name":"id","type":"int","value":292},{"name":"fh_layer","type":"int","value":1},{"name":"fh_group","type":"int","value":134},{"name":"fh_id","type":"int","value":292},{"name":"x1","type":"int","value":-125},{"name":"x2","type":"int","value":-125},{"name":"y1","type":"int","value":-1620},{"name":"y2","type":"int","value":-1635},{"name":"next","type":"int","value":293},{"name":"prev","type":"int","value":0}],"polyline":[{"x":0,"y":0},{"x":0,"y":-15}]},{"id":1584,"x":-125,"y":-1635,"visible":true,"properties":[{"name":"layer","type":"int","value":1},{"name":"group","type":"int","value":134},{"name":"id","type":"int","value":293},{"name":"fh_layer","type":"int","value":1},{"name":"fh_group","type":"int","value":134},{"name":"fh_id","type":"int","value":293},{"name":"x1","type":"int","value":-125},{"name":"x2","type":"int","value":-55},{"name":"y1","type":"int","value":-1635},{"name":"y2","type":"int","value":-1635},{"name":"next","type":"int","value":295},{"name":"prev","type":"int","value":292}],"polyline":[{"x":0,"y":0},{"x":70,"y":0}]},{"id":1585,"x":0,"y":-1635,"visible":true,"properties":[{"name":"layer","type":"int","value":1},{"name":"group","type":"int","value":134},{"name":"id","type":"int","value":294},{"name":"fh_layer","type":"int","value":1},{"name":"fh_group","type":"int","value":134},{"name":"fh_id","type":"int","value":294},{"name":"x1","type":"int","value":0},{"name":"x2","type":"int","value":90},{"name":"y1","type":"int","value":-1635},{"name":"y2","type":"int","value":-1635},{"name":"next","type":"int","value":296},{"name":"prev","type":"int","value":295}],"polyline":[{"x":0,"y":0},{"x":90,"y":0}]},{"id":1586,"x":-55,"y":-1635,"visible":true,"properties":[{"name":"layer","type":"int","value":1},{"name":"group","type":"int","value":134},{"name":"id","type":"int","value":295},{"name":"fh_layer","type":"int","value":1},{"name":"fh_group","type":"int","value":134},{"name":"fh_id","type":"int","value":295},{"name":"x1","type":"int","value":-55},{"name":"x2","type":"int","value":0},{"name":"y1","type":"int","value":-1635},{"name":"y2","type":"int","value":-1635},{"name":"next","type":"int","value":294},{"name":"prev","type":"int","value":293}],"polyline":[{"x":0,"y":0},{"x":55,"y":0}]},{"id":1587,"x":90,"y":-1635,"visible":true,"properties":[{"name":"layer","type":"int","value":1},{"name":"group","type":"int","value":134},{"name":"id","type":"int","value":296},{"name":"fh_layer","type":"int","value":1},{"name":"fh_group","type":"int","value":134},{"name":"fh_id","type":"int","value":296},{"name":"x1","type":"int","value":90},{"name":"x2","type":"int","value":145},{"name":"y1","type":"int","value":-1635},{"name":"y2","type":"int","value":-1635},{"name":"next","type":"int","value":290},{"name":"prev","type":"int","value":294}],"polyline":[{"x":0,"y":0},{"x":55,"y":0}]},{"id":1588,"x":-755,"y":-1560,"visible":true,"properties":[{"name":"layer","type":"int","value":1},{"name":"group","type":"int","value":135},{"name":"id","type":"int","value":510},{"name":"fh_layer","type":"int","value":1},{"name":"fh_group","type":"int","value":135},{"name":"fh_id","type":"int","value":510},{"name":"x1","type":"int","value":-755},{"name":"x2","type":"int","value":-755},{"name":"y1","type":"int","value":-1560},{"name":"y2","type":"int","value":-1575},{"name":"next","type":"int","value":511},{"name":"prev","type":"int","value":0}],"polyline":[{"x":0,"y":0},{"x":0,"y":-15}]},{"id":1589,"x":-755,"y":-1575,"visible":true,"properties":[{"name":"layer","type":"int","value":1},{"name":"group","type":"int","value":135},{"name":"id","type":"int","value":511},{"name":"fh_layer","type":"int","value":1},{"name":"fh_group","type":"int","value":135},{"name":"fh_id","type":"int","value":511},{"name":"x1","type":"int","value":-755},{"name":"x2","type":"int","value":-685},{"name":"y1","type":"int","value":-1575},{"name":"y2","type":"int","value":-1575},{"name":"next","type":"int","value":514},{"name":"prev","type":"int","value":510}],"polyline":[{"x":0,"y":0},{"x":70,"y":0}]},{"id":1590,"x":-665,"y":-1575,"visible":true,"properties":[{"name":"layer","type":"int","value":1},{"name":"group","type":"int","value":135},{"name":"id","type":"int","value":512},{"name":"fh_layer","type":"int","value":1},{"name":"fh_group","type":"int","value":135},{"name":"fh_id","type":"int","value":512},{"name":"x1","type":"int","value":-665},{"name":"x2","type":"int","value":-595},{"name":"y1","type":"int","value":-1575},{"name":"y2","type":"int","value":-1575},{"name":"next","type":"int","value":513},{"name":"prev","type":"int","value":514}],"polyline":[{"x":0,"y":0},{"x":70,"y":0}]},{"id":1591,"x":-595,"y":-1575,"visible":true,"properties":[{"name":"layer","type":"int","value":1},{"name":"group","type":"int","value":135},{"name":"id","type":"int","value":513},{"name":"fh_layer","type":"int","value":1},{"name":"fh_group","type":"int","value":135},{"name":"fh_id","type":"int","value":513},{"name":"x1","type":"int","value":-595},{"name":"x2","type":"int","value":-595},{"name":"y1","type":"int","value":-1575},{"name":"y2","type":"int","value":-1560},{"name":"next","type":"int","value":0},{"name":"prev","type":"int","value":512}],"polyline":[{"x":0,"y":0},{"x":0,"y":15}]},{"id":1592,"x":-685,"y":-1575,"visible":true,"properties":[{"name":"layer","type":"int","value":1},{"name":"group","type":"int","value":135},{"name":"id","type":"int","value":514},{"name":"fh_layer","type":"int","value":1},{"name":"fh_group","type":"int","value":135},{"name":"fh_id","type":"int","value":514},{"name":"x1","type":"int","value":-685},{"name":"x2","type":"int","value":-665},{"name":"y1","type":"int","value":-1575},{"name":"y2","type":"int","value":-1575},{"name":"next","type":"int","value":512},{"name":"prev","type":"int","value":511}],"polyline":[{"x":0,"y":0},{"x":20,"y":0}]},{"id":1593,"x":-755,"y":-1620,"visible":true,"properties":[{"name":"layer","type":"int","value":1},{"name":"group","type":"int","value":140},{"name":"id","type":"int","value":493},{"name":"fh_layer","type":"int","value":1},{"name":"fh_group","type":"int","value":140},{"name":"fh_id","type":"int","value":493},{"name":"x1","type":"int","value":-755},{"name":"x2","type":"int","value":-755},{"name":"y1","type":"int","value":-1620},{"name":"y2","type":"int","value":-1635},{"name":"next","type":"int","value":494},{"name":"prev","type":"int","value":0}],"polyline":[{"x":0,"y":0},{"x":0,"y":-15}]},{"id":1594,"x":-755,"y":-1635,"visible":true,"properties":[{"name":"layer","type":"int","value":1},{"name":"group","type":"int","value":140},{"name":"id","type":"int","value":494},{"name":"fh_layer","type":"int","value":1},{"name":"fh_group","type":"int","value":140},{"name":"fh_id","type":"int","value":494},{"name":"x1","type":"int","value":-755},{"name":"x2","type":"int","value":-685},{"name":"y1","type":"int","value":-1635},{"name":"y2","type":"int","value":-1635},{"name":"next","type":"int","value":497},{"name":"prev","type":"int","value":493}],"polyline":[{"x":0,"y":0},{"x":70,"y":0}]},{"id":1595,"x":-665,"y":-1635,"visible":true,"properties":[{"name":"layer","type":"int","value":1},{"name":"group","type":"int","value":140},{"name":"id","type":"int","value":495},{"name":"fh_layer","type":"int","value":1},{"name":"fh_group","type":"int","value":140},{"name":"fh_id","type":"int","value":495},{"name":"x1","type":"int","value":-665},{"name":"x2","type":"int","value":-595},{"name":"y1","type":"int","value":-1635},{"name":"y2","type":"int","value":-1635},{"name":"next","type":"int","value":496},{"name":"prev","type":"int","value":497}],"polyline":[{"x":0,"y":0},{"x":70,"y":0}]},{"id":1596,"x":-595,"y":-1635,"visible":true,"properties":[{"name":"layer","type":"int","value":1},{"name":"group","type":"int","value":140},{"name":"id","type":"int","value":496},{"name":"fh_layer","type":"int","value":1},{"name":"fh_group","type":"int","value":140},{"name":"fh_id","type":"int","value":496},{"name":"x1","type":"int","value":-595},{"name":"x2","type":"int","value":-595},{"name":"y1","type":"int","value":-1635},{"name":"y2","type":"int","value":-1620},{"name":"next","type":"int","value":0},{"name":"prev","type":"int","value":495}],"polyline":[{"x":0,"y":0},{"x":0,"y":15}]},{"id":1597,"x":-685,"y":-1635,"visible":true,"properties":[{"name":"layer","type":"int","value":1},{"name":"group","type":"int","value":140},{"name":"id","type":"int","value":497},{"name":"fh_layer","type":"int","value":1},{"name":"fh_group","type":"int","value":140},{"name":"fh_id","type":"int","value":497},{"name":"x1","type":"int","value":-685},{"name":"x2","type":"int","value":-665},{"name":"y1","type":"int","value":-1635},{"name":"y2","type":"int","value":-1635},{"name":"next","type":"int","value":495},{"name":"prev","type":"int","value":494}],"polyline":[{"x":0,"y":0},{"x":20,"y":0}]},{"id":1598,"x":-1135,"y":-1800,"visible":true,"properties":[{"name":"layer","type":"int","value":1},{"name":"group","type":"int","value":146},{"name":"id","type":"int","value":115},{"name":"fh_layer","type":"int","value":1},{"name":"fh_group","type":"int","value":146},{"name":"fh_id","type":"int","value":115},{"name":"x1","type":"int","value":-1135},{"name":"x2","type":"int","value":-1135},{"name":"y1","type":"int","value":-1800},{"name":"y2","type":"int","value":-1755},{"name":"next","type":"int","value":130},{"name":"prev","type":"int","value":133}],"polyline":[{"x":0,"y":0},{"x":0,"y":45}]},{"id":1599,"x":-755,"y":-1695,"visible":true,"properties":[{"name":"layer","type":"int","value":1},{"name":"group","type":"int","value":146},{"name":"id","type":"int","value":116},{"name":"fh_layer","type":"int","value":1},{"name":"fh_group","type":"int","value":146},{"name":"fh_id","type":"int","value":116},{"name":"x1","type":"int","value":-755},{"name":"x2","type":"int","value":-685},{"name":"y1","type":"int","value":-1695},{"name":"y2","type":"int","value":-1695},{"name":"next","type":"int","value":117},{"name":"prev","type":"int","value":118}],"polyline":[{"x":0,"y":0},{"x":70,"y":0}]},{"id":1600,"x":-685,"y":-1695,"visible":true,"properties":[{"name":"layer","type":"int","value":1},{"name":"group","type":"int","value":146},{"name":"id","type":"int","value":117},{"name":"fh_layer","type":"int","value":1},{"name":"fh_group","type":"int","value":146},{"name":"fh_id","type":"int","value":117},{"name":"x1","type":"int","value":-685},{"name":"x2","type":"int","value":-685},{"name":"y1","type":"int","value":-1695},{"name":"y2","type":"int","value":-1680},{"name":"next","type":"int","value":0},{"name":"prev","type":"int","value":116}],"polyline":[{"x":0,"y":0},{"x":0,"y":15}]},{"id":1601,"x":-810,"y":-1695,"visible":true,"properties":[{"name":"layer","type":"int","value":1},{"name":"group","type":"int","value":146},{"name":"id","type":"int","value":118},{"name":"fh_layer","type":"int","value":1},{"name":"fh_group","type":"int","value":146},{"name":"fh_id","type":"int","value":118},{"name":"x1","type":"int","value":-810},{"name":"x2","type":"int","value":-755},{"name":"y1","type":"int","value":-1695},{"name":"y2","type":"int","value":-1695},{"name":"next","type":"int","value":116},{"name":"prev","type":"int","value":123}],"polyline":[{"x":0,"y":0},{"x":55,"y":0}]},{"id":1602,"x":-935,"y":-1755,"visible":true,"properties":[{"name":"layer","type":"int","value":1},{"name":"group","type":"int","value":146},{"name":"id","type":"int","value":119},{"name":"fh_layer","type":"int","value":1},{"name":"fh_group","type":"int","value":146},{"name":"fh_id","type":"int","value":119},{"name":"x1","type":"int","value":-935},{"name":"x2","type":"int","value":-865},{"name":"y1","type":"int","value":-1755},{"name":"y2","type":"int","value":-1755},{"name":"next","type":"int","value":120},{"name":"prev","type":"int","value":122}],"polyline":[{"x":0,"y":0},{"x":70,"y":0}]},{"id":1603,"x":-865,"y":-1755,"visible":true,"properties":[{"name":"layer","type":"int","value":1},{"name":"group","type":"int","value":146},{"name":"id","type":"int","value":120},{"name":"fh_layer","type":"int","value":1},{"name":"fh_group","type":"int","value":146},{"name":"fh_id","type":"int","value":120},{"name":"x1","type":"int","value":-865},{"name":"x2","type":"int","value":-865},{"name":"y1","type":"int","value":-1755},{"name":"y2","type":"int","value":-1740},{"name":"next","type":"int","value":121},{"name":"prev","type":"int","value":119}],"polyline":[{"x":0,"y":0},{"x":0,"y":15}]},{"id":1604,"x":-865,"y":-1740,"visible":true,"properties":[{"name":"layer","type":"int","value":1},{"name":"group","type":"int","value":146},{"name":"id","type":"int","value":121},{"name":"fh_layer","type":"int","value":1},{"name":"fh_group","type":"int","value":146},{"name":"fh_id","type":"int","value":121},{"name":"x1","type":"int","value":-865},{"name":"x2","type":"int","value":-865},{"name":"y1","type":"int","value":-1740},{"name":"y2","type":"int","value":-1695},{"name":"next","type":"int","value":123},{"name":"prev","type":"int","value":120}],"polyline":[{"x":0,"y":0},{"x":0,"y":45}]},{"id":1605,"x":-990,"y":-1755,"visible":true,"properties":[{"name":"layer","type":"int","value":1},{"name":"group","type":"int","value":146},{"name":"id","type":"int","value":122},{"name":"fh_layer","type":"int","value":1},{"name":"fh_group","type":"int","value":146},{"name":"fh_id","type":"int","value":122},{"name":"x1","type":"int","value":-990},{"name":"x2","type":"int","value":-935},{"name":"y1","type":"int","value":-1755},{"name":"y2","type":"int","value":-1755},{"name":"next","type":"int","value":119},{"name":"prev","type":"int","value":129}],"polyline":[{"x":0,"y":0},{"x":55,"y":0}]},{"id":1606,"x":-865,"y":-1695,"visible":true,"properties":[{"name":"layer","type":"int","value":1},{"name":"group","type":"int","value":146},{"name":"id","type":"int","value":123},{"name":"fh_layer","type":"int","value":1},{"name":"fh_group","type":"int","value":146},{"name":"fh_id","type":"int","value":123},{"name":"x1","type":"int","value":-865},{"name":"x2","type":"int","value":-810},{"name":"y1","type":"int","value":-1695},{"name":"y2","type":"int","value":-1695},{"name":"next","type":"int","value":118},{"name":"prev","type":"int","value":121}],"polyline":[{"x":0,"y":0},{"x":55,"y":0}]},{"id":1607,"x":-1260,"y":-1815,"visible":true,"properties":[{"name":"layer","type":"int","value":1},{"name":"group","type":"int","value":146},{"name":"id","type":"int","value":124},{"name":"fh_layer","type":"int","value":1},{"name":"fh_group","type":"int","value":146},{"name":"fh_id","type":"int","value":124},{"name":"x1","type":"int","value":-1260},{"name":"x2","type":"int","value":-1205},{"name":"y1","type":"int","value":-1815},{"name":"y2","type":"int","value":-1815},{"name":"next","type":"int","value":131},{"name":"prev","type":"int","value":127}],"polyline":[{"x":0,"y":0},{"x":55,"y":0}]},{"id":1608,"x":-1530,"y":-1815,"visible":true,"properties":[{"name":"layer","type":"int","value":1},{"name":"group","type":"int","value":146},{"name":"id","type":"int","value":125},{"name":"fh_layer","type":"int","value":1},{"name":"fh_group","type":"int","value":146},{"name":"fh_id","type":"int","value":125},{"name":"x1","type":"int","value":-1530},{"name":"x2","type":"int","value":-1440},{"name":"y1","type":"int","value":-1815},{"name":"y2","type":"int","value":-1815},{"name":"next","type":"int","value":126},{"name":"prev","type":"int","value":137}],"polyline":[{"x":0,"y":0},{"x":90,"y":0}]},{"id":1609,"x":-1440,"y":-1815,"visible":true,"properties":[{"name":"layer","type":"int","value":1},{"name":"group","type":"int","value":146},{"name":"id","type":"int","value":126},{"name":"fh_layer","type":"int","value":1},{"name":"fh_group","type":"int","value":146},{"name":"fh_id","type":"int","value":126},{"name":"x1","type":"int","value":-1440},{"name":"x2","type":"int","value":-1350},{"name":"y1","type":"int","value":-1815},{"name":"y2","type":"int","value":-1815},{"name":"next","type":"int","value":127},{"name":"prev","type":"int","value":125}],"polyline":[{"x":0,"y":0},{"x":90,"y":0}]},{"id":1610,"x":-1350,"y":-1815,"visible":true,"properties":[{"name":"layer","type":"int","value":1},{"name":"group","type":"int","value":146},{"name":"id","type":"int","value":127},{"name":"fh_layer","type":"int","value":1},{"name":"fh_group","type":"int","value":146},{"name":"fh_id","type":"int","value":127},{"name":"x1","type":"int","value":-1350},{"name":"x2","type":"int","value":-1260},{"name":"y1","type":"int","value":-1815},{"name":"y2","type":"int","value":-1815},{"name":"next","type":"int","value":124},{"name":"prev","type":"int","value":126}],"polyline":[{"x":0,"y":0},{"x":90,"y":0}]},{"id":1611,"x":-1620,"y":-1815,"visible":true,"properties":[{"name":"layer","type":"int","value":1},{"name":"group","type":"int","value":146},{"name":"id","type":"int","value":128},{"name":"fh_layer","type":"int","value":1},{"name":"fh_group","type":"int","value":146},{"name":"fh_id","type":"int","value":128},{"name":"x1","type":"int","value":-1620},{"name":"x2","type":"int","value":-1585},{"name":"y1","type":"int","value":-1815},{"name":"y2","type":"int","value":-1815},{"name":"next","type":"int","value":137},{"name":"prev","type":"int","value":136}],"polyline":[{"x":0,"y":0},{"x":35,"y":0}]},{"id":1612,"x":-1080,"y":-1755,"visible":true,"properties":[{"name":"layer","type":"int","value":1},{"name":"group","type":"int","value":146},{"name":"id","type":"int","value":129},{"name":"fh_layer","type":"int","value":1},{"name":"fh_group","type":"int","value":146},{"name":"fh_id","type":"int","value":129},{"name":"x1","type":"int","value":-1080},{"name":"x2","type":"int","value":-990},{"name":"y1","type":"int","value":-1755},{"name":"y2","type":"int","value":-1755},{"name":"next","type":"int","value":122},{"name":"prev","type":"int","value":130}],"polyline":[{"x":0,"y":0},{"x":90,"y":0}]},{"id":1613,"x":-1135,"y":-1755,"visible":true,"properties":[{"name":"layer","type":"int","value":1},{"name":"group","type":"int","value":146},{"name":"id","type":"int","value":130},{"name":"fh_layer","type":"int","value":1},{"name":"fh_group","type":"int","value":146},{"name":"fh_id","type":"int","value":130},{"name":"x1","type":"int","value":-1135},{"name":"x2","type":"int","value":-1080},{"name":"y1","type":"int","value":-1755},{"name":"y2","type":"int","value":-1755},{"name":"next","type":"int","value":129},{"name":"prev","type":"int","value":115}],"polyline":[{"x":0,"y":0},{"x":55,"y":0}]},{"id":1614,"x":-1205,"y":-1815,"visible":true,"properties":[{"name":"layer","type":"int","value":1},{"name":"group","type":"int","value":146},{"name":"id","type":"int","value":131},{"name":"fh_layer","type":"int","value":1},{"name":"fh_group","type":"int","value":146},{"name":"fh_id","type":"int","value":131},{"name":"x1","type":"int","value":-1205},{"name":"x2","type":"int","value":-1170},{"name":"y1","type":"int","value":-1815},{"name":"y2","type":"int","value":-1815},{"name":"next","type":"int","value":132},{"name":"prev","type":"int","value":124}],"polyline":[{"x":0,"y":0},{"x":35,"y":0}]},{"id":1615,"x":-1170,"y":-1815,"visible":true,"properties":[{"name":"layer","type":"int","value":1},{"name":"group","type":"int","value":146},{"name":"id","type":"int","value":132},{"name":"fh_layer","type":"int","value":1},{"name":"fh_group","type":"int","value":146},{"name":"fh_id","type":"int","value":132},{"name":"x1","type":"int","value":-1170},{"name":"x2","type":"int","value":-1135},{"name":"y1","type":"int","value":-1815},{"name":"y2","type":"int","value":-1815},{"name":"next","type":"int","value":133},{"name":"prev","type":"int","value":131}],"polyline":[{"x":0,"y":0},{"x":35,"y":0}]},{"id":1616,"x":-1135,"y":-1815,"visible":true,"properties":[{"name":"layer","type":"int","value":1},{"name":"group","type":"int","value":146},{"name":"id","type":"int","value":133},{"name":"fh_layer","type":"int","value":1},{"name":"fh_group","type":"int","value":146},{"name":"fh_id","type":"int","value":133},{"name":"x1","type":"int","value":-1135},{"name":"x2","type":"int","value":-1135},{"name":"y1","type":"int","value":-1815},{"name":"y2","type":"int","value":-1800},{"name":"next","type":"int","value":115},{"name":"prev","type":"int","value":132}],"polyline":[{"x":0,"y":0},{"x":0,"y":15}]},{"id":1617,"x":-1655,"y":-1740,"visible":true,"properties":[{"name":"layer","type":"int","value":1},{"name":"group","type":"int","value":146},{"name":"id","type":"int","value":134},{"name":"fh_layer","type":"int","value":1},{"name":"fh_group","type":"int","value":146},{"name":"fh_id","type":"int","value":134},{"name":"x1","type":"int","value":-1655},{"name":"x2","type":"int","value":-1655},{"name":"y1","type":"int","value":-1740},{"name":"y2","type":"int","value":-1800},{"name":"next","type":"int","value":135},{"name":"prev","type":"int","value":138}],"polyline":[{"x":0,"y":0},{"x":0,"y":-60}]},{"id":1618,"x":-1655,"y":-1800,"visible":true,"properties":[{"name":"layer","type":"int","value":1},{"name":"group","type":"int","value":146},{"name":"id","type":"int","value":135},{"name":"fh_layer","type":"int","value":1},{"name":"fh_group","type":"int","value":146},{"name":"fh_id","type":"int","value":135},{"name":"x1","type":"int","value":-1655},{"name":"x2","type":"int","value":-1655},{"name":"y1","type":"int","value":-1800},{"name":"y2","type":"int","value":-1815},{"name":"next","type":"int","value":136},{"name":"prev","type":"int","value":134}],"polyline":[{"x":0,"y":0},{"x":0,"y":-15}]},{"id":1619,"x":-1655,"y":-1815,"visible":true,"properties":[{"name":"layer","type":"int","value":1},{"name":"group","type":"int","value":146},{"name":"id","type":"int","value":136},{"name":"fh_layer","type":"int","value":1},{"name":"fh_group","type":"int","value":146},{"name":"fh_id","type":"int","value":136},{"name":"x1","type":"int","value":-1655},{"name":"x2","type":"int","value":-1620},{"name":"y1","type":"int","value":-1815},{"name":"y2","type":"int","value":-1815},{"name":"next","type":"int","value":128},{"name":"prev","type":"int","value":135}],"polyline":[{"x":0,"y":0},{"x":35,"y":0}]},{"id":1620,"x":-1585,"y":-1815,"visible":true,"properties":[{"name":"layer","type":"int","value":1},{"name":"group","type":"int","value":146},{"name":"id","type":"int","value":137},{"name":"fh_layer","type":"int","value":1},{"name":"fh_group","type":"int","value":146},{"name":"fh_id","type":"int","value":137},{"name":"x1","type":"int","value":-1585},{"name":"x2","type":"int","value":-1530},{"name":"y1","type":"int","value":-1815},{"name":"y2","type":"int","value":-1815},{"name":"next","type":"int","value":125},{"name":"prev","type":"int","value":128}],"polyline":[{"x":0,"y":0},{"x":55,"y":0}]},{"id":1621,"x":-1655,"y":-1680,"visible":true,"properties":[{"name":"layer","type":"int","value":1},{"name":"group","type":"int","value":146},{"name":"id","type":"int","value":138},{"name":"fh_layer","type":"int","value":1},{"name":"fh_group","type":"int","value":146},{"name":"fh_id","type":"int","value":138},{"name":"x1","type":"int","value":-1655},{"name":"x2","type":"int","value":-1655},{"name":"y1","type":"int","value":-1680},{"name":"y2","type":"int","value":-1740},{"name":"next","type":"int","value":134},{"name":"prev","type":"int","value":0}],"polyline":[{"x":0,"y":0},{"x":0,"y":-60}]},{"id":1622,"x":-1095,"y":-1831,"visible":true,"properties":[{"name":"layer","type":"int","value":1},{"name":"group","type":"int","value":146},{"name":"id","type":"int","value":139},{"name":"fh_layer","type":"int","value":1},{"name":"fh_group","type":"int","value":146},{"name":"fh_id","type":"int","value":139},{"name":"x1","type":"int","value":-1095},{"name":"x2","type":"int","value":-1069},{"name":"y1","type":"int","value":-1831},{"name":"y2","type":"int","value":-1827},{"name":"next","type":"int","value":140},{"name":"prev","type":"int","value":0}],"polyline":[{"x":0,"y":0},{"x":26,"y":4}]},{"id":1623,"x":-1069,"y":-1827,"visible":true,"properties":[{"name":"layer","type":"int","value":1},{"name":"group","type":"int","value":146},{"name":"id","type":"int","value":140},{"name":"fh_layer","type":"int","value":1},{"name":"fh_group","type":"int","value":146},{"name":"fh_id","type":"int","value":140},{"name":"x1","type":"int","value":-1069},{"name":"x2","type":"int","value":-982},{"name":"y1","type":"int","value":-1827},{"name":"y2","type":"int","value":-1829},{"name":"next","type":"int","value":0},{"name":"prev","type":"int","value":139}],"polyline":[{"x":0,"y":0},{"x":87,"y":-2}]},{"id":1624,"x":-1211,"y":-1872,"visible":true,"properties":[{"name":"layer","type":"int","value":1},{"name":"group","type":"int","value":146},{"name":"id","type":"int","value":141},{"name":"fh_layer","type":"int","value":1},{"name":"fh_group","type":"int","value":146},{"name":"fh_id","type":"int","value":141},{"name":"x1","type":"int","value":-1211},{"name":"x2","type":"int","value":-1175},{"name":"y1","type":"int","value":-1872},{"name":"y2","type":"int","value":-1872},{"name":"next","type":"int","value":0},{"name":"prev","type":"int","value":0}],"polyline":[{"x":0,"y":0},{"x":36,"y":0}]},{"id":1625,"x":-215,"y":-1755,"visible":true,"properties":[{"name":"layer","type":"int","value":1},{"name":"group","type":"int","value":147},{"name":"id","type":"int","value":148},{"name":"fh_layer","type":"int","value":1},{"name":"fh_group","type":"int","value":147},{"name":"fh_id","type":"int","value":148},{"name":"x1","type":"int","value":-215},{"name":"x2","type":"int","value":-145},{"name":"y1","type":"int","value":-1755},{"name":"y2","type":"int","value":-1755},{"name":"next","type":"int","value":149},{"name":"prev","type":"int","value":150}],"polyline":[{"x":0,"y":0},{"x":70,"y":0}]},{"id":1626,"x":-145,"y":-1755,"visible":true,"properties":[{"name":"layer","type":"int","value":1},{"name":"group","type":"int","value":147},{"name":"id","type":"int","value":149},{"name":"fh_layer","type":"int","value":1},{"name":"fh_group","type":"int","value":147},{"name":"fh_id","type":"int","value":149},{"name":"x1","type":"int","value":-145},{"name":"x2","type":"int","value":-145},{"name":"y1","type":"int","value":-1755},{"name":"y2","type":"int","value":-1740},{"name":"next","type":"int","value":0},{"name":"prev","type":"int","value":148}],"polyline":[{"x":0,"y":0},{"x":0,"y":15}]},{"id":1627,"x":-270,"y":-1755,"visible":true,"properties":[{"name":"layer","type":"int","value":1},{"name":"group","type":"int","value":147},{"name":"id","type":"int","value":150},{"name":"fh_layer","type":"int","value":1},{"name":"fh_group","type":"int","value":147},{"name":"fh_id","type":"int","value":150},{"name":"x1","type":"int","value":-270},{"name":"x2","type":"int","value":-215},{"name":"y1","type":"int","value":-1755},{"name":"y2","type":"int","value":-1755},{"name":"next","type":"int","value":148},{"name":"prev","type":"int","value":154}],"polyline":[{"x":0,"y":0},{"x":55,"y":0}]},{"id":1628,"x":-360,"y":-1755,"visible":true,"properties":[{"name":"layer","type":"int","value":1},{"name":"group","type":"int","value":147},{"name":"id","type":"int","value":151},{"name":"fh_layer","type":"int","value":1},{"name":"fh_group","type":"int","value":147},{"name":"fh_id","type":"int","value":151},{"name":"x1","type":"int","value":-360},{"name":"x2","type":"int","value":-325},{"name":"y1","type":"int","value":-1755},{"name":"y2","type":"int","value":-1755},{"name":"next","type":"int","value":154},{"name":"prev","type":"int","value":153}],"polyline":[{"x":0,"y":0},{"x":35,"y":0}]},{"id":1629,"x":-395,"y":-1740,"visible":true,"properties":[{"name":"layer","type":"int","value":1},{"name":"group","type":"int","value":147},{"name":"id","type":"int","value":152},{"name":"fh_layer","type":"int","value":1},{"name":"fh_group","type":"int","value":147},{"name":"fh_id","type":"int","value":152},{"name":"x1","type":"int","value":-395},{"name":"x2","type":"int","value":-395},{"name":"y1","type":"int","value":-1740},{"name":"y2","type":"int","value":-1755},{"name":"next","type":"int","value":153},{"name":"prev","type":"int","value":0}],"polyline":[{"x":0,"y":0},{"x":0,"y":-15}]},{"id":1630,"x":-395,"y":-1755,"visible":true,"properties":[{"name":"layer","type":"int","value":1},{"name":"group","type":"int","value":147},{"name":"id","type":"int","value":153},{"name":"fh_layer","type":"int","value":1},{"name":"fh_group","type":"int","value":147},{"name":"fh_id","type":"int","value":153},{"name":"x1","type":"int","value":-395},{"name":"x2","type":"int","value":-360},{"name":"y1","type":"int","value":-1755},{"name":"y2","type":"int","value":-1755},{"name":"next","type":"int","value":151},{"name":"prev","type":"int","value":152}],"polyline":[{"x":0,"y":0},{"x":35,"y":0}]},{"id":1631,"x":-325,"y":-1755,"visible":true,"properties":[{"name":"layer","type":"int","value":1},{"name":"group","type":"int","value":147},{"name":"id","type":"int","value":154},{"name":"fh_layer","type":"int","value":1},{"name":"fh_group","type":"int","value":147},{"name":"fh_id","type":"int","value":154},{"name":"x1","type":"int","value":-325},{"name":"x2","type":"int","value":-270},{"name":"y1","type":"int","value":-1755},{"name":"y2","type":"int","value":-1755},{"name":"next","type":"int","value":150},{"name":"prev","type":"int","value":151}],"polyline":[{"x":0,"y":0},{"x":55,"y":0}]},{"id":1632,"x":-900,"y":-1815,"visible":true,"properties":[{"name":"layer","type":"int","value":1},{"name":"group","type":"int","value":155},{"name":"id","type":"int","value":515},{"name":"fh_layer","type":"int","value":1},{"name":"fh_group","type":"int","value":155},{"name":"fh_id","type":"int","value":515},{"name":"x1","type":"int","value":-900},{"name":"x2","type":"int","value":-865},{"name":"y1","type":"int","value":-1815},{"name":"y2","type":"int","value":-1815},{"name":"next","type":"int","value":518},{"name":"prev","type":"int","value":517}],"polyline":[{"x":0,"y":0},{"x":35,"y":0}]},{"id":1633,"x":-935,"y":-1800,"visible":true,"properties":[{"name":"layer","type":"int","value":1},{"name":"group","type":"int","value":155},{"name":"id","type":"int","value":516},{"name":"fh_layer","type":"int","value":1},{"name":"fh_group","type":"int","value":155},{"name":"fh_id","type":"int","value":516},{"name":"x1","type":"int","value":-935},{"name":"x2","type":"int","value":-935},{"name":"y1","type":"int","value":-1800},{"name":"y2","type":"int","value":-1815},{"name":"next","type":"int","value":517},{"name":"prev","type":"int","value":0}],"polyline":[{"x":0,"y":0},{"x":0,"y":-15}]},{"id":1634,"x":-935,"y":-1815,"visible":true,"properties":[{"name":"layer","type":"int","value":1},{"name":"group","type":"int","value":155},{"name":"id","type":"int","value":517},{"name":"fh_layer","type":"int","value":1},{"name":"fh_group","type":"int","value":155},{"name":"fh_id","type":"int","value":517},{"name":"x1","type":"int","value":-935},{"name":"x2","type":"int","value":-900},{"name":"y1","type":"int","value":-1815},{"name":"y2","type":"int","value":-1815},{"name":"next","type":"int","value":515},{"name":"prev","type":"int","value":516}],"polyline":[{"x":0,"y":0},{"x":35,"y":0}]},{"id":1635,"x":-865,"y":-1815,"visible":true,"properties":[{"name":"layer","type":"int","value":1},{"name":"group","type":"int","value":155},{"name":"id","type":"int","value":518},{"name":"fh_layer","type":"int","value":1},{"name":"fh_group","type":"int","value":155},{"name":"fh_id","type":"int","value":518},{"name":"x1","type":"int","value":-865},{"name":"x2","type":"int","value":-845},{"name":"y1","type":"int","value":-1815},{"name":"y2","type":"int","value":-1815},{"name":"next","type":"int","value":519},{"name":"prev","type":"int","value":515}],"polyline":[{"x":0,"y":0},{"x":20,"y":0}]},{"id":1636,"x":-845,"y":-1815,"visible":true,"properties":[{"name":"layer","type":"int","value":1},{"name":"group","type":"int","value":155},{"name":"id","type":"int","value":519},{"name":"fh_layer","type":"int","value":1},{"name":"fh_group","type":"int","value":155},{"name":"fh_id","type":"int","value":519},{"name":"x1","type":"int","value":-845},{"name":"x2","type":"int","value":-810},{"name":"y1","type":"int","value":-1815},{"name":"y2","type":"int","value":-1815},{"name":"next","type":"int","value":520},{"name":"prev","type":"int","value":518}],"polyline":[{"x":0,"y":0},{"x":35,"y":0}]},{"id":1637,"x":-810,"y":-1815,"visible":true,"properties":[{"name":"layer","type":"int","value":1},{"name":"group","type":"int","value":155},{"name":"id","type":"int","value":520},{"name":"fh_layer","type":"int","value":1},{"name":"fh_group","type":"int","value":155},{"name":"fh_id","type":"int","value":520},{"name":"x1","type":"int","value":-810},{"name":"x2","type":"int","value":-775},{"name":"y1","type":"int","value":-1815},{"name":"y2","type":"int","value":-1815},{"name":"next","type":"int","value":521},{"name":"prev","type":"int","value":519}],"polyline":[{"x":0,"y":0},{"x":35,"y":0}]},{"id":1638,"x":-775,"y":-1815,"visible":true,"properties":[{"name":"layer","type":"int","value":1},{"name":"group","type":"int","value":155},{"name":"id","type":"int","value":521},{"name":"fh_layer","type":"int","value":1},{"name":"fh_group","type":"int","value":155},{"name":"fh_id","type":"int","value":521},{"name":"x1","type":"int","value":-775},{"name":"x2","type":"int","value":-775},{"name":"y1","type":"int","value":-1815},{"name":"y2","type":"int","value":-1800},{"name":"next","type":"int","value":0},{"name":"prev","type":"int","value":520}],"polyline":[{"x":0,"y":0},{"x":0,"y":15}]},{"id":1639,"x":-485,"y":-1815,"visible":true,"properties":[{"name":"layer","type":"int","value":1},{"name":"group","type":"int","value":156},{"name":"id","type":"int","value":312},{"name":"fh_layer","type":"int","value":1},{"name":"fh_group","type":"int","value":156},{"name":"fh_id","type":"int","value":312},{"name":"x1","type":"int","value":-485},{"name":"x2","type":"int","value":-415},{"name":"y1","type":"int","value":-1815},{"name":"y2","type":"int","value":-1815},{"name":"next","type":"int","value":313},{"name":"prev","type":"int","value":316}],"polyline":[{"x":0,"y":0},{"x":70,"y":0}]},{"id":1640,"x":-415,"y":-1815,"visible":true,"properties":[{"name":"layer","type":"int","value":1},{"name":"group","type":"int","value":156},{"name":"id","type":"int","value":313},{"name":"fh_layer","type":"int","value":1},{"name":"fh_group","type":"int","value":156},{"name":"fh_id","type":"int","value":313},{"name":"x1","type":"int","value":-415},{"name":"x2","type":"int","value":-415},{"name":"y1","type":"int","value":-1815},{"name":"y2","type":"int","value":-1800},{"name":"next","type":"int","value":0},{"name":"prev","type":"int","value":312}],"polyline":[{"x":0,"y":0},{"x":0,"y":15}]},{"id":1641,"x":-575,"y":-1800,"visible":true,"properties":[{"name":"layer","type":"int","value":1},{"name":"group","type":"int","value":156},{"name":"id","type":"int","value":314},{"name":"fh_layer","type":"int","value":1},{"name":"fh_group","type":"int","value":156},{"name":"fh_id","type":"int","value":314},{"name":"x1","type":"int","value":-575},{"name":"x2","type":"int","value":-575},{"name":"y1","type":"int","value":-1800},{"name":"y2","type":"int","value":-1815},{"name":"next","type":"int","value":315},{"name":"prev","type":"int","value":0}],"polyline":[{"x":0,"y":0},{"x":0,"y":-15}]},{"id":1642,"x":-575,"y":-1815,"visible":true,"properties":[{"name":"layer","type":"int","value":1},{"name":"group","type":"int","value":156},{"name":"id","type":"int","value":315},{"name":"fh_layer","type":"int","value":1},{"name":"fh_group","type":"int","value":156},{"name":"fh_id","type":"int","value":315},{"name":"x1","type":"int","value":-575},{"name":"x2","type":"int","value":-505},{"name":"y1","type":"int","value":-1815},{"name":"y2","type":"int","value":-1815},{"name":"next","type":"int","value":316},{"name":"prev","type":"int","value":314}],"polyline":[{"x":0,"y":0},{"x":70,"y":0}]},{"id":1643,"x":-505,"y":-1815,"visible":true,"properties":[{"name":"layer","type":"int","value":1},{"name":"group","type":"int","value":156},{"name":"id","type":"int","value":316},{"name":"fh_layer","type":"int","value":1},{"name":"fh_group","type":"int","value":156},{"name":"fh_id","type":"int","value":316},{"name":"x1","type":"int","value":-505},{"name":"x2","type":"int","value":-485},{"name":"y1","type":"int","value":-1815},{"name":"y2","type":"int","value":-1815},{"name":"next","type":"int","value":312},{"name":"prev","type":"int","value":315}],"polyline":[{"x":0,"y":0},{"x":20,"y":0}]},{"id":1644,"x":-935,"y":-1860,"visible":true,"properties":[{"name":"layer","type":"int","value":1},{"name":"group","type":"int","value":157},{"name":"id","type":"int","value":498},{"name":"fh_layer","type":"int","value":1},{"name":"fh_group","type":"int","value":157},{"name":"fh_id","type":"int","value":498},{"name":"x1","type":"int","value":-935},{"name":"x2","type":"int","value":-935},{"name":"y1","type":"int","value":-1860},{"name":"y2","type":"int","value":-1875},{"name":"next","type":"int","value":499},{"name":"prev","type":"int","value":0}],"polyline":[{"x":0,"y":0},{"x":0,"y":-15}]},{"id":1645,"x":-935,"y":-1875,"visible":true,"properties":[{"name":"layer","type":"int","value":1},{"name":"group","type":"int","value":157},{"name":"id","type":"int","value":499},{"name":"fh_layer","type":"int","value":1},{"name":"fh_group","type":"int","value":157},{"name":"fh_id","type":"int","value":499},{"name":"x1","type":"int","value":-935},{"name":"x2","type":"int","value":-865},{"name":"y1","type":"int","value":-1875},{"name":"y2","type":"int","value":-1875},{"name":"next","type":"int","value":502},{"name":"prev","type":"int","value":498}],"polyline":[{"x":0,"y":0},{"x":70,"y":0}]},{"id":1646,"x":-845,"y":-1875,"visible":true,"properties":[{"name":"layer","type":"int","value":1},{"name":"group","type":"int","value":157},{"name":"id","type":"int","value":500},{"name":"fh_layer","type":"int","value":1},{"name":"fh_group","type":"int","value":157},{"name":"fh_id","type":"int","value":500},{"name":"x1","type":"int","value":-845},{"name":"x2","type":"int","value":-775},{"name":"y1","type":"int","value":-1875},{"name":"y2","type":"int","value":-1875},{"name":"next","type":"int","value":501},{"name":"prev","type":"int","value":502}],"polyline":[{"x":0,"y":0},{"x":70,"y":0}]},{"id":1647,"x":-775,"y":-1875,"visible":true,"properties":[{"name":"layer","type":"int","value":1},{"name":"group","type":"int","value":157},{"name":"id","type":"int","value":501},{"name":"fh_layer","type":"int","value":1},{"name":"fh_group","type":"int","value":157},{"name":"fh_id","type":"int","value":501},{"name":"x1","type":"int","value":-775},{"name":"x2","type":"int","value":-775},{"name":"y1","type":"int","value":-1875},{"name":"y2","type":"int","value":-1860},{"name":"next","type":"int","value":0},{"name":"prev","type":"int","value":500}],"polyline":[{"x":0,"y":0},{"x":0,"y":15}]},{"id":1648,"x":-865,"y":-1875,"visible":true,"properties":[{"name":"layer","type":"int","value":1},{"name":"group","type":"int","value":157},{"name":"id","type":"int","value":502},{"name":"fh_layer","type":"int","value":1},{"name":"fh_group","type":"int","value":157},{"name":"fh_id","type":"int","value":502},{"name":"x1","type":"int","value":-865},{"name":"x2","type":"int","value":-845},{"name":"y1","type":"int","value":-1875},{"name":"y2","type":"int","value":-1875},{"name":"next","type":"int","value":500},{"name":"prev","type":"int","value":499}],"polyline":[{"x":0,"y":0},{"x":20,"y":0}]},{"id":1649,"x":-900,"y":-1935,"visible":true,"properties":[{"name":"layer","type":"int","value":1},{"name":"group","type":"int","value":158},{"name":"id","type":"int","value":503},{"name":"fh_layer","type":"int","value":1},{"name":"fh_group","type":"int","value":158},{"name":"fh_id","type":"int","value":503},{"name":"x1","type":"int","value":-900},{"name":"x2","type":"int","value":-865},{"name":"y1","type":"int","value":-1935},{"name":"y2","type":"int","value":-1935},{"name":"next","type":"int","value":509},{"name":"prev","type":"int","value":508}],"polyline":[{"x":0,"y":0},{"x":35,"y":0}]},{"id":1650,"x":-845,"y":-1935,"visible":true,"properties":[{"name":"layer","type":"int","value":1},{"name":"group","type":"int","value":158},{"name":"id","type":"int","value":504},{"name":"fh_layer","type":"int","value":1},{"name":"fh_group","type":"int","value":158},{"name":"fh_id","type":"int","value":504},{"name":"x1","type":"int","value":-845},{"name":"x2","type":"int","value":-810},{"name":"y1","type":"int","value":-1935},{"name":"y2","type":"int","value":-1935},{"name":"next","type":"int","value":505},{"name":"prev","type":"int","value":509}],"polyline":[{"x":0,"y":0},{"x":35,"y":0}]},{"id":1651,"x":-810,"y":-1935,"visible":true,"properties":[{"name":"layer","type":"int","value":1},{"name":"group","type":"int","value":158},{"name":"id","type":"int","value":505},{"name":"fh_layer","type":"int","value":1},{"name":"fh_group","type":"int","value":158},{"name":"fh_id","type":"int","value":505},{"name":"x1","type":"int","value":-810},{"name":"x2","type":"int","value":-775},{"name":"y1","type":"int","value":-1935},{"name":"y2","type":"int","value":-1935},{"name":"next","type":"int","value":506},{"name":"prev","type":"int","value":504}],"polyline":[{"x":0,"y":0},{"x":35,"y":0}]},{"id":1652,"x":-775,"y":-1935,"visible":true,"properties":[{"name":"layer","type":"int","value":1},{"name":"group","type":"int","value":158},{"name":"id","type":"int","value":506},{"name":"fh_layer","type":"int","value":1},{"name":"fh_group","type":"int","value":158},{"name":"fh_id","type":"int","value":506},{"name":"x1","type":"int","value":-775},{"name":"x2","type":"int","value":-775},{"name":"y1","type":"int","value":-1935},{"name":"y2","type":"int","value":-1920},{"name":"next","type":"int","value":0},{"name":"prev","type":"int","value":505}],"polyline":[{"x":0,"y":0},{"x":0,"y":15}]},{"id":1653,"x":-935,"y":-1920,"visible":true,"properties":[{"name":"layer","type":"int","value":1},{"name":"group","type":"int","value":158},{"name":"id","type":"int","value":507},{"name":"fh_layer","type":"int","value":1},{"name":"fh_group","type":"int","value":158},{"name":"fh_id","type":"int","value":507},{"name":"x1","type":"int","value":-935},{"name":"x2","type":"int","value":-935},{"name":"y1","type":"int","value":-1920},{"name":"y2","type":"int","value":-1935},{"name":"next","type":"int","value":508},{"name":"prev","type":"int","value":0}],"polyline":[{"x":0,"y":0},{"x":0,"y":-15}]},{"id":1654,"x":-935,"y":-1935,"visible":true,"properties":[{"name":"layer","type":"int","value":1},{"name":"group","type":"int","value":158},{"name":"id","type":"int","value":508},{"name":"fh_layer","type":"int","value":1},{"name":"fh_group","type":"int","value":158},{"name":"fh_id","type":"int","value":508},{"name":"x1","type":"int","value":-935},{"name":"x2","type":"int","value":-900},{"name":"y1","type":"int","value":-1935},{"name":"y2","type":"int","value":-1935},{"name":"next","type":"int","value":503},{"name":"prev","type":"int","value":507}],"polyline":[{"x":0,"y":0},{"x":35,"y":0}]},{"id":1655,"x":-865,"y":-1935,"visible":true,"properties":[{"name":"layer","type":"int","value":1},{"name":"group","type":"int","value":158},{"name":"id","type":"int","value":509},{"name":"fh_layer","type":"int","value":1},{"name":"fh_group","type":"int","value":158},{"name":"fh_id","type":"int","value":509},{"name":"x1","type":"int","value":-865},{"name":"x2","type":"int","value":-845},{"name":"y1","type":"int","value":-1935},{"name":"y2","type":"int","value":-1935},{"name":"next","type":"int","value":504},{"name":"prev","type":"int","value":503}],"polyline":[{"x":0,"y":0},{"x":20,"y":0}]},{"id":1656,"x":395,"y":-1980,"visible":true,"properties":[{"name":"layer","type":"int","value":1},{"name":"group","type":"int","value":159},{"name":"id","type":"int","value":208},{"name":"fh_layer","type":"int","value":1},{"name":"fh_group","type":"int","value":159},{"name":"fh_id","type":"int","value":208},{"name":"x1","type":"int","value":395},{"name":"x2","type":"int","value":395},{"name":"y1","type":"int","value":-1980},{"name":"y2","type":"int","value":-1920},{"name":"next","type":"int","value":0},{"name":"prev","type":"int","value":233}],"polyline":[{"x":0,"y":0},{"x":0,"y":60}]},{"id":1657,"x":395,"y":-2100,"visible":true,"properties":[{"name":"layer","type":"int","value":1},{"name":"group","type":"int","value":159},{"name":"id","type":"int","value":209},{"name":"fh_layer","type":"int","value":1},{"name":"fh_group","type":"int","value":159},{"name":"fh_id","type":"int","value":209},{"name":"x1","type":"int","value":395},{"name":"x2","type":"int","value":395},{"name":"y1","type":"int","value":-2100},{"name":"y2","type":"int","value":-2040},{"name":"next","type":"int","value":233},{"name":"prev","type":"int","value":216}],"polyline":[{"x":0,"y":0},{"x":0,"y":60}]},{"id":1658,"x":180,"y":-2055,"visible":true,"properties":[{"name":"layer","type":"int","value":1},{"name":"group","type":"int","value":159},{"name":"id","type":"int","value":210},{"name":"fh_layer","type":"int","value":1},{"name":"fh_group","type":"int","value":159},{"name":"fh_id","type":"int","value":210},{"name":"x1","type":"int","value":180},{"name":"x2","type":"int","value":235},{"name":"y1","type":"int","value":-2055},{"name":"y2","type":"int","value":-2055},{"name":"next","type":"int","value":211},{"name":"prev","type":"int","value":222}],"polyline":[{"x":0,"y":0},{"x":55,"y":0}]},{"id":1659,"x":235,"y":-2055,"visible":true,"properties":[{"name":"layer","type":"int","value":1},{"name":"group","type":"int","value":159},{"name":"id","type":"int","value":211},{"name":"fh_layer","type":"int","value":1},{"name":"fh_group","type":"int","value":159},{"name":"fh_id","type":"int","value":211},{"name":"x1","type":"int","value":235},{"name":"x2","type":"int","value":235},{"name":"y1","type":"int","value":-2055},{"name":"y2","type":"int","value":-2100},{"name":"next","type":"int","value":232},{"name":"prev","type":"int","value":210}],"polyline":[{"x":0,"y":0},{"x":0,"y":-45}]},{"id":1660,"x":235,"y":-2160,"visible":true,"properties":[{"name":"layer","type":"int","value":1},{"name":"group","type":"int","value":159},{"name":"id","type":"int","value":212},{"name":"fh_layer","type":"int","value":1},{"name":"fh_group","type":"int","value":159},{"name":"fh_id","type":"int","value":212},{"name":"x1","type":"int","value":235},{"name":"x2","type":"int","value":235},{"name":"y1","type":"int","value":-2160},{"name":"y2","type":"int","value":-2175},{"name":"next","type":"int","value":213},{"name":"prev","type":"int","value":232}],"polyline":[{"x":0,"y":0},{"x":0,"y":-15}]},{"id":1661,"x":235,"y":-2175,"visible":true,"properties":[{"name":"layer","type":"int","value":1},{"name":"group","type":"int","value":159},{"name":"id","type":"int","value":213},{"name":"fh_layer","type":"int","value":1},{"name":"fh_group","type":"int","value":159},{"name":"fh_id","type":"int","value":213},{"name":"x1","type":"int","value":235},{"name":"x2","type":"int","value":305},{"name":"y1","type":"int","value":-2175},{"name":"y2","type":"int","value":-2175},{"name":"next","type":"int","value":217},{"name":"prev","type":"int","value":212}],"polyline":[{"x":0,"y":0},{"x":70,"y":0}]},{"id":1662,"x":325,"y":-2175,"visible":true,"properties":[{"name":"layer","type":"int","value":1},{"name":"group","type":"int","value":159},{"name":"id","type":"int","value":214},{"name":"fh_layer","type":"int","value":1},{"name":"fh_group","type":"int","value":159},{"name":"fh_id","type":"int","value":214},{"name":"x1","type":"int","value":325},{"name":"x2","type":"int","value":395},{"name":"y1","type":"int","value":-2175},{"name":"y2","type":"int","value":-2175},{"name":"next","type":"int","value":215},{"name":"prev","type":"int","value":217}],"polyline":[{"x":0,"y":0},{"x":70,"y":0}]},{"id":1663,"x":395,"y":-2175,"visible":true,"properties":[{"name":"layer","type":"int","value":1},{"name":"group","type":"int","value":159},{"name":"id","type":"int","value":215},{"name":"fh_layer","type":"int","value":1},{"name":"fh_group","type":"int","value":159},{"name":"fh_id","type":"int","value":215},{"name":"x1","type":"int","value":395},{"name":"x2","type":"int","value":395},{"name":"y1","type":"int","value":-2175},{"name":"y2","type":"int","value":-2160},{"name":"next","type":"int","value":216},{"name":"prev","type":"int","value":214}],"polyline":[{"x":0,"y":0},{"x":0,"y":15}]},{"id":1664,"x":395,"y":-2160,"visible":true,"properties":[{"name":"layer","type":"int","value":1},{"name":"group","type":"int","value":159},{"name":"id","type":"int","value":216},{"name":"fh_layer","type":"int","value":1},{"name":"fh_group","type":"int","value":159},{"name":"fh_id","type":"int","value":216},{"name":"x1","type":"int","value":395},{"name":"x2","type":"int","value":395},{"name":"y1","type":"int","value":-2160},{"name":"y2","type":"int","value":-2100},{"name":"next","type":"int","value":209},{"name":"prev","type":"int","value":215}],"polyline":[{"x":0,"y":0},{"x":0,"y":60}]},{"id":1665,"x":305,"y":-2175,"visible":true,"properties":[{"name":"layer","type":"int","value":1},{"name":"group","type":"int","value":159},{"name":"id","type":"int","value":217},{"name":"fh_layer","type":"int","value":1},{"name":"fh_group","type":"int","value":159},{"name":"fh_id","type":"int","value":217},{"name":"x1","type":"int","value":305},{"name":"x2","type":"int","value":325},{"name":"y1","type":"int","value":-2175},{"name":"y2","type":"int","value":-2175},{"name":"next","type":"int","value":214},{"name":"prev","type":"int","value":213}],"polyline":[{"x":0,"y":0},{"x":20,"y":0}]},{"id":1666,"x":-540,"y":-2055,"visible":true,"properties":[{"name":"layer","type":"int","value":1},{"name":"group","type":"int","value":159},{"name":"id","type":"int","value":218},{"name":"fh_layer","type":"int","value":1},{"name":"fh_group","type":"int","value":159},{"name":"fh_id","type":"int","value":218},{"name":"x1","type":"int","value":-540},{"name":"x2","type":"int","value":-450},{"name":"y1","type":"int","value":-2055},{"name":"y2","type":"int","value":-2055},{"name":"next","type":"int","value":220},{"name":"prev","type":"int","value":226}],"polyline":[{"x":0,"y":0},{"x":90,"y":0}]},{"id":1667,"x":-360,"y":-2055,"visible":true,"properties":[{"name":"layer","type":"int","value":1},{"name":"group","type":"int","value":159},{"name":"id","type":"int","value":219},{"name":"fh_layer","type":"int","value":1},{"name":"fh_group","type":"int","value":159},{"name":"fh_id","type":"int","value":219},{"name":"x1","type":"int","value":-360},{"name":"x2","type":"int","value":-270},{"name":"y1","type":"int","value":-2055},{"name":"y2","type":"int","value":-2055},{"name":"next","type":"int","value":221},{"name":"prev","type":"int","value":220}],"polyline":[{"x":0,"y":0},{"x":90,"y":0}]},{"id":1668,"x":-450,"y":-2055,"visible":true,"properties":[{"name":"layer","type":"int","value":1},{"name":"group","type":"int","value":159},{"name":"id","type":"int","value":220},{"name":"fh_layer","type":"int","value":1},{"name":"fh_group","type":"int","value":159},{"name":"fh_id","type":"int","value":220},{"name":"x1","type":"int","value":-450},{"name":"x2","type":"int","value":-360},{"name":"y1","type":"int","value":-2055},{"name":"y2","type":"int","value":-2055},{"name":"next","type":"int","value":219},{"name":"prev","type":"int","value":218}],"polyline":[{"x":0,"y":0},{"x":90,"y":0}]},{"id":1669,"x":-270,"y":-2055,"visible":true,"properties":[{"name":"layer","type":"int","value":1},{"name":"group","type":"int","value":159},{"name":"id","type":"int","value":221},{"name":"fh_layer","type":"int","value":1},{"name":"fh_group","type":"int","value":159},{"name":"fh_id","type":"int","value":221},{"name":"x1","type":"int","value":-270},{"name":"x2","type":"int","value":-180},{"name":"y1","type":"int","value":-2055},{"name":"y2","type":"int","value":-2055},{"name":"next","type":"int","value":223},{"name":"prev","type":"int","value":219}],"polyline":[{"x":0,"y":0},{"x":90,"y":0}]},{"id":1670,"x":90,"y":-2055,"visible":true,"properties":[{"name":"layer","type":"int","value":1},{"name":"group","type":"int","value":159},{"name":"id","type":"int","value":222},{"name":"fh_layer","type":"int","value":1},{"name":"fh_group","type":"int","value":159},{"name":"fh_id","type":"int","value":222},{"name":"x1","type":"int","value":90},{"name":"x2","type":"int","value":180},{"name":"y1","type":"int","value":-2055},{"name":"y2","type":"int","value":-2055},{"name":"next","type":"int","value":210},{"name":"prev","type":"int","value":225}],"polyline":[{"x":0,"y":0},{"x":90,"y":0}]},{"id":1671,"x":-180,"y":-2055,"visible":true,"properties":[{"name":"layer","type":"int","value":1},{"name":"group","type":"int","value":159},{"name":"id","type":"int","value":223},{"name":"fh_layer","type":"int","value":1},{"name":"fh_group","type":"int","value":159},{"name":"fh_id","type":"int","value":223},{"name":"x1","type":"int","value":-180},{"name":"x2","type":"int","value":-90},{"name":"y1","type":"int","value":-2055},{"name":"y2","type":"int","value":-2055},{"name":"next","type":"int","value":224},{"name":"prev","type":"int","value":221}],"polyline":[{"x":0,"y":0},{"x":90,"y":0}]},{"id":1672,"x":-90,"y":-2055,"visible":true,"properties":[{"name":"layer","type":"int","value":1},{"name":"group","type":"int","value":159},{"name":"id","type":"int","value":224},{"name":"fh_layer","type":"int","value":1},{"name":"fh_group","type":"int","value":159},{"name":"fh_id","type":"int","value":224},{"name":"x1","type":"int","value":-90},{"name":"x2","type":"int","value":0},{"name":"y1","type":"int","value":-2055},{"name":"y2","type":"int","value":-2055},{"name":"next","type":"int","value":225},{"name":"prev","type":"int","value":223}],"polyline":[{"x":0,"y":0},{"x":90,"y":0}]},{"id":1673,"x":0,"y":-2055,"visible":true,"properties":[{"name":"layer","type":"int","value":1},{"name":"group","type":"int","value":159},{"name":"id","type":"int","value":225},{"name":"fh_layer","type":"int","value":1},{"name":"fh_group","type":"int","value":159},{"name":"fh_id","type":"int","value":225},{"name":"x1","type":"int","value":0},{"name":"x2","type":"int","value":90},{"name":"y1","type":"int","value":-2055},{"name":"y2","type":"int","value":-2055},{"name":"next","type":"int","value":222},{"name":"prev","type":"int","value":224}],"polyline":[{"x":0,"y":0},{"x":90,"y":0}]},{"id":1674,"x":-630,"y":-1995,"visible":true,"properties":[{"name":"layer","type":"int","value":1},{"name":"group","type":"int","value":159},{"name":"id","type":"int","value":226},{"name":"fh_layer","type":"int","value":1},{"name":"fh_group","type":"int","value":159},{"name":"fh_id","type":"int","value":226},{"name":"x1","type":"int","value":-630},{"name":"x2","type":"int","value":-540},{"name":"y1","type":"int","value":-1995},{"name":"y2","type":"int","value":-2055},{"name":"next","type":"int","value":218},{"name":"prev","type":"int","value":230}],"polyline":[{"x":0,"y":0},{"x":90,"y":-60}]},{"id":1675,"x":-720,"y":-1995,"visible":true,"properties":[{"name":"layer","type":"int","value":1},{"name":"group","type":"int","value":159},{"name":"id","type":"int","value":227},{"name":"fh_layer","type":"int","value":1},{"name":"fh_group","type":"int","value":159},{"name":"fh_id","type":"int","value":227},{"name":"x1","type":"int","value":-720},{"name":"x2","type":"int","value":-685},{"name":"y1","type":"int","value":-1995},{"name":"y2","type":"int","value":-1995},{"name":"next","type":"int","value":230},{"name":"prev","type":"int","value":229}],"polyline":[{"x":0,"y":0},{"x":35,"y":0}]},{"id":1676,"x":-755,"y":-1980,"visible":true,"properties":[{"name":"layer","type":"int","value":1},{"name":"group","type":"int","value":159},{"name":"id","type":"int","value":228},{"name":"fh_layer","type":"int","value":1},{"name":"fh_group","type":"int","value":159},{"name":"fh_id","type":"int","value":228},{"name":"x1","type":"int","value":-755},{"name":"x2","type":"int","value":-755},{"name":"y1","type":"int","value":-1980},{"name":"y2","type":"int","value":-1995},{"name":"next","type":"int","value":229},{"name":"prev","type":"int","value":231}],"polyline":[{"x":0,"y":0},{"x":0,"y":-15}]},{"id":1677,"x":-755,"y":-1995,"visible":true,"properties":[{"name":"layer","type":"int","value":1},{"name":"group","type":"int","value":159},{"name":"id","type":"int","value":229},{"name":"fh_layer","type":"int","value":1},{"name":"fh_group","type":"int","value":159},{"name":"fh_id","type":"int","value":229},{"name":"x1","type":"int","value":-755},{"name":"x2","type":"int","value":-720},{"name":"y1","type":"int","value":-1995},{"name":"y2","type":"int","value":-1995},{"name":"next","type":"int","value":227},{"name":"prev","type":"int","value":228}],"polyline":[{"x":0,"y":0},{"x":35,"y":0}]},{"id":1678,"x":-685,"y":-1995,"visible":true,"properties":[{"name":"layer","type":"int","value":1},{"name":"group","type":"int","value":159},{"name":"id","type":"int","value":230},{"name":"fh_layer","type":"int","value":1},{"name":"fh_group","type":"int","value":159},{"name":"fh_id","type":"int","value":230},{"name":"x1","type":"int","value":-685},{"name":"x2","type":"int","value":-630},{"name":"y1","type":"int","value":-1995},{"name":"y2","type":"int","value":-1995},{"name":"next","type":"int","value":226},{"name":"prev","type":"int","value":227}],"polyline":[{"x":0,"y":0},{"x":55,"y":0}]},{"id":1679,"x":-755,"y":-1920,"visible":true,"properties":[{"name":"layer","type":"int","value":1},{"name":"group","type":"int","value":159},{"name":"id","type":"int","value":231},{"name":"fh_layer","type":"int","value":1},{"name":"fh_group","type":"int","value":159},{"name":"fh_id","type":"int","value":231},{"name":"x1","type":"int","value":-755},{"name":"x2","type":"int","value":-755},{"name":"y1","type":"int","value":-1920},{"name":"y2","type":"int","value":-1980},{"name":"next","type":"int","value":228},{"name":"prev","type":"int","value":0}],"polyline":[{"x":0,"y":0},{"x":0,"y":-60}]},{"id":1680,"x":235,"y":-2100,"visible":true,"properties":[{"name":"layer","type":"int","value":1},{"name":"group","type":"int","value":159},{"name":"id","type":"int","value":232},{"name":"fh_layer","type":"int","value":1},{"name":"fh_group","type":"int","value":159},{"name":"fh_id","type":"int","value":232},{"name":"x1","type":"int","value":235},{"name":"x2","type":"int","value":235},{"name":"y1","type":"int","value":-2100},{"name":"y2","type":"int","value":-2160},{"name":"next","type":"int","value":212},{"name":"prev","type":"int","value":211}],"polyline":[{"x":0,"y":0},{"x":0,"y":-60}]},{"id":1681,"x":395,"y":-2040,"visible":true,"properties":[{"name":"layer","type":"int","value":1},{"name":"group","type":"int","value":159},{"name":"id","type":"int","value":233},{"name":"fh_layer","type":"int","value":1},{"name":"fh_group","type":"int","value":159},{"name":"fh_id","type":"int","value":233},{"name":"x1","type":"int","value":395},{"name":"x2","type":"int","value":395},{"name":"y1","type":"int","value":-2040},{"name":"y2","type":"int","value":-1980},{"name":"next","type":"int","value":208},{"name":"prev","type":"int","value":209}],"polyline":[{"x":0,"y":0},{"x":0,"y":60}]},{"id":1682,"x":-755,"y":-2100,"visible":true,"properties":[{"name":"layer","type":"int","value":1},{"name":"group","type":"int","value":160},{"name":"id","type":"int","value":527},{"name":"fh_layer","type":"int","value":1},{"name":"fh_group","type":"int","value":160},{"name":"fh_id","type":"int","value":527},{"name":"x1","type":"int","value":-755},{"name":"x2","type":"int","value":-755},{"name":"y1","type":"int","value":-2100},{"name":"y2","type":"int","value":-2115},{"name":"next","type":"int","value":528},{"name":"prev","type":"int","value":0}],"polyline":[{"x":0,"y":0},{"x":0,"y":-15}]},{"id":1683,"x":-755,"y":-2115,"visible":true,"properties":[{"name":"layer","type":"int","value":1},{"name":"group","type":"int","value":160},{"name":"id","type":"int","value":528},{"name":"fh_layer","type":"int","value":1},{"name":"fh_group","type":"int","value":160},{"name":"fh_id","type":"int","value":528},{"name":"x1","type":"int","value":-755},{"name":"x2","type":"int","value":-685},{"name":"y1","type":"int","value":-2115},{"name":"y2","type":"int","value":-2115},{"name":"next","type":"int","value":531},{"name":"prev","type":"int","value":527}],"polyline":[{"x":0,"y":0},{"x":70,"y":0}]},{"id":1684,"x":-665,"y":-2115,"visible":true,"properties":[{"name":"layer","type":"int","value":1},{"name":"group","type":"int","value":160},{"name":"id","type":"int","value":529},{"name":"fh_layer","type":"int","value":1},{"name":"fh_group","type":"int","value":160},{"name":"fh_id","type":"int","value":529},{"name":"x1","type":"int","value":-665},{"name":"x2","type":"int","value":-595},{"name":"y1","type":"int","value":-2115},{"name":"y2","type":"int","value":-2115},{"name":"next","type":"int","value":530},{"name":"prev","type":"int","value":531}],"polyline":[{"x":0,"y":0},{"x":70,"y":0}]},{"id":1685,"x":-595,"y":-2115,"visible":true,"properties":[{"name":"layer","type":"int","value":1},{"name":"group","type":"int","value":160},{"name":"id","type":"int","value":530},{"name":"fh_layer","type":"int","value":1},{"name":"fh_group","type":"int","value":160},{"name":"fh_id","type":"int","value":530},{"name":"x1","type":"int","value":-595},{"name":"x2","type":"int","value":-595},{"name":"y1","type":"int","value":-2115},{"name":"y2","type":"int","value":-2100},{"name":"next","type":"int","value":0},{"name":"prev","type":"int","value":529}],"polyline":[{"x":0,"y":0},{"x":0,"y":15}]},{"id":1686,"x":-685,"y":-2115,"visible":true,"properties":[{"name":"layer","type":"int","value":1},{"name":"group","type":"int","value":160},{"name":"id","type":"int","value":531},{"name":"fh_layer","type":"int","value":1},{"name":"fh_group","type":"int","value":160},{"name":"fh_id","type":"int","value":531},{"name":"x1","type":"int","value":-685},{"name":"x2","type":"int","value":-665},{"name":"y1","type":"int","value":-2115},{"name":"y2","type":"int","value":-2115},{"name":"next","type":"int","value":529},{"name":"prev","type":"int","value":528}],"polyline":[{"x":0,"y":0},{"x":20,"y":0}]},{"id":1687,"x":-755,"y":-2160,"visible":true,"properties":[{"name":"layer","type":"int","value":1},{"name":"group","type":"int","value":161},{"name":"id","type":"int","value":532},{"name":"fh_layer","type":"int","value":1},{"name":"fh_group","type":"int","value":161},{"name":"fh_id","type":"int","value":532},{"name":"x1","type":"int","value":-755},{"name":"x2","type":"int","value":-755},{"name":"y1","type":"int","value":-2160},{"name":"y2","type":"int","value":-2175},{"name":"next","type":"int","value":533},{"name":"prev","type":"int","value":0}],"polyline":[{"x":0,"y":0},{"x":0,"y":-15}]},{"id":1688,"x":-755,"y":-2175,"visible":true,"properties":[{"name":"layer","type":"int","value":1},{"name":"group","type":"int","value":161},{"name":"id","type":"int","value":533},{"name":"fh_layer","type":"int","value":1},{"name":"fh_group","type":"int","value":161},{"name":"fh_id","type":"int","value":533},{"name":"x1","type":"int","value":-755},{"name":"x2","type":"int","value":-685},{"name":"y1","type":"int","value":-2175},{"name":"y2","type":"int","value":-2175},{"name":"next","type":"int","value":536},{"name":"prev","type":"int","value":532}],"polyline":[{"x":0,"y":0},{"x":70,"y":0}]},{"id":1689,"x":-665,"y":-2175,"visible":true,"properties":[{"name":"layer","type":"int","value":1},{"name":"group","type":"int","value":161},{"name":"id","type":"int","value":534},{"name":"fh_layer","type":"int","value":1},{"name":"fh_group","type":"int","value":161},{"name":"fh_id","type":"int","value":534},{"name":"x1","type":"int","value":-665},{"name":"x2","type":"int","value":-595},{"name":"y1","type":"int","value":-2175},{"name":"y2","type":"int","value":-2175},{"name":"next","type":"int","value":535},{"name":"prev","type":"int","value":536}],"polyline":[{"x":0,"y":0},{"x":70,"y":0}]},{"id":1690,"x":-595,"y":-2175,"visible":true,"properties":[{"name":"layer","type":"int","value":1},{"name":"group","type":"int","value":161},{"name":"id","type":"int","value":535},{"name":"fh_layer","type":"int","value":1},{"name":"fh_group","type":"int","value":161},{"name":"fh_id","type":"int","value":535},{"name":"x1","type":"int","value":-595},{"name":"x2","type":"int","value":-595},{"name":"y1","type":"int","value":-2175},{"name":"y2","type":"int","value":-2160},{"name":"next","type":"int","value":0},{"name":"prev","type":"int","value":534}],"polyline":[{"x":0,"y":0},{"x":0,"y":15}]},{"id":1691,"x":-685,"y":-2175,"visible":true,"properties":[{"name":"layer","type":"int","value":1},{"name":"group","type":"int","value":161},{"name":"id","type":"int","value":536},{"name":"fh_layer","type":"int","value":1},{"name":"fh_group","type":"int","value":161},{"name":"fh_id","type":"int","value":536},{"name":"x1","type":"int","value":-685},{"name":"x2","type":"int","value":-665},{"name":"y1","type":"int","value":-2175},{"name":"y2","type":"int","value":-2175},{"name":"next","type":"int","value":534},{"name":"prev","type":"int","value":533}],"polyline":[{"x":0,"y":0},{"x":20,"y":0}]},{"id":1692,"x":-755,"y":-2220,"visible":true,"properties":[{"name":"layer","type":"int","value":1},{"name":"group","type":"int","value":162},{"name":"id","type":"int","value":537},{"name":"fh_layer","type":"int","value":1},{"name":"fh_group","type":"int","value":162},{"name":"fh_id","type":"int","value":537},{"name":"x1","type":"int","value":-755},{"name":"x2","type":"int","value":-755},{"name":"y1","type":"int","value":-2220},{"name":"y2","type":"int","value":-2235},{"name":"next","type":"int","value":538},{"name":"prev","type":"int","value":0}],"polyline":[{"x":0,"y":0},{"x":0,"y":-15}]},{"id":1693,"x":-755,"y":-2235,"visible":true,"properties":[{"name":"layer","type":"int","value":1},{"name":"group","type":"int","value":162},{"name":"id","type":"int","value":538},{"name":"fh_layer","type":"int","value":1},{"name":"fh_group","type":"int","value":162},{"name":"fh_id","type":"int","value":538},{"name":"x1","type":"int","value":-755},{"name":"x2","type":"int","value":-685},{"name":"y1","type":"int","value":-2235},{"name":"y2","type":"int","value":-2235},{"name":"next","type":"int","value":541},{"name":"prev","type":"int","value":537}],"polyline":[{"x":0,"y":0},{"x":70,"y":0}]},{"id":1694,"x":-665,"y":-2235,"visible":true,"properties":[{"name":"layer","type":"int","value":1},{"name":"group","type":"int","value":162},{"name":"id","type":"int","value":539},{"name":"fh_layer","type":"int","value":1},{"name":"fh_group","type":"int","value":162},{"name":"fh_id","type":"int","value":539},{"name":"x1","type":"int","value":-665},{"name":"x2","type":"int","value":-595},{"name":"y1","type":"int","value":-2235},{"name":"y2","type":"int","value":-2235},{"name":"next","type":"int","value":540},{"name":"prev","type":"int","value":541}],"polyline":[{"x":0,"y":0},{"x":70,"y":0}]},{"id":1695,"x":-595,"y":-2235,"visible":true,"properties":[{"name":"layer","type":"int","value":1},{"name":"group","type":"int","value":162},{"name":"id","type":"int","value":540},{"name":"fh_layer","type":"int","value":1},{"name":"fh_group","type":"int","value":162},{"name":"fh_id","type":"int","value":540},{"name":"x1","type":"int","value":-595},{"name":"x2","type":"int","value":-595},{"name":"y1","type":"int","value":-2235},{"name":"y2","type":"int","value":-2220},{"name":"next","type":"int","value":0},{"name":"prev","type":"int","value":539}],"polyline":[{"x":0,"y":0},{"x":0,"y":15}]},{"id":1696,"x":-685,"y":-2235,"visible":true,"properties":[{"name":"layer","type":"int","value":1},{"name":"group","type":"int","value":162},{"name":"id","type":"int","value":541},{"name":"fh_layer","type":"int","value":1},{"name":"fh_group","type":"int","value":162},{"name":"fh_id","type":"int","value":541},{"name":"x1","type":"int","value":-685},{"name":"x2","type":"int","value":-665},{"name":"y1","type":"int","value":-2235},{"name":"y2","type":"int","value":-2235},{"name":"next","type":"int","value":539},{"name":"prev","type":"int","value":538}],"polyline":[{"x":0,"y":0},{"x":20,"y":0}]},{"id":1697,"x":-810,"y":-2295,"visible":true,"properties":[{"name":"layer","type":"int","value":1},{"name":"group","type":"int","value":163},{"name":"id","type":"int","value":107},{"name":"fh_layer","type":"int","value":1},{"name":"fh_group","type":"int","value":163},{"name":"fh_id","type":"int","value":107},{"name":"x1","type":"int","value":-810},{"name":"x2","type":"int","value":-775},{"name":"y1","type":"int","value":-2295},{"name":"y2","type":"int","value":-2295},{"name":"next","type":"int","value":112},{"name":"prev","type":"int","value":111}],"polyline":[{"x":0,"y":0},{"x":35,"y":0}]},{"id":1698,"x":-575,"y":-2295,"visible":true,"properties":[{"name":"layer","type":"int","value":1},{"name":"group","type":"int","value":163},{"name":"id","type":"int","value":108},{"name":"fh_layer","type":"int","value":1},{"name":"fh_group","type":"int","value":163},{"name":"fh_id","type":"int","value":108},{"name":"x1","type":"int","value":-575},{"name":"x2","type":"int","value":-505},{"name":"y1","type":"int","value":-2295},{"name":"y2","type":"int","value":-2295},{"name":"next","type":"int","value":109},{"name":"prev","type":"int","value":113}],"polyline":[{"x":0,"y":0},{"x":70,"y":0}]},{"id":1699,"x":-505,"y":-2295,"visible":true,"properties":[{"name":"layer","type":"int","value":1},{"name":"group","type":"int","value":163},{"name":"id","type":"int","value":109},{"name":"fh_layer","type":"int","value":1},{"name":"fh_group","type":"int","value":163},{"name":"fh_id","type":"int","value":109},{"name":"x1","type":"int","value":-505},{"name":"x2","type":"int","value":-505},{"name":"y1","type":"int","value":-2295},{"name":"y2","type":"int","value":-2280},{"name":"next","type":"int","value":0},{"name":"prev","type":"int","value":108}],"polyline":[{"x":0,"y":0},{"x":0,"y":15}]},{"id":1700,"x":-845,"y":-2280,"visible":true,"properties":[{"name":"layer","type":"int","value":1},{"name":"group","type":"int","value":163},{"name":"id","type":"int","value":110},{"name":"fh_layer","type":"int","value":1},{"name":"fh_group","type":"int","value":163},{"name":"fh_id","type":"int","value":110},{"name":"x1","type":"int","value":-845},{"name":"x2","type":"int","value":-845},{"name":"y1","type":"int","value":-2280},{"name":"y2","type":"int","value":-2295},{"name":"next","type":"int","value":111},{"name":"prev","type":"int","value":0}],"polyline":[{"x":0,"y":0},{"x":0,"y":-15}]},{"id":1701,"x":-845,"y":-2295,"visible":true,"properties":[{"name":"layer","type":"int","value":1},{"name":"group","type":"int","value":163},{"name":"id","type":"int","value":111},{"name":"fh_layer","type":"int","value":1},{"name":"fh_group","type":"int","value":163},{"name":"fh_id","type":"int","value":111},{"name":"x1","type":"int","value":-845},{"name":"x2","type":"int","value":-810},{"name":"y1","type":"int","value":-2295},{"name":"y2","type":"int","value":-2295},{"name":"next","type":"int","value":107},{"name":"prev","type":"int","value":110}],"polyline":[{"x":0,"y":0},{"x":35,"y":0}]},{"id":1702,"x":-775,"y":-2295,"visible":true,"properties":[{"name":"layer","type":"int","value":1},{"name":"group","type":"int","value":163},{"name":"id","type":"int","value":112},{"name":"fh_layer","type":"int","value":1},{"name":"fh_group","type":"int","value":163},{"name":"fh_id","type":"int","value":112},{"name":"x1","type":"int","value":-775},{"name":"x2","type":"int","value":-720},{"name":"y1","type":"int","value":-2295},{"name":"y2","type":"int","value":-2295},{"name":"next","type":"int","value":114},{"name":"prev","type":"int","value":107}],"polyline":[{"x":0,"y":0},{"x":55,"y":0}]},{"id":1703,"x":-630,"y":-2295,"visible":true,"properties":[{"name":"layer","type":"int","value":1},{"name":"group","type":"int","value":163},{"name":"id","type":"int","value":113},{"name":"fh_layer","type":"int","value":1},{"name":"fh_group","type":"int","value":163},{"name":"fh_id","type":"int","value":113},{"name":"x1","type":"int","value":-630},{"name":"x2","type":"int","value":-575},{"name":"y1","type":"int","value":-2295},{"name":"y2","type":"int","value":-2295},{"name":"next","type":"int","value":108},{"name":"prev","type":"int","value":114}],"polyline":[{"x":0,"y":0},{"x":55,"y":0}]},{"id":1704,"x":-720,"y":-2295,"visible":true,"properties":[{"name":"layer","type":"int","value":1},{"name":"group","type":"int","value":163},{"name":"id","type":"int","value":114},{"name":"fh_layer","type":"int","value":1},{"name":"fh_group","type":"int","value":163},{"name":"fh_id","type":"int","value":114},{"name":"x1","type":"int","value":-720},{"name":"x2","type":"int","value":-630},{"name":"y1","type":"int","value":-2295},{"name":"y2","type":"int","value":-2295},{"name":"next","type":"int","value":113},{"name":"prev","type":"int","value":112}],"polyline":[{"x":0,"y":0},{"x":90,"y":0}]},{"id":1705,"x":-450,"y":-2415,"visible":true,"properties":[{"name":"layer","type":"int","value":1},{"name":"group","type":"int","value":164},{"name":"id","type":"int","value":68},{"name":"fh_layer","type":"int","value":1},{"name":"fh_group","type":"int","value":164},{"name":"fh_id","type":"int","value":68},{"name":"x1","type":"int","value":-450},{"name":"x2","type":"int","value":-415},{"name":"y1","type":"int","value":-2415},{"name":"y2","type":"int","value":-2415},{"name":"next","type":"int","value":92},{"name":"prev","type":"int","value":91}],"polyline":[{"x":0,"y":0},{"x":35,"y":0}]},{"id":1706,"x":-575,"y":-2340,"visible":true,"properties":[{"name":"layer","type":"int","value":1},{"name":"group","type":"int","value":164},{"name":"id","type":"int","value":69},{"name":"fh_layer","type":"int","value":1},{"name":"fh_group","type":"int","value":164},{"name":"fh_id","type":"int","value":69},{"name":"x1","type":"int","value":-575},{"name":"x2","type":"int","value":-575},{"name":"y1","type":"int","value":-2340},{"name":"y2","type":"int","value":-2355},{"name":"next","type":"int","value":70},{"name":"prev","type":"int","value":0}],"polyline":[{"x":0,"y":0},{"x":0,"y":-15}]},{"id":1707,"x":-575,"y":-2355,"visible":true,"properties":[{"name":"layer","type":"int","value":1},{"name":"group","type":"int","value":164},{"name":"id","type":"int","value":70},{"name":"fh_layer","type":"int","value":1},{"name":"fh_group","type":"int","value":164},{"name":"fh_id","type":"int","value":70},{"name":"x1","type":"int","value":-575},{"name":"x2","type":"int","value":-505},{"name":"y1","type":"int","value":-2355},{"name":"y2","type":"int","value":-2355},{"name":"next","type":"int","value":71},{"name":"prev","type":"int","value":69}],"polyline":[{"x":0,"y":0},{"x":70,"y":0}]},{"id":1708,"x":-505,"y":-2355,"visible":true,"properties":[{"name":"layer","type":"int","value":1},{"name":"group","type":"int","value":164},{"name":"id","type":"int","value":71},{"name":"fh_layer","type":"int","value":1},{"name":"fh_group","type":"int","value":164},{"name":"fh_id","type":"int","value":71},{"name":"x1","type":"int","value":-505},{"name":"x2","type":"int","value":-485},{"name":"y1","type":"int","value":-2355},{"name":"y2","type":"int","value":-2355},{"name":"next","type":"int","value":96},{"name":"prev","type":"int","value":70}],"polyline":[{"x":0,"y":0},{"x":20,"y":0}]},{"id":1709,"x":395,"y":-2340,"visible":true,"properties":[{"name":"layer","type":"int","value":1},{"name":"group","type":"int","value":164},{"name":"id","type":"int","value":72},{"name":"fh_layer","type":"int","value":1},{"name":"fh_group","type":"int","value":164},{"name":"fh_id","type":"int","value":72},{"name":"x1","type":"int","value":395},{"name":"x2","type":"int","value":395},{"name":"y1","type":"int","value":-2340},{"name":"y2","type":"int","value":-2280},{"name":"next","type":"int","value":0},{"name":"prev","type":"int","value":81}],"polyline":[{"x":0,"y":0},{"x":0,"y":60}]},{"id":1710,"x":270,"y":-2535,"visible":true,"properties":[{"name":"layer","type":"int","value":1},{"name":"group","type":"int","value":164},{"name":"id","type":"int","value":73},{"name":"fh_layer","type":"int","value":1},{"name":"fh_group","type":"int","value":164},{"name":"fh_id","type":"int","value":73},{"name":"x1","type":"int","value":270},{"name":"x2","type":"int","value":325},{"name":"y1","type":"int","value":-2535},{"name":"y2","type":"int","value":-2535},{"name":"next","type":"int","value":76},{"name":"prev","type":"int","value":79}],"polyline":[{"x":0,"y":0},{"x":55,"y":0}]},{"id":1711,"x":395,"y":-2460,"visible":true,"properties":[{"name":"layer","type":"int","value":1},{"name":"group","type":"int","value":164},{"name":"id","type":"int","value":74},{"name":"fh_layer","type":"int","value":1},{"name":"fh_group","type":"int","value":164},{"name":"fh_id","type":"int","value":74},{"name":"x1","type":"int","value":395},{"name":"x2","type":"int","value":395},{"name":"y1","type":"int","value":-2460},{"name":"y2","type":"int","value":-2400},{"name":"next","type":"int","value":81},{"name":"prev","type":"int","value":75}],"polyline":[{"x":0,"y":0},{"x":0,"y":60}]},{"id":1712,"x":395,"y":-2520,"visible":true,"properties":[{"name":"layer","type":"int","value":1},{"name":"group","type":"int","value":164},{"name":"id","type":"int","value":75},{"name":"fh_layer","type":"int","value":1},{"name":"fh_group","type":"int","value":164},{"name":"fh_id","type":"int","value":75},{"name":"x1","type":"int","value":395},{"name":"x2","type":"int","value":395},{"name":"y1","type":"int","value":-2520},{"name":"y2","type":"int","value":-2460},{"name":"next","type":"int","value":74},{"name":"prev","type":"int","value":78}],"polyline":[{"x":0,"y":0},{"x":0,"y":60}]},{"id":1713,"x":325,"y":-2535,"visible":true,"properties":[{"name":"layer","type":"int","value":1},{"name":"group","type":"int","value":164},{"name":"id","type":"int","value":76},{"name":"fh_layer","type":"int","value":1},{"name":"fh_group","type":"int","value":164},{"name":"fh_id","type":"int","value":76},{"name":"x1","type":"int","value":325},{"name":"x2","type":"int","value":360},{"name":"y1","type":"int","value":-2535},{"name":"y2","type":"int","value":-2535},{"name":"next","type":"int","value":77},{"name":"prev","type":"int","value":73}],"polyline":[{"x":0,"y":0},{"x":35,"y":0}]},{"id":1714,"x":360,"y":-2535,"visible":true,"properties":[{"name":"layer","type":"int","value":1},{"name":"group","type":"int","value":164},{"name":"id","type":"int","value":77},{"name":"fh_layer","type":"int","value":1},{"name":"fh_group","type":"int","value":164},{"name":"fh_id","type":"int","value":77},{"name":"x1","type":"int","value":360},{"name":"x2","type":"int","value":395},{"name":"y1","type":"int","value":-2535},{"name":"y2","type":"int","value":-2535},{"name":"next","type":"int","value":78},{"name":"prev","type":"int","value":76}],"polyline":[{"x":0,"y":0},{"x":35,"y":0}]},{"id":1715,"x":395,"y":-2535,"visible":true,"properties":[{"name":"layer","type":"int","value":1},{"name":"group","type":"int","value":164},{"name":"id","type":"int","value":78},{"name":"fh_layer","type":"int","value":1},{"name":"fh_group","type":"int","value":164},{"name":"fh_id","type":"int","value":78},{"name":"x1","type":"int","value":395},{"name":"x2","type":"int","value":395},{"name":"y1","type":"int","value":-2535},{"name":"y2","type":"int","value":-2520},{"name":"next","type":"int","value":75},{"name":"prev","type":"int","value":77}],"polyline":[{"x":0,"y":0},{"x":0,"y":15}]},{"id":1716,"x":180,"y":-2535,"visible":true,"properties":[{"name":"layer","type":"int","value":1},{"name":"group","type":"int","value":164},{"name":"id","type":"int","value":79},{"name":"fh_layer","type":"int","value":1},{"name":"fh_group","type":"int","value":164},{"name":"fh_id","type":"int","value":79},{"name":"x1","type":"int","value":180},{"name":"x2","type":"int","value":270},{"name":"y1","type":"int","value":-2535},{"name":"y2","type":"int","value":-2535},{"name":"next","type":"int","value":73},{"name":"prev","type":"int","value":80}],"polyline":[{"x":0,"y":0},{"x":90,"y":0}]},{"id":1717,"x":90,"y":-2535,"visible":true,"properties":[{"name":"layer","type":"int","value":1},{"name":"group","type":"int","value":164},{"name":"id","type":"int","value":80},{"name":"fh_layer","type":"int","value":1},{"name":"fh_group","type":"int","value":164},{"name":"fh_id","type":"int","value":80},{"name":"x1","type":"int","value":90},{"name":"x2","type":"int","value":180},{"name":"y1","type":"int","value":-2535},{"name":"y2","type":"int","value":-2535},{"name":"next","type":"int","value":79},{"name":"prev","type":"int","value":93}],"polyline":[{"x":0,"y":0},{"x":90,"y":0}]},{"id":1718,"x":395,"y":-2400,"visible":true,"properties":[{"name":"layer","type":"int","value":1},{"name":"group","type":"int","value":164},{"name":"id","type":"int","value":81},{"name":"fh_layer","type":"int","value":1},{"name":"fh_group","type":"int","value":164},{"name":"fh_id","type":"int","value":81},{"name":"x1","type":"int","value":395},{"name":"x2","type":"int","value":395},{"name":"y1","type":"int","value":-2400},{"name":"y2","type":"int","value":-2340},{"name":"next","type":"int","value":72},{"name":"prev","type":"int","value":74}],"polyline":[{"x":0,"y":0},{"x":0,"y":60}]},{"id":1719,"x":-360,"y":-2475,"visible":true,"properties":[{"name":"layer","type":"int","value":1},{"name":"group","type":"int","value":164},{"name":"id","type":"int","value":82},{"name":"fh_layer","type":"int","value":1},{"name":"fh_group","type":"int","value":164},{"name":"fh_id","type":"int","value":82},{"name":"x1","type":"int","value":-360},{"name":"x2","type":"int","value":-325},{"name":"y1","type":"int","value":-2475},{"name":"y2","type":"int","value":-2475},{"name":"next","type":"int","value":85},{"name":"prev","type":"int","value":84}],"polyline":[{"x":0,"y":0},{"x":35,"y":0}]},{"id":1720,"x":-395,"y":-2460,"visible":true,"properties":[{"name":"layer","type":"int","value":1},{"name":"group","type":"int","value":164},{"name":"id","type":"int","value":83},{"name":"fh_layer","type":"int","value":1},{"name":"fh_group","type":"int","value":164},{"name":"fh_id","type":"int","value":83},{"name":"x1","type":"int","value":-395},{"name":"x2","type":"int","value":-395},{"name":"y1","type":"int","value":-2460},{"name":"y2","type":"int","value":-2475},{"name":"next","type":"int","value":84},{"name":"prev","type":"int","value":86}],"polyline":[{"x":0,"y":0},{"x":0,"y":-15}]},{"id":1721,"x":-395,"y":-2475,"visible":true,"properties":[{"name":"layer","type":"int","value":1},{"name":"group","type":"int","value":164},{"name":"id","type":"int","value":84},{"name":"fh_layer","type":"int","value":1},{"name":"fh_group","type":"int","value":164},{"name":"fh_id","type":"int","value":84},{"name":"x1","type":"int","value":-395},{"name":"x2","type":"int","value":-360},{"name":"y1","type":"int","value":-2475},{"name":"y2","type":"int","value":-2475},{"name":"next","type":"int","value":82},{"name":"prev","type":"int","value":83}],"polyline":[{"x":0,"y":0},{"x":35,"y":0}]},{"id":1722,"x":-325,"y":-2475,"visible":true,"properties":[{"name":"layer","type":"int","value":1},{"name":"group","type":"int","value":164},{"name":"id","type":"int","value":85},{"name":"fh_layer","type":"int","value":1},{"name":"fh_group","type":"int","value":164},{"name":"fh_id","type":"int","value":85},{"name":"x1","type":"int","value":-325},{"name":"x2","type":"int","value":-305},{"name":"y1","type":"int","value":-2475},{"name":"y2","type":"int","value":-2475},{"name":"next","type":"int","value":89},{"name":"prev","type":"int","value":82}],"polyline":[{"x":0,"y":0},{"x":20,"y":0}]},{"id":1723,"x":-395,"y":-2415,"visible":true,"properties":[{"name":"layer","type":"int","value":1},{"name":"group","type":"int","value":164},{"name":"id","type":"int","value":86},{"name":"fh_layer","type":"int","value":1},{"name":"fh_group","type":"int","value":164},{"name":"fh_id","type":"int","value":86},{"name":"x1","type":"int","value":-395},{"name":"x2","type":"int","value":-395},{"name":"y1","type":"int","value":-2415},{"name":"y2","type":"int","value":-2460},{"name":"next","type":"int","value":83},{"name":"prev","type":"int","value":92}],"polyline":[{"x":0,"y":0},{"x":0,"y":-45}]},{"id":1724,"x":-305,"y":-2520,"visible":true,"properties":[{"name":"layer","type":"int","value":1},{"name":"group","type":"int","value":164},{"name":"id","type":"int","value":87},{"name":"fh_layer","type":"int","value":1},{"name":"fh_group","type":"int","value":164},{"name":"fh_id","type":"int","value":87},{"name":"x1","type":"int","value":-305},{"name":"x2","type":"int","value":-305},{"name":"y1","type":"int","value":-2520},{"name":"y2","type":"int","value":-2535},{"name":"next","type":"int","value":88},{"name":"prev","type":"int","value":89}],"polyline":[{"x":0,"y":0},{"x":0,"y":-15}]},{"id":1725,"x":-305,"y":-2535,"visible":true,"properties":[{"name":"layer","type":"int","value":1},{"name":"group","type":"int","value":164},{"name":"id","type":"int","value":88},{"name":"fh_layer","type":"int","value":1},{"name":"fh_group","type":"int","value":164},{"name":"fh_id","type":"int","value":88},{"name":"x1","type":"int","value":-305},{"name":"x2","type":"int","value":-235},{"name":"y1","type":"int","value":-2535},{"name":"y2","type":"int","value":-2535},{"name":"next","type":"int","value":94},{"name":"prev","type":"int","value":87}],"polyline":[{"x":0,"y":0},{"x":70,"y":0}]},{"id":1726,"x":-305,"y":-2475,"visible":true,"properties":[{"name":"layer","type":"int","value":1},{"name":"group","type":"int","value":164},{"name":"id","type":"int","value":89},{"name":"fh_layer","type":"int","value":1},{"name":"fh_group","type":"int","value":164},{"name":"fh_id","type":"int","value":89},{"name":"x1","type":"int","value":-305},{"name":"x2","type":"int","value":-305},{"name":"y1","type":"int","value":-2475},{"name":"y2","type":"int","value":-2520},{"name":"next","type":"int","value":87},{"name":"prev","type":"int","value":85}],"polyline":[{"x":0,"y":0},{"x":0,"y":-45}]},{"id":1727,"x":-485,"y":-2400,"visible":true,"properties":[{"name":"layer","type":"int","value":1},{"name":"group","type":"int","value":164},{"name":"id","type":"int","value":90},{"name":"fh_layer","type":"int","value":1},{"name":"fh_group","type":"int","value":164},{"name":"fh_id","type":"int","value":90},{"name":"x1","type":"int","value":-485},{"name":"x2","type":"int","value":-485},{"name":"y1","type":"int","value":-2400},{"name":"y2","type":"int","value":-2415},{"name":"next","type":"int","value":91},{"name":"prev","type":"int","value":96}],"polyline":[{"x":0,"y":0},{"x":0,"y":-15}]},{"id":1728,"x":-485,"y":-2415,"visible":true,"properties":[{"name":"layer","type":"int","value":1},{"name":"group","type":"int","value":164},{"name":"id","type":"int","value":91},{"name":"fh_layer","type":"int","value":1},{"name":"fh_group","type":"int","value":164},{"name":"fh_id","type":"int","value":91},{"name":"x1","type":"int","value":-485},{"name":"x2","type":"int","value":-450},{"name":"y1","type":"int","value":-2415},{"name":"y2","type":"int","value":-2415},{"name":"next","type":"int","value":68},{"name":"prev","type":"int","value":90}],"polyline":[{"x":0,"y":0},{"x":35,"y":0}]},{"id":1729,"x":-415,"y":-2415,"visible":true,"properties":[{"name":"layer","type":"int","value":1},{"name":"group","type":"int","value":164},{"name":"id","type":"int","value":92},{"name":"fh_layer","type":"int","value":1},{"name":"fh_group","type":"int","value":164},{"name":"fh_id","type":"int","value":92},{"name":"x1","type":"int","value":-415},{"name":"x2","type":"int","value":-395},{"name":"y1","type":"int","value":-2415},{"name":"y2","type":"int","value":-2415},{"name":"next","type":"int","value":86},{"name":"prev","type":"int","value":68}],"polyline":[{"x":0,"y":0},{"x":20,"y":0}]},{"id":1730,"x":0,"y":-2535,"visible":true,"properties":[{"name":"layer","type":"int","value":1},{"name":"group","type":"int","value":164},{"name":"id","type":"int","value":93},{"name":"fh_layer","type":"int","value":1},{"name":"fh_group","type":"int","value":164},{"name":"fh_id","type":"int","value":93},{"name":"x1","type":"int","value":0},{"name":"x2","type":"int","value":90},{"name":"y1","type":"int","value":-2535},{"name":"y2","type":"int","value":-2535},{"name":"next","type":"int","value":80},{"name":"prev","type":"int","value":95}],"polyline":[{"x":0,"y":0},{"x":90,"y":0}]},{"id":1731,"x":-235,"y":-2535,"visible":true,"properties":[{"name":"layer","type":"int","value":1},{"name":"group","type":"int","value":164},{"name":"id","type":"int","value":94},{"name":"fh_layer","type":"int","value":1},{"name":"fh_group","type":"int","value":164},{"name":"fh_id","type":"int","value":94},{"name":"x1","type":"int","value":-235},{"name":"x2","type":"int","value":-180},{"name":"y1","type":"int","value":-2535},{"name":"y2","type":"int","value":-2535},{"name":"next","type":"int","value":97},{"name":"prev","type":"int","value":88}],"polyline":[{"x":0,"y":0},{"x":55,"y":0}]},{"id":1732,"x":-90,"y":-2535,"visible":true,"properties":[{"name":"layer","type":"int","value":1},{"name":"group","type":"int","value":164},{"name":"id","type":"int","value":95},{"name":"fh_layer","type":"int","value":1},{"name":"fh_group","type":"int","value":164},{"name":"fh_id","type":"int","value":95},{"name":"x1","type":"int","value":-90},{"name":"x2","type":"int","value":0},{"name":"y1","type":"int","value":-2535},{"name":"y2","type":"int","value":-2535},{"name":"next","type":"int","value":93},{"name":"prev","type":"int","value":97}],"polyline":[{"x":0,"y":0},{"x":90,"y":0}]},{"id":1733,"x":-485,"y":-2355,"visible":true,"properties":[{"name":"layer","type":"int","value":1},{"name":"group","type":"int","value":164},{"name":"id","type":"int","value":96},{"name":"fh_layer","type":"int","value":1},{"name":"fh_group","type":"int","value":164},{"name":"fh_id","type":"int","value":96},{"name":"x1","type":"int","value":-485},{"name":"x2","type":"int","value":-485},{"name":"y1","type":"int","value":-2355},{"name":"y2","type":"int","value":-2400},{"name":"next","type":"int","value":90},{"name":"prev","type":"int","value":71}],"polyline":[{"x":0,"y":0},{"x":0,"y":-45}]},{"id":1734,"x":-180,"y":-2535,"visible":true,"properties":[{"name":"layer","type":"int","value":1},{"name":"group","type":"int","value":164},{"name":"id","type":"int","value":97},{"name":"fh_layer","type":"int","value":1},{"name":"fh_group","type":"int","value":164},{"name":"fh_id","type":"int","value":97},{"name":"x1","type":"int","value":-180},{"name":"x2","type":"int","value":-90},{"name":"y1","type":"int","value":-2535},{"name":"y2","type":"int","value":-2535},{"name":"next","type":"int","value":95},{"name":"prev","type":"int","value":94}],"polyline":[{"x":0,"y":0},{"x":90,"y":0}]},{"id":1735,"x":-39,"y":-2549,"visible":true,"properties":[{"name":"layer","type":"int","value":1},{"name":"group","type":"int","value":164},{"name":"id","type":"int","value":98},{"name":"fh_layer","type":"int","value":1},{"name":"fh_group","type":"int","value":164},{"name":"fh_id","type":"int","value":98},{"name":"x1","type":"int","value":-39},{"name":"x2","type":"int","value":86},{"name":"y1","type":"int","value":-2549},{"name":"y2","type":"int","value":-2549},{"name":"next","type":"int","value":0},{"name":"prev","type":"int","value":0}],"polyline":[{"x":0,"y":0},{"x":125,"y":0}]},{"id":1736,"x":-29,"y":-2561,"visible":true,"properties":[{"name":"layer","type":"int","value":1},{"name":"group","type":"int","value":164},{"name":"id","type":"int","value":99},{"name":"fh_layer","type":"int","value":1},{"name":"fh_group","type":"int","value":164},{"name":"fh_id","type":"int","value":99},{"name":"x1","type":"int","value":-29},{"name":"x2","type":"int","value":95},{"name":"y1","type":"int","value":-2561},{"name":"y2","type":"int","value":-2561},{"name":"next","type":"int","value":0},{"name":"prev","type":"int","value":0}],"polyline":[{"x":0,"y":0},{"x":124,"y":0}]},{"id":1737,"x":-18,"y":-2573,"visible":true,"properties":[{"name":"layer","type":"int","value":1},{"name":"group","type":"int","value":164},{"name":"id","type":"int","value":100},{"name":"fh_layer","type":"int","value":1},{"name":"fh_group","type":"int","value":164},{"name":"fh_id","type":"int","value":100},{"name":"x1","type":"int","value":-18},{"name":"x2","type":"int","value":107},{"name":"y1","type":"int","value":-2573},{"name":"y2","type":"int","value":-2573},{"name":"next","type":"int","value":0},{"name":"prev","type":"int","value":0}],"polyline":[{"x":0,"y":0},{"x":125,"y":0}]},{"id":1738,"x":-8,"y":-2583,"visible":true,"properties":[{"name":"layer","type":"int","value":1},{"name":"group","type":"int","value":164},{"name":"id","type":"int","value":101},{"name":"fh_layer","type":"int","value":1},{"name":"fh_group","type":"int","value":164},{"name":"fh_id","type":"int","value":101},{"name":"x1","type":"int","value":-8},{"name":"x2","type":"int","value":117},{"name":"y1","type":"int","value":-2583},{"name":"y2","type":"int","value":-2583},{"name":"next","type":"int","value":0},{"name":"prev","type":"int","value":0}],"polyline":[{"x":0,"y":0},{"x":125,"y":0}]},{"id":1739,"x":-955,"y":-2460,"visible":true,"properties":[{"name":"layer","type":"int","value":1},{"name":"group","type":"int","value":165},{"name":"id","type":"int","value":452},{"name":"fh_layer","type":"int","value":1},{"name":"fh_group","type":"int","value":165},{"name":"fh_id","type":"int","value":452},{"name":"x1","type":"int","value":-955},{"name":"x2","type":"int","value":-955},{"name":"y1","type":"int","value":-2460},{"name":"y2","type":"int","value":-2415},{"name":"next","type":"int","value":469},{"name":"prev","type":"int","value":455}],"polyline":[{"x":0,"y":0},{"x":0,"y":45}]},{"id":1740,"x":-1350,"y":-2475,"visible":true,"properties":[{"name":"layer","type":"int","value":1},{"name":"group","type":"int","value":165},{"name":"id","type":"int","value":453},{"name":"fh_layer","type":"int","value":1},{"name":"fh_group","type":"int","value":165},{"name":"fh_id","type":"int","value":453},{"name":"x1","type":"int","value":-1350},{"name":"x2","type":"int","value":-1315},{"name":"y1","type":"int","value":-2475},{"name":"y2","type":"int","value":-2475},{"name":"next","type":"int","value":461},{"name":"prev","type":"int","value":460}],"polyline":[{"x":0,"y":0},{"x":35,"y":0}]},{"id":1741,"x":-1025,"y":-2475,"visible":true,"properties":[{"name":"layer","type":"int","value":1},{"name":"group","type":"int","value":165},{"name":"id","type":"int","value":454},{"name":"fh_layer","type":"int","value":1},{"name":"fh_group","type":"int","value":165},{"name":"fh_id","type":"int","value":454},{"name":"x1","type":"int","value":-1025},{"name":"x2","type":"int","value":-955},{"name":"y1","type":"int","value":-2475},{"name":"y2","type":"int","value":-2475},{"name":"next","type":"int","value":455},{"name":"prev","type":"int","value":462}],"polyline":[{"x":0,"y":0},{"x":70,"y":0}]},{"id":1742,"x":-955,"y":-2475,"visible":true,"properties":[{"name":"layer","type":"int","value":1},{"name":"group","type":"int","value":165},{"name":"id","type":"int","value":455},{"name":"fh_layer","type":"int","value":1},{"name":"fh_group","type":"int","value":165},{"name":"fh_id","type":"int","value":455},{"name":"x1","type":"int","value":-955},{"name":"x2","type":"int","value":-955},{"name":"y1","type":"int","value":-2475},{"name":"y2","type":"int","value":-2460},{"name":"next","type":"int","value":452},{"name":"prev","type":"int","value":454}],"polyline":[{"x":0,"y":0},{"x":0,"y":15}]},{"id":1743,"x":-1385,"y":-2400,"visible":true,"properties":[{"name":"layer","type":"int","value":1},{"name":"group","type":"int","value":165},{"name":"id","type":"int","value":456},{"name":"fh_layer","type":"int","value":1},{"name":"fh_group","type":"int","value":165},{"name":"fh_id","type":"int","value":456},{"name":"x1","type":"int","value":-1385},{"name":"x2","type":"int","value":-1385},{"name":"y1","type":"int","value":-2400},{"name":"y2","type":"int","value":-2460},{"name":"next","type":"int","value":459},{"name":"prev","type":"int","value":463}],"polyline":[{"x":0,"y":0},{"x":0,"y":-60}]},{"id":1744,"x":-845,"y":-2355,"visible":true,"properties":[{"name":"layer","type":"int","value":1},{"name":"group","type":"int","value":165},{"name":"id","type":"int","value":457},{"name":"fh_layer","type":"int","value":1},{"name":"fh_group","type":"int","value":165},{"name":"fh_id","type":"int","value":457},{"name":"x1","type":"int","value":-845},{"name":"x2","type":"int","value":-775},{"name":"y1","type":"int","value":-2355},{"name":"y2","type":"int","value":-2355},{"name":"next","type":"int","value":458},{"name":"prev","type":"int","value":468}],"polyline":[{"x":0,"y":0},{"x":70,"y":0}]},{"id":1745,"x":-775,"y":-2355,"visible":true,"properties":[{"name":"layer","type":"int","value":1},{"name":"group","type":"int","value":165},{"name":"id","type":"int","value":458},{"name":"fh_layer","type":"int","value":1},{"name":"fh_group","type":"int","value":165},{"name":"fh_id","type":"int","value":458},{"name":"x1","type":"int","value":-775},{"name":"x2","type":"int","value":-775},{"name":"y1","type":"int","value":-2355},{"name":"y2","type":"int","value":-2340},{"name":"next","type":"int","value":0},{"name":"prev","type":"int","value":457}],"polyline":[{"x":0,"y":0},{"x":0,"y":15}]},{"id":1746,"x":-1385,"y":-2460,"visible":true,"properties":[{"name":"layer","type":"int","value":1},{"name":"group","type":"int","value":165},{"name":"id","type":"int","value":459},{"name":"fh_layer","type":"int","value":1},{"name":"fh_group","type":"int","value":165},{"name":"fh_id","type":"int","value":459},{"name":"x1","type":"int","value":-1385},{"name":"x2","type":"int","value":-1385},{"name":"y1","type":"int","value":-2460},{"name":"y2","type":"int","value":-2475},{"name":"next","type":"int","value":460},{"name":"prev","type":"int","value":456}],"polyline":[{"x":0,"y":0},{"x":0,"y":-15}]},{"id":1747,"x":-1385,"y":-2475,"visible":true,"properties":[{"name":"layer","type":"int","value":1},{"name":"group","type":"int","value":165},{"name":"id","type":"int","value":460},{"name":"fh_layer","type":"int","value":1},{"name":"fh_group","type":"int","value":165},{"name":"fh_id","type":"int","value":460},{"name":"x1","type":"int","value":-1385},{"name":"x2","type":"int","value":-1350},{"name":"y1","type":"int","value":-2475},{"name":"y2","type":"int","value":-2475},{"name":"next","type":"int","value":453},{"name":"prev","type":"int","value":459}],"polyline":[{"x":0,"y":0},{"x":35,"y":0}]},{"id":1748,"x":-1315,"y":-2475,"visible":true,"properties":[{"name":"layer","type":"int","value":1},{"name":"group","type":"int","value":165},{"name":"id","type":"int","value":461},{"name":"fh_layer","type":"int","value":1},{"name":"fh_group","type":"int","value":165},{"name":"fh_id","type":"int","value":461},{"name":"x1","type":"int","value":-1315},{"name":"x2","type":"int","value":-1260},{"name":"y1","type":"int","value":-2475},{"name":"y2","type":"int","value":-2475},{"name":"next","type":"int","value":464},{"name":"prev","type":"int","value":453}],"polyline":[{"x":0,"y":0},{"x":55,"y":0}]},{"id":1749,"x":-1080,"y":-2475,"visible":true,"properties":[{"name":"layer","type":"int","value":1},{"name":"group","type":"int","value":165},{"name":"id","type":"int","value":462},{"name":"fh_layer","type":"int","value":1},{"name":"fh_group","type":"int","value":165},{"name":"fh_id","type":"int","value":462},{"name":"x1","type":"int","value":-1080},{"name":"x2","type":"int","value":-1025},{"name":"y1","type":"int","value":-2475},{"name":"y2","type":"int","value":-2475},{"name":"next","type":"int","value":454},{"name":"prev","type":"int","value":470}],"polyline":[{"x":0,"y":0},{"x":55,"y":0}]},{"id":1750,"x":-1385,"y":-2340,"visible":true,"properties":[{"name":"layer","type":"int","value":1},{"name":"group","type":"int","value":165},{"name":"id","type":"int","value":463},{"name":"fh_layer","type":"int","value":1},{"name":"fh_group","type":"int","value":165},{"name":"fh_id","type":"int","value":463},{"name":"x1","type":"int","value":-1385},{"name":"x2","type":"int","value":-1385},{"name":"y1","type":"int","value":-2340},{"name":"y2","type":"int","value":-2400},{"name":"next","type":"int","value":456},{"name":"prev","type":"int","value":0}],"polyline":[{"x":0,"y":0},{"x":0,"y":-60}]},{"id":1751,"x":-1260,"y":-2475,"visible":true,"properties":[{"name":"layer","type":"int","value":1},{"name":"group","type":"int","value":165},{"name":"id","type":"int","value":464},{"name":"fh_layer","type":"int","value":1},{"name":"fh_group","type":"int","value":165},{"name":"fh_id","type":"int","value":464},{"name":"x1","type":"int","value":-1260},{"name":"x2","type":"int","value":-1170},{"name":"y1","type":"int","value":-2475},{"name":"y2","type":"int","value":-2475},{"name":"next","type":"int","value":470},{"name":"prev","type":"int","value":461}],"polyline":[{"x":0,"y":0},{"x":90,"y":0}]},{"id":1752,"x":-935,"y":-2415,"visible":true,"properties":[{"name":"layer","type":"int","value":1},{"name":"group","type":"int","value":165},{"name":"id","type":"int","value":465},{"name":"fh_layer","type":"int","value":1},{"name":"fh_group","type":"int","value":165},{"name":"fh_id","type":"int","value":465},{"name":"x1","type":"int","value":-935},{"name":"x2","type":"int","value":-865},{"name":"y1","type":"int","value":-2415},{"name":"y2","type":"int","value":-2415},{"name":"next","type":"int","value":466},{"name":"prev","type":"int","value":469}],"polyline":[{"x":0,"y":0},{"x":70,"y":0}]},{"id":1753,"x":-865,"y":-2415,"visible":true,"properties":[{"name":"layer","type":"int","value":1},{"name":"group","type":"int","value":165},{"name":"id","type":"int","value":466},{"name":"fh_layer","type":"int","value":1},{"name":"fh_group","type":"int","value":165},{"name":"fh_id","type":"int","value":466},{"name":"x1","type":"int","value":-865},{"name":"x2","type":"int","value":-865},{"name":"y1","type":"int","value":-2415},{"name":"y2","type":"int","value":-2400},{"name":"next","type":"int","value":467},{"name":"prev","type":"int","value":465}],"polyline":[{"x":0,"y":0},{"x":0,"y":15}]},{"id":1754,"x":-865,"y":-2400,"visible":true,"properties":[{"name":"layer","type":"int","value":1},{"name":"group","type":"int","value":165},{"name":"id","type":"int","value":467},{"name":"fh_layer","type":"int","value":1},{"name":"fh_group","type":"int","value":165},{"name":"fh_id","type":"int","value":467},{"name":"x1","type":"int","value":-865},{"name":"x2","type":"int","value":-865},{"name":"y1","type":"int","value":-2400},{"name":"y2","type":"int","value":-2355},{"name":"next","type":"int","value":468},{"name":"prev","type":"int","value":466}],"polyline":[{"x":0,"y":0},{"x":0,"y":45}]},{"id":1755,"x":-865,"y":-2355,"visible":true,"properties":[{"name":"layer","type":"int","value":1},{"name":"group","type":"int","value":165},{"name":"id","type":"int","value":468},{"name":"fh_layer","type":"int","value":1},{"name":"fh_group","type":"int","value":165},{"name":"fh_id","type":"int","value":468},{"name":"x1","type":"int","value":-865},{"name":"x2","type":"int","value":-845},{"name":"y1","type":"int","value":-2355},{"name":"y2","type":"int","value":-2355},{"name":"next","type":"int","value":457},{"name":"prev","type":"int","value":467}],"polyline":[{"x":0,"y":0},{"x":20,"y":0}]},{"id":1756,"x":-955,"y":-2415,"visible":true,"properties":[{"name":"layer","type":"int","value":1},{"name":"group","type":"int","value":165},{"name":"id","type":"int","value":469},{"name":"fh_layer","type":"int","value":1},{"name":"fh_group","type":"int","value":165},{"name":"fh_id","type":"int","value":469},{"name":"x1","type":"int","value":-955},{"name":"x2","type":"int","value":-935},{"name":"y1","type":"int","value":-2415},{"name":"y2","type":"int","value":-2415},{"name":"next","type":"int","value":465},{"name":"prev","type":"int","value":452}],"polyline":[{"x":0,"y":0},{"x":20,"y":0}]},{"id":1757,"x":-1170,"y":-2475,"visible":true,"properties":[{"name":"layer","type":"int","value":1},{"name":"group","type":"int","value":165},{"name":"id","type":"int","value":470},{"name":"fh_layer","type":"int","value":1},{"name":"fh_group","type":"int","value":165},{"name":"fh_id","type":"int","value":470},{"name":"x1","type":"int","value":-1170},{"name":"x2","type":"int","value":-1080},{"name":"y1","type":"int","value":-2475},{"name":"y2","type":"int","value":-2475},{"name":"next","type":"int","value":462},{"name":"prev","type":"int","value":464}],"polyline":[{"x":0,"y":0},{"x":90,"y":0}]},{"id":1758,"x":-1309,"y":-2522,"visible":true,"properties":[{"name":"layer","type":"int","value":1},{"name":"group","type":"int","value":165},{"name":"id","type":"int","value":471},{"name":"fh_layer","type":"int","value":1},{"name":"fh_group","type":"int","value":165},{"name":"fh_id","type":"int","value":471},{"name":"x1","type":"int","value":-1309},{"name":"x2","type":"int","value":-1145},{"name":"y1","type":"int","value":-2522},{"name":"y2","type":"int","value":-2522},{"name":"next","type":"int","value":472},{"name":"prev","type":"int","value":0}],"polyline":[{"x":0,"y":0},{"x":164,"y":0}]},{"id":1759,"x":-1145,"y":-2522,"visible":true,"properties":[{"name":"layer","type":"int","value":1},{"name":"group","type":"int","value":165},{"name":"id","type":"int","value":472},{"name":"fh_layer","type":"int","value":1},{"name":"fh_group","type":"int","value":165},{"name":"fh_id","type":"int","value":472},{"name":"x1","type":"int","value":-1145},{"name":"x2","type":"int","value":-1133},{"name":"y1","type":"int","value":-2522},{"name":"y2","type":"int","value":-2497},{"name":"next","type":"int","value":473},{"name":"prev","type":"int","value":471}],"polyline":[{"x":0,"y":0},{"x":12,"y":25}]},{"id":1760,"x":-1133,"y":-2497,"visible":true,"properties":[{"name":"layer","type":"int","value":1},{"name":"group","type":"int","value":165},{"name":"id","type":"int","value":473},{"name":"fh_layer","type":"int","value":1},{"name":"fh_group","type":"int","value":165},{"name":"fh_id","type":"int","value":473},{"name":"x1","type":"int","value":-1133},{"name":"x2","type":"int","value":-1124},{"name":"y1","type":"int","value":-2497},{"name":"y2","type":"int","value":-2497},{"name":"next","type":"int","value":474},{"name":"prev","type":"int","value":472}],"polyline":[{"x":0,"y":0},{"x":9,"y":0}]},{"id":1761,"x":-1124,"y":-2497,"visible":true,"properties":[{"name":"layer","type":"int","value":1},{"name":"group","type":"int","value":165},{"name":"id","type":"int","value":474},{"name":"fh_layer","type":"int","value":1},{"name":"fh_group","type":"int","value":165},{"name":"fh_id","type":"int","value":474},{"name":"x1","type":"int","value":-1124},{"name":"x2","type":"int","value":-1114},{"name":"y1","type":"int","value":-2497},{"name":"y2","type":"int","value":-2489},{"name":"next","type":"int","value":475},{"name":"prev","type":"int","value":473}],"polyline":[{"x":0,"y":0},{"x":10,"y":8}]},{"id":1762,"x":-1114,"y":-2489,"visible":true,"properties":[{"name":"layer","type":"int","value":1},{"name":"group","type":"int","value":165},{"name":"id","type":"int","value":475},{"name":"fh_layer","type":"int","value":1},{"name":"fh_group","type":"int","value":165},{"name":"fh_id","type":"int","value":475},{"name":"x1","type":"int","value":-1114},{"name":"x2","type":"int","value":-1084},{"name":"y1","type":"int","value":-2489},{"name":"y2","type":"int","value":-2489},{"name":"next","type":"int","value":0},{"name":"prev","type":"int","value":474}],"polyline":[{"x":0,"y":0},{"x":30,"y":0}]}],"properties":[]},{"id":14,"name":"ladderRope","type":"objectgroup","visible":true,"opacity":1,"draworder":"index","offsetx":0,"offsety":0,"parallaxx":1,"parallaxy":1,"objects":[{"id":1763,"x":136,"y":-1633,"visible":true,"properties":[{"name":"ladder_id","type":"int","value":1},{"name":"l","type":"int","value":0},{"name":"x","type":"int","value":136},{"name":"uf","type":"int","value":1},{"name":"y1","type":"int","value":-1633},{"name":"y2","type":"int","value":-1290},{"name":"page","type":"int","value":2}],"polyline":[{"x":0,"y":0},{"x":0,"y":343}]},{"id":1764,"x":-174,"y":-1753,"visible":true,"properties":[{"name":"ladder_id","type":"int","value":2},{"name":"l","type":"int","value":0},{"name":"x","type":"int","value":-174},{"name":"uf","type":"int","value":1},{"name":"y1","type":"int","value":-1753},{"name":"y2","type":"int","value":-1497},{"name":"page","type":"int","value":2}],"polyline":[{"x":0,"y":0},{"x":0,"y":256}]},{"id":1765,"x":263,"y":-673,"visible":true,"properties":[{"name":"ladder_id","type":"int","value":3},{"name":"l","type":"int","value":0},{"name":"x","type":"int","value":263},{"name":"uf","type":"int","value":1},{"name":"y1","type":"int","value":-673},{"name":"y2","type":"int","value":-392},{"name":"page","type":"int","value":2}],"polyline":[{"x":0,"y":0},{"x":0,"y":281}]},{"id":1766,"x":-1133,"y":-275,"visible":true,"properties":[{"name":"ladder_id","type":"int","value":4},{"name":"l","type":"int","value":0},{"name":"x","type":"int","value":-1133},{"name":"uf","type":"int","value":0},{"name":"y1","type":"int","value":-275},{"name":"y2","type":"int","value":-28},{"name":"page","type":"int","value":2}],"polyline":[{"x":0,"y":0},{"x":0,"y":247}]},{"id":1767,"x":-1218,"y":-294,"visible":true,"properties":[{"name":"ladder_id","type":"int","value":5},{"name":"l","type":"int","value":0},{"name":"x","type":"int","value":-1218},{"name":"uf","type":"int","value":0},{"name":"y1","type":"int","value":-294},{"name":"y2","type":"int","value":-168},{"name":"page","type":"int","value":2}],"polyline":[{"x":0,"y":0},{"x":0,"y":126}]},{"id":1768,"x":-1309,"y":-295,"visible":true,"properties":[{"name":"ladder_id","type":"int","value":6},{"name":"l","type":"int","value":0},{"name":"x","type":"int","value":-1309},{"name":"uf","type":"int","value":0},{"name":"y1","type":"int","value":-295},{"name":"y2","type":"int","value":8},{"name":"page","type":"int","value":2}],"polyline":[{"x":0,"y":0},{"x":0,"y":303}]},{"id":1769,"x":-1536,"y":-493,"visible":true,"properties":[{"name":"ladder_id","type":"int","value":7},{"name":"l","type":"int","value":1},{"name":"x","type":"int","value":-1536},{"name":"uf","type":"int","value":1},{"name":"y1","type":"int","value":-493},{"name":"y2","type":"int","value":-248},{"name":"page","type":"int","value":2}],"polyline":[{"x":0,"y":0},{"x":0,"y":245}]},{"id":1770,"x":30,"y":-43,"visible":true,"properties":[{"name":"ladder_id","type":"int","value":8},{"name":"l","type":"int","value":0},{"name":"x","type":"int","value":30},{"name":"uf","type":"int","value":1},{"name":"y1","type":"int","value":-43},{"name":"y2","type":"int","value":123},{"name":"page","type":"int","value":2}],"polyline":[{"x":0,"y":0},{"x":0,"y":166}]},{"id":1771,"x":183,"y":-5,"visible":true,"properties":[{"name":"ladder_id","type":"int","value":9},{"name":"l","type":"int","value":0},{"name":"x","type":"int","value":183},{"name":"uf","type":"int","value":0},{"name":"y1","type":"int","value":-5},{"name":"y2","type":"int","value":152},{"name":"page","type":"int","value":2}],"polyline":[{"x":0,"y":0},{"x":0,"y":157}]},{"id":1772,"x":186,"y":-973,"visible":true,"properties":[{"name":"ladder_id","type":"int","value":10},{"name":"l","type":"int","value":0},{"name":"x","type":"int","value":186},{"name":"uf","type":"int","value":1},{"name":"y1","type":"int","value":-973},{"name":"y2","type":"int","value":-630},{"name":"page","type":"int","value":2}],"polyline":[{"x":0,"y":0},{"x":0,"y":343}]},{"id":1773,"x":-449,"y":-1813,"visible":true,"properties":[{"name":"ladder_id","type":"int","value":11},{"name":"l","type":"int","value":0},{"name":"x","type":"int","value":-449},{"name":"uf","type":"int","value":1},{"name":"y1","type":"int","value":-1813},{"name":"y2","type":"int","value":-1557},{"name":"page","type":"int","value":2}],"polyline":[{"x":0,"y":0},{"x":0,"y":256}]},{"id":1774,"x":261,"y":-1213,"visible":true,"properties":[{"name":"ladder_id","type":"int","value":12},{"name":"l","type":"int","value":0},{"name":"x","type":"int","value":261},{"name":"uf","type":"int","value":1},{"name":"y1","type":"int","value":-1213},{"name":"y2","type":"int","value":-809},{"name":"page","type":"int","value":2}],"polyline":[{"x":0,"y":0},{"x":0,"y":404}]},{"id":1775,"x":-1059,"y":-233,"visible":true,"properties":[{"name":"ladder_id","type":"int","value":13},{"name":"l","type":"int","value":0},{"name":"x","type":"int","value":-1059},{"name":"uf","type":"int","value":0},{"name":"y1","type":"int","value":-233},{"name":"y2","type":"int","value":102},{"name":"page","type":"int","value":2}],"polyline":[{"x":0,"y":0},{"x":0,"y":335}]},{"id":1776,"x":-1598,"y":-1333,"visible":true,"properties":[{"name":"ladder_id","type":"int","value":14},{"name":"l","type":"int","value":0},{"name":"x","type":"int","value":-1598},{"name":"uf","type":"int","value":1},{"name":"y1","type":"int","value":-1333},{"name":"y2","type":"int","value":-1107},{"name":"page","type":"int","value":2}],"polyline":[{"x":0,"y":0},{"x":0,"y":226}]},{"id":1777,"x":-1568,"y":-853,"visible":true,"properties":[{"name":"ladder_id","type":"int","value":15},{"name":"l","type":"int","value":0},{"name":"x","type":"int","value":-1568},{"name":"uf","type":"int","value":1},{"name":"y1","type":"int","value":-853},{"name":"y2","type":"int","value":-717},{"name":"page","type":"int","value":2}],"polyline":[{"x":0,"y":0},{"x":0,"y":136}]},{"id":1778,"x":-1611,"y":-1033,"visible":true,"properties":[{"name":"ladder_id","type":"int","value":16},{"name":"l","type":"int","value":0},{"name":"x","type":"int","value":-1611},{"name":"uf","type":"int","value":1},{"name":"y1","type":"int","value":-1033},{"name":"y2","type":"int","value":-897},{"name":"page","type":"int","value":2}],"polyline":[{"x":0,"y":0},{"x":0,"y":136}]}],"properties":[]},{"id":15,"name":"miniMap","type":"objectgroup","visible":true,"opacity":1,"draworder":"index","offsetx":0,"offsety":0,"parallaxx":1,"parallaxy":1,"objects":[{"id":1779,"x":1783,"y":2961,"visible":true,"properties":[{"name":"mag","type":"int","value":4},{"name":"centerX","type":"int","value":1783},{"name":"centerY","type":"int","value":2961},{"name":"canvas_path","type":"string","value":"../images/30508.png"},{"name":"canvas_width","type":"int","value":138},{"name":"canvas_height","type":"int","value":216},{"name":"canvas_origin_x","type":"int","value":0},{"name":"canvas_origin_y","type":"int","value":0}],"point":true}],"properties":[]}],"tilesets":[{"firstgid":1,"source":"../tilesets/bg_darkWood.tsj"},{"firstgid":6,"source":"../tilesets/tile_darkWood.tsj"},{"firstgid":18,"source":"../tilesets/obj_connect_rope_0.tsj"},{"firstgid":22,"source":"../tilesets/obj_connect_ladder_0.tsj"},{"firstgid":27,"source":"../tilesets/obj_house_darkWood_lamp.tsj"},{"firstgid":29,"source":"../tilesets/obj_houseDW_house2_deco.tsj"},{"firstgid":30,"source":"../tilesets/obj_acc1_darkWood_nature.tsj"},{"firstgid":52,"source":"../tilesets/obj_guide_midForest_wood.tsj"},{"firstgid":53,"source":"../tilesets/obj_houseDW_house2_basic.tsj"},{"firstgid":55,"source":"../tilesets/obj_house_darkWood_chimney.tsj"},{"firstgid":56,"source":"../tilesets/obj_acc1_darkWood_artificiality.tsj"},{"firstgid":66,"source":"../tilesets/portal_MapHelper.img_portal_game_pv.tsj"},{"firstgid":74,"source":"../tilesets/obj_acc1_grassySoil_artificiality.tsj"}],"properties":[{"name":"bgm","type":"string","value":"Bgm00/SleepyWood"},{"name":"town","type":"int","value":0},{"name":"cloud","type":"int","value":0},{"name":"mapDesc","type":"string","value":""},{"name":"mapMark","type":"string","value":"Dungeon"},{"name":"mobRate","type":"float","value":1.4999983310699463},{"name":"version","type":"int","value":10},{"name":"returnMap","type":"int","value":105040300},{"name":"forcedReturn","type":"int","value":999999999}]}