{"type":"map","orientation":"orthogonal","renderorder":"right-down","infinite":false,"tilewidth":1,"tileheight":1,"width":1696,"height":1105,"parallaxoriginx":-400,"parallaxoriginy":80,"nextlayerid":12,"nextobjectid":91,"layers":[{"id":1,"name":"background_back_0","type":"imagelayer","visible":true,"opacity":1,"image":"../images/29403.png","imagewidth":44,"imageheight":44,"offsetx":-24,"offsety":112,"repeatx":true,"repeaty":true,"parallaxx":0,"parallaxy":0,"properties":[{"name":"a","type":"int","value":255},{"name":"f","type":"int","value":0},{"name":"x","type":"int","value":-2},{"name":"y","type":"int","value":54},{"name":"bS","type":"string","value":"mushCatle"},{"name":"cx","type":"int","value":0},{"name":"cy","type":"int","value":0},{"name":"no","type":"int","value":0},{"name":"rx","type":"int","value":0},{"name":"ry","type":"int","value":0},{"name":"ani","type":"int","value":0},{"name":"type","type":"int","value":3},{"name":"front","type":"int","value":0}]},{"id":2,"name":"background_back_1","type":"imagelayer","visible":true,"opacity":1,"image":"../images/29404.png","imagewidth":11,"imageheight":340,"offsetx":-45,"offsety":-266,"repeatx":true,"repeaty":false,"parallaxx":0,"parallaxy":0.1,"properties":[{"name":"a","type":"int","value":255},{"name":"f","type":"int","value":0},{"name":"x","type":"int","value":-40},{"name":"y","type":"int","value":-176},{"name":"bS","type":"string","value":"mushCatle"},{"name":"cx","type":"int","value":0},{"name":"cy","type":"int","value":0},{"name":"no","type":"int","value":1},{"name":"rx","type":"int","value":0},{"name":"ry","type":"int","value":-10},{"name":"ani","type":"int","value":0},{"name":"type","type":"int","value":1},{"name":"front","type":"int","value":0}]},{"id":3,"name":"background_back_2","type":"imagelayer","visible":true,"opacity":1,"image":"../images/29406.png","imagewidth":635,"imageheight":569,"offsetx":-585,"offsety":-109,"repeatx":true,"repeaty":false,"parallaxx":0.3,"parallaxy":0.3,"properties":[{"name":"a","type":"int","value":255},{"name":"f","type":"int","value":0},{"name":"x","type":"int","value":-268},{"name":"y","type":"int","value":95},{"name":"bS","type":"string","value":"mushCatle"},{"name":"cx","type":"int","value":0},{"name":"cy","type":"int","value":0},{"name":"no","type":"int","value":3},{"name":"rx","type":"int","value":-30},{"name":"ry","type":"int","value":-30},{"name":"ani","type":"int","value":0},{"name":"type","type":"int","value":1},{"name":"front","type":"int","value":0}]},{"id":4,"name":"background_back_3","type":"imagelayer","visible":true,"opacity":1,"image":"../images/29409.png","imagewidth":253,"imageheight":128,"offsetx":-252,"offsety":113,"repeatx":true,"repeaty":false,"parallaxx":0.5,"parallaxy":0.8,"properties":[{"name":"a","type":"int","value":255},{"name":"f","type":"int","value":0},{"name":"x","type":"int","value":-249},{"name":"y","type":"int","value":129},{"name":"bS","type":"string","value":"mushCatle"},{"name":"cx","type":"int","value":0},{"name":"cy","type":"int","value":0},{"name":"no","type":"int","value":6},{"name":"rx","type":"int","value":-50},{"name":"ry","type":"int","value":-80},{"name":"ani","type":"int","value":0},{"name":"type","type":"int","value":1},{"name":"front","type":"int","value":0}]},{"id":5,"name":"layer_3_obj","type":"objectgroup","visible":true,"opacity":1,"draworder":"index","offsetx":0,"offsety":0,"parallaxx":1,"parallaxy":1,"objects":[{"id":49,"x":158,"y":160,"visible":true,"properties":[{"name":"layer","type":"int","value":3},{"name":"resource_index","type":"int","value":0},{"name":"oS","type":"string","value":"Tdungeon"},{"name":"l0","type":"string","value":"mushCatle"},{"name":"l1","type":"string","value":"wedding"},{"name":"l2","type":"string","value":"0"},{"name":"z","type":"int","value":8},{"name":"zM","type":"int","value":0},{"name":"f","type":"int","value":0}],"gid":76,"width":435,"height":211},{"id":50,"x":34,"y":-51,"visible":true,"properties":[{"name":"layer","type":"int","value":3},{"name":"resource_index","type":"int","value":1},{"name":"oS","type":"string","value":"Tdungeon"},{"name":"l0","type":"string","value":"mushCatle"},{"name":"l1","type":"string","value":"wedding"},{"name":"l2","type":"string","value":"1"},{"name":"z","type":"int","value":8},{"name":"zM","type":"int","value":3},{"name":"f","type":"int","value":0}],"gid":77,"width":252,"height":335},{"id":51,"x":286,"y":-51,"visible":true,"properties":[{"name":"layer","type":"int","value":3},{"name":"resource_index","type":"int","value":2},{"name":"oS","type":"string","value":"Tdungeon"},{"name":"l0","type":"string","value":"mushCatle"},{"name":"l1","type":"string","value":"wedding"},{"name":"l2","type":"string","value":"2"},{"name":"z","type":"int","value":8},{"name":"zM","type":"int","value":4},{"name":"f","type":"int","value":0}],"gid":78,"width":316,"height":243},{"id":52,"x":-591,"y":161,"visible":true,"properties":[{"name":"layer","type":"int","value":3},{"name":"resource_index","type":"int","value":3},{"name":"oS","type":"string","value":"Tdungeon"},{"name":"l0","type":"string","value":"mushCatle"},{"name":"l1","type":"string","value":"wedding"},{"name":"l2","type":"string","value":"3"},{"name":"z","type":"int","value":9},{"name":"zM","type":"int","value":0},{"name":"f","type":"int","value":0}],"gid":79,"width":435,"height":209},{"id":53,"x":-282,"y":-47,"visible":true,"properties":[{"name":"layer","type":"int","value":3},{"name":"resource_index","type":"int","value":4},{"name":"oS","type":"string","value":"Tdungeon"},{"name":"l0","type":"string","value":"mushCatle"},{"name":"l1","type":"string","value":"wedding"},{"name":"l2","type":"string","value":"4"},{"name":"z","type":"int","value":10},{"name":"zM","type":"int","value":0},{"name":"f","type":"int","value":0}],"gid":80,"width":250,"height":339},{"id":54,"x":-600,"y":-47,"visible":true,"properties":[{"name":"layer","type":"int","value":3},{"name":"resource_index","type":"int","value":5},{"name":"oS","type":"string","value":"Tdungeon"},{"name":"l0","type":"string","value":"mushCatle"},{"name":"l1","type":"string","value":"wedding"},{"name":"l2","type":"string","value":"5"},{"name":"z","type":"int","value":5},{"name":"zM","type":"int","value":0},{"name":"f","type":"int","value":0}],"gid":81,"width":318,"height":245},{"id":55,"x":-429,"y":145,"visible":true,"properties":[{"name":"layer","type":"int","value":3},{"name":"resource_index","type":"int","value":6},{"name":"oS","type":"string","value":"Tdungeon"},{"name":"l0","type":"string","value":"mushCatle"},{"name":"l1","type":"string","value":"wedding"},{"name":"l2","type":"string","value":"10"},{"name":"z","type":"int","value":18},{"name":"zM","type":"int","value":0},{"name":"f","type":"int","value":0}],"gid":82,"width":857,"height":60},{"id":56,"x":-66,"y":89,"visible":true,"properties":[{"name":"layer","type":"int","value":3},{"name":"resource_index","type":"int","value":7},{"name":"oS","type":"string","value":"Tdungeon"},{"name":"l0","type":"string","value":"mushCatle"},{"name":"l1","type":"string","value":"wedding"},{"name":"l2","type":"string","value":"9"},{"name":"z","type":"int","value":16},{"name":"zM","type":"int","value":0},{"name":"f","type":"int","value":0}],"gid":83,"width":134,"height":64},{"id":57,"x":-117,"y":88,"visible":true,"properties":[{"name":"layer","type":"int","value":3},{"name":"resource_index","type":"int","value":8},{"name":"oS","type":"string","value":"Tdungeon"},{"name":"l0","type":"string","value":"mushCatle"},{"name":"l1","type":"string","value":"wedding"},{"name":"l2","type":"string","value":"6"},{"name":"z","type":"int","value":12},{"name":"zM","type":"int","value":0},{"name":"f","type":"int","value":0}],"gid":84,"width":232,"height":548},{"id":58,"x":-330,"y":88,"visible":true,"properties":[{"name":"layer","type":"int","value":3},{"name":"resource_index","type":"int","value":9},{"name":"oS","type":"string","value":"Tdungeon"},{"name":"l0","type":"string","value":"mushCatle"},{"name":"l1","type":"string","value":"wedding"},{"name":"l2","type":"string","value":"7"},{"name":"z","type":"int","value":12},{"name":"zM","type":"int","value":0},{"name":"f","type":"int","value":0}],"gid":85,"width":213,"height":255},{"id":59,"x":115,"y":88,"visible":true,"properties":[{"name":"layer","type":"int","value":3},{"name":"resource_index","type":"int","value":10},{"name":"oS","type":"string","value":"Tdungeon"},{"name":"l0","type":"string","value":"mushCatle"},{"name":"l1","type":"string","value":"wedding"},{"name":"l2","type":"string","value":"8"},{"name":"z","type":"int","value":12},{"name":"zM","type":"int","value":0},{"name":"f","type":"int","value":0}],"gid":86,"width":209,"height":254},{"id":60,"x":-943,"y":141,"visible":true,"properties":[{"name":"layer","type":"int","value":3},{"name":"resource_index","type":"int","value":11},{"name":"oS","type":"string","value":"Tdungeon"},{"name":"l0","type":"string","value":"mushCatle"},{"name":"l1","type":"string","value":"wedding"},{"name":"l2","type":"string","value":"11"},{"name":"z","type":"int","value":9},{"name":"zM","type":"int","value":0},{"name":"f","type":"int","value":1}],"gid":87,"width":468,"height":854},{"id":61,"x":588,"y":142,"visible":true,"properties":[{"name":"layer","type":"int","value":3},{"name":"resource_index","type":"int","value":12},{"name":"oS","type":"string","value":"Tdungeon"},{"name":"l0","type":"string","value":"mushCatle"},{"name":"l1","type":"string","value":"gate"},{"name":"l2","type":"string","value":"1"},{"name":"z","type":"int","value":14},{"name":"zM","type":"int","value":0},{"name":"f","type":"int","value":0}],"gid":54,"width":123,"height":145},{"id":62,"x":478,"y":141,"visible":true,"properties":[{"name":"layer","type":"int","value":3},{"name":"resource_index","type":"int","value":13},{"name":"oS","type":"string","value":"Tdungeon"},{"name":"l0","type":"string","value":"mushCatle"},{"name":"l1","type":"string","value":"wedding"},{"name":"l2","type":"string","value":"11"},{"name":"z","type":"int","value":9},{"name":"zM","type":"int","value":0},{"name":"f","type":"int","value":0}],"gid":87,"width":468,"height":854},{"id":63,"x":-711,"y":144,"visible":true,"properties":[{"name":"layer","type":"int","value":3},{"name":"resource_index","type":"int","value":14},{"name":"oS","type":"string","value":"Tdungeon"},{"name":"l0","type":"string","value":"mushCatle"},{"name":"l1","type":"string","value":"gate"},{"name":"l2","type":"string","value":"0"},{"name":"z","type":"int","value":12},{"name":"zM","type":"int","value":0},{"name":"f","type":"int","value":1}],"gid":62,"width":123,"height":145}],"properties":[]},{"id":6,"name":"layer_3_tile","type":"objectgroup","visible":true,"opacity":1,"draworder":"index","offsetx":0,"offsety":0,"parallaxx":1,"parallaxy":1,"objects":[{"id":1,"x":90,"y":240,"visible":true,"properties":[{"name":"layer","type":"int","value":3},{"name":"resource_index","type":"int","value":0},{"name":"u","type":"string","value":"bsc"},{"name":"no","type":"int","value":2},{"name":"zM","type":"int","value":0}],"gid":27,"width":90,"height":60},{"id":2,"x":90,"y":180,"visible":true,"properties":[{"name":"layer","type":"int","value":3},{"name":"resource_index","type":"int","value":1},{"name":"u","type":"string","value":"enH0"},{"name":"no","type":"int","value":0},{"name":"zM","type":"int","value":0}],"gid":26,"width":90,"height":39},{"id":3,"x":0,"y":240,"visible":true,"properties":[{"name":"layer","type":"int","value":3},{"name":"resource_index","type":"int","value":2},{"name":"u","type":"string","value":"bsc"},{"name":"no","type":"int","value":1},{"name":"zM","type":"int","value":0}],"gid":25,"width":91,"height":60},{"id":4,"x":0,"y":180,"visible":true,"properties":[{"name":"layer","type":"int","value":3},{"name":"resource_index","type":"int","value":3},{"name":"u","type":"string","value":"enH0"},{"name":"no","type":"int","value":0},{"name":"zM","type":"int","value":0}],"gid":26,"width":90,"height":39},{"id":5,"x":-360,"y":240,"visible":true,"properties":[{"name":"layer","type":"int","value":3},{"name":"resource_index","type":"int","value":4},{"name":"u","type":"string","value":"bsc"},{"name":"no","type":"int","value":3},{"name":"zM","type":"int","value":0}],"gid":28,"width":90,"height":60},{"id":6,"x":540,"y":300,"visible":true,"properties":[{"name":"layer","type":"int","value":3},{"name":"resource_index","type":"int","value":5},{"name":"u","type":"string","value":"bsc"},{"name":"no","type":"int","value":1},{"name":"zM","type":"int","value":0}],"gid":25,"width":91,"height":60},{"id":7,"x":-180,"y":240,"visible":true,"properties":[{"name":"layer","type":"int","value":3},{"name":"resource_index","type":"int","value":6},{"name":"u","type":"string","value":"bsc"},{"name":"no","type":"int","value":4},{"name":"zM","type":"int","value":0}],"gid":29,"width":90,"height":60},{"id":8,"x":-180,"y":180,"visible":true,"properties":[{"name":"layer","type":"int","value":3},{"name":"resource_index","type":"int","value":7},{"name":"u","type":"string","value":"enH0"},{"name":"no","type":"int","value":2},{"name":"zM","type":"int","value":0}],"gid":23,"width":90,"height":39},{"id":9,"x":-90,"y":180,"visible":true,"properties":[{"name":"layer","type":"int","value":3},{"name":"resource_index","type":"int","value":8},{"name":"u","type":"string","value":"enH0"},{"name":"no","type":"int","value":1},{"name":"zM","type":"int","value":0}],"gid":30,"width":90,"height":39},{"id":10,"x":-90,"y":240,"visible":true,"properties":[{"name":"layer","type":"int","value":3},{"name":"resource_index","type":"int","value":9},{"name":"u","type":"string","value":"bsc"},{"name":"no","type":"int","value":4},{"name":"zM","type":"int","value":0}],"gid":29,"width":90,"height":60},{"id":11,"x":-450,"y":240,"visible":true,"properties":[{"name":"layer","type":"int","value":3},{"name":"resource_index","type":"int","value":10},{"name":"u","type":"string","value":"bsc"},{"name":"no","type":"int","value":3},{"name":"zM","type":"int","value":0}],"gid":28,"width":90,"height":60},{"id":12,"x":-270,"y":300,"visible":true,"properties":[{"name":"layer","type":"int","value":3},{"name":"resource_index","type":"int","value":11},{"name":"u","type":"string","value":"bsc"},{"name":"no","type":"int","value":1},{"name":"zM","type":"int","value":0}],"gid":25,"width":91,"height":60},{"id":13,"x":-270,"y":240,"visible":true,"properties":[{"name":"layer","type":"int","value":3},{"name":"resource_index","type":"int","value":12},{"name":"u","type":"string","value":"bsc"},{"name":"no","type":"int","value":3},{"name":"zM","type":"int","value":0}],"gid":28,"width":90,"height":60},{"id":14,"x":-270,"y":180,"visible":true,"properties":[{"name":"layer","type":"int","value":3},{"name":"resource_index","type":"int","value":13},{"name":"u","type":"string","value":"enH0"},{"name":"no","type":"int","value":1},{"name":"zM","type":"int","value":0}],"gid":30,"width":90,"height":39},{"id":15,"x":270,"y":240,"visible":true,"properties":[{"name":"layer","type":"int","value":3},{"name":"resource_index","type":"int","value":14},{"name":"u","type":"string","value":"bsc"},{"name":"no","type":"int","value":4},{"name":"zM","type":"int","value":0}],"gid":29,"width":90,"height":60},{"id":16,"x":270,"y":180,"visible":true,"properties":[{"name":"layer","type":"int","value":3},{"name":"resource_index","type":"int","value":15},{"name":"u","type":"string","value":"enH0"},{"name":"no","type":"int","value":4},{"name":"zM","type":"int","value":0}],"gid":31,"width":90,"height":39},{"id":17,"x":180,"y":240,"visible":true,"properties":[{"name":"layer","type":"int","value":3},{"name":"resource_index","type":"int","value":16},{"name":"u","type":"string","value":"bsc"},{"name":"no","type":"int","value":0},{"name":"zM","type":"int","value":0}],"gid":24,"width":90,"height":60},{"id":18,"x":180,"y":180,"visible":true,"properties":[{"name":"layer","type":"int","value":3},{"name":"resource_index","type":"int","value":17},{"name":"u","type":"string","value":"enH0"},{"name":"no","type":"int","value":2},{"name":"zM","type":"int","value":0}],"gid":23,"width":90,"height":39},{"id":19,"x":360,"y":240,"visible":true,"properties":[{"name":"layer","type":"int","value":3},{"name":"resource_index","type":"int","value":18},{"name":"u","type":"string","value":"bsc"},{"name":"no","type":"int","value":1},{"name":"zM","type":"int","value":0}],"gid":25,"width":91,"height":60},{"id":20,"x":450,"y":300,"visible":true,"properties":[{"name":"layer","type":"int","value":3},{"name":"resource_index","type":"int","value":19},{"name":"u","type":"string","value":"bsc"},{"name":"no","type":"int","value":2},{"name":"zM","type":"int","value":0}],"gid":27,"width":90,"height":60},{"id":21,"x":180,"y":300,"visible":true,"properties":[{"name":"layer","type":"int","value":3},{"name":"resource_index","type":"int","value":20},{"name":"u","type":"string","value":"bsc"},{"name":"no","type":"int","value":3},{"name":"zM","type":"int","value":0}],"gid":28,"width":90,"height":60},{"id":22,"x":-630,"y":300,"visible":true,"properties":[{"name":"layer","type":"int","value":3},{"name":"resource_index","type":"int","value":21},{"name":"u","type":"string","value":"bsc"},{"name":"no","type":"int","value":0},{"name":"zM","type":"int","value":0}],"gid":24,"width":90,"height":60},{"id":23,"x":540,"y":240,"visible":true,"properties":[{"name":"layer","type":"int","value":3},{"name":"resource_index","type":"int","value":22},{"name":"u","type":"string","value":"bsc"},{"name":"no","type":"int","value":4},{"name":"zM","type":"int","value":0}],"gid":29,"width":90,"height":60},{"id":24,"x":-720,"y":240,"visible":true,"properties":[{"name":"layer","type":"int","value":3},{"name":"resource_index","type":"int","value":23},{"name":"u","type":"string","value":"bsc"},{"name":"no","type":"int","value":2},{"name":"zM","type":"int","value":0}],"gid":27,"width":90,"height":60},{"id":25,"x":-630,"y":240,"visible":true,"properties":[{"name":"layer","type":"int","value":3},{"name":"resource_index","type":"int","value":24},{"name":"u","type":"string","value":"bsc"},{"name":"no","type":"int","value":1},{"name":"zM","type":"int","value":0}],"gid":25,"width":91,"height":60},{"id":26,"x":-360,"y":180,"visible":true,"properties":[{"name":"layer","type":"int","value":3},{"name":"resource_index","type":"int","value":25},{"name":"u","type":"string","value":"enH0"},{"name":"no","type":"int","value":1},{"name":"zM","type":"int","value":0}],"gid":30,"width":90,"height":39},{"id":27,"x":-90,"y":300,"visible":true,"properties":[{"name":"layer","type":"int","value":3},{"name":"resource_index","type":"int","value":26},{"name":"u","type":"string","value":"bsc"},{"name":"no","type":"int","value":1},{"name":"zM","type":"int","value":0}],"gid":25,"width":91,"height":60},{"id":28,"x":-360,"y":300,"visible":true,"properties":[{"name":"layer","type":"int","value":3},{"name":"resource_index","type":"int","value":27},{"name":"u","type":"string","value":"bsc"},{"name":"no","type":"int","value":1},{"name":"zM","type":"int","value":0}],"gid":25,"width":91,"height":60},{"id":29,"x":90,"y":300,"visible":true,"properties":[{"name":"layer","type":"int","value":3},{"name":"resource_index","type":"int","value":28},{"name":"u","type":"string","value":"bsc"},{"name":"no","type":"int","value":1},{"name":"zM","type":"int","value":0}],"gid":25,"width":91,"height":60},{"id":30,"x":0,"y":300,"visible":true,"properties":[{"name":"layer","type":"int","value":3},{"name":"resource_index","type":"int","value":29},{"name":"u","type":"string","value":"bsc"},{"name":"no","type":"int","value":0},{"name":"zM","type":"int","value":0}],"gid":24,"width":90,"height":60},{"id":31,"x":-180,"y":300,"visible":true,"properties":[{"name":"layer","type":"int","value":3},{"name":"resource_index","type":"int","value":30},{"name":"u","type":"string","value":"bsc"},{"name":"no","type":"int","value":1},{"name":"zM","type":"int","value":0}],"gid":25,"width":91,"height":60},{"id":32,"x":270,"y":300,"visible":true,"properties":[{"name":"layer","type":"int","value":3},{"name":"resource_index","type":"int","value":31},{"name":"u","type":"string","value":"bsc"},{"name":"no","type":"int","value":2},{"name":"zM","type":"int","value":0}],"gid":27,"width":90,"height":60},{"id":33,"x":630,"y":180,"visible":true,"properties":[{"name":"layer","type":"int","value":3},{"name":"resource_index","type":"int","value":32},{"name":"u","type":"string","value":"enH0"},{"name":"no","type":"int","value":3},{"name":"zM","type":"int","value":0}],"gid":39,"width":90,"height":39},{"id":34,"x":-540,"y":180,"visible":true,"properties":[{"name":"layer","type":"int","value":3},{"name":"resource_index","type":"int","value":33},{"name":"u","type":"string","value":"enH0"},{"name":"no","type":"int","value":4},{"name":"zM","type":"int","value":0}],"gid":31,"width":90,"height":39},{"id":35,"x":-630,"y":180,"visible":true,"properties":[{"name":"layer","type":"int","value":3},{"name":"resource_index","type":"int","value":34},{"name":"u","type":"string","value":"enH0"},{"name":"no","type":"int","value":3},{"name":"zM","type":"int","value":0}],"gid":39,"width":90,"height":39},{"id":36,"x":-450,"y":180,"visible":true,"properties":[{"name":"layer","type":"int","value":3},{"name":"resource_index","type":"int","value":35},{"name":"u","type":"string","value":"enH0"},{"name":"no","type":"int","value":1},{"name":"zM","type":"int","value":0}],"gid":30,"width":90,"height":39},{"id":37,"x":-720,"y":300,"visible":true,"properties":[{"name":"layer","type":"int","value":3},{"name":"resource_index","type":"int","value":36},{"name":"u","type":"string","value":"bsc"},{"name":"no","type":"int","value":2},{"name":"zM","type":"int","value":0}],"gid":27,"width":90,"height":60},{"id":38,"x":630,"y":300,"visible":true,"properties":[{"name":"layer","type":"int","value":3},{"name":"resource_index","type":"int","value":37},{"name":"u","type":"string","value":"bsc"},{"name":"no","type":"int","value":1},{"name":"zM","type":"int","value":0}],"gid":25,"width":91,"height":60},{"id":39,"x":-720,"y":180,"visible":true,"properties":[{"name":"layer","type":"int","value":3},{"name":"resource_index","type":"int","value":38},{"name":"u","type":"string","value":"enH0"},{"name":"no","type":"int","value":1},{"name":"zM","type":"int","value":0}],"gid":30,"width":90,"height":39},{"id":40,"x":630,"y":240,"visible":true,"properties":[{"name":"layer","type":"int","value":3},{"name":"resource_index","type":"int","value":39},{"name":"u","type":"string","value":"bsc"},{"name":"no","type":"int","value":2},{"name":"zM","type":"int","value":0}],"gid":27,"width":90,"height":60},{"id":41,"x":-540,"y":300,"visible":true,"properties":[{"name":"layer","type":"int","value":3},{"name":"resource_index","type":"int","value":40},{"name":"u","type":"string","value":"bsc"},{"name":"no","type":"int","value":4},{"name":"zM","type":"int","value":0}],"gid":29,"width":90,"height":60},{"id":42,"x":540,"y":180,"visible":true,"properties":[{"name":"layer","type":"int","value":3},{"name":"resource_index","type":"int","value":41},{"name":"u","type":"string","value":"enH0"},{"name":"no","type":"int","value":4},{"name":"zM","type":"int","value":0}],"gid":31,"width":90,"height":39},{"id":43,"x":-540,"y":240,"visible":true,"properties":[{"name":"layer","type":"int","value":3},{"name":"resource_index","type":"int","value":42},{"name":"u","type":"string","value":"bsc"},{"name":"no","type":"int","value":3},{"name":"zM","type":"int","value":0}],"gid":28,"width":90,"height":60},{"id":44,"x":-450,"y":300,"visible":true,"properties":[{"name":"layer","type":"int","value":3},{"name":"resource_index","type":"int","value":43},{"name":"u","type":"string","value":"bsc"},{"name":"no","type":"int","value":2},{"name":"zM","type":"int","value":0}],"gid":27,"width":90,"height":60},{"id":45,"x":360,"y":180,"visible":true,"properties":[{"name":"layer","type":"int","value":3},{"name":"resource_index","type":"int","value":44},{"name":"u","type":"string","value":"enH0"},{"name":"no","type":"int","value":1},{"name":"zM","type":"int","value":0}],"gid":30,"width":90,"height":39},{"id":46,"x":450,"y":240,"visible":true,"properties":[{"name":"layer","type":"int","value":3},{"name":"resource_index","type":"int","value":45},{"name":"u","type":"string","value":"bsc"},{"name":"no","type":"int","value":3},{"name":"zM","type":"int","value":0}],"gid":28,"width":90,"height":60},{"id":47,"x":450,"y":180,"visible":true,"properties":[{"name":"layer","type":"int","value":3},{"name":"resource_index","type":"int","value":46},{"name":"u","type":"string","value":"enH0"},{"name":"no","type":"int","value":4},{"name":"zM","type":"int","value":0}],"gid":31,"width":90,"height":39},{"id":48,"x":360,"y":300,"visible":true,"properties":[{"name":"layer","type":"int","value":3},{"name":"resource_index","type":"int","value":47},{"name":"u","type":"string","value":"bsc"},{"name":"no","type":"int","value":2},{"name":"zM","type":"int","value":0}],"gid":27,"width":90,"height":60}],"properties":[]},{"id":7,"name":"layer_4_obj","type":"objectgroup","visible":true,"opacity":1,"draworder":"index","offsetx":0,"offsety":0,"parallaxx":1,"parallaxy":1,"objects":[{"id":64,"x":714,"y":300,"visible":true,"properties":[{"name":"layer","type":"int","value":4},{"name":"resource_index","type":"int","value":0},{"name":"oS","type":"string","value":"Tdungeon"},{"name":"l0","type":"string","value":"mushCatle"},{"name":"l1","type":"string","value":"tower"},{"name":"l2","type":"string","value":"5"},{"name":"z","type":"int","value":9},{"name":"zM","type":"int","value":1},{"name":"f","type":"int","value":0}],"gid":75,"width":167,"height":159},{"id":65,"x":-877,"y":300,"visible":true,"properties":[{"name":"layer","type":"int","value":4},{"name":"resource_index","type":"int","value":1},{"name":"oS","type":"string","value":"Tdungeon"},{"name":"l0","type":"string","value":"mushCatle"},{"name":"l1","type":"string","value":"tower"},{"name":"l2","type":"string","value":"5"},{"name":"z","type":"int","value":9},{"name":"zM","type":"int","value":2},{"name":"f","type":"int","value":1}],"gid":75,"width":167,"height":159}],"properties":[]},{"id":8,"name":"portal","type":"objectgroup","visible":true,"opacity":1,"draworder":"index","offsetx":0,"offsety":0,"parallaxx":1,"parallaxy":1,"objects":[{"id":66,"x":0,"y":0,"visible":true,"properties":[{"name":"x","type":"int","value":0},{"name":"y","type":"int","value":0},{"name":"pn","type":"string","value":"sp"},{"name":"pt","type":"int","value":0},{"name":"tm","type":"int","value":999999999},{"name":"tn","type":"string","value":""},{"name":"horizontalImpact","type":"int","value":0},{"name":"portal_id","type":"int","value":0}],"point":true},{"id":67,"x":-685,"y":151,"visible":true,"properties":[{"name":"x","type":"int","value":-641},{"name":"y","type":"int","value":142},{"name":"pn","type":"string","value":"left00"},{"name":"pt","type":"int","value":2},{"name":"tm","type":"int","value":106021402},{"name":"tn","type":"string","value":"right00"},{"name":"delay","type":"int","value":0},{"name":"script","type":"string","value":""},{"name":"onlyOnce","type":"int","value":0},{"name":"hideTooltip","type":"int","value":0},{"name":"horizontalImpact","type":"int","value":0},{"name":"portal_id","type":"int","value":1}],"gid":89,"width":89,"height":257},{"id":68,"x":596,"y":151,"visible":true,"properties":[{"name":"x","type":"int","value":640},{"name":"y","type":"int","value":142},{"name":"pn","type":"string","value":"right00"},{"name":"pt","type":"int","value":2},{"name":"tm","type":"int","value":106021800},{"name":"tn","type":"string","value":"st00"},{"name":"delay","type":"int","value":0},{"name":"script","type":"string","value":""},{"name":"onlyOnce","type":"int","value":0},{"name":"hideTooltip","type":"int","value":0},{"name":"horizontalImpact","type":"int","value":0},{"name":"portal_id","type":"int","value":2}],"gid":89,"width":89,"height":257}],"properties":[]},{"id":9,"name":"life","type":"objectgroup","visible":true,"opacity":1,"draworder":"index","offsetx":0,"offsety":0,"parallaxx":1,"parallaxy":1,"objects":[{"id":69,"x":43,"y":81,"visible":true,"properties":[{"name":"f","type":"int","value":0},{"name":"x","type":"int","value":43},{"name":"y","type":"int","value":81},{"name":"cy","type":"int","value":87},{"name":"fh","type":"int","value":17},{"name":"id","type":"int","value":1300002},{"name":"rx0","type":"int","value":-7},{"name":"rx1","type":"int","value":93},{"name":"hide","type":"int","value":0},{"name":"type","type":"string","value":"n"},{"name":"mobTime","type":"int","value":0}],"point":true}],"properties":[]},{"id":10,"name":"foothold","type":"objectgroup","visible":true,"opacity":1,"draworder":"index","offsetx":0,"offsety":0,"parallaxx":1,"parallaxy":1,"objects":[{"id":70,"x":90,"y":142,"visible":true,"properties":[{"name":"layer","type":"int","value":3},{"name":"group","type":"int","value":0},{"name":"id","type":"int","value":1},{"name":"fh_layer","type":"int","value":3},{"name":"fh_group","type":"int","value":0},{"name":"fh_id","type":"int","value":1},{"name":"x1","type":"int","value":90},{"name":"x2","type":"int","value":180},{"name":"y1","type":"int","value":142},{"name":"y2","type":"int","value":142},{"name":"next","type":"int","value":7},{"name":"prev","type":"int","value":2}],"polyline":[{"x":0,"y":0},{"x":90,"y":0}]},{"id":71,"x":0,"y":142,"visible":true,"properties":[{"name":"layer","type":"int","value":3},{"name":"group","type":"int","value":0},{"name":"id","type":"int","value":2},{"name":"fh_layer","type":"int","value":3},{"name":"fh_group","type":"int","value":0},{"name":"fh_id","type":"int","value":2},{"name":"x1","type":"int","value":0},{"name":"x2","type":"int","value":90},{"name":"y1","type":"int","value":142},{"name":"y2","type":"int","value":142},{"name":"next","type":"int","value":1},{"name":"prev","type":"int","value":4}],"polyline":[{"x":0,"y":0},{"x":90,"y":0}]},{"id":72,"x":-180,"y":142,"visible":true,"properties":[{"name":"layer","type":"int","value":3},{"name":"group","type":"int","value":0},{"name":"id","type":"int","value":3},{"name":"fh_layer","type":"int","value":3},{"name":"fh_group","type":"int","value":0},{"name":"fh_id","type":"int","value":3},{"name":"x1","type":"int","value":-180},{"name":"x2","type":"int","value":-90},{"name":"y1","type":"int","value":142},{"name":"y2","type":"int","value":142},{"name":"next","type":"int","value":4},{"name":"prev","type":"int","value":5}],"polyline":[{"x":0,"y":0},{"x":90,"y":0}]},{"id":73,"x":-90,"y":142,"visible":true,"properties":[{"name":"layer","type":"int","value":3},{"name":"group","type":"int","value":0},{"name":"id","type":"int","value":4},{"name":"fh_layer","type":"int","value":3},{"name":"fh_group","type":"int","value":0},{"name":"fh_id","type":"int","value":4},{"name":"x1","type":"int","value":-90},{"name":"x2","type":"int","value":0},{"name":"y1","type":"int","value":142},{"name":"y2","type":"int","value":142},{"name":"next","type":"int","value":2},{"name":"prev","type":"int","value":3}],"polyline":[{"x":0,"y":0},{"x":90,"y":0}]},{"id":74,"x":-270,"y":142,"visible":true,"properties":[{"name":"layer","type":"int","value":3},{"name":"group","type":"int","value":0},{"name":"id","type":"int","value":5},{"name":"fh_layer","type":"int","value":3},{"name":"fh_group","type":"int","value":0},{"name":"fh_id","type":"int","value":5},{"name":"x1","type":"int","value":-270},{"name":"x2","type":"int","value":-180},{"name":"y1","type":"int","value":142},{"name":"y2","type":"int","value":142},{"name":"next","type":"int","value":3},{"name":"prev","type":"int","value":8}],"polyline":[{"x":0,"y":0},{"x":90,"y":0}]},{"id":75,"x":270,"y":142,"visible":true,"properties":[{"name":"layer","type":"int","value":3},{"name":"group","type":"int","value":0},{"name":"id","type":"int","value":6},{"name":"fh_layer","type":"int","value":3},{"name":"fh_group","type":"int","value":0},{"name":"fh_id","type":"int","value":6},{"name":"x1","type":"int","value":270},{"name":"x2","type":"int","value":360},{"name":"y1","type":"int","value":142},{"name":"y2","type":"int","value":142},{"name":"next","type":"int","value":14},{"name":"prev","type":"int","value":7}],"polyline":[{"x":0,"y":0},{"x":90,"y":0}]},{"id":76,"x":180,"y":142,"visible":true,"properties":[{"name":"layer","type":"int","value":3},{"name":"group","type":"int","value":0},{"name":"id","type":"int","value":7},{"name":"fh_layer","type":"int","value":3},{"name":"fh_group","type":"int","value":0},{"name":"fh_id","type":"int","value":7},{"name":"x1","type":"int","value":180},{"name":"x2","type":"int","value":270},{"name":"y1","type":"int","value":142},{"name":"y2","type":"int","value":142},{"name":"next","type":"int","value":6},{"name":"prev","type":"int","value":1}],"polyline":[{"x":0,"y":0},{"x":90,"y":0}]},{"id":77,"x":-360,"y":142,"visible":true,"properties":[{"name":"layer","type":"int","value":3},{"name":"group","type":"int","value":0},{"name":"id","type":"int","value":8},{"name":"fh_layer","type":"int","value":3},{"name":"fh_group","type":"int","value":0},{"name":"fh_id","type":"int","value":8},{"name":"x1","type":"int","value":-360},{"name":"x2","type":"int","value":-270},{"name":"y1","type":"int","value":142},{"name":"y2","type":"int","value":142},{"name":"next","type":"int","value":5},{"name":"prev","type":"int","value":12}],"polyline":[{"x":0,"y":0},{"x":90,"y":0}]},{"id":78,"x":630,"y":142,"visible":true,"properties":[{"name":"layer","type":"int","value":3},{"name":"group","type":"int","value":0},{"name":"id","type":"int","value":9},{"name":"fh_layer","type":"int","value":3},{"name":"fh_group","type":"int","value":0},{"name":"fh_id","type":"int","value":9},{"name":"x1","type":"int","value":630},{"name":"x2","type":"int","value":692},{"name":"y1","type":"int","value":142},{"name":"y2","type":"int","value":142},{"name":"next","type":"int","value":20},{"name":"prev","type":"int","value":13}],"polyline":[{"x":0,"y":0},{"x":62,"y":0}]},{"id":79,"x":-540,"y":142,"visible":true,"properties":[{"name":"layer","type":"int","value":3},{"name":"group","type":"int","value":0},{"name":"id","type":"int","value":10},{"name":"fh_layer","type":"int","value":3},{"name":"fh_group","type":"int","value":0},{"name":"fh_id","type":"int","value":10},{"name":"x1","type":"int","value":-540},{"name":"x2","type":"int","value":-450},{"name":"y1","type":"int","value":142},{"name":"y2","type":"int","value":142},{"name":"next","type":"int","value":12},{"name":"prev","type":"int","value":11}],"polyline":[{"x":0,"y":0},{"x":90,"y":0}]},{"id":80,"x":-630,"y":142,"visible":true,"properties":[{"name":"layer","type":"int","value":3},{"name":"group","type":"int","value":0},{"name":"id","type":"int","value":11},{"name":"fh_layer","type":"int","value":3},{"name":"fh_group","type":"int","value":0},{"name":"fh_id","type":"int","value":11},{"name":"x1","type":"int","value":-630},{"name":"x2","type":"int","value":-540},{"name":"y1","type":"int","value":142},{"name":"y2","type":"int","value":142},{"name":"next","type":"int","value":10},{"name":"prev","type":"int","value":19}],"polyline":[{"x":0,"y":0},{"x":90,"y":0}]},{"id":81,"x":-450,"y":142,"visible":true,"properties":[{"name":"layer","type":"int","value":3},{"name":"group","type":"int","value":0},{"name":"id","type":"int","value":12},{"name":"fh_layer","type":"int","value":3},{"name":"fh_group","type":"int","value":0},{"name":"fh_id","type":"int","value":12},{"name":"x1","type":"int","value":-450},{"name":"x2","type":"int","value":-360},{"name":"y1","type":"int","value":142},{"name":"y2","type":"int","value":142},{"name":"next","type":"int","value":8},{"name":"prev","type":"int","value":10}],"polyline":[{"x":0,"y":0},{"x":90,"y":0}]},{"id":82,"x":540,"y":142,"visible":true,"properties":[{"name":"layer","type":"int","value":3},{"name":"group","type":"int","value":0},{"name":"id","type":"int","value":13},{"name":"fh_layer","type":"int","value":3},{"name":"fh_group","type":"int","value":0},{"name":"fh_id","type":"int","value":13},{"name":"x1","type":"int","value":540},{"name":"x2","type":"int","value":630},{"name":"y1","type":"int","value":142},{"name":"y2","type":"int","value":142},{"name":"next","type":"int","value":9},{"name":"prev","type":"int","value":15}],"polyline":[{"x":0,"y":0},{"x":90,"y":0}]},{"id":83,"x":360,"y":142,"visible":true,"properties":[{"name":"layer","type":"int","value":3},{"name":"group","type":"int","value":0},{"name":"id","type":"int","value":14},{"name":"fh_layer","type":"int","value":3},{"name":"fh_group","type":"int","value":0},{"name":"fh_id","type":"int","value":14},{"name":"x1","type":"int","value":360},{"name":"x2","type":"int","value":450},{"name":"y1","type":"int","value":142},{"name":"y2","type":"int","value":142},{"name":"next","type":"int","value":15},{"name":"prev","type":"int","value":6}],"polyline":[{"x":0,"y":0},{"x":90,"y":0}]},{"id":84,"x":450,"y":142,"visible":true,"properties":[{"name":"layer","type":"int","value":3},{"name":"group","type":"int","value":0},{"name":"id","type":"int","value":15},{"name":"fh_layer","type":"int","value":3},{"name":"fh_group","type":"int","value":0},{"name":"fh_id","type":"int","value":15},{"name":"x1","type":"int","value":450},{"name":"x2","type":"int","value":540},{"name":"y1","type":"int","value":142},{"name":"y2","type":"int","value":142},{"name":"next","type":"int","value":13},{"name":"prev","type":"int","value":14}],"polyline":[{"x":0,"y":0},{"x":90,"y":0}]},{"id":85,"x":-429,"y":113,"visible":true,"properties":[{"name":"layer","type":"int","value":3},{"name":"group","type":"int","value":0},{"name":"id","type":"int","value":16},{"name":"fh_layer","type":"int","value":3},{"name":"fh_group","type":"int","value":0},{"name":"fh_id","type":"int","value":16},{"name":"x1","type":"int","value":-429},{"name":"x2","type":"int","value":429},{"name":"y1","type":"int","value":113},{"name":"y2","type":"int","value":113},{"name":"next","type":"int","value":0},{"name":"prev","type":"int","value":0}],"polyline":[{"x":0,"y":0},{"x":858,"y":0}]},{"id":86,"x":-382,"y":87,"visible":true,"properties":[{"name":"layer","type":"int","value":3},{"name":"group","type":"int","value":0},{"name":"id","type":"int","value":17},{"name":"fh_layer","type":"int","value":3},{"name":"fh_group","type":"int","value":0},{"name":"fh_id","type":"int","value":17},{"name":"x1","type":"int","value":-382},{"name":"x2","type":"int","value":372},{"name":"y1","type":"int","value":87},{"name":"y2","type":"int","value":87},{"name":"next","type":"int","value":0},{"name":"prev","type":"int","value":0}],"polyline":[{"x":0,"y":0},{"x":754,"y":0}]},{"id":87,"x":-689,"y":-663,"visible":true,"properties":[{"name":"layer","type":"int","value":3},{"name":"group","type":"int","value":0},{"name":"id","type":"int","value":18},{"name":"fh_layer","type":"int","value":3},{"name":"fh_group","type":"int","value":0},{"name":"fh_id","type":"int","value":18},{"name":"x1","type":"int","value":-689},{"name":"x2","type":"int","value":-689},{"name":"y1","type":"int","value":-663},{"name":"y2","type":"int","value":142},{"name":"next","type":"int","value":19},{"name":"prev","type":"int","value":0}],"polyline":[{"x":0,"y":0},{"x":0,"y":805}]},{"id":88,"x":-689,"y":142,"visible":true,"properties":[{"name":"layer","type":"int","value":3},{"name":"group","type":"int","value":0},{"name":"id","type":"int","value":19},{"name":"fh_layer","type":"int","value":3},{"name":"fh_group","type":"int","value":0},{"name":"fh_id","type":"int","value":19},{"name":"x1","type":"int","value":-689},{"name":"x2","type":"int","value":-630},{"name":"y1","type":"int","value":142},{"name":"y2","type":"int","value":142},{"name":"next","type":"int","value":11},{"name":"prev","type":"int","value":18}],"polyline":[{"x":0,"y":0},{"x":59,"y":0}]},{"id":89,"x":692,"y":142,"visible":true,"properties":[{"name":"layer","type":"int","value":3},{"name":"group","type":"int","value":0},{"name":"id","type":"int","value":20},{"name":"fh_layer","type":"int","value":3},{"name":"fh_group","type":"int","value":0},{"name":"fh_id","type":"int","value":20},{"name":"x1","type":"int","value":692},{"name":"x2","type":"int","value":692},{"name":"y1","type":"int","value":142},{"name":"y2","type":"int","value":-663},{"name":"next","type":"int","value":0},{"name":"prev","type":"int","value":9}],"polyline":[{"x":0,"y":0},{"x":0,"y":-805}]}],"properties":[]},{"id":11,"name":"miniMap","type":"objectgroup","visible":true,"opacity":1,"draworder":"index","offsetx":0,"offsety":0,"parallaxx":1,"parallaxy":1,"objects":[{"id":90,"x":991,"y":863,"visible":true,"properties":[{"name":"mag","type":"int","value":4},{"name":"centerX","type":"int","value":991},{"name":"centerY","type":"int","value":863},{"name":"canvas_path","type":"string","value":"../images/30608.png"},{"name":"canvas_width","type":"int","value":124},{"name":"canvas_height","type":"int","value":75},{"name":"canvas_origin_x","type":"int","value":0},{"name":"canvas_origin_y","type":"int","value":0}],"point":true}],"properties":[]}],"tilesets":[{"firstgid":1,"source":"../tilesets/bg_mushCatle.tsj"},{"firstgid":23,"source":"../tilesets/tile_mushCatle.tsj"},{"firstgid":52,"source":"../tilesets/obj_Tdungeon_mushCatle_gate.tsj"},{"firstgid":63,"source":"../tilesets/obj_Tdungeon_mushCatle_tower.tsj"},{"firstgid":76,"source":"../tilesets/obj_Tdungeon_mushCatle_wedding.tsj"},{"firstgid":89,"source":"../tilesets/portal_MapHelper.img_portal_game_pv.tsj"}],"properties":[{"name":"bgm","type":"string","value":"Bgm19/MushCatle"},{"name":"fly","type":"int","value":0},{"name":"swim","type":"int","value":0},{"name":"town","type":"int","value":0},{"name":"VRTop","type":"int","value":-780},{"name":"cloud","type":"int","value":0},{"name":"VRLeft","type":"int","value":-848},{"name":"VRRight","type":"int","value":848},{"name":"mapMark","type":"string","value":"MushCatle"},{"name":"mobRate","type":"float","value":1},{"name":"version","type":"int","value":10},{"name":"VRBottom","type":"int","value":325},{"name":"noMapCmd","type":"int","value":0},{"name":"returnMap","type":"int","value":106020000},{"name":"fieldLimit","type":"int","value":0},{"name":"hideMinimap","type":"int","value":0},{"name":"onUserEnter","type":"string","value":""},{"name":"forcedReturn","type":"int","value":999999999},{"name":"onFirstUserEnter","type":"string","value":""}]}