{"type":"map","orientation":"orthogonal","renderorder":"right-down","infinite":false,"tilewidth":1,"tileheight":1,"width":1028,"height":1260,"parallaxoriginx":-400,"parallaxoriginy":80,"nextlayerid":19,"nextobjectid":156,"layers":[{"id":1,"name":"background_back_0","type":"imagelayer","visible":true,"opacity":1,"image":"../images/29403.png","imagewidth":44,"imageheight":44,"offsetx":-22,"offsety":58,"repeatx":true,"repeaty":true,"parallaxx":0,"parallaxy":0,"properties":[{"name":"a","type":"int","value":255},{"name":"f","type":"int","value":0},{"name":"x","type":"int","value":0},{"name":"y","type":"int","value":0},{"name":"bS","type":"string","value":"mushCatle"},{"name":"cx","type":"int","value":0},{"name":"cy","type":"int","value":0},{"name":"no","type":"int","value":0},{"name":"rx","type":"int","value":0},{"name":"ry","type":"int","value":0},{"name":"ani","type":"int","value":0},{"name":"type","type":"int","value":3},{"name":"front","type":"int","value":0}]},{"id":2,"name":"background_back_1","type":"imagelayer","visible":true,"opacity":1,"image":"../images/29404.png","imagewidth":11,"imageheight":340,"offsetx":-33,"offsety":-252,"repeatx":true,"repeaty":false,"parallaxx":0,"parallaxy":0.1,"properties":[{"name":"a","type":"int","value":255},{"name":"f","type":"int","value":0},{"name":"x","type":"int","value":-28},{"name":"y","type":"int","value":-162},{"name":"bS","type":"string","value":"mushCatle"},{"name":"cx","type":"int","value":0},{"name":"cy","type":"int","value":0},{"name":"no","type":"int","value":1},{"name":"rx","type":"int","value":0},{"name":"ry","type":"int","value":-10},{"name":"ani","type":"int","value":0},{"name":"type","type":"int","value":1},{"name":"front","type":"int","value":0}]},{"id":3,"name":"background_back_2","type":"imagelayer","visible":true,"opacity":1,"image":"../images/29405.png","imagewidth":44,"imageheight":44,"offsetx":-13,"offsety":-296,"repeatx":true,"repeaty":false,"parallaxx":0,"parallaxy":0.1,"properties":[{"name":"a","type":"int","value":255},{"name":"f","type":"int","value":0},{"name":"x","type":"int","value":9},{"name":"y","type":"int","value":-354},{"name":"bS","type":"string","value":"mushCatle"},{"name":"cx","type":"int","value":0},{"name":"cy","type":"int","value":0},{"name":"no","type":"int","value":2},{"name":"rx","type":"int","value":0},{"name":"ry","type":"int","value":-10},{"name":"ani","type":"int","value":0},{"name":"type","type":"int","value":1},{"name":"front","type":"int","value":0}]},{"id":4,"name":"background_back_3","type":"imagelayer","visible":true,"opacity":1,"image":"../images/29406.png","imagewidth":635,"imageheight":569,"offsetx":-339,"offsety":-249,"repeatx":true,"repeaty":false,"parallaxx":0.3,"parallaxy":0.3,"properties":[{"name":"a","type":"int","value":255},{"name":"f","type":"int","value":0},{"name":"x","type":"int","value":-22},{"name":"y","type":"int","value":-45},{"name":"bS","type":"string","value":"mushCatle"},{"name":"cx","type":"int","value":0},{"name":"cy","type":"int","value":0},{"name":"no","type":"int","value":3},{"name":"rx","type":"int","value":-30},{"name":"ry","type":"int","value":-30},{"name":"ani","type":"int","value":0},{"name":"type","type":"int","value":1},{"name":"front","type":"int","value":0}]},{"id":5,"name":"background_back_4","type":"imagelayer","visible":true,"opacity":1,"image":"../images/29407.png","imagewidth":285,"imageheight":97,"offsetx":-158,"offsety":-98,"repeatx":true,"repeaty":false,"parallaxx":0.4,"parallaxy":0.55,"properties":[{"name":"a","type":"int","value":255},{"name":"f","type":"int","value":0},{"name":"x","type":"int","value":-16},{"name":"y","type":"int","value":-130},{"name":"bS","type":"string","value":"mushCatle"},{"name":"cx","type":"int","value":0},{"name":"cy","type":"int","value":0},{"name":"no","type":"int","value":4},{"name":"rx","type":"int","value":-40},{"name":"ry","type":"int","value":-55},{"name":"ani","type":"int","value":0},{"name":"type","type":"int","value":1},{"name":"front","type":"int","value":0}]},{"id":6,"name":"background_back_5","type":"imagelayer","visible":true,"opacity":1,"image":"../images/29415.png","imagewidth":519,"imageheight":336,"offsetx":-798,"offsety":-61,"repeatx":true,"repeaty":false,"parallaxx":0.5,"parallaxy":0.6,"properties":[{"name":"a","type":"int","value":255},{"name":"f","type":"int","value":0},{"name":"x","type":"int","value":-539},{"name":"y","type":"int","value":27},{"name":"bS","type":"string","value":"mushCatle"},{"name":"cx","type":"int","value":0},{"name":"cy","type":"int","value":0},{"name":"no","type":"int","value":12},{"name":"rx","type":"int","value":-50},{"name":"ry","type":"int","value":-60},{"name":"ani","type":"int","value":0},{"name":"type","type":"int","value":1},{"name":"front","type":"int","value":0}]},{"id":7,"name":"background_back_6","type":"imagelayer","visible":true,"opacity":1,"image":"../images/29415.png","imagewidth":519,"imageheight":336,"offsetx":-279,"offsety":-224,"repeatx":true,"repeaty":false,"parallaxx":0.5,"parallaxy":0.6,"properties":[{"name":"a","type":"int","value":255},{"name":"f","type":"int","value":0},{"name":"x","type":"int","value":-20},{"name":"y","type":"int","value":-136},{"name":"bS","type":"string","value":"mushCatle"},{"name":"cx","type":"int","value":0},{"name":"cy","type":"int","value":0},{"name":"no","type":"int","value":12},{"name":"rx","type":"int","value":-50},{"name":"ry","type":"int","value":-60},{"name":"ani","type":"int","value":0},{"name":"type","type":"int","value":1},{"name":"front","type":"int","value":0}]},{"id":8,"name":"background_back_7","type":"imagelayer","visible":true,"opacity":1,"image":"../images/29416.png","imagewidth":270,"imageheight":487,"offsetx":-264,"offsety":-353,"repeatx":true,"repeaty":false,"parallaxx":0.7,"parallaxy":0.8,"properties":[{"name":"a","type":"int","value":255},{"name":"f","type":"int","value":0},{"name":"x","type":"int","value":-129},{"name":"y","type":"int","value":-190},{"name":"bS","type":"string","value":"mushCatle"},{"name":"cx","type":"int","value":2000},{"name":"cy","type":"int","value":0},{"name":"no","type":"int","value":13},{"name":"rx","type":"int","value":-70},{"name":"ry","type":"int","value":-80},{"name":"ani","type":"int","value":0},{"name":"type","type":"int","value":1},{"name":"front","type":"int","value":0}]},{"id":9,"name":"layer_0_obj","type":"objectgroup","visible":true,"opacity":1,"draworder":"index","offsetx":0,"offsety":0,"parallaxx":1,"parallaxy":1,"objects":[{"id":1,"x":-1039,"y":-83,"visible":true,"properties":[{"name":"layer","type":"int","value":0},{"name":"resource_index","type":"int","value":0},{"name":"oS","type":"string","value":"Tdungeon"},{"name":"l0","type":"string","value":"mushCatle"},{"name":"l1","type":"string","value":"wool"},{"name":"l2","type":"string","value":"1"},{"name":"z","type":"int","value":9},{"name":"zM","type":"int","value":7},{"name":"f","type":"int","value":0}],"gid":39,"width":154,"height":120},{"id":2,"x":-885,"y":-83,"visible":true,"properties":[{"name":"layer","type":"int","value":0},{"name":"resource_index","type":"int","value":1},{"name":"oS","type":"string","value":"Tdungeon"},{"name":"l0","type":"string","value":"mushCatle"},{"name":"l1","type":"string","value":"wool"},{"name":"l2","type":"string","value":"1"},{"name":"z","type":"int","value":9},{"name":"zM","type":"int","value":8},{"name":"f","type":"int","value":0}],"gid":39,"width":154,"height":120},{"id":3,"x":-731,"y":-83,"visible":true,"properties":[{"name":"layer","type":"int","value":0},{"name":"resource_index","type":"int","value":2},{"name":"oS","type":"string","value":"Tdungeon"},{"name":"l0","type":"string","value":"mushCatle"},{"name":"l1","type":"string","value":"wool"},{"name":"l2","type":"string","value":"1"},{"name":"z","type":"int","value":9},{"name":"zM","type":"int","value":9},{"name":"f","type":"int","value":0}],"gid":39,"width":154,"height":120},{"id":4,"x":-577,"y":-83,"visible":true,"properties":[{"name":"layer","type":"int","value":0},{"name":"resource_index","type":"int","value":3},{"name":"oS","type":"string","value":"Tdungeon"},{"name":"l0","type":"string","value":"mushCatle"},{"name":"l1","type":"string","value":"wool"},{"name":"l2","type":"string","value":"1"},{"name":"z","type":"int","value":9},{"name":"zM","type":"int","value":5},{"name":"f","type":"int","value":0}],"gid":39,"width":154,"height":120},{"id":5,"x":-423,"y":-83,"visible":true,"properties":[{"name":"layer","type":"int","value":0},{"name":"resource_index","type":"int","value":4},{"name":"oS","type":"string","value":"Tdungeon"},{"name":"l0","type":"string","value":"mushCatle"},{"name":"l1","type":"string","value":"wool"},{"name":"l2","type":"string","value":"2"},{"name":"z","type":"int","value":9},{"name":"zM","type":"int","value":6},{"name":"f","type":"int","value":0}],"gid":40,"width":154,"height":120}],"properties":[]},{"id":10,"name":"layer_2_obj","type":"objectgroup","visible":true,"opacity":1,"draworder":"index","offsetx":0,"offsety":0,"parallaxx":1,"parallaxy":1,"objects":[{"id":6,"x":-749,"y":-115,"visible":true,"properties":[{"name":"layer","type":"int","value":2},{"name":"resource_index","type":"int","value":0},{"name":"oS","type":"string","value":"Tdungeon"},{"name":"l0","type":"string","value":"mushCatle"},{"name":"l1","type":"string","value":"tower"},{"name":"l2","type":"string","value":"10"},{"name":"z","type":"int","value":9},{"name":"zM","type":"int","value":11},{"name":"f","type":"int","value":0}],"gid":53,"width":85,"height":329},{"id":7,"x":-476,"y":-97,"visible":true,"properties":[{"name":"layer","type":"int","value":2},{"name":"resource_index","type":"int","value":1},{"name":"oS","type":"string","value":"Tdungeon"},{"name":"l0","type":"string","value":"mushCatle"},{"name":"l1","type":"string","value":"guide"},{"name":"l2","type":"string","value":"0"},{"name":"z","type":"int","value":9},{"name":"zM","type":"int","value":10},{"name":"f","type":"int","value":0}],"gid":46,"width":28,"height":39},{"id":8,"x":-493,"y":-223,"visible":true,"properties":[{"name":"layer","type":"int","value":2},{"name":"resource_index","type":"int","value":2},{"name":"oS","type":"string","value":"Tdungeon"},{"name":"l0","type":"string","value":"mushCatle"},{"name":"l1","type":"string","value":"guide"},{"name":"l2","type":"string","value":"8"},{"name":"z","type":"int","value":9},{"name":"zM","type":"int","value":12},{"name":"f","type":"int","value":0}],"gid":47,"width":60,"height":66},{"id":9,"x":-518,"y":-135,"visible":true,"properties":[{"name":"layer","type":"int","value":2},{"name":"resource_index","type":"int","value":3},{"name":"oS","type":"string","value":"Tdungeon"},{"name":"l0","type":"string","value":"mushCatle"},{"name":"l1","type":"string","value":"guide"},{"name":"l2","type":"string","value":"5"},{"name":"z","type":"int","value":9},{"name":"zM","type":"int","value":10},{"name":"f","type":"int","value":0}],"gid":48,"width":108,"height":88}],"properties":[]},{"id":11,"name":"layer_3_obj","type":"objectgroup","visible":true,"opacity":1,"draworder":"index","offsetx":0,"offsety":0,"parallaxx":1,"parallaxy":1,"objects":[{"id":80,"x":-1404,"y":-99,"visible":true,"properties":[{"name":"layer","type":"int","value":3},{"name":"resource_index","type":"int","value":0},{"name":"oS","type":"string","value":"Tdungeon"},{"name":"l0","type":"string","value":"mushCatle"},{"name":"l1","type":"string","value":"tower"},{"name":"l2","type":"string","value":"7"},{"name":"z","type":"int","value":7},{"name":"zM","type":"int","value":1},{"name":"f","type":"int","value":0}],"gid":54,"width":480,"height":858},{"id":81,"x":-837,"y":-98,"visible":true,"properties":[{"name":"layer","type":"int","value":3},{"name":"resource_index","type":"int","value":1},{"name":"oS","type":"string","value":"Tdungeon"},{"name":"l0","type":"string","value":"mushCatle"},{"name":"l1","type":"string","value":"tower"},{"name":"l2","type":"string","value":"11"},{"name":"z","type":"int","value":9},{"name":"zM","type":"int","value":1},{"name":"f","type":"int","value":0}],"gid":55,"width":285,"height":622},{"id":82,"x":-1139,"y":-97,"visible":true,"properties":[{"name":"layer","type":"int","value":3},{"name":"resource_index","type":"int","value":2},{"name":"oS","type":"string","value":"Tdungeon"},{"name":"l0","type":"string","value":"mushCatle"},{"name":"l1","type":"string","value":"gate"},{"name":"l2","type":"string","value":"3"},{"name":"z","type":"int","value":9},{"name":"zM","type":"int","value":1},{"name":"f","type":"int","value":0}],"gid":38,"width":114,"height":150}],"properties":[]},{"id":12,"name":"layer_3_tile","type":"objectgroup","visible":true,"opacity":1,"draworder":"index","offsetx":0,"offsety":0,"parallaxx":1,"parallaxy":1,"objects":[{"id":10,"x":-990,"y":-60,"visible":true,"properties":[{"name":"layer","type":"int","value":3},{"name":"resource_index","type":"int","value":0},{"name":"u","type":"string","value":"enH0"},{"name":"no","type":"int","value":2},{"name":"zM","type":"int","value":1}],"gid":21,"width":90,"height":39},{"id":11,"x":-1170,"y":60,"visible":true,"properties":[{"name":"layer","type":"int","value":3},{"name":"resource_index","type":"int","value":1},{"name":"u","type":"string","value":"bsc"},{"name":"no","type":"int","value":0},{"name":"zM","type":"int","value":1}],"gid":22,"width":90,"height":60},{"id":12,"x":-1080,"y":0,"visible":true,"properties":[{"name":"layer","type":"int","value":3},{"name":"resource_index","type":"int","value":2},{"name":"u","type":"string","value":"bsc"},{"name":"no","type":"int","value":1},{"name":"zM","type":"int","value":1}],"gid":23,"width":91,"height":60},{"id":13,"x":-1080,"y":-60,"visible":true,"properties":[{"name":"layer","type":"int","value":3},{"name":"resource_index","type":"int","value":3},{"name":"u","type":"string","value":"enH0"},{"name":"no","type":"int","value":2},{"name":"zM","type":"int","value":1}],"gid":21,"width":90,"height":39},{"id":14,"x":-1170,"y":-60,"visible":true,"properties":[{"name":"layer","type":"int","value":3},{"name":"resource_index","type":"int","value":4},{"name":"u","type":"string","value":"enH0"},{"name":"no","type":"int","value":0},{"name":"zM","type":"int","value":1}],"gid":24,"width":90,"height":39},{"id":15,"x":-1170,"y":0,"visible":true,"properties":[{"name":"layer","type":"int","value":3},{"name":"resource_index","type":"int","value":5},{"name":"u","type":"string","value":"bsc"},{"name":"no","type":"int","value":2},{"name":"zM","type":"int","value":1}],"gid":25,"width":90,"height":60},{"id":16,"x":-540,"y":0,"visible":true,"properties":[{"name":"layer","type":"int","value":3},{"name":"resource_index","type":"int","value":6},{"name":"u","type":"string","value":"bsc"},{"name":"no","type":"int","value":3},{"name":"zM","type":"int","value":1}],"gid":26,"width":90,"height":60},{"id":17,"x":-1170,"y":120,"visible":true,"properties":[{"name":"layer","type":"int","value":3},{"name":"resource_index","type":"int","value":7},{"name":"u","type":"string","value":"bsc"},{"name":"no","type":"int","value":0},{"name":"zM","type":"int","value":1}],"gid":22,"width":90,"height":60},{"id":18,"x":-1080,"y":60,"visible":true,"properties":[{"name":"layer","type":"int","value":3},{"name":"resource_index","type":"int","value":8},{"name":"u","type":"string","value":"bsc"},{"name":"no","type":"int","value":4},{"name":"zM","type":"int","value":1}],"gid":27,"width":90,"height":60},{"id":19,"x":-990,"y":240,"visible":true,"properties":[{"name":"layer","type":"int","value":3},{"name":"resource_index","type":"int","value":9},{"name":"u","type":"string","value":"bsc"},{"name":"no","type":"int","value":1},{"name":"zM","type":"int","value":1}],"gid":23,"width":91,"height":60},{"id":20,"x":-450,"y":180,"visible":true,"properties":[{"name":"layer","type":"int","value":3},{"name":"resource_index","type":"int","value":10},{"name":"u","type":"string","value":"bsc"},{"name":"no","type":"int","value":0},{"name":"zM","type":"int","value":1}],"gid":22,"width":90,"height":60},{"id":21,"x":-1170,"y":240,"visible":true,"properties":[{"name":"layer","type":"int","value":3},{"name":"resource_index","type":"int","value":11},{"name":"u","type":"string","value":"bsc"},{"name":"no","type":"int","value":3},{"name":"zM","type":"int","value":1}],"gid":26,"width":90,"height":60},{"id":22,"x":-990,"y":180,"visible":true,"properties":[{"name":"layer","type":"int","value":3},{"name":"resource_index","type":"int","value":12},{"name":"u","type":"string","value":"bsc"},{"name":"no","type":"int","value":4},{"name":"zM","type":"int","value":1}],"gid":27,"width":90,"height":60},{"id":23,"x":-900,"y":0,"visible":true,"properties":[{"name":"layer","type":"int","value":3},{"name":"resource_index","type":"int","value":13},{"name":"u","type":"string","value":"bsc"},{"name":"no","type":"int","value":4},{"name":"zM","type":"int","value":1}],"gid":27,"width":90,"height":60},{"id":24,"x":-1170,"y":180,"visible":true,"properties":[{"name":"layer","type":"int","value":3},{"name":"resource_index","type":"int","value":14},{"name":"u","type":"string","value":"bsc"},{"name":"no","type":"int","value":2},{"name":"zM","type":"int","value":1}],"gid":25,"width":90,"height":60},{"id":25,"x":-900,"y":240,"visible":true,"properties":[{"name":"layer","type":"int","value":3},{"name":"resource_index","type":"int","value":15},{"name":"u","type":"string","value":"bsc"},{"name":"no","type":"int","value":3},{"name":"zM","type":"int","value":1}],"gid":26,"width":90,"height":60},{"id":26,"x":-810,"y":240,"visible":true,"properties":[{"name":"layer","type":"int","value":3},{"name":"resource_index","type":"int","value":16},{"name":"u","type":"string","value":"bsc"},{"name":"no","type":"int","value":4},{"name":"zM","type":"int","value":1}],"gid":27,"width":90,"height":60},{"id":27,"x":-1080,"y":240,"visible":true,"properties":[{"name":"layer","type":"int","value":3},{"name":"resource_index","type":"int","value":17},{"name":"u","type":"string","value":"bsc"},{"name":"no","type":"int","value":2},{"name":"zM","type":"int","value":1}],"gid":25,"width":90,"height":60},{"id":28,"x":-540,"y":180,"visible":true,"properties":[{"name":"layer","type":"int","value":3},{"name":"resource_index","type":"int","value":18},{"name":"u","type":"string","value":"bsc"},{"name":"no","type":"int","value":2},{"name":"zM","type":"int","value":1}],"gid":25,"width":90,"height":60},{"id":29,"x":-450,"y":240,"visible":true,"properties":[{"name":"layer","type":"int","value":3},{"name":"resource_index","type":"int","value":19},{"name":"u","type":"string","value":"bsc"},{"name":"no","type":"int","value":2},{"name":"zM","type":"int","value":1}],"gid":25,"width":90,"height":60},{"id":30,"x":-540,"y":60,"visible":true,"properties":[{"name":"layer","type":"int","value":3},{"name":"resource_index","type":"int","value":20},{"name":"u","type":"string","value":"bsc"},{"name":"no","type":"int","value":1},{"name":"zM","type":"int","value":1}],"gid":23,"width":91,"height":60},{"id":31,"x":-1080,"y":120,"visible":true,"properties":[{"name":"layer","type":"int","value":3},{"name":"resource_index","type":"int","value":21},{"name":"u","type":"string","value":"bsc"},{"name":"no","type":"int","value":1},{"name":"zM","type":"int","value":1}],"gid":23,"width":91,"height":60},{"id":32,"x":-360,"y":60,"visible":true,"properties":[{"name":"layer","type":"int","value":3},{"name":"resource_index","type":"int","value":22},{"name":"u","type":"string","value":"bsc"},{"name":"no","type":"int","value":4},{"name":"zM","type":"int","value":1}],"gid":27,"width":90,"height":60},{"id":33,"x":-1080,"y":180,"visible":true,"properties":[{"name":"layer","type":"int","value":3},{"name":"resource_index","type":"int","value":23},{"name":"u","type":"string","value":"bsc"},{"name":"no","type":"int","value":1},{"name":"zM","type":"int","value":1}],"gid":23,"width":91,"height":60},{"id":34,"x":-900,"y":180,"visible":true,"properties":[{"name":"layer","type":"int","value":3},{"name":"resource_index","type":"int","value":24},{"name":"u","type":"string","value":"bsc"},{"name":"no","type":"int","value":0},{"name":"zM","type":"int","value":1}],"gid":22,"width":90,"height":60},{"id":35,"x":-540,"y":240,"visible":true,"properties":[{"name":"layer","type":"int","value":3},{"name":"resource_index","type":"int","value":25},{"name":"u","type":"string","value":"bsc"},{"name":"no","type":"int","value":2},{"name":"zM","type":"int","value":1}],"gid":25,"width":90,"height":60},{"id":36,"x":-360,"y":0,"visible":true,"properties":[{"name":"layer","type":"int","value":3},{"name":"resource_index","type":"int","value":26},{"name":"u","type":"string","value":"bsc"},{"name":"no","type":"int","value":3},{"name":"zM","type":"int","value":1}],"gid":26,"width":90,"height":60},{"id":37,"x":-630,"y":0,"visible":true,"properties":[{"name":"layer","type":"int","value":3},{"name":"resource_index","type":"int","value":27},{"name":"u","type":"string","value":"bsc"},{"name":"no","type":"int","value":4},{"name":"zM","type":"int","value":1}],"gid":27,"width":90,"height":60},{"id":38,"x":-900,"y":-60,"visible":true,"properties":[{"name":"layer","type":"int","value":3},{"name":"resource_index","type":"int","value":28},{"name":"u","type":"string","value":"enH0"},{"name":"no","type":"int","value":1},{"name":"zM","type":"int","value":1}],"gid":28,"width":90,"height":39},{"id":39,"x":-540,"y":-60,"visible":true,"properties":[{"name":"layer","type":"int","value":3},{"name":"resource_index","type":"int","value":29},{"name":"u","type":"string","value":"enH0"},{"name":"no","type":"int","value":2},{"name":"zM","type":"int","value":1}],"gid":21,"width":90,"height":39},{"id":40,"x":-810,"y":0,"visible":true,"properties":[{"name":"layer","type":"int","value":3},{"name":"resource_index","type":"int","value":30},{"name":"u","type":"string","value":"bsc"},{"name":"no","type":"int","value":4},{"name":"zM","type":"int","value":1}],"gid":27,"width":90,"height":60},{"id":41,"x":-720,"y":0,"visible":true,"properties":[{"name":"layer","type":"int","value":3},{"name":"resource_index","type":"int","value":31},{"name":"u","type":"string","value":"bsc"},{"name":"no","type":"int","value":3},{"name":"zM","type":"int","value":1}],"gid":26,"width":90,"height":60},{"id":42,"x":-360,"y":240,"visible":true,"properties":[{"name":"layer","type":"int","value":3},{"name":"resource_index","type":"int","value":32},{"name":"u","type":"string","value":"bsc"},{"name":"no","type":"int","value":1},{"name":"zM","type":"int","value":1}],"gid":23,"width":91,"height":60},{"id":43,"x":-720,"y":-60,"visible":true,"properties":[{"name":"layer","type":"int","value":3},{"name":"resource_index","type":"int","value":33},{"name":"u","type":"string","value":"enH0"},{"name":"no","type":"int","value":2},{"name":"zM","type":"int","value":1}],"gid":21,"width":90,"height":39},{"id":44,"x":-450,"y":60,"visible":true,"properties":[{"name":"layer","type":"int","value":3},{"name":"resource_index","type":"int","value":34},{"name":"u","type":"string","value":"bsc"},{"name":"no","type":"int","value":3},{"name":"zM","type":"int","value":1}],"gid":26,"width":90,"height":60},{"id":45,"x":-360,"y":180,"visible":true,"properties":[{"name":"layer","type":"int","value":3},{"name":"resource_index","type":"int","value":35},{"name":"u","type":"string","value":"bsc"},{"name":"no","type":"int","value":0},{"name":"zM","type":"int","value":1}],"gid":22,"width":90,"height":60},{"id":46,"x":-720,"y":120,"visible":true,"properties":[{"name":"layer","type":"int","value":3},{"name":"resource_index","type":"int","value":36},{"name":"u","type":"string","value":"bsc"},{"name":"no","type":"int","value":1},{"name":"zM","type":"int","value":1}],"gid":23,"width":91,"height":60},{"id":47,"x":-540,"y":120,"visible":true,"properties":[{"name":"layer","type":"int","value":3},{"name":"resource_index","type":"int","value":37},{"name":"u","type":"string","value":"bsc"},{"name":"no","type":"int","value":4},{"name":"zM","type":"int","value":1}],"gid":27,"width":90,"height":60},{"id":48,"x":-810,"y":-60,"visible":true,"properties":[{"name":"layer","type":"int","value":3},{"name":"resource_index","type":"int","value":38},{"name":"u","type":"string","value":"enH0"},{"name":"no","type":"int","value":4},{"name":"zM","type":"int","value":1}],"gid":29,"width":90,"height":39},{"id":49,"x":-810,"y":180,"visible":true,"properties":[{"name":"layer","type":"int","value":3},{"name":"resource_index","type":"int","value":39},{"name":"u","type":"string","value":"bsc"},{"name":"no","type":"int","value":1},{"name":"zM","type":"int","value":1}],"gid":23,"width":91,"height":60},{"id":50,"x":-720,"y":240,"visible":true,"properties":[{"name":"layer","type":"int","value":3},{"name":"resource_index","type":"int","value":40},{"name":"u","type":"string","value":"bsc"},{"name":"no","type":"int","value":2},{"name":"zM","type":"int","value":1}],"gid":25,"width":90,"height":60},{"id":51,"x":-720,"y":180,"visible":true,"properties":[{"name":"layer","type":"int","value":3},{"name":"resource_index","type":"int","value":41},{"name":"u","type":"string","value":"bsc"},{"name":"no","type":"int","value":1},{"name":"zM","type":"int","value":1}],"gid":23,"width":91,"height":60},{"id":52,"x":-450,"y":-60,"visible":true,"properties":[{"name":"layer","type":"int","value":3},{"name":"resource_index","type":"int","value":42},{"name":"u","type":"string","value":"enH0"},{"name":"no","type":"int","value":1},{"name":"zM","type":"int","value":1}],"gid":28,"width":90,"height":39},{"id":53,"x":-990,"y":60,"visible":true,"properties":[{"name":"layer","type":"int","value":3},{"name":"resource_index","type":"int","value":43},{"name":"u","type":"string","value":"bsc"},{"name":"no","type":"int","value":2},{"name":"zM","type":"int","value":1}],"gid":25,"width":90,"height":60},{"id":54,"x":-720,"y":60,"visible":true,"properties":[{"name":"layer","type":"int","value":3},{"name":"resource_index","type":"int","value":44},{"name":"u","type":"string","value":"bsc"},{"name":"no","type":"int","value":3},{"name":"zM","type":"int","value":1}],"gid":26,"width":90,"height":60},{"id":55,"x":-630,"y":-60,"visible":true,"properties":[{"name":"layer","type":"int","value":3},{"name":"resource_index","type":"int","value":45},{"name":"u","type":"string","value":"enH0"},{"name":"no","type":"int","value":0},{"name":"zM","type":"int","value":1}],"gid":24,"width":90,"height":39},{"id":56,"x":-810,"y":60,"visible":true,"properties":[{"name":"layer","type":"int","value":3},{"name":"resource_index","type":"int","value":46},{"name":"u","type":"string","value":"bsc"},{"name":"no","type":"int","value":0},{"name":"zM","type":"int","value":1}],"gid":22,"width":90,"height":60},{"id":57,"x":-630,"y":180,"visible":true,"properties":[{"name":"layer","type":"int","value":3},{"name":"resource_index","type":"int","value":47},{"name":"u","type":"string","value":"bsc"},{"name":"no","type":"int","value":1},{"name":"zM","type":"int","value":1}],"gid":23,"width":91,"height":60},{"id":58,"x":-900,"y":60,"visible":true,"properties":[{"name":"layer","type":"int","value":3},{"name":"resource_index","type":"int","value":48},{"name":"u","type":"string","value":"bsc"},{"name":"no","type":"int","value":0},{"name":"zM","type":"int","value":1}],"gid":22,"width":90,"height":60},{"id":59,"x":-900,"y":120,"visible":true,"properties":[{"name":"layer","type":"int","value":3},{"name":"resource_index","type":"int","value":49},{"name":"u","type":"string","value":"bsc"},{"name":"no","type":"int","value":4},{"name":"zM","type":"int","value":1}],"gid":27,"width":90,"height":60},{"id":60,"x":-450,"y":0,"visible":true,"properties":[{"name":"layer","type":"int","value":3},{"name":"resource_index","type":"int","value":50},{"name":"u","type":"string","value":"bsc"},{"name":"no","type":"int","value":0},{"name":"zM","type":"int","value":1}],"gid":22,"width":90,"height":60},{"id":61,"x":-450,"y":120,"visible":true,"properties":[{"name":"layer","type":"int","value":3},{"name":"resource_index","type":"int","value":51},{"name":"u","type":"string","value":"bsc"},{"name":"no","type":"int","value":1},{"name":"zM","type":"int","value":1}],"gid":23,"width":91,"height":60},{"id":62,"x":-630,"y":60,"visible":true,"properties":[{"name":"layer","type":"int","value":3},{"name":"resource_index","type":"int","value":52},{"name":"u","type":"string","value":"bsc"},{"name":"no","type":"int","value":1},{"name":"zM","type":"int","value":1}],"gid":23,"width":91,"height":60},{"id":63,"x":-630,"y":240,"visible":true,"properties":[{"name":"layer","type":"int","value":3},{"name":"resource_index","type":"int","value":53},{"name":"u","type":"string","value":"bsc"},{"name":"no","type":"int","value":3},{"name":"zM","type":"int","value":1}],"gid":26,"width":90,"height":60},{"id":64,"x":-360,"y":-60,"visible":true,"properties":[{"name":"layer","type":"int","value":3},{"name":"resource_index","type":"int","value":54},{"name":"u","type":"string","value":"enH0"},{"name":"no","type":"int","value":1},{"name":"zM","type":"int","value":1}],"gid":28,"width":90,"height":39},{"id":65,"x":-360,"y":120,"visible":true,"properties":[{"name":"layer","type":"int","value":3},{"name":"resource_index","type":"int","value":55},{"name":"u","type":"string","value":"bsc"},{"name":"no","type":"int","value":3},{"name":"zM","type":"int","value":1}],"gid":26,"width":90,"height":60},{"id":66,"x":-630,"y":120,"visible":true,"properties":[{"name":"layer","type":"int","value":3},{"name":"resource_index","type":"int","value":56},{"name":"u","type":"string","value":"bsc"},{"name":"no","type":"int","value":4},{"name":"zM","type":"int","value":1}],"gid":27,"width":90,"height":60},{"id":67,"x":-990,"y":0,"visible":true,"properties":[{"name":"layer","type":"int","value":3},{"name":"resource_index","type":"int","value":57},{"name":"u","type":"string","value":"bsc"},{"name":"no","type":"int","value":4},{"name":"zM","type":"int","value":1}],"gid":27,"width":90,"height":60},{"id":68,"x":-990,"y":120,"visible":true,"properties":[{"name":"layer","type":"int","value":3},{"name":"resource_index","type":"int","value":58},{"name":"u","type":"string","value":"bsc"},{"name":"no","type":"int","value":3},{"name":"zM","type":"int","value":1}],"gid":26,"width":90,"height":60},{"id":69,"x":-810,"y":120,"visible":true,"properties":[{"name":"layer","type":"int","value":3},{"name":"resource_index","type":"int","value":59},{"name":"u","type":"string","value":"bsc"},{"name":"no","type":"int","value":2},{"name":"zM","type":"int","value":1}],"gid":25,"width":90,"height":60},{"id":70,"x":-450,"y":261,"visible":true,"properties":[{"name":"layer","type":"int","value":3},{"name":"resource_index","type":"int","value":60},{"name":"u","type":"string","value":"enH1"},{"name":"no","type":"int","value":3},{"name":"zM","type":"int","value":1}],"gid":30,"width":90,"height":21},{"id":71,"x":-1170,"y":260,"visible":true,"properties":[{"name":"layer","type":"int","value":3},{"name":"resource_index","type":"int","value":61},{"name":"u","type":"string","value":"enH1"},{"name":"no","type":"int","value":0},{"name":"zM","type":"int","value":1}],"gid":31,"width":90,"height":20},{"id":72,"x":-360,"y":263,"visible":true,"properties":[{"name":"layer","type":"int","value":3},{"name":"resource_index","type":"int","value":62},{"name":"u","type":"string","value":"enH1"},{"name":"no","type":"int","value":1},{"name":"zM","type":"int","value":1}],"gid":32,"width":90,"height":23},{"id":73,"x":-1080,"y":258,"visible":true,"properties":[{"name":"layer","type":"int","value":3},{"name":"resource_index","type":"int","value":63},{"name":"u","type":"string","value":"enH1"},{"name":"no","type":"int","value":2},{"name":"zM","type":"int","value":1}],"gid":33,"width":90,"height":18},{"id":74,"x":-990,"y":263,"visible":true,"properties":[{"name":"layer","type":"int","value":3},{"name":"resource_index","type":"int","value":64},{"name":"u","type":"string","value":"enH1"},{"name":"no","type":"int","value":1},{"name":"zM","type":"int","value":1}],"gid":32,"width":90,"height":23},{"id":75,"x":-720,"y":258,"visible":true,"properties":[{"name":"layer","type":"int","value":3},{"name":"resource_index","type":"int","value":65},{"name":"u","type":"string","value":"enH1"},{"name":"no","type":"int","value":2},{"name":"zM","type":"int","value":1}],"gid":33,"width":90,"height":18},{"id":76,"x":-630,"y":261,"visible":true,"properties":[{"name":"layer","type":"int","value":3},{"name":"resource_index","type":"int","value":66},{"name":"u","type":"string","value":"enH1"},{"name":"no","type":"int","value":3},{"name":"zM","type":"int","value":1}],"gid":30,"width":90,"height":21},{"id":77,"x":-900,"y":263,"visible":true,"properties":[{"name":"layer","type":"int","value":3},{"name":"resource_index","type":"int","value":67},{"name":"u","type":"string","value":"enH1"},{"name":"no","type":"int","value":1},{"name":"zM","type":"int","value":1}],"gid":32,"width":90,"height":23},{"id":78,"x":-810,"y":258,"visible":true,"properties":[{"name":"layer","type":"int","value":3},{"name":"resource_index","type":"int","value":68},{"name":"u","type":"string","value":"enH1"},{"name":"no","type":"int","value":2},{"name":"zM","type":"int","value":1}],"gid":33,"width":90,"height":18},{"id":79,"x":-540,"y":261,"visible":true,"properties":[{"name":"layer","type":"int","value":3},{"name":"resource_index","type":"int","value":69},{"name":"u","type":"string","value":"enH1"},{"name":"no","type":"int","value":3},{"name":"zM","type":"int","value":1}],"gid":30,"width":90,"height":21}],"properties":[]},{"id":13,"name":"layer_4_obj","type":"objectgroup","visible":true,"opacity":1,"draworder":"index","offsetx":0,"offsety":0,"parallaxx":1,"parallaxy":1,"objects":[{"id":109,"x":-1321,"y":60,"visible":true,"properties":[{"name":"layer","type":"int","value":4},{"name":"resource_index","type":"int","value":0},{"name":"oS","type":"string","value":"Tdungeon"},{"name":"l0","type":"string","value":"mushCatle"},{"name":"l1","type":"string","value":"tower"},{"name":"l2","type":"string","value":"8"},{"name":"z","type":"int","value":9},{"name":"zM","type":"int","value":3},{"name":"f","type":"int","value":0}],"gid":56,"width":191,"height":159},{"id":110,"x":-1321,"y":253,"visible":true,"properties":[{"name":"layer","type":"int","value":4},{"name":"resource_index","type":"int","value":1},{"name":"oS","type":"string","value":"Tdungeon"},{"name":"l0","type":"string","value":"mushCatle"},{"name":"l1","type":"string","value":"tower"},{"name":"l2","type":"string","value":"9"},{"name":"z","type":"int","value":9},{"name":"zM","type":"int","value":2},{"name":"f","type":"int","value":0}],"gid":57,"width":173,"height":193},{"id":111,"x":-1071,"y":157,"visible":true,"properties":[{"name":"layer","type":"int","value":4},{"name":"resource_index","type":"int","value":2},{"name":"oS","type":"string","value":"Tdungeon"},{"name":"l0","type":"string","value":"mushCatle"},{"name":"l1","type":"string","value":"tileAcc"},{"name":"l2","type":"string","value":"1"},{"name":"z","type":"int","value":9},{"name":"zM","type":"int","value":4},{"name":"f","type":"int","value":0}],"gid":92,"width":189,"height":72},{"id":112,"x":-1345,"y":252,"visible":true,"properties":[{"name":"layer","type":"int","value":4},{"name":"resource_index","type":"int","value":3},{"name":"oS","type":"string","value":"Tdungeon"},{"name":"l0","type":"string","value":"mushCatle"},{"name":"l1","type":"string","value":"forest"},{"name":"l2","type":"string","value":"36"},{"name":"z","type":"int","value":9},{"name":"zM","type":"int","value":3},{"name":"f","type":"int","value":0}],"gid":91,"width":280,"height":529},{"id":113,"x":-983,"y":151,"visible":true,"properties":[{"name":"layer","type":"int","value":4},{"name":"resource_index","type":"int","value":4},{"name":"oS","type":"string","value":"Tdungeon"},{"name":"l0","type":"string","value":"mushCatle"},{"name":"l1","type":"string","value":"tileAcc"},{"name":"l2","type":"string","value":"3"},{"name":"z","type":"int","value":9},{"name":"zM","type":"int","value":4},{"name":"f","type":"int","value":0}],"gid":93,"width":478,"height":173},{"id":114,"x":-642,"y":210,"visible":true,"properties":[{"name":"layer","type":"int","value":4},{"name":"resource_index","type":"int","value":5},{"name":"oS","type":"string","value":"Tdungeon"},{"name":"l0","type":"string","value":"mushCatle"},{"name":"l1","type":"string","value":"tileAcc"},{"name":"l2","type":"string","value":"4"},{"name":"z","type":"int","value":9},{"name":"zM","type":"int","value":4},{"name":"f","type":"int","value":0}],"gid":94,"width":375,"height":159},{"id":115,"x":-1111,"y":-79,"visible":true,"properties":[{"name":"layer","type":"int","value":4},{"name":"resource_index","type":"int","value":6},{"name":"oS","type":"string","value":"connect"},{"name":"l0","type":"string","value":"ladder"},{"name":"l1","type":"string","value":"58"},{"name":"l2","type":"string","value":"0"},{"name":"z","type":"int","value":9},{"name":"zM","type":"int","value":3},{"name":"f","type":"int","value":0}],"gid":34,"width":56,"height":27},{"id":116,"x":-1111,"y":17,"visible":true,"properties":[{"name":"layer","type":"int","value":4},{"name":"resource_index","type":"int","value":7},{"name":"oS","type":"string","value":"connect"},{"name":"l0","type":"string","value":"ladder"},{"name":"l1","type":"string","value":"58"},{"name":"l2","type":"string","value":"3"},{"name":"z","type":"int","value":9},{"name":"zM","type":"int","value":3},{"name":"f","type":"int","value":0}],"gid":35,"width":48,"height":96},{"id":117,"x":-1111,"y":36,"visible":true,"properties":[{"name":"layer","type":"int","value":4},{"name":"resource_index","type":"int","value":8},{"name":"oS","type":"string","value":"connect"},{"name":"l0","type":"string","value":"ladder"},{"name":"l1","type":"string","value":"58"},{"name":"l2","type":"string","value":"2"},{"name":"z","type":"int","value":9},{"name":"zM","type":"int","value":3},{"name":"f","type":"int","value":0}],"gid":36,"width":48,"height":19}],"properties":[]},{"id":14,"name":"layer_4_tile","type":"objectgroup","visible":true,"opacity":1,"draworder":"index","offsetx":0,"offsety":0,"parallaxx":1,"parallaxy":1,"objects":[{"id":83,"x":-1215,"y":355,"visible":true,"properties":[{"name":"layer","type":"int","value":4},{"name":"resource_index","type":"int","value":0},{"name":"u","type":"string","value":"enH1"},{"name":"no","type":"int","value":0},{"name":"zM","type":"int","value":0}],"gid":17,"width":90,"height":25},{"id":84,"x":-1215,"y":330,"visible":true,"properties":[{"name":"layer","type":"int","value":4},{"name":"resource_index","type":"int","value":1},{"name":"u","type":"string","value":"enH0"},{"name":"no","type":"int","value":0},{"name":"zM","type":"int","value":0}],"gid":18,"width":90,"height":25},{"id":85,"x":-1330,"y":330,"visible":true,"properties":[{"name":"layer","type":"int","value":4},{"name":"resource_index","type":"int","value":2},{"name":"u","type":"string","value":"edU"},{"name":"no","type":"int","value":0},{"name":"zM","type":"int","value":0}],"gid":20,"width":50,"height":25},{"id":86,"x":-1330,"y":355,"visible":true,"properties":[{"name":"layer","type":"int","value":4},{"name":"resource_index","type":"int","value":3},{"name":"u","type":"string","value":"edD"},{"name":"no","type":"int","value":0},{"name":"zM","type":"int","value":0}],"gid":19,"width":50,"height":25},{"id":87,"x":-1305,"y":330,"visible":true,"properties":[{"name":"layer","type":"int","value":4},{"name":"resource_index","type":"int","value":4},{"name":"u","type":"string","value":"enH0"},{"name":"no","type":"int","value":0},{"name":"zM","type":"int","value":0}],"gid":18,"width":90,"height":25},{"id":88,"x":-1305,"y":355,"visible":true,"properties":[{"name":"layer","type":"int","value":4},{"name":"resource_index","type":"int","value":5},{"name":"u","type":"string","value":"enH1"},{"name":"no","type":"int","value":0},{"name":"zM","type":"int","value":0}],"gid":17,"width":90,"height":25},{"id":89,"x":-1125,"y":355,"visible":true,"properties":[{"name":"layer","type":"int","value":4},{"name":"resource_index","type":"int","value":6},{"name":"u","type":"string","value":"enH1"},{"name":"no","type":"int","value":0},{"name":"zM","type":"int","value":0}],"gid":17,"width":90,"height":25},{"id":90,"x":-1125,"y":330,"visible":true,"properties":[{"name":"layer","type":"int","value":4},{"name":"resource_index","type":"int","value":7},{"name":"u","type":"string","value":"enH0"},{"name":"no","type":"int","value":0},{"name":"zM","type":"int","value":0}],"gid":18,"width":90,"height":25},{"id":91,"x":-945,"y":355,"visible":true,"properties":[{"name":"layer","type":"int","value":4},{"name":"resource_index","type":"int","value":8},{"name":"u","type":"string","value":"enH1"},{"name":"no","type":"int","value":0},{"name":"zM","type":"int","value":0}],"gid":17,"width":90,"height":25},{"id":92,"x":-945,"y":330,"visible":true,"properties":[{"name":"layer","type":"int","value":4},{"name":"resource_index","type":"int","value":9},{"name":"u","type":"string","value":"enH0"},{"name":"no","type":"int","value":0},{"name":"zM","type":"int","value":0}],"gid":18,"width":90,"height":25},{"id":93,"x":-1035,"y":355,"visible":true,"properties":[{"name":"layer","type":"int","value":4},{"name":"resource_index","type":"int","value":10},{"name":"u","type":"string","value":"enH1"},{"name":"no","type":"int","value":0},{"name":"zM","type":"int","value":0}],"gid":17,"width":90,"height":25},{"id":94,"x":-1035,"y":330,"visible":true,"properties":[{"name":"layer","type":"int","value":4},{"name":"resource_index","type":"int","value":11},{"name":"u","type":"string","value":"enH0"},{"name":"no","type":"int","value":0},{"name":"zM","type":"int","value":0}],"gid":18,"width":90,"height":25},{"id":95,"x":-855,"y":355,"visible":true,"properties":[{"name":"layer","type":"int","value":4},{"name":"resource_index","type":"int","value":12},{"name":"u","type":"string","value":"enH1"},{"name":"no","type":"int","value":0},{"name":"zM","type":"int","value":0}],"gid":17,"width":90,"height":25},{"id":96,"x":-855,"y":330,"visible":true,"properties":[{"name":"layer","type":"int","value":4},{"name":"resource_index","type":"int","value":13},{"name":"u","type":"string","value":"enH0"},{"name":"no","type":"int","value":0},{"name":"zM","type":"int","value":0}],"gid":18,"width":90,"height":25},{"id":97,"x":-675,"y":355,"visible":true,"properties":[{"name":"layer","type":"int","value":4},{"name":"resource_index","type":"int","value":14},{"name":"u","type":"string","value":"enH1"},{"name":"no","type":"int","value":0},{"name":"zM","type":"int","value":0}],"gid":17,"width":90,"height":25},{"id":98,"x":-675,"y":330,"visible":true,"properties":[{"name":"layer","type":"int","value":4},{"name":"resource_index","type":"int","value":15},{"name":"u","type":"string","value":"enH0"},{"name":"no","type":"int","value":0},{"name":"zM","type":"int","value":0}],"gid":18,"width":90,"height":25},{"id":99,"x":-765,"y":355,"visible":true,"properties":[{"name":"layer","type":"int","value":4},{"name":"resource_index","type":"int","value":16},{"name":"u","type":"string","value":"enH1"},{"name":"no","type":"int","value":0},{"name":"zM","type":"int","value":0}],"gid":17,"width":90,"height":25},{"id":100,"x":-765,"y":330,"visible":true,"properties":[{"name":"layer","type":"int","value":4},{"name":"resource_index","type":"int","value":17},{"name":"u","type":"string","value":"enH0"},{"name":"no","type":"int","value":0},{"name":"zM","type":"int","value":0}],"gid":18,"width":90,"height":25},{"id":101,"x":-585,"y":355,"visible":true,"properties":[{"name":"layer","type":"int","value":4},{"name":"resource_index","type":"int","value":18},{"name":"u","type":"string","value":"enH1"},{"name":"no","type":"int","value":0},{"name":"zM","type":"int","value":0}],"gid":17,"width":90,"height":25},{"id":102,"x":-585,"y":330,"visible":true,"properties":[{"name":"layer","type":"int","value":4},{"name":"resource_index","type":"int","value":19},{"name":"u","type":"string","value":"enH0"},{"name":"no","type":"int","value":0},{"name":"zM","type":"int","value":0}],"gid":18,"width":90,"height":25},{"id":103,"x":-495,"y":355,"visible":true,"properties":[{"name":"layer","type":"int","value":4},{"name":"resource_index","type":"int","value":20},{"name":"u","type":"string","value":"enH1"},{"name":"no","type":"int","value":0},{"name":"zM","type":"int","value":0}],"gid":17,"width":90,"height":25},{"id":104,"x":-495,"y":330,"visible":true,"properties":[{"name":"layer","type":"int","value":4},{"name":"resource_index","type":"int","value":21},{"name":"u","type":"string","value":"enH0"},{"name":"no","type":"int","value":0},{"name":"zM","type":"int","value":0}],"gid":18,"width":90,"height":25},{"id":105,"x":-405,"y":355,"visible":true,"properties":[{"name":"layer","type":"int","value":4},{"name":"resource_index","type":"int","value":22},{"name":"u","type":"string","value":"enH1"},{"name":"no","type":"int","value":0},{"name":"zM","type":"int","value":0}],"gid":17,"width":90,"height":25},{"id":106,"x":-405,"y":330,"visible":true,"properties":[{"name":"layer","type":"int","value":4},{"name":"resource_index","type":"int","value":23},{"name":"u","type":"string","value":"enH0"},{"name":"no","type":"int","value":0},{"name":"zM","type":"int","value":0}],"gid":18,"width":90,"height":25},{"id":107,"x":-340,"y":330,"visible":true,"properties":[{"name":"layer","type":"int","value":4},{"name":"resource_index","type":"int","value":24},{"name":"u","type":"string","value":"edU"},{"name":"no","type":"int","value":0},{"name":"zM","type":"int","value":0}],"gid":20,"width":50,"height":25},{"id":108,"x":-340,"y":355,"visible":true,"properties":[{"name":"layer","type":"int","value":4},{"name":"resource_index","type":"int","value":25},{"name":"u","type":"string","value":"edD"},{"name":"no","type":"int","value":0},{"name":"zM","type":"int","value":0}],"gid":19,"width":50,"height":25}],"properties":[]},{"id":15,"name":"portal","type":"objectgroup","visible":true,"opacity":1,"draworder":"index","offsetx":0,"offsety":0,"parallaxx":1,"parallaxy":1,"objects":[{"id":118,"x":-1083,"y":-128,"visible":true,"properties":[{"name":"x","type":"int","value":-1083},{"name":"y","type":"int","value":-128},{"name":"pn","type":"string","value":"sp"},{"name":"pt","type":"int","value":0},{"name":"tm","type":"int","value":999999999},{"name":"tn","type":"string","value":""},{"name":"horizontalImpact","type":"int","value":0},{"name":"portal_id","type":"int","value":0}],"point":true},{"id":119,"x":-936,"y":-100,"visible":true,"properties":[{"name":"x","type":"int","value":-936},{"name":"y","type":"int","value":-100},{"name":"pn","type":"string","value":"st00"},{"name":"pt","type":"int","value":1},{"name":"tm","type":"int","value":999999999},{"name":"tn","type":"string","value":""},{"name":"horizontalImpact","type":"int","value":0},{"name":"portal_id","type":"int","value":1}],"point":true},{"id":120,"x":-714,"y":-102,"visible":true,"properties":[{"name":"x","type":"int","value":-714},{"name":"y","type":"int","value":-102},{"name":"pn","type":"string","value":"h000"},{"name":"pt","type":"int","value":1},{"name":"tm","type":"int","value":106020600},{"name":"tn","type":"string","value":"h001"},{"name":"horizontalImpact","type":"int","value":0},{"name":"portal_id","type":"int","value":2}],"point":true},{"id":121,"x":-714,"y":-357,"visible":true,"properties":[{"name":"x","type":"int","value":-714},{"name":"y","type":"int","value":-357},{"name":"pn","type":"string","value":"h001"},{"name":"pt","type":"int","value":1},{"name":"tm","type":"int","value":106020600},{"name":"tn","type":"string","value":"h000"},{"name":"horizontalImpact","type":"int","value":0},{"name":"portal_id","type":"int","value":3}],"point":true},{"id":122,"x":-389,"y":-90,"visible":true,"properties":[{"name":"x","type":"int","value":-345},{"name":"y","type":"int","value":-99},{"name":"pn","type":"string","value":"right00"},{"name":"pt","type":"int","value":2},{"name":"tm","type":"int","value":106020700},{"name":"tn","type":"string","value":"left00"},{"name":"horizontalImpact","type":"int","value":0},{"name":"portal_id","type":"int","value":4}],"gid":95,"width":89,"height":257},{"id":123,"x":-821,"y":269,"visible":true,"properties":[{"name":"x","type":"int","value":-821},{"name":"y","type":"int","value":269},{"name":"pn","type":"string","value":"out00"},{"name":"pt","type":"int","value":3},{"name":"tm","type":"int","value":106020400},{"name":"tn","type":"string","value":"right00"},{"name":"hRange","type":"int","value":1000},{"name":"vRange","type":"int","value":100},{"name":"horizontalImpact","type":"int","value":0},{"name":"portal_id","type":"int","value":5}],"point":true}],"properties":[]},{"id":16,"name":"foothold","type":"objectgroup","visible":true,"opacity":1,"draworder":"index","offsetx":0,"offsety":0,"parallaxx":1,"parallaxy":1,"objects":[{"id":124,"x":-743,"y":-508,"visible":true,"properties":[{"name":"layer","type":"int","value":2},{"name":"group","type":"int","value":11},{"name":"id","type":"int","value":28},{"name":"fh_layer","type":"int","value":2},{"name":"fh_group","type":"int","value":11},{"name":"fh_id","type":"int","value":28},{"name":"x1","type":"int","value":-743},{"name":"x2","type":"int","value":-743},{"name":"y1","type":"int","value":-508},{"name":"y2","type":"int","value":-366},{"name":"next","type":"int","value":29},{"name":"prev","type":"int","value":0}],"polyline":[{"x":0,"y":0},{"x":0,"y":142}]},{"id":125,"x":-743,"y":-366,"visible":true,"properties":[{"name":"layer","type":"int","value":2},{"name":"group","type":"int","value":11},{"name":"id","type":"int","value":29},{"name":"fh_layer","type":"int","value":2},{"name":"fh_group","type":"int","value":11},{"name":"fh_id","type":"int","value":29},{"name":"x1","type":"int","value":-743},{"name":"x2","type":"int","value":-686},{"name":"y1","type":"int","value":-366},{"name":"y2","type":"int","value":-366},{"name":"next","type":"int","value":30},{"name":"prev","type":"int","value":28}],"polyline":[{"x":0,"y":0},{"x":57,"y":0}]},{"id":126,"x":-686,"y":-366,"visible":true,"properties":[{"name":"layer","type":"int","value":2},{"name":"group","type":"int","value":11},{"name":"id","type":"int","value":30},{"name":"fh_layer","type":"int","value":2},{"name":"fh_group","type":"int","value":11},{"name":"fh_id","type":"int","value":30},{"name":"x1","type":"int","value":-686},{"name":"x2","type":"int","value":-686},{"name":"y1","type":"int","value":-366},{"name":"y2","type":"int","value":-510},{"name":"next","type":"int","value":0},{"name":"prev","type":"int","value":29}],"polyline":[{"x":0,"y":0},{"x":0,"y":-144}]},{"id":127,"x":-990,"y":-98,"visible":true,"properties":[{"name":"layer","type":"int","value":3},{"name":"group","type":"int","value":1},{"name":"id","type":"int","value":1},{"name":"fh_layer","type":"int","value":3},{"name":"fh_group","type":"int","value":1},{"name":"fh_id","type":"int","value":1},{"name":"x1","type":"int","value":-990},{"name":"x2","type":"int","value":-900},{"name":"y1","type":"int","value":-98},{"name":"y2","type":"int","value":-98},{"name":"next","type":"int","value":3},{"name":"prev","type":"int","value":2},{"name":"forbidFallDown","type":"int","value":1}],"polyline":[{"x":0,"y":0},{"x":90,"y":0}]},{"id":128,"x":-1080,"y":-98,"visible":true,"properties":[{"name":"layer","type":"int","value":3},{"name":"group","type":"int","value":1},{"name":"id","type":"int","value":2},{"name":"fh_layer","type":"int","value":3},{"name":"fh_group","type":"int","value":1},{"name":"fh_id","type":"int","value":2},{"name":"x1","type":"int","value":-1080},{"name":"x2","type":"int","value":-990},{"name":"y1","type":"int","value":-98},{"name":"y2","type":"int","value":-98},{"name":"next","type":"int","value":1},{"name":"prev","type":"int","value":11},{"name":"forbidFallDown","type":"int","value":1}],"polyline":[{"x":0,"y":0},{"x":90,"y":0}]},{"id":129,"x":-900,"y":-98,"visible":true,"properties":[{"name":"layer","type":"int","value":3},{"name":"group","type":"int","value":1},{"name":"id","type":"int","value":3},{"name":"fh_layer","type":"int","value":3},{"name":"fh_group","type":"int","value":1},{"name":"fh_id","type":"int","value":3},{"name":"x1","type":"int","value":-900},{"name":"x2","type":"int","value":-810},{"name":"y1","type":"int","value":-98},{"name":"y2","type":"int","value":-98},{"name":"next","type":"int","value":6},{"name":"prev","type":"int","value":1},{"name":"forbidFallDown","type":"int","value":1}],"polyline":[{"x":0,"y":0},{"x":90,"y":0}]},{"id":130,"x":-540,"y":-98,"visible":true,"properties":[{"name":"layer","type":"int","value":3},{"name":"group","type":"int","value":1},{"name":"id","type":"int","value":4},{"name":"fh_layer","type":"int","value":3},{"name":"fh_group","type":"int","value":1},{"name":"fh_id","type":"int","value":4},{"name":"x1","type":"int","value":-540},{"name":"x2","type":"int","value":-450},{"name":"y1","type":"int","value":-98},{"name":"y2","type":"int","value":-98},{"name":"next","type":"int","value":7},{"name":"prev","type":"int","value":8},{"name":"forbidFallDown","type":"int","value":1}],"polyline":[{"x":0,"y":0},{"x":90,"y":0}]},{"id":131,"x":-720,"y":-98,"visible":true,"properties":[{"name":"layer","type":"int","value":3},{"name":"group","type":"int","value":1},{"name":"id","type":"int","value":5},{"name":"fh_layer","type":"int","value":3},{"name":"fh_group","type":"int","value":1},{"name":"fh_id","type":"int","value":5},{"name":"x1","type":"int","value":-720},{"name":"x2","type":"int","value":-630},{"name":"y1","type":"int","value":-98},{"name":"y2","type":"int","value":-98},{"name":"next","type":"int","value":8},{"name":"prev","type":"int","value":6},{"name":"forbidFallDown","type":"int","value":1}],"polyline":[{"x":0,"y":0},{"x":90,"y":0}]},{"id":132,"x":-810,"y":-98,"visible":true,"properties":[{"name":"layer","type":"int","value":3},{"name":"group","type":"int","value":1},{"name":"id","type":"int","value":6},{"name":"fh_layer","type":"int","value":3},{"name":"fh_group","type":"int","value":1},{"name":"fh_id","type":"int","value":6},{"name":"x1","type":"int","value":-810},{"name":"x2","type":"int","value":-720},{"name":"y1","type":"int","value":-98},{"name":"y2","type":"int","value":-98},{"name":"next","type":"int","value":5},{"name":"prev","type":"int","value":3},{"name":"forbidFallDown","type":"int","value":1}],"polyline":[{"x":0,"y":0},{"x":90,"y":0}]},{"id":133,"x":-450,"y":-98,"visible":true,"properties":[{"name":"layer","type":"int","value":3},{"name":"group","type":"int","value":1},{"name":"id","type":"int","value":7},{"name":"fh_layer","type":"int","value":3},{"name":"fh_group","type":"int","value":1},{"name":"fh_id","type":"int","value":7},{"name":"x1","type":"int","value":-450},{"name":"x2","type":"int","value":-360},{"name":"y1","type":"int","value":-98},{"name":"y2","type":"int","value":-98},{"name":"next","type":"int","value":9},{"name":"prev","type":"int","value":4},{"name":"forbidFallDown","type":"int","value":1}],"polyline":[{"x":0,"y":0},{"x":90,"y":0}]},{"id":134,"x":-630,"y":-98,"visible":true,"properties":[{"name":"layer","type":"int","value":3},{"name":"group","type":"int","value":1},{"name":"id","type":"int","value":8},{"name":"fh_layer","type":"int","value":3},{"name":"fh_group","type":"int","value":1},{"name":"fh_id","type":"int","value":8},{"name":"x1","type":"int","value":-630},{"name":"x2","type":"int","value":-540},{"name":"y1","type":"int","value":-98},{"name":"y2","type":"int","value":-98},{"name":"next","type":"int","value":4},{"name":"prev","type":"int","value":5},{"name":"forbidFallDown","type":"int","value":1}],"polyline":[{"x":0,"y":0},{"x":90,"y":0}]},{"id":135,"x":-360,"y":-98,"visible":true,"properties":[{"name":"layer","type":"int","value":3},{"name":"group","type":"int","value":1},{"name":"id","type":"int","value":9},{"name":"fh_layer","type":"int","value":3},{"name":"fh_group","type":"int","value":1},{"name":"fh_id","type":"int","value":9},{"name":"x1","type":"int","value":-360},{"name":"x2","type":"int","value":-270},{"name":"y1","type":"int","value":-98},{"name":"y2","type":"int","value":-98},{"name":"next","type":"int","value":0},{"name":"prev","type":"int","value":7},{"name":"forbidFallDown","type":"int","value":1}],"polyline":[{"x":0,"y":0},{"x":90,"y":0}]},{"id":136,"x":-1121,"y":-900,"visible":true,"properties":[{"name":"layer","type":"int","value":3},{"name":"group","type":"int","value":1},{"name":"id","type":"int","value":10},{"name":"fh_layer","type":"int","value":3},{"name":"fh_group","type":"int","value":1},{"name":"fh_id","type":"int","value":10},{"name":"x1","type":"int","value":-1121},{"name":"x2","type":"int","value":-1121},{"name":"y1","type":"int","value":-900},{"name":"y2","type":"int","value":-98},{"name":"next","type":"int","value":11},{"name":"prev","type":"int","value":0}],"polyline":[{"x":0,"y":0},{"x":0,"y":802}]},{"id":137,"x":-1121,"y":-98,"visible":true,"properties":[{"name":"layer","type":"int","value":3},{"name":"group","type":"int","value":1},{"name":"id","type":"int","value":11},{"name":"fh_layer","type":"int","value":3},{"name":"fh_group","type":"int","value":1},{"name":"fh_id","type":"int","value":11},{"name":"x1","type":"int","value":-1121},{"name":"x2","type":"int","value":-1080},{"name":"y1","type":"int","value":-98},{"name":"y2","type":"int","value":-98},{"name":"next","type":"int","value":2},{"name":"prev","type":"int","value":10},{"name":"forbidFallDown","type":"int","value":1}],"polyline":[{"x":0,"y":0},{"x":41,"y":0}]},{"id":138,"x":-1215,"y":305,"visible":true,"properties":[{"name":"layer","type":"int","value":4},{"name":"group","type":"int","value":0},{"name":"id","type":"int","value":12},{"name":"fh_layer","type":"int","value":4},{"name":"fh_group","type":"int","value":0},{"name":"fh_id","type":"int","value":12},{"name":"x1","type":"int","value":-1215},{"name":"x2","type":"int","value":-1125},{"name":"y1","type":"int","value":305},{"name":"y2","type":"int","value":305},{"name":"next","type":"int","value":16},{"name":"prev","type":"int","value":15}],"polyline":[{"x":0,"y":0},{"x":90,"y":0}]},{"id":139,"x":-1344,"y":330,"visible":true,"properties":[{"name":"layer","type":"int","value":4},{"name":"group","type":"int","value":0},{"name":"id","type":"int","value":13},{"name":"fh_layer","type":"int","value":4},{"name":"fh_group","type":"int","value":0},{"name":"fh_id","type":"int","value":13},{"name":"x1","type":"int","value":-1344},{"name":"x2","type":"int","value":-1344},{"name":"y1","type":"int","value":330},{"name":"y2","type":"int","value":305},{"name":"next","type":"int","value":14},{"name":"prev","type":"int","value":0}],"polyline":[{"x":0,"y":0},{"x":0,"y":-25}]},{"id":140,"x":-1344,"y":305,"visible":true,"properties":[{"name":"layer","type":"int","value":4},{"name":"group","type":"int","value":0},{"name":"id","type":"int","value":14},{"name":"fh_layer","type":"int","value":4},{"name":"fh_group","type":"int","value":0},{"name":"fh_id","type":"int","value":14},{"name":"x1","type":"int","value":-1344},{"name":"x2","type":"int","value":-1266},{"name":"y1","type":"int","value":305},{"name":"y2","type":"int","value":305},{"name":"next","type":"int","value":15},{"name":"prev","type":"int","value":13}],"polyline":[{"x":0,"y":0},{"x":78,"y":0}]},{"id":141,"x":-1266,"y":305,"visible":true,"properties":[{"name":"layer","type":"int","value":4},{"name":"group","type":"int","value":0},{"name":"id","type":"int","value":15},{"name":"fh_layer","type":"int","value":4},{"name":"fh_group","type":"int","value":0},{"name":"fh_id","type":"int","value":15},{"name":"x1","type":"int","value":-1266},{"name":"x2","type":"int","value":-1215},{"name":"y1","type":"int","value":305},{"name":"y2","type":"int","value":305},{"name":"next","type":"int","value":12},{"name":"prev","type":"int","value":14}],"polyline":[{"x":0,"y":0},{"x":51,"y":0}]},{"id":142,"x":-1125,"y":305,"visible":true,"properties":[{"name":"layer","type":"int","value":4},{"name":"group","type":"int","value":0},{"name":"id","type":"int","value":16},{"name":"fh_layer","type":"int","value":4},{"name":"fh_group","type":"int","value":0},{"name":"fh_id","type":"int","value":16},{"name":"x1","type":"int","value":-1125},{"name":"x2","type":"int","value":-1035},{"name":"y1","type":"int","value":305},{"name":"y2","type":"int","value":305},{"name":"next","type":"int","value":18},{"name":"prev","type":"int","value":12}],"polyline":[{"x":0,"y":0},{"x":90,"y":0}]},{"id":143,"x":-945,"y":305,"visible":true,"properties":[{"name":"layer","type":"int","value":4},{"name":"group","type":"int","value":0},{"name":"id","type":"int","value":17},{"name":"fh_layer","type":"int","value":4},{"name":"fh_group","type":"int","value":0},{"name":"fh_id","type":"int","value":17},{"name":"x1","type":"int","value":-945},{"name":"x2","type":"int","value":-855},{"name":"y1","type":"int","value":305},{"name":"y2","type":"int","value":305},{"name":"next","type":"int","value":19},{"name":"prev","type":"int","value":18}],"polyline":[{"x":0,"y":0},{"x":90,"y":0}]},{"id":144,"x":-1035,"y":305,"visible":true,"properties":[{"name":"layer","type":"int","value":4},{"name":"group","type":"int","value":0},{"name":"id","type":"int","value":18},{"name":"fh_layer","type":"int","value":4},{"name":"fh_group","type":"int","value":0},{"name":"fh_id","type":"int","value":18},{"name":"x1","type":"int","value":-1035},{"name":"x2","type":"int","value":-945},{"name":"y1","type":"int","value":305},{"name":"y2","type":"int","value":305},{"name":"next","type":"int","value":17},{"name":"prev","type":"int","value":16}],"polyline":[{"x":0,"y":0},{"x":90,"y":0}]},{"id":145,"x":-855,"y":305,"visible":true,"properties":[{"name":"layer","type":"int","value":4},{"name":"group","type":"int","value":0},{"name":"id","type":"int","value":19},{"name":"fh_layer","type":"int","value":4},{"name":"fh_group","type":"int","value":0},{"name":"fh_id","type":"int","value":19},{"name":"x1","type":"int","value":-855},{"name":"x2","type":"int","value":-765},{"name":"y1","type":"int","value":305},{"name":"y2","type":"int","value":305},{"name":"next","type":"int","value":21},{"name":"prev","type":"int","value":17}],"polyline":[{"x":0,"y":0},{"x":90,"y":0}]},{"id":146,"x":-675,"y":305,"visible":true,"properties":[{"name":"layer","type":"int","value":4},{"name":"group","type":"int","value":0},{"name":"id","type":"int","value":20},{"name":"fh_layer","type":"int","value":4},{"name":"fh_group","type":"int","value":0},{"name":"fh_id","type":"int","value":20},{"name":"x1","type":"int","value":-675},{"name":"x2","type":"int","value":-585},{"name":"y1","type":"int","value":305},{"name":"y2","type":"int","value":305},{"name":"next","type":"int","value":22},{"name":"prev","type":"int","value":21}],"polyline":[{"x":0,"y":0},{"x":90,"y":0}]},{"id":147,"x":-765,"y":305,"visible":true,"properties":[{"name":"layer","type":"int","value":4},{"name":"group","type":"int","value":0},{"name":"id","type":"int","value":21},{"name":"fh_layer","type":"int","value":4},{"name":"fh_group","type":"int","value":0},{"name":"fh_id","type":"int","value":21},{"name":"x1","type":"int","value":-765},{"name":"x2","type":"int","value":-675},{"name":"y1","type":"int","value":305},{"name":"y2","type":"int","value":305},{"name":"next","type":"int","value":20},{"name":"prev","type":"int","value":19}],"polyline":[{"x":0,"y":0},{"x":90,"y":0}]},{"id":148,"x":-585,"y":305,"visible":true,"properties":[{"name":"layer","type":"int","value":4},{"name":"group","type":"int","value":0},{"name":"id","type":"int","value":22},{"name":"fh_layer","type":"int","value":4},{"name":"fh_group","type":"int","value":0},{"name":"fh_id","type":"int","value":22},{"name":"x1","type":"int","value":-585},{"name":"x2","type":"int","value":-495},{"name":"y1","type":"int","value":305},{"name":"y2","type":"int","value":305},{"name":"next","type":"int","value":23},{"name":"prev","type":"int","value":20}],"polyline":[{"x":0,"y":0},{"x":90,"y":0}]},{"id":149,"x":-495,"y":305,"visible":true,"properties":[{"name":"layer","type":"int","value":4},{"name":"group","type":"int","value":0},{"name":"id","type":"int","value":23},{"name":"fh_layer","type":"int","value":4},{"name":"fh_group","type":"int","value":0},{"name":"fh_id","type":"int","value":23},{"name":"x1","type":"int","value":-495},{"name":"x2","type":"int","value":-405},{"name":"y1","type":"int","value":305},{"name":"y2","type":"int","value":305},{"name":"next","type":"int","value":24},{"name":"prev","type":"int","value":22}],"polyline":[{"x":0,"y":0},{"x":90,"y":0}]},{"id":150,"x":-405,"y":305,"visible":true,"properties":[{"name":"layer","type":"int","value":4},{"name":"group","type":"int","value":0},{"name":"id","type":"int","value":24},{"name":"fh_layer","type":"int","value":4},{"name":"fh_group","type":"int","value":0},{"name":"fh_id","type":"int","value":24},{"name":"x1","type":"int","value":-405},{"name":"x2","type":"int","value":-354},{"name":"y1","type":"int","value":305},{"name":"y2","type":"int","value":305},{"name":"next","type":"int","value":25},{"name":"prev","type":"int","value":23}],"polyline":[{"x":0,"y":0},{"x":51,"y":0}]},{"id":151,"x":-354,"y":305,"visible":true,"properties":[{"name":"layer","type":"int","value":4},{"name":"group","type":"int","value":0},{"name":"id","type":"int","value":25},{"name":"fh_layer","type":"int","value":4},{"name":"fh_group","type":"int","value":0},{"name":"fh_id","type":"int","value":25},{"name":"x1","type":"int","value":-354},{"name":"x2","type":"int","value":-315},{"name":"y1","type":"int","value":305},{"name":"y2","type":"int","value":305},{"name":"next","type":"int","value":26},{"name":"prev","type":"int","value":24}],"polyline":[{"x":0,"y":0},{"x":39,"y":0}]},{"id":152,"x":-315,"y":305,"visible":true,"properties":[{"name":"layer","type":"int","value":4},{"name":"group","type":"int","value":0},{"name":"id","type":"int","value":26},{"name":"fh_layer","type":"int","value":4},{"name":"fh_group","type":"int","value":0},{"name":"fh_id","type":"int","value":26},{"name":"x1","type":"int","value":-315},{"name":"x2","type":"int","value":-276},{"name":"y1","type":"int","value":305},{"name":"y2","type":"int","value":305},{"name":"next","type":"int","value":27},{"name":"prev","type":"int","value":25}],"polyline":[{"x":0,"y":0},{"x":39,"y":0}]},{"id":153,"x":-276,"y":305,"visible":true,"properties":[{"name":"layer","type":"int","value":4},{"name":"group","type":"int","value":0},{"name":"id","type":"int","value":27},{"name":"fh_layer","type":"int","value":4},{"name":"fh_group","type":"int","value":0},{"name":"fh_id","type":"int","value":27},{"name":"x1","type":"int","value":-276},{"name":"x2","type":"int","value":-276},{"name":"y1","type":"int","value":305},{"name":"y2","type":"int","value":330},{"name":"next","type":"int","value":0},{"name":"prev","type":"int","value":26}],"polyline":[{"x":0,"y":0},{"x":0,"y":25}]}],"properties":[]},{"id":17,"name":"ladderRope","type":"objectgroup","visible":true,"opacity":1,"draworder":"index","offsetx":0,"offsety":0,"parallaxx":1,"parallaxy":1,"objects":[{"id":154,"x":-1087,"y":-96,"visible":true,"properties":[{"name":"ladder_id","type":"int","value":1},{"name":"l","type":"int","value":1},{"name":"x","type":"int","value":-1087},{"name":"uf","type":"int","value":1},{"name":"y1","type":"int","value":-96},{"name":"y2","type":"int","value":71},{"name":"page","type":"int","value":4}],"polyline":[{"x":0,"y":0},{"x":0,"y":167}]}],"properties":[]},{"id":18,"name":"miniMap","type":"objectgroup","visible":true,"opacity":1,"draworder":"index","offsetx":0,"offsety":0,"parallaxx":1,"parallaxy":1,"objects":[{"id":155,"x":1452,"y":1107,"visible":true,"properties":[{"name":"mag","type":"int","value":4},{"name":"centerX","type":"int","value":1452},{"name":"centerY","type":"int","value":1107},{"name":"canvas_path","type":"string","value":"../images/30733.png"},{"name":"canvas_width","type":"int","value":77},{"name":"canvas_height","type":"int","value":94},{"name":"canvas_origin_x","type":"int","value":0},{"name":"canvas_origin_y","type":"int","value":0}],"point":true}],"properties":[]}],"tilesets":[{"firstgid":1,"source":"../tilesets/bg_mushCatle.tsj"},{"firstgid":17,"source":"../tilesets/tile_blackTile.tsj"},{"firstgid":21,"source":"../tilesets/tile_mushCatle.tsj"},{"firstgid":34,"source":"../tilesets/obj_connect_ladder_58.tsj"},{"firstgid":37,"source":"../tilesets/obj_Tdungeon_mushCatle_gate.tsj"},{"firstgid":39,"source":"../tilesets/obj_Tdungeon_mushCatle_wool.tsj"},{"firstgid":41,"source":"../tilesets/obj_Tdungeon_mushCatle_guide.tsj"},{"firstgid":49,"source":"../tilesets/obj_Tdungeon_mushCatle_tower.tsj"},{"firstgid":58,"source":"../tilesets/obj_Tdungeon_mushCatle_forest.tsj"},{"firstgid":92,"source":"../tilesets/obj_Tdungeon_mushCatle_tileAcc.tsj"},{"firstgid":95,"source":"../tilesets/portal_MapHelper.img_portal_game_pv.tsj"}],"properties":[{"name":"bgm","type":"string","value":"Bgm19/MushCatle"},{"name":"fly","type":"int","value":0},{"name":"swim","type":"int","value":0},{"name":"town","type":"int","value":0},{"name":"VRTop","type":"int","value":-960},{"name":"cloud","type":"int","value":0},{"name":"VRLeft","type":"int","value":-1298},{"name":"VRRight","type":"int","value":-270},{"name":"lvLimit","type":"int","value":30},{"name":"mapMark","type":"string","value":"MushCatle"},{"name":"mobRate","type":"float","value":1.5000001192092896},{"name":"version","type":"int","value":10},{"name":"VRBottom","type":"int","value":300},{"name":"noMapCmd","type":"int","value":0},{"name":"returnMap","type":"int","value":106020000},{"name":"fieldLimit","type":"int","value":0},{"name":"hideMinimap","type":"int","value":0},{"name":"lvForceMove","type":"int","value":39},{"name":"onUserEnter","type":"string","value":""},{"name":"forcedReturn","type":"int","value":999999999},{"name":"onFirstUserEnter","type":"string","value":""}]}