{"type":"map","orientation":"orthogonal","renderorder":"right-down","infinite":false,"tilewidth":1,"tileheight":1,"width":1000,"height":600,"parallaxoriginx":-400,"parallaxoriginy":80,"nextlayerid":7,"nextobjectid":82,"layers":[{"id":1,"name":"layer_3_obj","type":"objectgroup","visible":true,"opacity":1,"draworder":"index","offsetx":0,"offsety":0,"parallaxx":1,"parallaxy":1,"objects":[{"id":1,"x":-401,"y":152,"visible":true,"properties":[{"name":"layer","type":"int","value":3},{"name":"resource_index","type":"int","value":0},{"name":"oS","type":"string","value":"acc9"},{"name":"l0","type":"string","value":"inside"},{"name":"l1","type":"string","value":"dining"},{"name":"l2","type":"string","value":"0"},{"name":"z","type":"int","value":9},{"name":"zM","type":"int","value":2},{"name":"f","type":"int","value":0}],"gid":11,"width":400,"height":450},{"id":2,"x":-1,"y":152,"visible":true,"properties":[{"name":"layer","type":"int","value":3},{"name":"resource_index","type":"int","value":1},{"name":"oS","type":"string","value":"acc9"},{"name":"l0","type":"string","value":"inside"},{"name":"l1","type":"string","value":"dining"},{"name":"l2","type":"string","value":"1"},{"name":"z","type":"int","value":9},{"name":"zM","type":"int","value":1},{"name":"f","type":"int","value":0}],"gid":12,"width":600,"height":450},{"id":3,"x":-91,"y":-121,"visible":true,"properties":[{"name":"layer","type":"int","value":3},{"name":"resource_index","type":"int","value":2},{"name":"oS","type":"string","value":"connect"},{"name":"l0","type":"string","value":"ladder"},{"name":"l1","type":"string","value":"56"},{"name":"l2","type":"string","value":"0"},{"name":"z","type":"int","value":10},{"name":"zM","type":"int","value":2},{"name":"f","type":"int","value":0}],"gid":8,"width":45,"height":27},{"id":4,"x":-86,"y":-19,"visible":true,"properties":[{"name":"layer","type":"int","value":3},{"name":"resource_index","type":"int","value":3},{"name":"oS","type":"string","value":"connect"},{"name":"l0","type":"string","value":"ladder"},{"name":"l1","type":"string","value":"56"},{"name":"l2","type":"string","value":"3"},{"name":"z","type":"int","value":10},{"name":"zM","type":"int","value":2},{"name":"f","type":"int","value":0}],"gid":9,"width":40,"height":121},{"id":5,"x":-86,"y":101,"visible":true,"properties":[{"name":"layer","type":"int","value":3},{"name":"resource_index","type":"int","value":4},{"name":"oS","type":"string","value":"connect"},{"name":"l0","type":"string","value":"ladder"},{"name":"l1","type":"string","value":"56"},{"name":"l2","type":"string","value":"3"},{"name":"z","type":"int","value":9},{"name":"zM","type":"int","value":2},{"name":"f","type":"int","value":0}],"gid":9,"width":40,"height":121},{"id":6,"x":-87,"y":111,"visible":true,"properties":[{"name":"layer","type":"int","value":3},{"name":"resource_index","type":"int","value":5},{"name":"oS","type":"string","value":"connect"},{"name":"l0","type":"string","value":"ladder"},{"name":"l1","type":"string","value":"56"},{"name":"l2","type":"string","value":"2"},{"name":"z","type":"int","value":9},{"name":"zM","type":"int","value":2},{"name":"f","type":"int","value":0}],"gid":10,"width":42,"height":30},{"id":7,"x":30,"y":34,"visible":true,"properties":[{"name":"layer","type":"int","value":3},{"name":"resource_index","type":"int","value":6},{"name":"oS","type":"string","value":"acc9"},{"name":"l0","type":"string","value":"inside"},{"name":"l1","type":"string","value":"ani"},{"name":"l2","type":"string","value":"6"},{"name":"z","type":"int","value":10},{"name":"zM","type":"int","value":1},{"name":"f","type":"int","value":0}],"gid":3,"width":253,"height":141}],"properties":[]},{"id":2,"name":"layer_5_obj","type":"objectgroup","visible":true,"opacity":1,"draworder":"index","offsetx":0,"offsety":0,"parallaxx":1,"parallaxy":1,"objects":[{"id":8,"x":-401,"y":299,"visible":true,"properties":[{"name":"layer","type":"int","value":5},{"name":"resource_index","type":"int","value":0},{"name":"oS","type":"string","value":"acc9"},{"name":"l0","type":"string","value":"inside"},{"name":"l1","type":"string","value":"etc"},{"name":"l2","type":"string","value":"0"},{"name":"z","type":"int","value":9},{"name":"zM","type":"int","value":0},{"name":"f","type":"int","value":0}],"gid":7,"width":150,"height":150},{"id":9,"x":-252,"y":299,"visible":true,"properties":[{"name":"layer","type":"int","value":5},{"name":"resource_index","type":"int","value":1},{"name":"oS","type":"string","value":"acc9"},{"name":"l0","type":"string","value":"inside"},{"name":"l1","type":"string","value":"etc"},{"name":"l2","type":"string","value":"0"},{"name":"z","type":"int","value":9},{"name":"zM","type":"int","value":0},{"name":"f","type":"int","value":0}],"gid":7,"width":150,"height":150},{"id":10,"x":-103,"y":299,"visible":true,"properties":[{"name":"layer","type":"int","value":5},{"name":"resource_index","type":"int","value":2},{"name":"oS","type":"string","value":"acc9"},{"name":"l0","type":"string","value":"inside"},{"name":"l1","type":"string","value":"etc"},{"name":"l2","type":"string","value":"0"},{"name":"z","type":"int","value":9},{"name":"zM","type":"int","value":0},{"name":"f","type":"int","value":0}],"gid":7,"width":150,"height":150},{"id":11,"x":46,"y":299,"visible":true,"properties":[{"name":"layer","type":"int","value":5},{"name":"resource_index","type":"int","value":3},{"name":"oS","type":"string","value":"acc9"},{"name":"l0","type":"string","value":"inside"},{"name":"l1","type":"string","value":"etc"},{"name":"l2","type":"string","value":"0"},{"name":"z","type":"int","value":9},{"name":"zM","type":"int","value":0},{"name":"f","type":"int","value":0}],"gid":7,"width":150,"height":150},{"id":12,"x":195,"y":299,"visible":true,"properties":[{"name":"layer","type":"int","value":5},{"name":"resource_index","type":"int","value":4},{"name":"oS","type":"string","value":"acc9"},{"name":"l0","type":"string","value":"inside"},{"name":"l1","type":"string","value":"etc"},{"name":"l2","type":"string","value":"0"},{"name":"z","type":"int","value":9},{"name":"zM","type":"int","value":0},{"name":"f","type":"int","value":0}],"gid":7,"width":150,"height":150},{"id":13,"x":344,"y":299,"visible":true,"properties":[{"name":"layer","type":"int","value":5},{"name":"resource_index","type":"int","value":5},{"name":"oS","type":"string","value":"acc9"},{"name":"l0","type":"string","value":"inside"},{"name":"l1","type":"string","value":"etc"},{"name":"l2","type":"string","value":"0"},{"name":"z","type":"int","value":9},{"name":"zM","type":"int","value":0},{"name":"f","type":"int","value":0}],"gid":7,"width":150,"height":150},{"id":14,"x":449,"y":299,"visible":true,"properties":[{"name":"layer","type":"int","value":5},{"name":"resource_index","type":"int","value":6},{"name":"oS","type":"string","value":"acc9"},{"name":"l0","type":"string","value":"inside"},{"name":"l1","type":"string","value":"etc"},{"name":"l2","type":"string","value":"0"},{"name":"z","type":"int","value":9},{"name":"zM","type":"int","value":0},{"name":"f","type":"int","value":0}],"gid":7,"width":150,"height":150}],"properties":[]},{"id":3,"name":"portal","type":"objectgroup","visible":true,"opacity":1,"draworder":"index","offsetx":0,"offsety":0,"parallaxx":1,"parallaxy":1,"objects":[{"id":15,"x":-86,"y":96,"visible":true,"properties":[{"name":"x","type":"int","value":-86},{"name":"y","type":"int","value":96},{"name":"pn","type":"string","value":"sp"},{"name":"pt","type":"int","value":0},{"name":"tm","type":"int","value":999999999},{"name":"tn","type":"string","value":""},{"name":"portal_id","type":"int","value":0}],"point":true},{"id":16,"x":-347,"y":156,"visible":true,"properties":[{"name":"x","type":"int","value":-303},{"name":"y","type":"int","value":147},{"name":"pn","type":"string","value":"ao02"},{"name":"pt","type":"int","value":2},{"name":"tm","type":"int","value":120000100},{"name":"tn","type":"string","value":"ai02"},{"name":"delay","type":"int","value":0},{"name":"script","type":"string","value":""},{"name":"onlyOnce","type":"int","value":0},{"name":"hideTooltip","type":"int","value":0},{"name":"portal_id","type":"int","value":1}],"gid":13,"width":89,"height":257}],"properties":[]},{"id":4,"name":"life","type":"objectgroup","visible":true,"opacity":1,"draworder":"index","offsetx":0,"offsety":0,"parallaxx":1,"parallaxy":1,"objects":[{"id":17,"x":314,"y":133,"visible":true,"properties":[{"name":"f","type":"int","value":0},{"name":"x","type":"int","value":314},{"name":"y","type":"int","value":133},{"name":"cy","type":"int","value":150},{"name":"fh","type":"int","value":61},{"name":"id","type":"int","value":1092000},{"name":"rx0","type":"int","value":264},{"name":"rx1","type":"int","value":364},{"name":"hide","type":"int","value":0},{"name":"type","type":"string","value":"n"},{"name":"mobTime","type":"int","value":0}],"point":true}],"properties":[]},{"id":5,"name":"foothold","type":"objectgroup","visible":true,"opacity":1,"draworder":"index","offsetx":0,"offsety":0,"parallaxx":1,"parallaxy":1,"objects":[{"id":18,"x":52,"y":-198,"visible":true,"properties":[{"name":"layer","type":"int","value":3},{"name":"group","type":"int","value":1},{"name":"id","type":"int","value":2},{"name":"fh_layer","type":"int","value":3},{"name":"fh_group","type":"int","value":1},{"name":"fh_id","type":"int","value":2},{"name":"x1","type":"int","value":52},{"name":"x2","type":"int","value":79},{"name":"y1","type":"int","value":-198},{"name":"y2","type":"int","value":-211},{"name":"next","type":"int","value":3},{"name":"prev","type":"int","value":0}],"polyline":[{"x":0,"y":0},{"x":27,"y":-13}]},{"id":19,"x":79,"y":-211,"visible":true,"properties":[{"name":"layer","type":"int","value":3},{"name":"group","type":"int","value":1},{"name":"id","type":"int","value":3},{"name":"fh_layer","type":"int","value":3},{"name":"fh_group","type":"int","value":1},{"name":"fh_id","type":"int","value":3},{"name":"x1","type":"int","value":79},{"name":"x2","type":"int","value":97},{"name":"y1","type":"int","value":-211},{"name":"y2","type":"int","value":-210},{"name":"next","type":"int","value":4},{"name":"prev","type":"int","value":2}],"polyline":[{"x":0,"y":0},{"x":18,"y":1}]},{"id":20,"x":97,"y":-210,"visible":true,"properties":[{"name":"layer","type":"int","value":3},{"name":"group","type":"int","value":1},{"name":"id","type":"int","value":4},{"name":"fh_layer","type":"int","value":3},{"name":"fh_group","type":"int","value":1},{"name":"fh_id","type":"int","value":4},{"name":"x1","type":"int","value":97},{"name":"x2","type":"int","value":111},{"name":"y1","type":"int","value":-210},{"name":"y2","type":"int","value":-210},{"name":"next","type":"int","value":5},{"name":"prev","type":"int","value":3}],"polyline":[{"x":0,"y":0},{"x":14,"y":0}]},{"id":21,"x":111,"y":-210,"visible":true,"properties":[{"name":"layer","type":"int","value":3},{"name":"group","type":"int","value":1},{"name":"id","type":"int","value":5},{"name":"fh_layer","type":"int","value":3},{"name":"fh_group","type":"int","value":1},{"name":"fh_id","type":"int","value":5},{"name":"x1","type":"int","value":111},{"name":"x2","type":"int","value":152},{"name":"y1","type":"int","value":-210},{"name":"y2","type":"int","value":-232},{"name":"next","type":"int","value":6},{"name":"prev","type":"int","value":4}],"polyline":[{"x":0,"y":0},{"x":41,"y":-22}]},{"id":22,"x":152,"y":-232,"visible":true,"properties":[{"name":"layer","type":"int","value":3},{"name":"group","type":"int","value":1},{"name":"id","type":"int","value":6},{"name":"fh_layer","type":"int","value":3},{"name":"fh_group","type":"int","value":1},{"name":"fh_id","type":"int","value":6},{"name":"x1","type":"int","value":152},{"name":"x2","type":"int","value":158},{"name":"y1","type":"int","value":-232},{"name":"y2","type":"int","value":-245},{"name":"next","type":"int","value":7},{"name":"prev","type":"int","value":5}],"polyline":[{"x":0,"y":0},{"x":6,"y":-13}]},{"id":23,"x":158,"y":-245,"visible":true,"properties":[{"name":"layer","type":"int","value":3},{"name":"group","type":"int","value":1},{"name":"id","type":"int","value":7},{"name":"fh_layer","type":"int","value":3},{"name":"fh_group","type":"int","value":1},{"name":"fh_id","type":"int","value":7},{"name":"x1","type":"int","value":158},{"name":"x2","type":"int","value":187},{"name":"y1","type":"int","value":-245},{"name":"y2","type":"int","value":-254},{"name":"next","type":"int","value":8},{"name":"prev","type":"int","value":6}],"polyline":[{"x":0,"y":0},{"x":29,"y":-9}]},{"id":24,"x":187,"y":-254,"visible":true,"properties":[{"name":"layer","type":"int","value":3},{"name":"group","type":"int","value":1},{"name":"id","type":"int","value":8},{"name":"fh_layer","type":"int","value":3},{"name":"fh_group","type":"int","value":1},{"name":"fh_id","type":"int","value":8},{"name":"x1","type":"int","value":187},{"name":"x2","type":"int","value":254},{"name":"y1","type":"int","value":-254},{"name":"y2","type":"int","value":-254},{"name":"next","type":"int","value":9},{"name":"prev","type":"int","value":7}],"polyline":[{"x":0,"y":0},{"x":67,"y":0}]},{"id":25,"x":254,"y":-254,"visible":true,"properties":[{"name":"layer","type":"int","value":3},{"name":"group","type":"int","value":1},{"name":"id","type":"int","value":9},{"name":"fh_layer","type":"int","value":3},{"name":"fh_group","type":"int","value":1},{"name":"fh_id","type":"int","value":9},{"name":"x1","type":"int","value":254},{"name":"x2","type":"int","value":303},{"name":"y1","type":"int","value":-254},{"name":"y2","type":"int","value":-242},{"name":"next","type":"int","value":0},{"name":"prev","type":"int","value":8}],"polyline":[{"x":0,"y":0},{"x":49,"y":12}]},{"id":26,"x":245,"y":-204,"visible":true,"properties":[{"name":"layer","type":"int","value":3},{"name":"group","type":"int","value":1},{"name":"id","type":"int","value":10},{"name":"fh_layer","type":"int","value":3},{"name":"fh_group","type":"int","value":1},{"name":"fh_id","type":"int","value":10},{"name":"x1","type":"int","value":245},{"name":"x2","type":"int","value":260},{"name":"y1","type":"int","value":-204},{"name":"y2","type":"int","value":-214},{"name":"next","type":"int","value":11},{"name":"prev","type":"int","value":0}],"polyline":[{"x":0,"y":0},{"x":15,"y":-10}]},{"id":27,"x":260,"y":-214,"visible":true,"properties":[{"name":"layer","type":"int","value":3},{"name":"group","type":"int","value":1},{"name":"id","type":"int","value":11},{"name":"fh_layer","type":"int","value":3},{"name":"fh_group","type":"int","value":1},{"name":"fh_id","type":"int","value":11},{"name":"x1","type":"int","value":260},{"name":"x2","type":"int","value":283},{"name":"y1","type":"int","value":-214},{"name":"y2","type":"int","value":-218},{"name":"next","type":"int","value":12},{"name":"prev","type":"int","value":10}],"polyline":[{"x":0,"y":0},{"x":23,"y":-4}]},{"id":28,"x":283,"y":-218,"visible":true,"properties":[{"name":"layer","type":"int","value":3},{"name":"group","type":"int","value":1},{"name":"id","type":"int","value":12},{"name":"fh_layer","type":"int","value":3},{"name":"fh_group","type":"int","value":1},{"name":"fh_id","type":"int","value":12},{"name":"x1","type":"int","value":283},{"name":"x2","type":"int","value":310},{"name":"y1","type":"int","value":-218},{"name":"y2","type":"int","value":-211},{"name":"next","type":"int","value":13},{"name":"prev","type":"int","value":11}],"polyline":[{"x":0,"y":0},{"x":27,"y":7}]},{"id":29,"x":310,"y":-211,"visible":true,"properties":[{"name":"layer","type":"int","value":3},{"name":"group","type":"int","value":1},{"name":"id","type":"int","value":13},{"name":"fh_layer","type":"int","value":3},{"name":"fh_group","type":"int","value":1},{"name":"fh_id","type":"int","value":13},{"name":"x1","type":"int","value":310},{"name":"x2","type":"int","value":332},{"name":"y1","type":"int","value":-211},{"name":"y2","type":"int","value":-191},{"name":"next","type":"int","value":0},{"name":"prev","type":"int","value":12}],"polyline":[{"x":0,"y":0},{"x":22,"y":20}]},{"id":30,"x":28,"y":-98,"visible":true,"properties":[{"name":"layer","type":"int","value":3},{"name":"group","type":"int","value":1},{"name":"id","type":"int","value":14},{"name":"fh_layer","type":"int","value":3},{"name":"fh_group","type":"int","value":1},{"name":"fh_id","type":"int","value":14},{"name":"x1","type":"int","value":28},{"name":"x2","type":"int","value":65},{"name":"y1","type":"int","value":-98},{"name":"y2","type":"int","value":-108},{"name":"next","type":"int","value":15},{"name":"prev","type":"int","value":0}],"polyline":[{"x":0,"y":0},{"x":37,"y":-10}]},{"id":31,"x":65,"y":-108,"visible":true,"properties":[{"name":"layer","type":"int","value":3},{"name":"group","type":"int","value":1},{"name":"id","type":"int","value":15},{"name":"fh_layer","type":"int","value":3},{"name":"fh_group","type":"int","value":1},{"name":"fh_id","type":"int","value":15},{"name":"x1","type":"int","value":65},{"name":"x2","type":"int","value":130},{"name":"y1","type":"int","value":-108},{"name":"y2","type":"int","value":-119},{"name":"next","type":"int","value":16},{"name":"prev","type":"int","value":14}],"polyline":[{"x":0,"y":0},{"x":65,"y":-11}]},{"id":32,"x":130,"y":-119,"visible":true,"properties":[{"name":"layer","type":"int","value":3},{"name":"group","type":"int","value":1},{"name":"id","type":"int","value":16},{"name":"fh_layer","type":"int","value":3},{"name":"fh_group","type":"int","value":1},{"name":"fh_id","type":"int","value":16},{"name":"x1","type":"int","value":130},{"name":"x2","type":"int","value":204},{"name":"y1","type":"int","value":-119},{"name":"y2","type":"int","value":-118},{"name":"next","type":"int","value":17},{"name":"prev","type":"int","value":15}],"polyline":[{"x":0,"y":0},{"x":74,"y":1}]},{"id":33,"x":204,"y":-118,"visible":true,"properties":[{"name":"layer","type":"int","value":3},{"name":"group","type":"int","value":1},{"name":"id","type":"int","value":17},{"name":"fh_layer","type":"int","value":3},{"name":"fh_group","type":"int","value":1},{"name":"fh_id","type":"int","value":17},{"name":"x1","type":"int","value":204},{"name":"x2","type":"int","value":268},{"name":"y1","type":"int","value":-118},{"name":"y2","type":"int","value":-110},{"name":"next","type":"int","value":18},{"name":"prev","type":"int","value":16}],"polyline":[{"x":0,"y":0},{"x":64,"y":8}]},{"id":34,"x":268,"y":-110,"visible":true,"properties":[{"name":"layer","type":"int","value":3},{"name":"group","type":"int","value":1},{"name":"id","type":"int","value":18},{"name":"fh_layer","type":"int","value":3},{"name":"fh_group","type":"int","value":1},{"name":"fh_id","type":"int","value":18},{"name":"x1","type":"int","value":268},{"name":"x2","type":"int","value":289},{"name":"y1","type":"int","value":-110},{"name":"y2","type":"int","value":-97},{"name":"next","type":"int","value":0},{"name":"prev","type":"int","value":17}],"polyline":[{"x":0,"y":0},{"x":21,"y":13}]},{"id":35,"x":30,"y":101,"visible":true,"properties":[{"name":"layer","type":"int","value":3},{"name":"group","type":"int","value":1},{"name":"id","type":"int","value":19},{"name":"fh_layer","type":"int","value":3},{"name":"fh_group","type":"int","value":1},{"name":"fh_id","type":"int","value":19},{"name":"x1","type":"int","value":30},{"name":"x2","type":"int","value":71},{"name":"y1","type":"int","value":101},{"name":"y2","type":"int","value":101},{"name":"next","type":"int","value":20},{"name":"prev","type":"int","value":0}],"polyline":[{"x":0,"y":0},{"x":41,"y":0}]},{"id":36,"x":71,"y":101,"visible":true,"properties":[{"name":"layer","type":"int","value":3},{"name":"group","type":"int","value":1},{"name":"id","type":"int","value":20},{"name":"fh_layer","type":"int","value":3},{"name":"fh_group","type":"int","value":1},{"name":"fh_id","type":"int","value":20},{"name":"x1","type":"int","value":71},{"name":"x2","type":"int","value":89},{"name":"y1","type":"int","value":101},{"name":"y2","type":"int","value":90},{"name":"next","type":"int","value":21},{"name":"prev","type":"int","value":19}],"polyline":[{"x":0,"y":0},{"x":18,"y":-11}]},{"id":37,"x":89,"y":90,"visible":true,"properties":[{"name":"layer","type":"int","value":3},{"name":"group","type":"int","value":1},{"name":"id","type":"int","value":21},{"name":"fh_layer","type":"int","value":3},{"name":"fh_group","type":"int","value":1},{"name":"fh_id","type":"int","value":21},{"name":"x1","type":"int","value":89},{"name":"x2","type":"int","value":118},{"name":"y1","type":"int","value":90},{"name":"y2","type":"int","value":95},{"name":"next","type":"int","value":22},{"name":"prev","type":"int","value":20}],"polyline":[{"x":0,"y":0},{"x":29,"y":5}]},{"id":38,"x":118,"y":95,"visible":true,"properties":[{"name":"layer","type":"int","value":3},{"name":"group","type":"int","value":1},{"name":"id","type":"int","value":22},{"name":"fh_layer","type":"int","value":3},{"name":"fh_group","type":"int","value":1},{"name":"fh_id","type":"int","value":22},{"name":"x1","type":"int","value":118},{"name":"x2","type":"int","value":130},{"name":"y1","type":"int","value":95},{"name":"y2","type":"int","value":101},{"name":"next","type":"int","value":23},{"name":"prev","type":"int","value":21}],"polyline":[{"x":0,"y":0},{"x":12,"y":6}]},{"id":39,"x":130,"y":101,"visible":true,"properties":[{"name":"layer","type":"int","value":3},{"name":"group","type":"int","value":1},{"name":"id","type":"int","value":23},{"name":"fh_layer","type":"int","value":3},{"name":"fh_group","type":"int","value":1},{"name":"fh_id","type":"int","value":23},{"name":"x1","type":"int","value":130},{"name":"x2","type":"int","value":189},{"name":"y1","type":"int","value":101},{"name":"y2","type":"int","value":102},{"name":"next","type":"int","value":24},{"name":"prev","type":"int","value":22}],"polyline":[{"x":0,"y":0},{"x":59,"y":1}]},{"id":40,"x":189,"y":102,"visible":true,"properties":[{"name":"layer","type":"int","value":3},{"name":"group","type":"int","value":1},{"name":"id","type":"int","value":24},{"name":"fh_layer","type":"int","value":3},{"name":"fh_group","type":"int","value":1},{"name":"fh_id","type":"int","value":24},{"name":"x1","type":"int","value":189},{"name":"x2","type":"int","value":209},{"name":"y1","type":"int","value":102},{"name":"y2","type":"int","value":91},{"name":"next","type":"int","value":25},{"name":"prev","type":"int","value":23}],"polyline":[{"x":0,"y":0},{"x":20,"y":-11}]},{"id":41,"x":209,"y":91,"visible":true,"properties":[{"name":"layer","type":"int","value":3},{"name":"group","type":"int","value":1},{"name":"id","type":"int","value":25},{"name":"fh_layer","type":"int","value":3},{"name":"fh_group","type":"int","value":1},{"name":"fh_id","type":"int","value":25},{"name":"x1","type":"int","value":209},{"name":"x2","type":"int","value":228},{"name":"y1","type":"int","value":91},{"name":"y2","type":"int","value":90},{"name":"next","type":"int","value":26},{"name":"prev","type":"int","value":24}],"polyline":[{"x":0,"y":0},{"x":19,"y":-1}]},{"id":42,"x":228,"y":90,"visible":true,"properties":[{"name":"layer","type":"int","value":3},{"name":"group","type":"int","value":1},{"name":"id","type":"int","value":26},{"name":"fh_layer","type":"int","value":3},{"name":"fh_group","type":"int","value":1},{"name":"fh_id","type":"int","value":26},{"name":"x1","type":"int","value":228},{"name":"x2","type":"int","value":256},{"name":"y1","type":"int","value":90},{"name":"y2","type":"int","value":101},{"name":"next","type":"int","value":27},{"name":"prev","type":"int","value":25}],"polyline":[{"x":0,"y":0},{"x":28,"y":11}]},{"id":43,"x":256,"y":101,"visible":true,"properties":[{"name":"layer","type":"int","value":3},{"name":"group","type":"int","value":1},{"name":"id","type":"int","value":27},{"name":"fh_layer","type":"int","value":3},{"name":"fh_group","type":"int","value":1},{"name":"fh_id","type":"int","value":27},{"name":"x1","type":"int","value":256},{"name":"x2","type":"int","value":302},{"name":"y1","type":"int","value":101},{"name":"y2","type":"int","value":101},{"name":"next","type":"int","value":0},{"name":"prev","type":"int","value":26}],"polyline":[{"x":0,"y":0},{"x":46,"y":0}]},{"id":44,"x":407,"y":-145,"visible":true,"properties":[{"name":"layer","type":"int","value":3},{"name":"group","type":"int","value":1},{"name":"id","type":"int","value":28},{"name":"fh_layer","type":"int","value":3},{"name":"fh_group","type":"int","value":1},{"name":"fh_id","type":"int","value":28},{"name":"x1","type":"int","value":407},{"name":"x2","type":"int","value":424},{"name":"y1","type":"int","value":-145},{"name":"y2","type":"int","value":-153},{"name":"next","type":"int","value":29},{"name":"prev","type":"int","value":0}],"polyline":[{"x":0,"y":0},{"x":17,"y":-8}]},{"id":45,"x":424,"y":-153,"visible":true,"properties":[{"name":"layer","type":"int","value":3},{"name":"group","type":"int","value":1},{"name":"id","type":"int","value":29},{"name":"fh_layer","type":"int","value":3},{"name":"fh_group","type":"int","value":1},{"name":"fh_id","type":"int","value":29},{"name":"x1","type":"int","value":424},{"name":"x2","type":"int","value":449},{"name":"y1","type":"int","value":-153},{"name":"y2","type":"int","value":-174},{"name":"next","type":"int","value":30},{"name":"prev","type":"int","value":28}],"polyline":[{"x":0,"y":0},{"x":25,"y":-21}]},{"id":46,"x":449,"y":-174,"visible":true,"properties":[{"name":"layer","type":"int","value":3},{"name":"group","type":"int","value":1},{"name":"id","type":"int","value":30},{"name":"fh_layer","type":"int","value":3},{"name":"fh_group","type":"int","value":1},{"name":"fh_id","type":"int","value":30},{"name":"x1","type":"int","value":449},{"name":"x2","type":"int","value":476},{"name":"y1","type":"int","value":-174},{"name":"y2","type":"int","value":-188},{"name":"next","type":"int","value":31},{"name":"prev","type":"int","value":29}],"polyline":[{"x":0,"y":0},{"x":27,"y":-14}]},{"id":47,"x":476,"y":-188,"visible":true,"properties":[{"name":"layer","type":"int","value":3},{"name":"group","type":"int","value":1},{"name":"id","type":"int","value":31},{"name":"fh_layer","type":"int","value":3},{"name":"fh_group","type":"int","value":1},{"name":"fh_id","type":"int","value":31},{"name":"x1","type":"int","value":476},{"name":"x2","type":"int","value":519},{"name":"y1","type":"int","value":-188},{"name":"y2","type":"int","value":-192},{"name":"next","type":"int","value":32},{"name":"prev","type":"int","value":30}],"polyline":[{"x":0,"y":0},{"x":43,"y":-4}]},{"id":48,"x":519,"y":-192,"visible":true,"properties":[{"name":"layer","type":"int","value":3},{"name":"group","type":"int","value":1},{"name":"id","type":"int","value":32},{"name":"fh_layer","type":"int","value":3},{"name":"fh_group","type":"int","value":1},{"name":"fh_id","type":"int","value":32},{"name":"x1","type":"int","value":519},{"name":"x2","type":"int","value":567},{"name":"y1","type":"int","value":-192},{"name":"y2","type":"int","value":-171},{"name":"next","type":"int","value":33},{"name":"prev","type":"int","value":31}],"polyline":[{"x":0,"y":0},{"x":48,"y":21}]},{"id":49,"x":567,"y":-171,"visible":true,"properties":[{"name":"layer","type":"int","value":3},{"name":"group","type":"int","value":1},{"name":"id","type":"int","value":33},{"name":"fh_layer","type":"int","value":3},{"name":"fh_group","type":"int","value":1},{"name":"fh_id","type":"int","value":33},{"name":"x1","type":"int","value":567},{"name":"x2","type":"int","value":594},{"name":"y1","type":"int","value":-171},{"name":"y2","type":"int","value":-147},{"name":"next","type":"int","value":34},{"name":"prev","type":"int","value":32}],"polyline":[{"x":0,"y":0},{"x":27,"y":24}]},{"id":50,"x":594,"y":-147,"visible":true,"properties":[{"name":"layer","type":"int","value":3},{"name":"group","type":"int","value":1},{"name":"id","type":"int","value":34},{"name":"fh_layer","type":"int","value":3},{"name":"fh_group","type":"int","value":1},{"name":"fh_id","type":"int","value":34},{"name":"x1","type":"int","value":594},{"name":"x2","type":"int","value":605},{"name":"y1","type":"int","value":-147},{"name":"y2","type":"int","value":-152},{"name":"next","type":"int","value":0},{"name":"prev","type":"int","value":33}],"polyline":[{"x":0,"y":0},{"x":11,"y":-5}]},{"id":51,"x":393,"y":-110,"visible":true,"properties":[{"name":"layer","type":"int","value":3},{"name":"group","type":"int","value":1},{"name":"id","type":"int","value":35},{"name":"fh_layer","type":"int","value":3},{"name":"fh_group","type":"int","value":1},{"name":"fh_id","type":"int","value":35},{"name":"x1","type":"int","value":393},{"name":"x2","type":"int","value":580},{"name":"y1","type":"int","value":-110},{"name":"y2","type":"int","value":-110},{"name":"next","type":"int","value":0},{"name":"prev","type":"int","value":0}],"polyline":[{"x":0,"y":0},{"x":187,"y":0}]},{"id":52,"x":332,"y":-64,"visible":true,"properties":[{"name":"layer","type":"int","value":3},{"name":"group","type":"int","value":1},{"name":"id","type":"int","value":36},{"name":"fh_layer","type":"int","value":3},{"name":"fh_group","type":"int","value":1},{"name":"fh_id","type":"int","value":36},{"name":"x1","type":"int","value":332},{"name":"x2","type":"int","value":549},{"name":"y1","type":"int","value":-64},{"name":"y2","type":"int","value":-64},{"name":"next","type":"int","value":0},{"name":"prev","type":"int","value":0}],"polyline":[{"x":0,"y":0},{"x":217,"y":0}]},{"id":53,"x":308,"y":76,"visible":true,"properties":[{"name":"layer","type":"int","value":3},{"name":"group","type":"int","value":1},{"name":"id","type":"int","value":37},{"name":"fh_layer","type":"int","value":3},{"name":"fh_group","type":"int","value":1},{"name":"fh_id","type":"int","value":37},{"name":"x1","type":"int","value":308},{"name":"x2","type":"int","value":600},{"name":"y1","type":"int","value":76},{"name":"y2","type":"int","value":76},{"name":"next","type":"int","value":0},{"name":"prev","type":"int","value":0}],"polyline":[{"x":0,"y":0},{"x":292,"y":0}]},{"id":54,"x":399,"y":11,"visible":true,"properties":[{"name":"layer","type":"int","value":3},{"name":"group","type":"int","value":1},{"name":"id","type":"int","value":38},{"name":"fh_layer","type":"int","value":3},{"name":"fh_group","type":"int","value":1},{"name":"fh_id","type":"int","value":38},{"name":"x1","type":"int","value":399},{"name":"x2","type":"int","value":460},{"name":"y1","type":"int","value":11},{"name":"y2","type":"int","value":11},{"name":"next","type":"int","value":0},{"name":"prev","type":"int","value":0}],"polyline":[{"x":0,"y":0},{"x":61,"y":0}]},{"id":55,"x":353,"y":39,"visible":true,"properties":[{"name":"layer","type":"int","value":3},{"name":"group","type":"int","value":1},{"name":"id","type":"int","value":39},{"name":"fh_layer","type":"int","value":3},{"name":"fh_group","type":"int","value":1},{"name":"fh_id","type":"int","value":39},{"name":"x1","type":"int","value":353},{"name":"x2","type":"int","value":599},{"name":"y1","type":"int","value":39},{"name":"y2","type":"int","value":39},{"name":"next","type":"int","value":0},{"name":"prev","type":"int","value":0}],"polyline":[{"x":0,"y":0},{"x":246,"y":0}]},{"id":56,"x":46,"y":19,"visible":true,"properties":[{"name":"layer","type":"int","value":3},{"name":"group","type":"int","value":1},{"name":"id","type":"int","value":40},{"name":"fh_layer","type":"int","value":3},{"name":"fh_group","type":"int","value":1},{"name":"fh_id","type":"int","value":40},{"name":"x1","type":"int","value":46},{"name":"x2","type":"int","value":55},{"name":"y1","type":"int","value":19},{"name":"y2","type":"int","value":23},{"name":"next","type":"int","value":51},{"name":"prev","type":"int","value":0}],"polyline":[{"x":0,"y":0},{"x":9,"y":4}]},{"id":57,"x":63,"y":28,"visible":true,"properties":[{"name":"layer","type":"int","value":3},{"name":"group","type":"int","value":1},{"name":"id","type":"int","value":41},{"name":"fh_layer","type":"int","value":3},{"name":"fh_group","type":"int","value":1},{"name":"fh_id","type":"int","value":41},{"name":"x1","type":"int","value":63},{"name":"x2","type":"int","value":114},{"name":"y1","type":"int","value":28},{"name":"y2","type":"int","value":23},{"name":"next","type":"int","value":52},{"name":"prev","type":"int","value":50}],"polyline":[{"x":0,"y":0},{"x":51,"y":-5}]},{"id":58,"x":117,"y":22,"visible":true,"properties":[{"name":"layer","type":"int","value":3},{"name":"group","type":"int","value":1},{"name":"id","type":"int","value":42},{"name":"fh_layer","type":"int","value":3},{"name":"fh_group","type":"int","value":1},{"name":"fh_id","type":"int","value":42},{"name":"x1","type":"int","value":117},{"name":"x2","type":"int","value":164},{"name":"y1","type":"int","value":22},{"name":"y2","type":"int","value":21},{"name":"next","type":"int","value":43},{"name":"prev","type":"int","value":52}],"polyline":[{"x":0,"y":0},{"x":47,"y":-1}]},{"id":59,"x":164,"y":21,"visible":true,"properties":[{"name":"layer","type":"int","value":3},{"name":"group","type":"int","value":1},{"name":"id","type":"int","value":43},{"name":"fh_layer","type":"int","value":3},{"name":"fh_group","type":"int","value":1},{"name":"fh_id","type":"int","value":43},{"name":"x1","type":"int","value":164},{"name":"x2","type":"int","value":214},{"name":"y1","type":"int","value":21},{"name":"y2","type":"int","value":24},{"name":"next","type":"int","value":44},{"name":"prev","type":"int","value":42}],"polyline":[{"x":0,"y":0},{"x":50,"y":3}]},{"id":60,"x":214,"y":24,"visible":true,"properties":[{"name":"layer","type":"int","value":3},{"name":"group","type":"int","value":1},{"name":"id","type":"int","value":44},{"name":"fh_layer","type":"int","value":3},{"name":"fh_group","type":"int","value":1},{"name":"fh_id","type":"int","value":44},{"name":"x1","type":"int","value":214},{"name":"x2","type":"int","value":239},{"name":"y1","type":"int","value":24},{"name":"y2","type":"int","value":26},{"name":"next","type":"int","value":55},{"name":"prev","type":"int","value":43}],"polyline":[{"x":0,"y":0},{"x":25,"y":2}]},{"id":61,"x":73,"y":-66,"visible":true,"properties":[{"name":"layer","type":"int","value":3},{"name":"group","type":"int","value":1},{"name":"id","type":"int","value":45},{"name":"fh_layer","type":"int","value":3},{"name":"fh_group","type":"int","value":1},{"name":"fh_id","type":"int","value":45},{"name":"x1","type":"int","value":73},{"name":"x2","type":"int","value":109},{"name":"y1","type":"int","value":-66},{"name":"y2","type":"int","value":-74},{"name":"next","type":"int","value":46},{"name":"prev","type":"int","value":0}],"polyline":[{"x":0,"y":0},{"x":36,"y":-8}]},{"id":62,"x":109,"y":-74,"visible":true,"properties":[{"name":"layer","type":"int","value":3},{"name":"group","type":"int","value":1},{"name":"id","type":"int","value":46},{"name":"fh_layer","type":"int","value":3},{"name":"fh_group","type":"int","value":1},{"name":"fh_id","type":"int","value":46},{"name":"x1","type":"int","value":109},{"name":"x2","type":"int","value":142},{"name":"y1","type":"int","value":-74},{"name":"y2","type":"int","value":-69},{"name":"next","type":"int","value":47},{"name":"prev","type":"int","value":45}],"polyline":[{"x":0,"y":0},{"x":33,"y":5}]},{"id":63,"x":142,"y":-69,"visible":true,"properties":[{"name":"layer","type":"int","value":3},{"name":"group","type":"int","value":1},{"name":"id","type":"int","value":47},{"name":"fh_layer","type":"int","value":3},{"name":"fh_group","type":"int","value":1},{"name":"fh_id","type":"int","value":47},{"name":"x1","type":"int","value":142},{"name":"x2","type":"int","value":193},{"name":"y1","type":"int","value":-69},{"name":"y2","type":"int","value":-49},{"name":"next","type":"int","value":48},{"name":"prev","type":"int","value":46}],"polyline":[{"x":0,"y":0},{"x":51,"y":20}]},{"id":64,"x":193,"y":-49,"visible":true,"properties":[{"name":"layer","type":"int","value":3},{"name":"group","type":"int","value":1},{"name":"id","type":"int","value":48},{"name":"fh_layer","type":"int","value":3},{"name":"fh_group","type":"int","value":1},{"name":"fh_id","type":"int","value":48},{"name":"x1","type":"int","value":193},{"name":"x2","type":"int","value":230},{"name":"y1","type":"int","value":-49},{"name":"y2","type":"int","value":-23},{"name":"next","type":"int","value":49},{"name":"prev","type":"int","value":47}],"polyline":[{"x":0,"y":0},{"x":37,"y":26}]},{"id":65,"x":230,"y":-23,"visible":true,"properties":[{"name":"layer","type":"int","value":3},{"name":"group","type":"int","value":1},{"name":"id","type":"int","value":49},{"name":"fh_layer","type":"int","value":3},{"name":"fh_group","type":"int","value":1},{"name":"fh_id","type":"int","value":49},{"name":"x1","type":"int","value":230},{"name":"x2","type":"int","value":256},{"name":"y1","type":"int","value":-23},{"name":"y2","type":"int","value":-5},{"name":"next","type":"int","value":0},{"name":"prev","type":"int","value":48}],"polyline":[{"x":0,"y":0},{"x":26,"y":18}]},{"id":66,"x":55,"y":23,"visible":true,"properties":[{"name":"layer","type":"int","value":3},{"name":"group","type":"int","value":1},{"name":"id","type":"int","value":50},{"name":"fh_layer","type":"int","value":3},{"name":"fh_group","type":"int","value":1},{"name":"fh_id","type":"int","value":50},{"name":"x1","type":"int","value":55},{"name":"x2","type":"int","value":63},{"name":"y1","type":"int","value":23},{"name":"y2","type":"int","value":28},{"name":"next","type":"int","value":41},{"name":"prev","type":"int","value":40}],"polyline":[{"x":0,"y":0},{"x":8,"y":5}]},{"id":67,"x":55,"y":23,"visible":true,"properties":[{"name":"layer","type":"int","value":3},{"name":"group","type":"int","value":1},{"name":"id","type":"int","value":51},{"name":"fh_layer","type":"int","value":3},{"name":"fh_group","type":"int","value":1},{"name":"fh_id","type":"int","value":51},{"name":"x1","type":"int","value":55},{"name":"x2","type":"int","value":114},{"name":"y1","type":"int","value":23},{"name":"y2","type":"int","value":23},{"name":"next","type":"int","value":52},{"name":"prev","type":"int","value":40}],"polyline":[{"x":0,"y":0},{"x":59,"y":0}]},{"id":68,"x":114,"y":23,"visible":true,"properties":[{"name":"layer","type":"int","value":3},{"name":"group","type":"int","value":1},{"name":"id","type":"int","value":52},{"name":"fh_layer","type":"int","value":3},{"name":"fh_group","type":"int","value":1},{"name":"fh_id","type":"int","value":52},{"name":"x1","type":"int","value":114},{"name":"x2","type":"int","value":117},{"name":"y1","type":"int","value":23},{"name":"y2","type":"int","value":22},{"name":"next","type":"int","value":42},{"name":"prev","type":"int","value":51}],"polyline":[{"x":0,"y":0},{"x":3,"y":-1}]},{"id":69,"x":114,"y":23,"visible":true,"properties":[{"name":"layer","type":"int","value":3},{"name":"group","type":"int","value":1},{"name":"id","type":"int","value":53},{"name":"fh_layer","type":"int","value":3},{"name":"fh_group","type":"int","value":1},{"name":"fh_id","type":"int","value":53},{"name":"x1","type":"int","value":114},{"name":"x2","type":"int","value":141},{"name":"y1","type":"int","value":23},{"name":"y2","type":"int","value":22},{"name":"next","type":"int","value":54},{"name":"prev","type":"int","value":51}],"polyline":[{"x":0,"y":0},{"x":27,"y":-1}]},{"id":70,"x":141,"y":22,"visible":true,"properties":[{"name":"layer","type":"int","value":3},{"name":"group","type":"int","value":1},{"name":"id","type":"int","value":54},{"name":"fh_layer","type":"int","value":3},{"name":"fh_group","type":"int","value":1},{"name":"fh_id","type":"int","value":54},{"name":"x1","type":"int","value":141},{"name":"x2","type":"int","value":239},{"name":"y1","type":"int","value":22},{"name":"y2","type":"int","value":26},{"name":"next","type":"int","value":55},{"name":"prev","type":"int","value":53}],"polyline":[{"x":0,"y":0},{"x":98,"y":4}]},{"id":71,"x":239,"y":26,"visible":true,"properties":[{"name":"layer","type":"int","value":3},{"name":"group","type":"int","value":1},{"name":"id","type":"int","value":55},{"name":"fh_layer","type":"int","value":3},{"name":"fh_group","type":"int","value":1},{"name":"fh_id","type":"int","value":55},{"name":"x1","type":"int","value":239},{"name":"x2","type":"int","value":262},{"name":"y1","type":"int","value":26},{"name":"y2","type":"int","value":27},{"name":"next","type":"int","value":56},{"name":"prev","type":"int","value":44}],"polyline":[{"x":0,"y":0},{"x":23,"y":1}]},{"id":72,"x":262,"y":27,"visible":true,"properties":[{"name":"layer","type":"int","value":3},{"name":"group","type":"int","value":1},{"name":"id","type":"int","value":56},{"name":"fh_layer","type":"int","value":3},{"name":"fh_group","type":"int","value":1},{"name":"fh_id","type":"int","value":56},{"name":"x1","type":"int","value":262},{"name":"x2","type":"int","value":266},{"name":"y1","type":"int","value":27},{"name":"y2","type":"int","value":23},{"name":"next","type":"int","value":0},{"name":"prev","type":"int","value":55}],"polyline":[{"x":0,"y":0},{"x":4,"y":-4}]},{"id":73,"x":-400,"y":-143,"visible":true,"properties":[{"name":"layer","type":"int","value":3},{"name":"group","type":"int","value":2},{"name":"id","type":"int","value":1},{"name":"fh_layer","type":"int","value":3},{"name":"fh_group","type":"int","value":2},{"name":"fh_id","type":"int","value":1},{"name":"x1","type":"int","value":-400},{"name":"x2","type":"int","value":-2},{"name":"y1","type":"int","value":-143},{"name":"y2","type":"int","value":-143},{"name":"next","type":"int","value":0},{"name":"prev","type":"int","value":0}],"polyline":[{"x":0,"y":0},{"x":398,"y":0}]},{"id":74,"x":-402,"y":150,"visible":true,"properties":[{"name":"layer","type":"int","value":5},{"name":"group","type":"int","value":0},{"name":"id","type":"int","value":57},{"name":"fh_layer","type":"int","value":5},{"name":"fh_group","type":"int","value":0},{"name":"fh_id","type":"int","value":57},{"name":"x1","type":"int","value":-402},{"name":"x2","type":"int","value":-249},{"name":"y1","type":"int","value":150},{"name":"y2","type":"int","value":150},{"name":"next","type":"int","value":58},{"name":"prev","type":"int","value":0}],"polyline":[{"x":0,"y":0},{"x":153,"y":0}]},{"id":75,"x":-249,"y":150,"visible":true,"properties":[{"name":"layer","type":"int","value":5},{"name":"group","type":"int","value":0},{"name":"id","type":"int","value":58},{"name":"fh_layer","type":"int","value":5},{"name":"fh_group","type":"int","value":0},{"name":"fh_id","type":"int","value":58},{"name":"x1","type":"int","value":-249},{"name":"x2","type":"int","value":-100},{"name":"y1","type":"int","value":150},{"name":"y2","type":"int","value":150},{"name":"next","type":"int","value":59},{"name":"prev","type":"int","value":57}],"polyline":[{"x":0,"y":0},{"x":149,"y":0}]},{"id":76,"x":-100,"y":150,"visible":true,"properties":[{"name":"layer","type":"int","value":5},{"name":"group","type":"int","value":0},{"name":"id","type":"int","value":59},{"name":"fh_layer","type":"int","value":5},{"name":"fh_group","type":"int","value":0},{"name":"fh_id","type":"int","value":59},{"name":"x1","type":"int","value":-100},{"name":"x2","type":"int","value":49},{"name":"y1","type":"int","value":150},{"name":"y2","type":"int","value":150},{"name":"next","type":"int","value":60},{"name":"prev","type":"int","value":58}],"polyline":[{"x":0,"y":0},{"x":149,"y":0}]},{"id":77,"x":49,"y":150,"visible":true,"properties":[{"name":"layer","type":"int","value":5},{"name":"group","type":"int","value":0},{"name":"id","type":"int","value":60},{"name":"fh_layer","type":"int","value":5},{"name":"fh_group","type":"int","value":0},{"name":"fh_id","type":"int","value":60},{"name":"x1","type":"int","value":49},{"name":"x2","type":"int","value":198},{"name":"y1","type":"int","value":150},{"name":"y2","type":"int","value":150},{"name":"next","type":"int","value":61},{"name":"prev","type":"int","value":59}],"polyline":[{"x":0,"y":0},{"x":149,"y":0}]},{"id":78,"x":198,"y":150,"visible":true,"properties":[{"name":"layer","type":"int","value":5},{"name":"group","type":"int","value":0},{"name":"id","type":"int","value":61},{"name":"fh_layer","type":"int","value":5},{"name":"fh_group","type":"int","value":0},{"name":"fh_id","type":"int","value":61},{"name":"x1","type":"int","value":198},{"name":"x2","type":"int","value":347},{"name":"y1","type":"int","value":150},{"name":"y2","type":"int","value":150},{"name":"next","type":"int","value":62},{"name":"prev","type":"int","value":60}],"polyline":[{"x":0,"y":0},{"x":149,"y":0}]},{"id":79,"x":347,"y":150,"visible":true,"properties":[{"name":"layer","type":"int","value":5},{"name":"group","type":"int","value":0},{"name":"id","type":"int","value":62},{"name":"fh_layer","type":"int","value":5},{"name":"fh_group","type":"int","value":0},{"name":"fh_id","type":"int","value":62},{"name":"x1","type":"int","value":347},{"name":"x2","type":"int","value":496},{"name":"y1","type":"int","value":150},{"name":"y2","type":"int","value":150},{"name":"next","type":"int","value":63},{"name":"prev","type":"int","value":61}],"polyline":[{"x":0,"y":0},{"x":149,"y":0}]},{"id":80,"x":496,"y":150,"visible":true,"properties":[{"name":"layer","type":"int","value":5},{"name":"group","type":"int","value":0},{"name":"id","type":"int","value":63},{"name":"fh_layer","type":"int","value":5},{"name":"fh_group","type":"int","value":0},{"name":"fh_id","type":"int","value":63},{"name":"x1","type":"int","value":496},{"name":"x2","type":"int","value":601},{"name":"y1","type":"int","value":150},{"name":"y2","type":"int","value":150},{"name":"next","type":"int","value":0},{"name":"prev","type":"int","value":62}],"polyline":[{"x":0,"y":0},{"x":105,"y":0}]}],"properties":[]},{"id":6,"name":"ladderRope","type":"objectgroup","visible":true,"opacity":1,"draworder":"index","offsetx":0,"offsety":0,"parallaxx":1,"parallaxy":1,"objects":[{"id":81,"x":-66,"y":-141,"visible":true,"properties":[{"name":"ladder_id","type":"int","value":1},{"name":"l","type":"int","value":1},{"name":"x","type":"int","value":-66},{"name":"uf","type":"int","value":1},{"name":"y1","type":"int","value":-141},{"name":"y2","type":"int","value":123},{"name":"page","type":"int","value":3}],"polyline":[{"x":0,"y":0},{"x":0,"y":264}]}],"properties":[]}],"tilesets":[{"firstgid":1,"source":"../tilesets/obj_acc9_inside_ani.tsj"},{"firstgid":4,"source":"../tilesets/obj_acc9_inside_etc.tsj"},{"firstgid":8,"source":"../tilesets/obj_connect_ladder_56.tsj"},{"firstgid":11,"source":"../tilesets/obj_acc9_inside_dining.tsj"},{"firstgid":13,"source":"../tilesets/portal_MapHelper.img_portal_game_pv.tsj"}],"properties":[{"name":"bgm","type":"string","value":"Bgm15/inNautilus"},{"name":"swim","type":"int","value":0},{"name":"town","type":"int","value":1},{"name":"VRTop","type":"int","value":-300},{"name":"cloud","type":"int","value":0},{"name":"VRLeft","type":"int","value":-405},{"name":"VRRight","type":"int","value":595},{"name":"mapMark","type":"string","value":"Nautilus"},{"name":"mobRate","type":"float","value":1},{"name":"version","type":"int","value":10},{"name":"VRBottom","type":"int","value":300},{"name":"returnMap","type":"int","value":120000000},{"name":"fieldLimit","type":"int","value":8},{"name":"hideMinimap","type":"int","value":0},{"name":"forcedReturn","type":"int","value":999999999}]}