{"type":"map","orientation":"orthogonal","renderorder":"right-down","infinite":false,"tilewidth":1,"tileheight":1,"width":810,"height":600,"nextlayerid":6,"nextobjectid":47,"layers":[{"id":1,"name":"layer_1_obj","type":"objectgroup","visible":true,"opacity":1,"objects":[{"id":34,"x":56,"y":261,"visible":true,"properties":[{"name":"layer","type":"int","value":1},{"name":"resource_index","type":"int","value":0},{"name":"oS","type":"string","value":"acc2"},{"name":"l0","type":"string","value":"darkSwamp"},{"name":"l1","type":"string","value":"artificiality"},{"name":"l2","type":"string","value":"5"},{"name":"z","type":"int","value":9},{"name":"zM","type":"int","value":0},{"name":"f","type":"int","value":0}],"gid":12,"width":407,"height":393}]},{"id":2,"name":"layer_1_tile","type":"objectgroup","visible":true,"opacity":1,"objects":[{"id":1,"x":450,"y":265,"visible":true,"properties":[{"name":"layer","type":"int","value":1},{"name":"resource_index","type":"int","value":0},{"name":"u","type":"string","value":"enH1"},{"name":"no","type":"int","value":0},{"name":"zM","type":"int","value":0}],"gid":1,"width":90,"height":25},{"id":2,"x":360,"y":265,"visible":true,"properties":[{"name":"layer","type":"int","value":1},{"name":"resource_index","type":"int","value":1},{"name":"u","type":"string","value":"enH1"},{"name":"no","type":"int","value":0},{"name":"zM","type":"int","value":0}],"gid":1,"width":90,"height":25},{"id":3,"x":270,"y":265,"visible":true,"properties":[{"name":"layer","type":"int","value":1},{"name":"resource_index","type":"int","value":2},{"name":"u","type":"string","value":"enH1"},{"name":"no","type":"int","value":0},{"name":"zM","type":"int","value":0}],"gid":1,"width":90,"height":25},{"id":4,"x":360,"y":180,"visible":true,"properties":[{"name":"layer","type":"int","value":1},{"name":"resource_index","type":"int","value":3},{"name":"u","type":"string","value":"enH0"},{"name":"no","type":"int","value":0},{"name":"zM","type":"int","value":0}],"gid":2,"width":90,"height":25},{"id":5,"x":450,"y":180,"visible":true,"properties":[{"name":"layer","type":"int","value":1},{"name":"resource_index","type":"int","value":4},{"name":"u","type":"string","value":"enH0"},{"name":"no","type":"int","value":0},{"name":"zM","type":"int","value":0}],"gid":2,"width":90,"height":25},{"id":6,"x":540,"y":265,"visible":true,"properties":[{"name":"layer","type":"int","value":1},{"name":"resource_index","type":"int","value":5},{"name":"u","type":"string","value":"enH1"},{"name":"no","type":"int","value":0},{"name":"zM","type":"int","value":0}],"gid":1,"width":90,"height":25},{"id":7,"x":-90,"y":240,"visible":true,"properties":[{"name":"layer","type":"int","value":1},{"name":"resource_index","type":"int","value":6},{"name":"u","type":"string","value":"bsc"},{"name":"no","type":"int","value":0},{"name":"zM","type":"int","value":0}],"gid":5,"width":90,"height":60},{"id":8,"x":-90,"y":180,"visible":true,"properties":[{"name":"layer","type":"int","value":1},{"name":"resource_index","type":"int","value":7},{"name":"u","type":"string","value":"enH0"},{"name":"no","type":"int","value":0},{"name":"zM","type":"int","value":0}],"gid":2,"width":90,"height":25},{"id":9,"x":0,"y":240,"visible":true,"properties":[{"name":"layer","type":"int","value":1},{"name":"resource_index","type":"int","value":8},{"name":"u","type":"string","value":"bsc"},{"name":"no","type":"int","value":0},{"name":"zM","type":"int","value":0}],"gid":5,"width":90,"height":60},{"id":10,"x":0,"y":180,"visible":true,"properties":[{"name":"layer","type":"int","value":1},{"name":"resource_index","type":"int","value":9},{"name":"u","type":"string","value":"enH0"},{"name":"no","type":"int","value":0},{"name":"zM","type":"int","value":0}],"gid":2,"width":90,"height":25},{"id":11,"x":90,"y":240,"visible":true,"properties":[{"name":"layer","type":"int","value":1},{"name":"resource_index","type":"int","value":10},{"name":"u","type":"string","value":"bsc"},{"name":"no","type":"int","value":0},{"name":"zM","type":"int","value":0}],"gid":5,"width":90,"height":60},{"id":12,"x":90,"y":180,"visible":true,"properties":[{"name":"layer","type":"int","value":1},{"name":"resource_index","type":"int","value":11},{"name":"u","type":"string","value":"enH0"},{"name":"no","type":"int","value":0},{"name":"zM","type":"int","value":0}],"gid":2,"width":90,"height":25},{"id":13,"x":180,"y":240,"visible":true,"properties":[{"name":"layer","type":"int","value":1},{"name":"resource_index","type":"int","value":12},{"name":"u","type":"string","value":"bsc"},{"name":"no","type":"int","value":0},{"name":"zM","type":"int","value":0}],"gid":5,"width":90,"height":60},{"id":14,"x":180,"y":180,"visible":true,"properties":[{"name":"layer","type":"int","value":1},{"name":"resource_index","type":"int","value":13},{"name":"u","type":"string","value":"enH0"},{"name":"no","type":"int","value":0},{"name":"zM","type":"int","value":0}],"gid":2,"width":90,"height":25},{"id":15,"x":-180,"y":180,"visible":true,"properties":[{"name":"layer","type":"int","value":1},{"name":"resource_index","type":"int","value":14},{"name":"u","type":"string","value":"enH0"},{"name":"no","type":"int","value":0},{"name":"zM","type":"int","value":0}],"gid":2,"width":90,"height":25},{"id":16,"x":360,"y":240,"visible":true,"properties":[{"name":"layer","type":"int","value":1},{"name":"resource_index","type":"int","value":15},{"name":"u","type":"string","value":"bsc"},{"name":"no","type":"int","value":0},{"name":"zM","type":"int","value":0}],"gid":5,"width":90,"height":60},{"id":17,"x":270,"y":180,"visible":true,"properties":[{"name":"layer","type":"int","value":1},{"name":"resource_index","type":"int","value":16},{"name":"u","type":"string","value":"enH0"},{"name":"no","type":"int","value":0},{"name":"zM","type":"int","value":0}],"gid":2,"width":90,"height":25},{"id":18,"x":270,"y":240,"visible":true,"properties":[{"name":"layer","type":"int","value":1},{"name":"resource_index","type":"int","value":17},{"name":"u","type":"string","value":"bsc"},{"name":"no","type":"int","value":0},{"name":"zM","type":"int","value":0}],"gid":5,"width":90,"height":60},{"id":19,"x":450,"y":240,"visible":true,"properties":[{"name":"layer","type":"int","value":1},{"name":"resource_index","type":"int","value":18},{"name":"u","type":"string","value":"bsc"},{"name":"no","type":"int","value":0},{"name":"zM","type":"int","value":0}],"gid":5,"width":90,"height":60},{"id":20,"x":180,"y":265,"visible":true,"properties":[{"name":"layer","type":"int","value":1},{"name":"resource_index","type":"int","value":19},{"name":"u","type":"string","value":"enH1"},{"name":"no","type":"int","value":0},{"name":"zM","type":"int","value":0}],"gid":1,"width":90,"height":25},{"id":21,"x":-90,"y":325,"visible":true,"properties":[{"name":"layer","type":"int","value":1},{"name":"resource_index","type":"int","value":20},{"name":"u","type":"string","value":"enH1"},{"name":"no","type":"int","value":0},{"name":"zM","type":"int","value":0}],"gid":1,"width":90,"height":25},{"id":22,"x":0,"y":325,"visible":true,"properties":[{"name":"layer","type":"int","value":1},{"name":"resource_index","type":"int","value":21},{"name":"u","type":"string","value":"enH1"},{"name":"no","type":"int","value":0},{"name":"zM","type":"int","value":0}],"gid":1,"width":90,"height":25},{"id":23,"x":-115,"y":240,"visible":true,"properties":[{"name":"layer","type":"int","value":1},{"name":"resource_index","type":"int","value":22},{"name":"u","type":"string","value":"enV0"},{"name":"no","type":"int","value":0},{"name":"zM","type":"int","value":0}],"gid":6,"width":25,"height":60},{"id":24,"x":65,"y":325,"visible":true,"properties":[{"name":"layer","type":"int","value":1},{"name":"resource_index","type":"int","value":23},{"name":"u","type":"string","value":"edD"},{"name":"no","type":"int","value":0},{"name":"zM","type":"int","value":0}],"gid":3,"width":50,"height":25},{"id":25,"x":-115,"y":265,"visible":true,"properties":[{"name":"layer","type":"int","value":1},{"name":"resource_index","type":"int","value":24},{"name":"u","type":"string","value":"edD"},{"name":"no","type":"int","value":0},{"name":"zM","type":"int","value":0}],"gid":3,"width":50,"height":25},{"id":26,"x":-115,"y":325,"visible":true,"properties":[{"name":"layer","type":"int","value":1},{"name":"resource_index","type":"int","value":25},{"name":"u","type":"string","value":"edD"},{"name":"no","type":"int","value":0},{"name":"zM","type":"int","value":0}],"gid":3,"width":50,"height":25},{"id":27,"x":0,"y":300,"visible":true,"properties":[{"name":"layer","type":"int","value":1},{"name":"resource_index","type":"int","value":26},{"name":"u","type":"string","value":"bsc"},{"name":"no","type":"int","value":0},{"name":"zM","type":"int","value":0}],"gid":5,"width":90,"height":60},{"id":28,"x":90,"y":265,"visible":true,"properties":[{"name":"layer","type":"int","value":1},{"name":"resource_index","type":"int","value":27},{"name":"u","type":"string","value":"enH1"},{"name":"no","type":"int","value":0},{"name":"zM","type":"int","value":0}],"gid":1,"width":90,"height":25},{"id":29,"x":540,"y":180,"visible":true,"properties":[{"name":"layer","type":"int","value":1},{"name":"resource_index","type":"int","value":28},{"name":"u","type":"string","value":"enH0"},{"name":"no","type":"int","value":0},{"name":"zM","type":"int","value":0}],"gid":2,"width":90,"height":25},{"id":30,"x":-180,"y":205,"visible":true,"properties":[{"name":"layer","type":"int","value":1},{"name":"resource_index","type":"int","value":29},{"name":"u","type":"string","value":"enH1"},{"name":"no","type":"int","value":0},{"name":"zM","type":"int","value":0}],"gid":1,"width":90,"height":25},{"id":31,"x":90,"y":300,"visible":true,"properties":[{"name":"layer","type":"int","value":1},{"name":"resource_index","type":"int","value":30},{"name":"u","type":"string","value":"enV1"},{"name":"no","type":"int","value":0},{"name":"zM","type":"int","value":0}],"gid":7,"width":25,"height":60},{"id":32,"x":-90,"y":265,"visible":true,"properties":[{"name":"layer","type":"int","value":1},{"name":"resource_index","type":"int","value":31},{"name":"u","type":"string","value":"enH1"},{"name":"no","type":"int","value":0},{"name":"zM","type":"int","value":0}],"gid":1,"width":90,"height":25},{"id":33,"x":540,"y":240,"visible":true,"properties":[{"name":"layer","type":"int","value":1},{"name":"resource_index","type":"int","value":32},{"name":"u","type":"string","value":"bsc"},{"name":"no","type":"int","value":0},{"name":"zM","type":"int","value":0}],"gid":5,"width":90,"height":60}]},{"id":3,"name":"portal","type":"objectgroup","visible":true,"opacity":1,"objects":[{"id":35,"x":0,"y":0,"visible":true,"properties":[{"name":"x","type":"int","value":0},{"name":"y","type":"int","value":0},{"name":"pn","type":"string","value":"sp"},{"name":"pt","type":"int","value":0},{"name":"tm","type":"int","value":999999999},{"name":"tn","type":"string","value":""}],"point":true},{"id":36,"x":-79,"y":151,"visible":true,"properties":[{"name":"x","type":"int","value":-79},{"name":"y","type":"int","value":151},{"name":"pn","type":"string","value":"out00"},{"name":"pt","type":"int","value":2},{"name":"tm","type":"int","value":107000300},{"name":"tn","type":"string","value":"in00"}],"point":true}]},{"id":4,"name":"life","type":"objectgroup","visible":true,"opacity":1,"objects":[{"id":37,"x":274,"y":153,"visible":true,"properties":[{"name":"f","type":"int","value":0},{"name":"x","type":"int","value":274},{"name":"y","type":"int","value":153},{"name":"cy","type":"int","value":155},{"name":"fh","type":"int","value":8},{"name":"id","type":"int","value":1052108},{"name":"rx0","type":"int","value":224},{"name":"rx1","type":"int","value":324},{"name":"hide","type":"int","value":1},{"name":"type","type":"string","value":"n"},{"name":"mobTime","type":"int","value":0}],"point":true}]},{"id":5,"name":"foothold","type":"objectgroup","visible":true,"opacity":1,"objects":[{"id":38,"x":360,"y":155,"visible":true,"properties":[{"name":"layer","type":"int","value":1},{"name":"group","type":"int","value":0},{"name":"id","type":"int","value":1},{"name":"fh_layer","type":"int","value":1},{"name":"fh_group","type":"int","value":0},{"name":"fh_id","type":"int","value":1},{"name":"x1","type":"int","value":360},{"name":"x2","type":"int","value":450},{"name":"y1","type":"int","value":155},{"name":"y2","type":"int","value":155},{"name":"next","type":"int","value":2},{"name":"prev","type":"int","value":8}],"polyline":[{"x":0,"y":0},{"x":90,"y":0}]},{"id":39,"x":450,"y":155,"visible":true,"properties":[{"name":"layer","type":"int","value":1},{"name":"group","type":"int","value":0},{"name":"id","type":"int","value":2},{"name":"fh_layer","type":"int","value":1},{"name":"fh_group","type":"int","value":0},{"name":"fh_id","type":"int","value":2},{"name":"x1","type":"int","value":450},{"name":"x2","type":"int","value":540},{"name":"y1","type":"int","value":155},{"name":"y2","type":"int","value":155},{"name":"next","type":"int","value":9},{"name":"prev","type":"int","value":1}],"polyline":[{"x":0,"y":0},{"x":90,"y":0}]},{"id":40,"x":-90,"y":155,"visible":true,"properties":[{"name":"layer","type":"int","value":1},{"name":"group","type":"int","value":0},{"name":"id","type":"int","value":3},{"name":"fh_layer","type":"int","value":1},{"name":"fh_group","type":"int","value":0},{"name":"fh_id","type":"int","value":3},{"name":"x1","type":"int","value":-90},{"name":"x2","type":"int","value":0},{"name":"y1","type":"int","value":155},{"name":"y2","type":"int","value":155},{"name":"next","type":"int","value":4},{"name":"prev","type":"int","value":7}],"polyline":[{"x":0,"y":0},{"x":90,"y":0}]},{"id":41,"x":0,"y":155,"visible":true,"properties":[{"name":"layer","type":"int","value":1},{"name":"group","type":"int","value":0},{"name":"id","type":"int","value":4},{"name":"fh_layer","type":"int","value":1},{"name":"fh_group","type":"int","value":0},{"name":"fh_id","type":"int","value":4},{"name":"x1","type":"int","value":0},{"name":"x2","type":"int","value":90},{"name":"y1","type":"int","value":155},{"name":"y2","type":"int","value":155},{"name":"next","type":"int","value":5},{"name":"prev","type":"int","value":3}],"polyline":[{"x":0,"y":0},{"x":90,"y":0}]},{"id":42,"x":90,"y":155,"visible":true,"properties":[{"name":"layer","type":"int","value":1},{"name":"group","type":"int","value":0},{"name":"id","type":"int","value":5},{"name":"fh_layer","type":"int","value":1},{"name":"fh_group","type":"int","value":0},{"name":"fh_id","type":"int","value":5},{"name":"x1","type":"int","value":90},{"name":"x2","type":"int","value":180},{"name":"y1","type":"int","value":155},{"name":"y2","type":"int","value":155},{"name":"next","type":"int","value":6},{"name":"prev","type":"int","value":4}],"polyline":[{"x":0,"y":0},{"x":90,"y":0}]},{"id":43,"x":180,"y":155,"visible":true,"properties":[{"name":"layer","type":"int","value":1},{"name":"group","type":"int","value":0},{"name":"id","type":"int","value":6},{"name":"fh_layer","type":"int","value":1},{"name":"fh_group","type":"int","value":0},{"name":"fh_id","type":"int","value":6},{"name":"x1","type":"int","value":180},{"name":"x2","type":"int","value":270},{"name":"y1","type":"int","value":155},{"name":"y2","type":"int","value":155},{"name":"next","type":"int","value":8},{"name":"prev","type":"int","value":5}],"polyline":[{"x":0,"y":0},{"x":90,"y":0}]},{"id":44,"x":-180,"y":155,"visible":true,"properties":[{"name":"layer","type":"int","value":1},{"name":"group","type":"int","value":0},{"name":"id","type":"int","value":7},{"name":"fh_layer","type":"int","value":1},{"name":"fh_group","type":"int","value":0},{"name":"fh_id","type":"int","value":7},{"name":"x1","type":"int","value":-180},{"name":"x2","type":"int","value":-90},{"name":"y1","type":"int","value":155},{"name":"y2","type":"int","value":155},{"name":"next","type":"int","value":3},{"name":"prev","type":"int","value":0}],"polyline":[{"x":0,"y":0},{"x":90,"y":0}]},{"id":45,"x":270,"y":155,"visible":true,"properties":[{"name":"layer","type":"int","value":1},{"name":"group","type":"int","value":0},{"name":"id","type":"int","value":8},{"name":"fh_layer","type":"int","value":1},{"name":"fh_group","type":"int","value":0},{"name":"fh_id","type":"int","value":8},{"name":"x1","type":"int","value":270},{"name":"x2","type":"int","value":360},{"name":"y1","type":"int","value":155},{"name":"y2","type":"int","value":155},{"name":"next","type":"int","value":1},{"name":"prev","type":"int","value":6}],"polyline":[{"x":0,"y":0},{"x":90,"y":0}]},{"id":46,"x":540,"y":155,"visible":true,"properties":[{"name":"layer","type":"int","value":1},{"name":"group","type":"int","value":0},{"name":"id","type":"int","value":9},{"name":"fh_layer","type":"int","value":1},{"name":"fh_group","type":"int","value":0},{"name":"fh_id","type":"int","value":9},{"name":"x1","type":"int","value":540},{"name":"x2","type":"int","value":630},{"name":"y1","type":"int","value":155},{"name":"y2","type":"int","value":155},{"name":"next","type":"int","value":0},{"name":"prev","type":"int","value":2}],"polyline":[{"x":0,"y":0},{"x":90,"y":0}]}]}],"tilesets":[{"firstgid":1,"source":"../../tilesets/tile_blackTile.tsj"},{"firstgid":8,"source":"../../tilesets/obj_acc2_darkSwamp_artificiality.tsj"}],"properties":[{"name":"bgm","type":"string","value":"Bgm02/JungleBook"},{"name":"swim","type":"int","value":0},{"name":"town","type":"int","value":0},{"name":"VRTop","type":"int","value":-300},{"name":"cloud","type":"int","value":0},{"name":"VRLeft","type":"int","value":-180},{"name":"VRRight","type":"int","value":630},{"name":"mapMark","type":"string","value":"KerningCity"},{"name":"mobRate","type":"float","value":1},{"name":"version","type":"int","value":10},{"name":"VRBottom","type":"int","value":300},{"name":"returnMap","type":"int","value":103000000},{"name":"fieldLimit","type":"int","value":4},{"name":"hideMinimap","type":"int","value":0},{"name":"forcedReturn","type":"int","value":999999999}]}