{"type":"map","orientation":"orthogonal","renderorder":"right-down","infinite":false,"tilewidth":1,"tileheight":1,"width":895,"height":595,"nextlayerid":6,"nextobjectid":41,"layers":[{"id":1,"name":"layer_3_obj","type":"objectgroup","visible":true,"opacity":1,"objects":[{"id":1,"x":-401,"y":149,"visible":true,"properties":[{"name":"layer","type":"int","value":3},{"name":"resource_index","type":"int","value":0},{"name":"oS","type":"string","value":"acc9"},{"name":"l0","type":"string","value":"inside"},{"name":"l1","type":"string","value":"back"},{"name":"l2","type":"string","value":"0"},{"name":"z","type":"int","value":9},{"name":"zM","type":"int","value":3},{"name":"f","type":"int","value":0}],"gid":14,"width":300,"height":450},{"id":2,"x":-101,"y":149,"visible":true,"properties":[{"name":"layer","type":"int","value":3},{"name":"resource_index","type":"int","value":1},{"name":"oS","type":"string","value":"acc9"},{"name":"l0","type":"string","value":"inside"},{"name":"l1","type":"string","value":"back"},{"name":"l2","type":"string","value":"1"},{"name":"z","type":"int","value":9},{"name":"zM","type":"int","value":1},{"name":"f","type":"int","value":0}],"gid":15,"width":300,"height":450},{"id":3,"x":199,"y":150,"visible":true,"properties":[{"name":"layer","type":"int","value":3},{"name":"resource_index","type":"int","value":2},{"name":"oS","type":"string","value":"acc9"},{"name":"l0","type":"string","value":"inside"},{"name":"l1","type":"string","value":"back"},{"name":"l2","type":"string","value":"0"},{"name":"z","type":"int","value":9},{"name":"zM","type":"int","value":2},{"name":"f","type":"int","value":0}],"gid":14,"width":300,"height":450},{"id":4,"x":271,"y":150,"visible":true,"properties":[{"name":"layer","type":"int","value":3},{"name":"resource_index","type":"int","value":3},{"name":"oS","type":"string","value":"acc9"},{"name":"l0","type":"string","value":"inside"},{"name":"l1","type":"string","value":"exit"},{"name":"l2","type":"string","value":"2"},{"name":"z","type":"int","value":10},{"name":"zM","type":"int","value":2},{"name":"f","type":"int","value":0}],"gid":16,"width":221,"height":256},{"id":5,"x":-18,"y":-33,"visible":true,"properties":[{"name":"layer","type":"int","value":3},{"name":"resource_index","type":"int","value":4},{"name":"oS","type":"string","value":"acc9"},{"name":"l0","type":"string","value":"inside"},{"name":"l1","type":"string","value":"window"},{"name":"l2","type":"string","value":"1"},{"name":"z","type":"int","value":10},{"name":"zM","type":"int","value":1},{"name":"f","type":"int","value":0}],"gid":21,"width":197,"height":190},{"id":6,"x":-266,"y":150,"visible":true,"properties":[{"name":"layer","type":"int","value":3},{"name":"resource_index","type":"int","value":5},{"name":"oS","type":"string","value":"acc9"},{"name":"l0","type":"string","value":"inside"},{"name":"l1","type":"string","value":"oak"},{"name":"l2","type":"string","value":"3"},{"name":"z","type":"int","value":11},{"name":"zM","type":"int","value":3},{"name":"f","type":"int","value":0}],"gid":8,"width":197,"height":194},{"id":7,"x":-319,"y":-33,"visible":true,"properties":[{"name":"layer","type":"int","value":3},{"name":"resource_index","type":"int","value":6},{"name":"oS","type":"string","value":"acc9"},{"name":"l0","type":"string","value":"inside"},{"name":"l1","type":"string","value":"window"},{"name":"l2","type":"string","value":"0"},{"name":"z","type":"int","value":10},{"name":"zM","type":"int","value":3},{"name":"f","type":"int","value":0}],"gid":20,"width":197,"height":190},{"id":8,"x":-332,"y":150,"visible":true,"properties":[{"name":"layer","type":"int","value":3},{"name":"resource_index","type":"int","value":7},{"name":"oS","type":"string","value":"acc9"},{"name":"l0","type":"string","value":"inside"},{"name":"l1","type":"string","value":"oak"},{"name":"l2","type":"string","value":"2"},{"name":"z","type":"int","value":10},{"name":"zM","type":"int","value":3},{"name":"f","type":"int","value":0}],"gid":9,"width":197,"height":102},{"id":9,"x":154,"y":-53,"visible":true,"properties":[{"name":"layer","type":"int","value":3},{"name":"resource_index","type":"int","value":8},{"name":"oS","type":"string","value":"acc9"},{"name":"l0","type":"string","value":"inside"},{"name":"l1","type":"string","value":"ani"},{"name":"l2","type":"string","value":"1"},{"name":"z","type":"int","value":10},{"name":"zM","type":"int","value":1},{"name":"f","type":"int","value":0}],"gid":1,"width":69,"height":133},{"id":10,"x":54,"y":150,"visible":true,"properties":[{"name":"layer","type":"int","value":3},{"name":"resource_index","type":"int","value":9},{"name":"oS","type":"string","value":"acc9"},{"name":"l0","type":"string","value":"inside"},{"name":"l1","type":"string","value":"etc"},{"name":"l2","type":"string","value":"3"},{"name":"z","type":"int","value":10},{"name":"zM","type":"int","value":1},{"name":"f","type":"int","value":0}],"gid":7,"width":138,"height":98}]},{"id":2,"name":"layer_5_obj","type":"objectgroup","visible":true,"opacity":1,"objects":[{"id":11,"x":-401,"y":299,"visible":true,"properties":[{"name":"layer","type":"int","value":5},{"name":"resource_index","type":"int","value":0},{"name":"oS","type":"string","value":"acc9"},{"name":"l0","type":"string","value":"inside"},{"name":"l1","type":"string","value":"etc"},{"name":"l2","type":"string","value":"0"},{"name":"z","type":"int","value":9},{"name":"zM","type":"int","value":0},{"name":"f","type":"int","value":0}],"gid":4,"width":150,"height":150},{"id":12,"x":-252,"y":299,"visible":true,"properties":[{"name":"layer","type":"int","value":5},{"name":"resource_index","type":"int","value":1},{"name":"oS","type":"string","value":"acc9"},{"name":"l0","type":"string","value":"inside"},{"name":"l1","type":"string","value":"etc"},{"name":"l2","type":"string","value":"0"},{"name":"z","type":"int","value":9},{"name":"zM","type":"int","value":0},{"name":"f","type":"int","value":0}],"gid":4,"width":150,"height":150},{"id":13,"x":-103,"y":299,"visible":true,"properties":[{"name":"layer","type":"int","value":5},{"name":"resource_index","type":"int","value":2},{"name":"oS","type":"string","value":"acc9"},{"name":"l0","type":"string","value":"inside"},{"name":"l1","type":"string","value":"etc"},{"name":"l2","type":"string","value":"0"},{"name":"z","type":"int","value":9},{"name":"zM","type":"int","value":0},{"name":"f","type":"int","value":0}],"gid":4,"width":150,"height":150},{"id":14,"x":46,"y":299,"visible":true,"properties":[{"name":"layer","type":"int","value":5},{"name":"resource_index","type":"int","value":3},{"name":"oS","type":"string","value":"acc9"},{"name":"l0","type":"string","value":"inside"},{"name":"l1","type":"string","value":"etc"},{"name":"l2","type":"string","value":"0"},{"name":"z","type":"int","value":9},{"name":"zM","type":"int","value":0},{"name":"f","type":"int","value":0}],"gid":4,"width":150,"height":150},{"id":15,"x":195,"y":299,"visible":true,"properties":[{"name":"layer","type":"int","value":5},{"name":"resource_index","type":"int","value":4},{"name":"oS","type":"string","value":"acc9"},{"name":"l0","type":"string","value":"inside"},{"name":"l1","type":"string","value":"etc"},{"name":"l2","type":"string","value":"0"},{"name":"z","type":"int","value":9},{"name":"zM","type":"int","value":0},{"name":"f","type":"int","value":0}],"gid":4,"width":150,"height":150},{"id":16,"x":344,"y":299,"visible":true,"properties":[{"name":"layer","type":"int","value":5},{"name":"resource_index","type":"int","value":5},{"name":"oS","type":"string","value":"acc9"},{"name":"l0","type":"string","value":"inside"},{"name":"l1","type":"string","value":"etc"},{"name":"l2","type":"string","value":"0"},{"name":"z","type":"int","value":9},{"name":"zM","type":"int","value":0},{"name":"f","type":"int","value":0}],"gid":4,"width":150,"height":150},{"id":17,"x":349,"y":299,"visible":true,"properties":[{"name":"layer","type":"int","value":5},{"name":"resource_index","type":"int","value":6},{"name":"oS","type":"string","value":"acc9"},{"name":"l0","type":"string","value":"inside"},{"name":"l1","type":"string","value":"etc"},{"name":"l2","type":"string","value":"0"},{"name":"z","type":"int","value":9},{"name":"zM","type":"int","value":0},{"name":"f","type":"int","value":0}],"gid":4,"width":150,"height":150}]},{"id":3,"name":"portal","type":"objectgroup","visible":true,"opacity":1,"objects":[{"id":18,"x":8,"y":66,"visible":true,"properties":[{"name":"x","type":"int","value":8},{"name":"y","type":"int","value":66},{"name":"pn","type":"string","value":"sp"},{"name":"pt","type":"int","value":0},{"name":"tm","type":"int","value":999999999},{"name":"tn","type":"string","value":""}],"point":true},{"id":19,"x":381,"y":149,"visible":true,"properties":[{"name":"x","type":"int","value":381},{"name":"y","type":"int","value":149},{"name":"pn","type":"string","value":"ao01"},{"name":"pt","type":"int","value":2},{"name":"tm","type":"int","value":120000100},{"name":"tn","type":"string","value":"ai01"}],"point":true}]},{"id":4,"name":"life","type":"objectgroup","visible":true,"opacity":1,"objects":[{"id":20,"x":9,"y":143,"visible":true,"properties":[{"name":"f","type":"int","value":0},{"name":"x","type":"int","value":9},{"name":"y","type":"int","value":143},{"name":"cy","type":"int","value":150},{"name":"fh","type":"int","value":16},{"name":"id","type":"int","value":1092019},{"name":"rx0","type":"int","value":-41},{"name":"rx1","type":"int","value":59},{"name":"hide","type":"int","value":0},{"name":"type","type":"string","value":"n"},{"name":"mobTime","type":"int","value":0}],"point":true}]},{"id":5,"name":"foothold","type":"objectgroup","visible":true,"opacity":1,"objects":[{"id":21,"x":27,"y":-101,"visible":true,"properties":[{"name":"layer","type":"int","value":3},{"name":"group","type":"int","value":1},{"name":"id","type":"int","value":1},{"name":"fh_layer","type":"int","value":3},{"name":"fh_group","type":"int","value":1},{"name":"fh_id","type":"int","value":1},{"name":"x1","type":"int","value":27},{"name":"x2","type":"int","value":45},{"name":"y1","type":"int","value":-101},{"name":"y2","type":"int","value":-84},{"name":"next","type":"int","value":2},{"name":"prev","type":"int","value":0}],"polyline":[{"x":0,"y":0},{"x":18,"y":17}]},{"id":22,"x":45,"y":-84,"visible":true,"properties":[{"name":"layer","type":"int","value":3},{"name":"group","type":"int","value":1},{"name":"id","type":"int","value":2},{"name":"fh_layer","type":"int","value":3},{"name":"fh_group","type":"int","value":1},{"name":"fh_id","type":"int","value":2},{"name":"x1","type":"int","value":45},{"name":"x2","type":"int","value":64},{"name":"y1","type":"int","value":-84},{"name":"y2","type":"int","value":-80},{"name":"next","type":"int","value":3},{"name":"prev","type":"int","value":1}],"polyline":[{"x":0,"y":0},{"x":19,"y":4}]},{"id":23,"x":64,"y":-80,"visible":true,"properties":[{"name":"layer","type":"int","value":3},{"name":"group","type":"int","value":1},{"name":"id","type":"int","value":3},{"name":"fh_layer","type":"int","value":3},{"name":"fh_group","type":"int","value":1},{"name":"fh_id","type":"int","value":3},{"name":"x1","type":"int","value":64},{"name":"x2","type":"int","value":94},{"name":"y1","type":"int","value":-80},{"name":"y2","type":"int","value":-80},{"name":"next","type":"int","value":4},{"name":"prev","type":"int","value":2}],"polyline":[{"x":0,"y":0},{"x":30,"y":0}]},{"id":24,"x":94,"y":-80,"visible":true,"properties":[{"name":"layer","type":"int","value":3},{"name":"group","type":"int","value":1},{"name":"id","type":"int","value":4},{"name":"fh_layer","type":"int","value":3},{"name":"fh_group","type":"int","value":1},{"name":"fh_id","type":"int","value":4},{"name":"x1","type":"int","value":94},{"name":"x2","type":"int","value":108},{"name":"y1","type":"int","value":-80},{"name":"y2","type":"int","value":-91},{"name":"next","type":"int","value":5},{"name":"prev","type":"int","value":3}],"polyline":[{"x":0,"y":0},{"x":14,"y":-11}]},{"id":25,"x":108,"y":-91,"visible":true,"properties":[{"name":"layer","type":"int","value":3},{"name":"group","type":"int","value":1},{"name":"id","type":"int","value":5},{"name":"fh_layer","type":"int","value":3},{"name":"fh_group","type":"int","value":1},{"name":"fh_id","type":"int","value":5},{"name":"x1","type":"int","value":108},{"name":"x2","type":"int","value":120},{"name":"y1","type":"int","value":-91},{"name":"y2","type":"int","value":-103},{"name":"next","type":"int","value":0},{"name":"prev","type":"int","value":4}],"polyline":[{"x":0,"y":0},{"x":12,"y":-12}]},{"id":26,"x":-178,"y":51,"visible":true,"properties":[{"name":"layer","type":"int","value":3},{"name":"group","type":"int","value":3},{"name":"id","type":"int","value":6},{"name":"fh_layer","type":"int","value":3},{"name":"fh_group","type":"int","value":3},{"name":"fh_id","type":"int","value":6},{"name":"x1","type":"int","value":-178},{"name":"x2","type":"int","value":-104},{"name":"y1","type":"int","value":51},{"name":"y2","type":"int","value":51},{"name":"next","type":"int","value":0},{"name":"prev","type":"int","value":13}],"polyline":[{"x":0,"y":0},{"x":74,"y":0}]},{"id":27,"x":-249,"y":-41,"visible":true,"properties":[{"name":"layer","type":"int","value":3},{"name":"group","type":"int","value":3},{"name":"id","type":"int","value":7},{"name":"fh_layer","type":"int","value":3},{"name":"fh_group","type":"int","value":3},{"name":"fh_id","type":"int","value":7},{"name":"x1","type":"int","value":-249},{"name":"x2","type":"int","value":-181},{"name":"y1","type":"int","value":-41},{"name":"y2","type":"int","value":-41},{"name":"next","type":"int","value":0},{"name":"prev","type":"int","value":0}],"polyline":[{"x":0,"y":0},{"x":68,"y":0}]},{"id":28,"x":-274,"y":-101,"visible":true,"properties":[{"name":"layer","type":"int","value":3},{"name":"group","type":"int","value":3},{"name":"id","type":"int","value":8},{"name":"fh_layer","type":"int","value":3},{"name":"fh_group","type":"int","value":3},{"name":"fh_id","type":"int","value":8},{"name":"x1","type":"int","value":-274},{"name":"x2","type":"int","value":-256},{"name":"y1","type":"int","value":-101},{"name":"y2","type":"int","value":-84},{"name":"next","type":"int","value":9},{"name":"prev","type":"int","value":0}],"polyline":[{"x":0,"y":0},{"x":18,"y":17}]},{"id":29,"x":-256,"y":-84,"visible":true,"properties":[{"name":"layer","type":"int","value":3},{"name":"group","type":"int","value":3},{"name":"id","type":"int","value":9},{"name":"fh_layer","type":"int","value":3},{"name":"fh_group","type":"int","value":3},{"name":"fh_id","type":"int","value":9},{"name":"x1","type":"int","value":-256},{"name":"x2","type":"int","value":-237},{"name":"y1","type":"int","value":-84},{"name":"y2","type":"int","value":-80},{"name":"next","type":"int","value":10},{"name":"prev","type":"int","value":8}],"polyline":[{"x":0,"y":0},{"x":19,"y":4}]},{"id":30,"x":-237,"y":-80,"visible":true,"properties":[{"name":"layer","type":"int","value":3},{"name":"group","type":"int","value":3},{"name":"id","type":"int","value":10},{"name":"fh_layer","type":"int","value":3},{"name":"fh_group","type":"int","value":3},{"name":"fh_id","type":"int","value":10},{"name":"x1","type":"int","value":-237},{"name":"x2","type":"int","value":-207},{"name":"y1","type":"int","value":-80},{"name":"y2","type":"int","value":-80},{"name":"next","type":"int","value":11},{"name":"prev","type":"int","value":9}],"polyline":[{"x":0,"y":0},{"x":30,"y":0}]},{"id":31,"x":-207,"y":-80,"visible":true,"properties":[{"name":"layer","type":"int","value":3},{"name":"group","type":"int","value":3},{"name":"id","type":"int","value":11},{"name":"fh_layer","type":"int","value":3},{"name":"fh_group","type":"int","value":3},{"name":"fh_id","type":"int","value":11},{"name":"x1","type":"int","value":-207},{"name":"x2","type":"int","value":-193},{"name":"y1","type":"int","value":-80},{"name":"y2","type":"int","value":-91},{"name":"next","type":"int","value":12},{"name":"prev","type":"int","value":10}],"polyline":[{"x":0,"y":0},{"x":14,"y":-11}]},{"id":32,"x":-193,"y":-91,"visible":true,"properties":[{"name":"layer","type":"int","value":3},{"name":"group","type":"int","value":3},{"name":"id","type":"int","value":12},{"name":"fh_layer","type":"int","value":3},{"name":"fh_group","type":"int","value":3},{"name":"fh_id","type":"int","value":12},{"name":"x1","type":"int","value":-193},{"name":"x2","type":"int","value":-181},{"name":"y1","type":"int","value":-91},{"name":"y2","type":"int","value":-103},{"name":"next","type":"int","value":0},{"name":"prev","type":"int","value":11}],"polyline":[{"x":0,"y":0},{"x":12,"y":-12}]},{"id":33,"x":-322,"y":51,"visible":true,"properties":[{"name":"layer","type":"int","value":3},{"name":"group","type":"int","value":3},{"name":"id","type":"int","value":13},{"name":"fh_layer","type":"int","value":3},{"name":"fh_group","type":"int","value":3},{"name":"fh_id","type":"int","value":13},{"name":"x1","type":"int","value":-322},{"name":"x2","type":"int","value":-178},{"name":"y1","type":"int","value":51},{"name":"y2","type":"int","value":51},{"name":"next","type":"int","value":6},{"name":"prev","type":"int","value":0}],"polyline":[{"x":0,"y":0},{"x":144,"y":0}]},{"id":34,"x":-402,"y":150,"visible":true,"properties":[{"name":"layer","type":"int","value":5},{"name":"group","type":"int","value":0},{"name":"id","type":"int","value":14},{"name":"fh_layer","type":"int","value":5},{"name":"fh_group","type":"int","value":0},{"name":"fh_id","type":"int","value":14},{"name":"x1","type":"int","value":-402},{"name":"x2","type":"int","value":-249},{"name":"y1","type":"int","value":150},{"name":"y2","type":"int","value":150},{"name":"next","type":"int","value":15},{"name":"prev","type":"int","value":0}],"polyline":[{"x":0,"y":0},{"x":153,"y":0}]},{"id":35,"x":-249,"y":150,"visible":true,"properties":[{"name":"layer","type":"int","value":5},{"name":"group","type":"int","value":0},{"name":"id","type":"int","value":15},{"name":"fh_layer","type":"int","value":5},{"name":"fh_group","type":"int","value":0},{"name":"fh_id","type":"int","value":15},{"name":"x1","type":"int","value":-249},{"name":"x2","type":"int","value":-100},{"name":"y1","type":"int","value":150},{"name":"y2","type":"int","value":150},{"name":"next","type":"int","value":16},{"name":"prev","type":"int","value":14}],"polyline":[{"x":0,"y":0},{"x":149,"y":0}]},{"id":36,"x":-100,"y":150,"visible":true,"properties":[{"name":"layer","type":"int","value":5},{"name":"group","type":"int","value":0},{"name":"id","type":"int","value":16},{"name":"fh_layer","type":"int","value":5},{"name":"fh_group","type":"int","value":0},{"name":"fh_id","type":"int","value":16},{"name":"x1","type":"int","value":-100},{"name":"x2","type":"int","value":49},{"name":"y1","type":"int","value":150},{"name":"y2","type":"int","value":150},{"name":"next","type":"int","value":17},{"name":"prev","type":"int","value":15}],"polyline":[{"x":0,"y":0},{"x":149,"y":0}]},{"id":37,"x":49,"y":150,"visible":true,"properties":[{"name":"layer","type":"int","value":5},{"name":"group","type":"int","value":0},{"name":"id","type":"int","value":17},{"name":"fh_layer","type":"int","value":5},{"name":"fh_group","type":"int","value":0},{"name":"fh_id","type":"int","value":17},{"name":"x1","type":"int","value":49},{"name":"x2","type":"int","value":198},{"name":"y1","type":"int","value":150},{"name":"y2","type":"int","value":150},{"name":"next","type":"int","value":18},{"name":"prev","type":"int","value":16}],"polyline":[{"x":0,"y":0},{"x":149,"y":0}]},{"id":38,"x":198,"y":150,"visible":true,"properties":[{"name":"layer","type":"int","value":5},{"name":"group","type":"int","value":0},{"name":"id","type":"int","value":18},{"name":"fh_layer","type":"int","value":5},{"name":"fh_group","type":"int","value":0},{"name":"fh_id","type":"int","value":18},{"name":"x1","type":"int","value":198},{"name":"x2","type":"int","value":347},{"name":"y1","type":"int","value":150},{"name":"y2","type":"int","value":150},{"name":"next","type":"int","value":19},{"name":"prev","type":"int","value":17}],"polyline":[{"x":0,"y":0},{"x":149,"y":0}]},{"id":39,"x":347,"y":150,"visible":true,"properties":[{"name":"layer","type":"int","value":5},{"name":"group","type":"int","value":0},{"name":"id","type":"int","value":19},{"name":"fh_layer","type":"int","value":5},{"name":"fh_group","type":"int","value":0},{"name":"fh_id","type":"int","value":19},{"name":"x1","type":"int","value":347},{"name":"x2","type":"int","value":496},{"name":"y1","type":"int","value":150},{"name":"y2","type":"int","value":150},{"name":"next","type":"int","value":20},{"name":"prev","type":"int","value":18}],"polyline":[{"x":0,"y":0},{"x":149,"y":0}]},{"id":40,"x":496,"y":150,"visible":true,"properties":[{"name":"layer","type":"int","value":5},{"name":"group","type":"int","value":0},{"name":"id","type":"int","value":20},{"name":"fh_layer","type":"int","value":5},{"name":"fh_group","type":"int","value":0},{"name":"fh_id","type":"int","value":20},{"name":"x1","type":"int","value":496},{"name":"x2","type":"int","value":501},{"name":"y1","type":"int","value":150},{"name":"y2","type":"int","value":150},{"name":"next","type":"int","value":0},{"name":"prev","type":"int","value":19}],"polyline":[{"x":0,"y":0},{"x":5,"y":0}]}]}],"tilesets":[{"firstgid":1,"source":"../../tilesets/obj_acc9_inside_ani.tsj"},{"firstgid":3,"source":"../../tilesets/obj_acc9_inside_etc.tsj"},{"firstgid":8,"source":"../../tilesets/obj_acc9_inside_oak.tsj"},{"firstgid":12,"source":"../../tilesets/obj_acc9_inside_back.tsj"},{"firstgid":16,"source":"../../tilesets/obj_acc9_inside_exit.tsj"},{"firstgid":19,"source":"../../tilesets/obj_acc9_inside_window.tsj"}],"properties":[{"name":"bgm","type":"string","value":"Bgm15/inNautilus"},{"name":"swim","type":"int","value":0},{"name":"town","type":"int","value":1},{"name":"VRTop","type":"int","value":-300},{"name":"cloud","type":"int","value":0},{"name":"VRLeft","type":"int","value":-400},{"name":"VRRight","type":"int","value":495},{"name":"mapMark","type":"string","value":"Nautilus"},{"name":"mobRate","type":"float","value":1},{"name":"version","type":"int","value":10},{"name":"VRBottom","type":"int","value":295},{"name":"returnMap","type":"int","value":120000000},{"name":"fieldLimit","type":"int","value":8},{"name":"hideMinimap","type":"int","value":0},{"name":"forcedReturn","type":"int","value":999999999}]}