{"type":"map","orientation":"orthogonal","renderorder":"right-down","infinite":false,"tilewidth":1,"tileheight":1,"width":1525,"height":2280,"nextlayerid":1,"nextobjectid":1,"layers":[],"tilesets":[],"properties":[{"name":"bgm","type":"string","value":"Bgm15/MureungForest"},{"name":"fly","type":"int","value":0},{"name":"link","type":"int","value":108000710},{"name":"swim","type":"int","value":0},{"name":"town","type":"int","value":0},{"name":"VRTop","type":"int","value":-1560},{"name":"cloud","type":"int","value":0},{"name":"VRLeft","type":"int","value":-584},{"name":"VRRight","type":"int","value":941},{"name":"mapMark","type":"string","value":"Murueng"},{"name":"mobRate","type":"float","value":1.2000000476837158},{"name":"version","type":"int","value":10},{"name":"VRBottom","type":"int","value":720},{"name":"noMapCmd","type":"int","value":0},{"name":"returnMap","type":"int","value":140030000},{"name":"fieldLimit","type":"int","value":2370300},{"name":"hideMinimap","type":"int","value":0},{"name":"onUserEnter","type":"string","value":""},{"name":"forcedReturn","type":"int","value":140030000},{"name":"onFirstUserEnter","type":"string","value":""}]}