{"type":"map","orientation":"orthogonal","renderorder":"right-down","infinite":false,"tilewidth":1,"tileheight":1,"width":2574,"height":795,"nextlayerid":1,"nextobjectid":1,"layers":[],"tilesets":[],"properties":[{"name":"bgm","type":"string","value":"Bgm21/KerningSquareField"},{"name":"fly","type":"int","value":0},{"name":"link","type":"int","value":103040440},{"name":"swim","type":"int","value":0},{"name":"town","type":"int","value":0},{"name":"VRTop","type":"int","value":-240},{"name":"cloud","type":"int","value":0},{"name":"VRLeft","type":"int","value":-1238},{"name":"VRRight","type":"int","value":1336},{"name":"mapMark","type":"string","value":"101Building"},{"name":"mobRate","type":"float","value":2},{"name":"version","type":"int","value":10},{"name":"VRBottom","type":"int","value":555},{"name":"noMapCmd","type":"int","value":0},{"name":"returnMap","type":"int","value":103040400},{"name":"fieldLimit","type":"int","value":271096},{"name":"hideMinimap","type":"int","value":0},{"name":"lvForceMove","type":"int","value":51},{"name":"onUserEnter","type":"string","value":""},{"name":"forcedReturn","type":"int","value":103040400},{"name":"onFirstUserEnter","type":"string","value":""}]}