{"type":"map","orientation":"orthogonal","renderorder":"right-down","infinite":false,"tilewidth":1,"tileheight":1,"width":1080,"height":600,"nextlayerid":19,"nextobjectid":93,"layers":[{"id":1,"name":"layer_0_obj","type":"objectgroup","visible":true,"opacity":1,"objects":[{"id":1,"x":-501,"y":167,"visible":true,"properties":[{"name":"layer","type":"int","value":0},{"name":"resource_index","type":"int","value":0},{"name":"oS","type":"string","value":"event"},{"name":"l0","type":"string","value":"battleField"},{"name":"l1","type":"string","value":"nature"},{"name":"l2","type":"string","value":"5"},{"name":"z","type":"int","value":11},{"name":"zM","type":"int","value":2},{"name":"f","type":"int","value":0}],"gid":47,"width":142,"height":78},{"id":2,"x":393,"y":150,"visible":true,"properties":[{"name":"layer","type":"int","value":0},{"name":"resource_index","type":"int","value":1},{"name":"oS","type":"string","value":"event"},{"name":"l0","type":"string","value":"battleField"},{"name":"l1","type":"string","value":"acc"},{"name":"l2","type":"string","value":"2"},{"name":"z","type":"int","value":9},{"name":"zM","type":"int","value":3},{"name":"f","type":"int","value":0}],"gid":36,"width":57,"height":72},{"id":3,"x":374,"y":156,"visible":true,"properties":[{"name":"layer","type":"int","value":0},{"name":"resource_index","type":"int","value":2},{"name":"oS","type":"string","value":"event"},{"name":"l0","type":"string","value":"battleField"},{"name":"l1","type":"string","value":"nature"},{"name":"l2","type":"string","value":"6"},{"name":"z","type":"int","value":8},{"name":"zM","type":"int","value":3},{"name":"f","type":"int","value":0}],"gid":48,"width":83,"height":66},{"id":4,"x":-359,"y":157,"visible":true,"properties":[{"name":"layer","type":"int","value":0},{"name":"resource_index","type":"int","value":3},{"name":"oS","type":"string","value":"event"},{"name":"l0","type":"string","value":"battleField"},{"name":"l1","type":"string","value":"wind"},{"name":"l2","type":"string","value":"1"},{"name":"z","type":"int","value":9},{"name":"zM","type":"int","value":0},{"name":"f","type":"int","value":0}],"gid":41,"width":803,"height":181},{"id":5,"x":-396,"y":153,"visible":true,"properties":[{"name":"layer","type":"int","value":0},{"name":"resource_index","type":"int","value":4},{"name":"oS","type":"string","value":"event"},{"name":"l0","type":"string","value":"battleField"},{"name":"l1","type":"string","value":"acc"},{"name":"l2","type":"string","value":"2"},{"name":"z","type":"int","value":9},{"name":"zM","type":"int","value":2},{"name":"f","type":"int","value":0}],"gid":36,"width":57,"height":72},{"id":6,"x":259,"y":152,"visible":true,"properties":[{"name":"layer","type":"int","value":0},{"name":"resource_index","type":"int","value":5},{"name":"oS","type":"string","value":"event"},{"name":"l0","type":"string","value":"battleField"},{"name":"l1","type":"string","value":"acc"},{"name":"l2","type":"string","value":"0"},{"name":"z","type":"int","value":9},{"name":"zM","type":"int","value":7},{"name":"f","type":"int","value":0}],"gid":40,"width":63,"height":42},{"id":7,"x":-458,"y":154,"visible":true,"properties":[{"name":"layer","type":"int","value":0},{"name":"resource_index","type":"int","value":6},{"name":"oS","type":"string","value":"event"},{"name":"l0","type":"string","value":"battleField"},{"name":"l1","type":"string","value":"nature"},{"name":"l2","type":"string","value":"13"},{"name":"z","type":"int","value":12},{"name":"zM","type":"int","value":4},{"name":"f","type":"int","value":0}],"gid":52,"width":59,"height":61},{"id":8,"x":-491,"y":151,"visible":true,"properties":[{"name":"layer","type":"int","value":0},{"name":"resource_index","type":"int","value":7},{"name":"oS","type":"string","value":"event"},{"name":"l0","type":"string","value":"battleField"},{"name":"l1","type":"string","value":"nature"},{"name":"l2","type":"string","value":"12"},{"name":"z","type":"int","value":12},{"name":"zM","type":"int","value":4},{"name":"f","type":"int","value":0}],"gid":53,"width":54,"height":76},{"id":9,"x":-575,"y":159,"visible":true,"properties":[{"name":"layer","type":"int","value":0},{"name":"resource_index","type":"int","value":8},{"name":"oS","type":"string","value":"event"},{"name":"l0","type":"string","value":"battleField"},{"name":"l1","type":"string","value":"nature"},{"name":"l2","type":"string","value":"1"},{"name":"z","type":"int","value":7},{"name":"zM","type":"int","value":2},{"name":"f","type":"int","value":0}],"gid":45,"width":255,"height":136},{"id":10,"x":-649,"y":154,"visible":true,"properties":[{"name":"layer","type":"int","value":0},{"name":"resource_index","type":"int","value":9},{"name":"oS","type":"string","value":"event"},{"name":"l0","type":"string","value":"battleField"},{"name":"l1","type":"string","value":"nature"},{"name":"l2","type":"string","value":"4"},{"name":"z","type":"int","value":9},{"name":"zM","type":"int","value":2},{"name":"f","type":"int","value":0}],"gid":46,"width":255,"height":136},{"id":11,"x":-326,"y":159,"visible":true,"properties":[{"name":"layer","type":"int","value":0},{"name":"resource_index","type":"int","value":10},{"name":"oS","type":"string","value":"event"},{"name":"l0","type":"string","value":"battleField"},{"name":"l1","type":"string","value":"wind"},{"name":"l2","type":"string","value":"2"},{"name":"z","type":"int","value":10},{"name":"zM","type":"int","value":0},{"name":"f","type":"int","value":0}],"gid":42,"width":385,"height":265},{"id":12,"x":-309,"y":-24,"visible":true,"properties":[{"name":"layer","type":"int","value":0},{"name":"resource_index","type":"int","value":11},{"name":"oS","type":"string","value":"event"},{"name":"l0","type":"string","value":"battleField"},{"name":"l1","type":"string","value":"wind"},{"name":"l2","type":"string","value":"0"},{"name":"z","type":"int","value":9},{"name":"zM","type":"int","value":0},{"name":"f","type":"int","value":0}],"gid":43,"width":543,"height":321},{"id":13,"x":-220,"y":-130,"visible":true,"properties":[{"name":"layer","type":"int","value":0},{"name":"resource_index","type":"int","value":12},{"name":"oS","type":"string","value":"event"},{"name":"l0","type":"string","value":"battleField"},{"name":"l1","type":"string","value":"wind"},{"name":"l2","type":"string","value":"3"},{"name":"z","type":"int","value":9},{"name":"zM","type":"int","value":0},{"name":"f","type":"int","value":0}],"gid":44,"width":343,"height":360}]},{"id":2,"name":"layer_1_tile","type":"objectgroup","visible":true,"opacity":1,"objects":[{"id":14,"x":0,"y":240,"visible":true,"properties":[{"name":"layer","type":"int","value":1},{"name":"resource_index","type":"int","value":0},{"name":"u","type":"string","value":"bsc"},{"name":"no","type":"int","value":4},{"name":"zM","type":"int","value":0}],"gid":22,"width":90,"height":60},{"id":15,"x":90,"y":180,"visible":true,"properties":[{"name":"layer","type":"int","value":1},{"name":"resource_index","type":"int","value":1},{"name":"u","type":"string","value":"enH0"},{"name":"no","type":"int","value":0},{"name":"zM","type":"int","value":0}],"gid":16,"width":90,"height":38},{"id":16,"x":-270,"y":180,"visible":true,"properties":[{"name":"layer","type":"int","value":1},{"name":"resource_index","type":"int","value":2},{"name":"u","type":"string","value":"enH0"},{"name":"no","type":"int","value":0},{"name":"zM","type":"int","value":0}],"gid":16,"width":90,"height":38},{"id":17,"x":-180,"y":240,"visible":true,"properties":[{"name":"layer","type":"int","value":1},{"name":"resource_index","type":"int","value":3},{"name":"u","type":"string","value":"bsc"},{"name":"no","type":"int","value":1},{"name":"zM","type":"int","value":0}],"gid":23,"width":90,"height":60},{"id":18,"x":-90,"y":300,"visible":true,"properties":[{"name":"layer","type":"int","value":1},{"name":"resource_index","type":"int","value":4},{"name":"u","type":"string","value":"bsc"},{"name":"no","type":"int","value":0},{"name":"zM","type":"int","value":0}],"gid":24,"width":90,"height":60},{"id":19,"x":-450,"y":360,"visible":true,"properties":[{"name":"layer","type":"int","value":1},{"name":"resource_index","type":"int","value":5},{"name":"u","type":"string","value":"bsc"},{"name":"no","type":"int","value":2},{"name":"zM","type":"int","value":0}],"gid":21,"width":90,"height":60},{"id":20,"x":-180,"y":300,"visible":true,"properties":[{"name":"layer","type":"int","value":1},{"name":"resource_index","type":"int","value":6},{"name":"u","type":"string","value":"bsc"},{"name":"no","type":"int","value":3},{"name":"zM","type":"int","value":0}],"gid":20,"width":90,"height":60},{"id":21,"x":0,"y":300,"visible":true,"properties":[{"name":"layer","type":"int","value":1},{"name":"resource_index","type":"int","value":7},{"name":"u","type":"string","value":"bsc"},{"name":"no","type":"int","value":1},{"name":"zM","type":"int","value":0}],"gid":23,"width":90,"height":60},{"id":22,"x":-90,"y":180,"visible":true,"properties":[{"name":"layer","type":"int","value":1},{"name":"resource_index","type":"int","value":8},{"name":"u","type":"string","value":"enH0"},{"name":"no","type":"int","value":1},{"name":"zM","type":"int","value":0}],"gid":17,"width":90,"height":39},{"id":23,"x":-90,"y":240,"visible":true,"properties":[{"name":"layer","type":"int","value":1},{"name":"resource_index","type":"int","value":9},{"name":"u","type":"string","value":"bsc"},{"name":"no","type":"int","value":2},{"name":"zM","type":"int","value":0}],"gid":21,"width":90,"height":60},{"id":24,"x":-540,"y":360,"visible":true,"properties":[{"name":"layer","type":"int","value":1},{"name":"resource_index","type":"int","value":10},{"name":"u","type":"string","value":"bsc"},{"name":"no","type":"int","value":4},{"name":"zM","type":"int","value":0}],"gid":22,"width":90,"height":60},{"id":25,"x":-270,"y":300,"visible":true,"properties":[{"name":"layer","type":"int","value":1},{"name":"resource_index","type":"int","value":11},{"name":"u","type":"string","value":"bsc"},{"name":"no","type":"int","value":3},{"name":"zM","type":"int","value":0}],"gid":20,"width":90,"height":60},{"id":26,"x":-270,"y":240,"visible":true,"properties":[{"name":"layer","type":"int","value":1},{"name":"resource_index","type":"int","value":12},{"name":"u","type":"string","value":"bsc"},{"name":"no","type":"int","value":3},{"name":"zM","type":"int","value":0}],"gid":20,"width":90,"height":60},{"id":27,"x":-180,"y":180,"visible":true,"properties":[{"name":"layer","type":"int","value":1},{"name":"resource_index","type":"int","value":13},{"name":"u","type":"string","value":"enH0"},{"name":"no","type":"int","value":0},{"name":"zM","type":"int","value":0}],"gid":16,"width":90,"height":38},{"id":28,"x":-450,"y":240,"visible":true,"properties":[{"name":"layer","type":"int","value":1},{"name":"resource_index","type":"int","value":14},{"name":"u","type":"string","value":"bsc"},{"name":"no","type":"int","value":0},{"name":"zM","type":"int","value":0}],"gid":24,"width":90,"height":60},{"id":29,"x":-450,"y":180,"visible":true,"properties":[{"name":"layer","type":"int","value":1},{"name":"resource_index","type":"int","value":15},{"name":"u","type":"string","value":"enH0"},{"name":"no","type":"int","value":0},{"name":"zM","type":"int","value":0}],"gid":16,"width":90,"height":38},{"id":30,"x":-540,"y":180,"visible":true,"properties":[{"name":"layer","type":"int","value":1},{"name":"resource_index","type":"int","value":16},{"name":"u","type":"string","value":"enH0"},{"name":"no","type":"int","value":1},{"name":"zM","type":"int","value":0}],"gid":17,"width":90,"height":39},{"id":31,"x":-360,"y":240,"visible":true,"properties":[{"name":"layer","type":"int","value":1},{"name":"resource_index","type":"int","value":17},{"name":"u","type":"string","value":"bsc"},{"name":"no","type":"int","value":4},{"name":"zM","type":"int","value":0}],"gid":22,"width":90,"height":60},{"id":32,"x":0,"y":180,"visible":true,"properties":[{"name":"layer","type":"int","value":1},{"name":"resource_index","type":"int","value":18},{"name":"u","type":"string","value":"enH0"},{"name":"no","type":"int","value":0},{"name":"zM","type":"int","value":0}],"gid":16,"width":90,"height":38},{"id":33,"x":90,"y":240,"visible":true,"properties":[{"name":"layer","type":"int","value":1},{"name":"resource_index","type":"int","value":19},{"name":"u","type":"string","value":"bsc"},{"name":"no","type":"int","value":3},{"name":"zM","type":"int","value":0}],"gid":20,"width":90,"height":60},{"id":34,"x":180,"y":300,"visible":true,"properties":[{"name":"layer","type":"int","value":1},{"name":"resource_index","type":"int","value":20},{"name":"u","type":"string","value":"bsc"},{"name":"no","type":"int","value":4},{"name":"zM","type":"int","value":0}],"gid":22,"width":90,"height":60},{"id":35,"x":360,"y":240,"visible":true,"properties":[{"name":"layer","type":"int","value":1},{"name":"resource_index","type":"int","value":21},{"name":"u","type":"string","value":"bsc"},{"name":"no","type":"int","value":3},{"name":"zM","type":"int","value":0}],"gid":20,"width":90,"height":60},{"id":36,"x":360,"y":180,"visible":true,"properties":[{"name":"layer","type":"int","value":1},{"name":"resource_index","type":"int","value":22},{"name":"u","type":"string","value":"enH0"},{"name":"no","type":"int","value":0},{"name":"zM","type":"int","value":0}],"gid":16,"width":90,"height":38},{"id":37,"x":0,"y":360,"visible":true,"properties":[{"name":"layer","type":"int","value":1},{"name":"resource_index","type":"int","value":23},{"name":"u","type":"string","value":"bsc"},{"name":"no","type":"int","value":2},{"name":"zM","type":"int","value":0}],"gid":21,"width":90,"height":60},{"id":38,"x":180,"y":240,"visible":true,"properties":[{"name":"layer","type":"int","value":1},{"name":"resource_index","type":"int","value":24},{"name":"u","type":"string","value":"bsc"},{"name":"no","type":"int","value":4},{"name":"zM","type":"int","value":0}],"gid":22,"width":90,"height":60},{"id":39,"x":90,"y":300,"visible":true,"properties":[{"name":"layer","type":"int","value":1},{"name":"resource_index","type":"int","value":25},{"name":"u","type":"string","value":"bsc"},{"name":"no","type":"int","value":0},{"name":"zM","type":"int","value":0}],"gid":24,"width":90,"height":60},{"id":40,"x":270,"y":240,"visible":true,"properties":[{"name":"layer","type":"int","value":1},{"name":"resource_index","type":"int","value":26},{"name":"u","type":"string","value":"bsc"},{"name":"no","type":"int","value":0},{"name":"zM","type":"int","value":0}],"gid":24,"width":90,"height":60},{"id":41,"x":270,"y":180,"visible":true,"properties":[{"name":"layer","type":"int","value":1},{"name":"resource_index","type":"int","value":27},{"name":"u","type":"string","value":"enH0"},{"name":"no","type":"int","value":0},{"name":"zM","type":"int","value":0}],"gid":16,"width":90,"height":38},{"id":42,"x":180,"y":180,"visible":true,"properties":[{"name":"layer","type":"int","value":1},{"name":"resource_index","type":"int","value":28},{"name":"u","type":"string","value":"enH0"},{"name":"no","type":"int","value":1},{"name":"zM","type":"int","value":0}],"gid":17,"width":90,"height":39},{"id":43,"x":270,"y":300,"visible":true,"properties":[{"name":"layer","type":"int","value":1},{"name":"resource_index","type":"int","value":29},{"name":"u","type":"string","value":"bsc"},{"name":"no","type":"int","value":3},{"name":"zM","type":"int","value":0}],"gid":20,"width":90,"height":60},{"id":44,"x":360,"y":300,"visible":true,"properties":[{"name":"layer","type":"int","value":1},{"name":"resource_index","type":"int","value":30},{"name":"u","type":"string","value":"bsc"},{"name":"no","type":"int","value":1},{"name":"zM","type":"int","value":0}],"gid":23,"width":90,"height":60},{"id":45,"x":270,"y":360,"visible":true,"properties":[{"name":"layer","type":"int","value":1},{"name":"resource_index","type":"int","value":31},{"name":"u","type":"string","value":"bsc"},{"name":"no","type":"int","value":4},{"name":"zM","type":"int","value":0}],"gid":22,"width":90,"height":60},{"id":46,"x":-450,"y":300,"visible":true,"properties":[{"name":"layer","type":"int","value":1},{"name":"resource_index","type":"int","value":32},{"name":"u","type":"string","value":"bsc"},{"name":"no","type":"int","value":0},{"name":"zM","type":"int","value":0}],"gid":24,"width":90,"height":60},{"id":47,"x":90,"y":360,"visible":true,"properties":[{"name":"layer","type":"int","value":1},{"name":"resource_index","type":"int","value":33},{"name":"u","type":"string","value":"bsc"},{"name":"no","type":"int","value":0},{"name":"zM","type":"int","value":0}],"gid":24,"width":90,"height":60},{"id":48,"x":180,"y":360,"visible":true,"properties":[{"name":"layer","type":"int","value":1},{"name":"resource_index","type":"int","value":34},{"name":"u","type":"string","value":"bsc"},{"name":"no","type":"int","value":4},{"name":"zM","type":"int","value":0}],"gid":22,"width":90,"height":60},{"id":49,"x":360,"y":360,"visible":true,"properties":[{"name":"layer","type":"int","value":1},{"name":"resource_index","type":"int","value":35},{"name":"u","type":"string","value":"bsc"},{"name":"no","type":"int","value":1},{"name":"zM","type":"int","value":0}],"gid":23,"width":90,"height":60},{"id":50,"x":-360,"y":360,"visible":true,"properties":[{"name":"layer","type":"int","value":1},{"name":"resource_index","type":"int","value":36},{"name":"u","type":"string","value":"bsc"},{"name":"no","type":"int","value":4},{"name":"zM","type":"int","value":0}],"gid":22,"width":90,"height":60},{"id":51,"x":-90,"y":360,"visible":true,"properties":[{"name":"layer","type":"int","value":1},{"name":"resource_index","type":"int","value":37},{"name":"u","type":"string","value":"bsc"},{"name":"no","type":"int","value":4},{"name":"zM","type":"int","value":0}],"gid":22,"width":90,"height":60},{"id":52,"x":-270,"y":360,"visible":true,"properties":[{"name":"layer","type":"int","value":1},{"name":"resource_index","type":"int","value":38},{"name":"u","type":"string","value":"bsc"},{"name":"no","type":"int","value":2},{"name":"zM","type":"int","value":0}],"gid":21,"width":90,"height":60},{"id":53,"x":-180,"y":360,"visible":true,"properties":[{"name":"layer","type":"int","value":1},{"name":"resource_index","type":"int","value":39},{"name":"u","type":"string","value":"bsc"},{"name":"no","type":"int","value":2},{"name":"zM","type":"int","value":0}],"gid":21,"width":90,"height":60},{"id":54,"x":-360,"y":386,"visible":true,"properties":[{"name":"layer","type":"int","value":1},{"name":"resource_index","type":"int","value":40},{"name":"u","type":"string","value":"enH1"},{"name":"no","type":"int","value":1},{"name":"zM","type":"int","value":0}],"gid":18,"width":90,"height":26},{"id":55,"x":-450,"y":385,"visible":true,"properties":[{"name":"layer","type":"int","value":1},{"name":"resource_index","type":"int","value":41},{"name":"u","type":"string","value":"enH1"},{"name":"no","type":"int","value":0},{"name":"zM","type":"int","value":0}],"gid":15,"width":90,"height":25},{"id":56,"x":-90,"y":386,"visible":true,"properties":[{"name":"layer","type":"int","value":1},{"name":"resource_index","type":"int","value":42},{"name":"u","type":"string","value":"enH1"},{"name":"no","type":"int","value":1},{"name":"zM","type":"int","value":0}],"gid":18,"width":90,"height":26},{"id":57,"x":-270,"y":385,"visible":true,"properties":[{"name":"layer","type":"int","value":1},{"name":"resource_index","type":"int","value":43},{"name":"u","type":"string","value":"enH1"},{"name":"no","type":"int","value":0},{"name":"zM","type":"int","value":0}],"gid":15,"width":90,"height":25},{"id":58,"x":-180,"y":385,"visible":true,"properties":[{"name":"layer","type":"int","value":1},{"name":"resource_index","type":"int","value":44},{"name":"u","type":"string","value":"enH1"},{"name":"no","type":"int","value":0},{"name":"zM","type":"int","value":0}],"gid":15,"width":90,"height":25},{"id":59,"x":0,"y":385,"visible":true,"properties":[{"name":"layer","type":"int","value":1},{"name":"resource_index","type":"int","value":45},{"name":"u","type":"string","value":"enH1"},{"name":"no","type":"int","value":0},{"name":"zM","type":"int","value":0}],"gid":15,"width":90,"height":25},{"id":60,"x":90,"y":385,"visible":true,"properties":[{"name":"layer","type":"int","value":1},{"name":"resource_index","type":"int","value":46},{"name":"u","type":"string","value":"enH1"},{"name":"no","type":"int","value":0},{"name":"zM","type":"int","value":0}],"gid":15,"width":90,"height":25},{"id":61,"x":270,"y":385,"visible":true,"properties":[{"name":"layer","type":"int","value":1},{"name":"resource_index","type":"int","value":47},{"name":"u","type":"string","value":"enH1"},{"name":"no","type":"int","value":0},{"name":"zM","type":"int","value":0}],"gid":15,"width":90,"height":25},{"id":62,"x":360,"y":385,"visible":true,"properties":[{"name":"layer","type":"int","value":1},{"name":"resource_index","type":"int","value":48},{"name":"u","type":"string","value":"enH1"},{"name":"no","type":"int","value":0},{"name":"zM","type":"int","value":0}],"gid":15,"width":90,"height":25},{"id":63,"x":180,"y":385,"visible":true,"properties":[{"name":"layer","type":"int","value":1},{"name":"resource_index","type":"int","value":49},{"name":"u","type":"string","value":"enH1"},{"name":"no","type":"int","value":0},{"name":"zM","type":"int","value":0}],"gid":15,"width":90,"height":25},{"id":64,"x":-630,"y":360,"visible":true,"properties":[{"name":"layer","type":"int","value":1},{"name":"resource_index","type":"int","value":50},{"name":"u","type":"string","value":"bsc"},{"name":"no","type":"int","value":3},{"name":"zM","type":"int","value":0}],"gid":20,"width":90,"height":60},{"id":65,"x":-630,"y":180,"visible":true,"properties":[{"name":"layer","type":"int","value":1},{"name":"resource_index","type":"int","value":51},{"name":"u","type":"string","value":"enH0"},{"name":"no","type":"int","value":0},{"name":"zM","type":"int","value":0}],"gid":16,"width":90,"height":38},{"id":66,"x":-540,"y":240,"visible":true,"properties":[{"name":"layer","type":"int","value":1},{"name":"resource_index","type":"int","value":52},{"name":"u","type":"string","value":"bsc"},{"name":"no","type":"int","value":2},{"name":"zM","type":"int","value":0}],"gid":21,"width":90,"height":60},{"id":67,"x":-540,"y":386,"visible":true,"properties":[{"name":"layer","type":"int","value":1},{"name":"resource_index","type":"int","value":53},{"name":"u","type":"string","value":"enH1"},{"name":"no","type":"int","value":1},{"name":"zM","type":"int","value":0}],"gid":18,"width":90,"height":26},{"id":68,"x":-630,"y":385,"visible":true,"properties":[{"name":"layer","type":"int","value":1},{"name":"resource_index","type":"int","value":54},{"name":"u","type":"string","value":"enH1"},{"name":"no","type":"int","value":0},{"name":"zM","type":"int","value":0}],"gid":15,"width":90,"height":25},{"id":69,"x":-630,"y":240,"visible":true,"properties":[{"name":"layer","type":"int","value":1},{"name":"resource_index","type":"int","value":55},{"name":"u","type":"string","value":"bsc"},{"name":"no","type":"int","value":3},{"name":"zM","type":"int","value":0}],"gid":20,"width":90,"height":60},{"id":70,"x":-360,"y":300,"visible":true,"properties":[{"name":"layer","type":"int","value":1},{"name":"resource_index","type":"int","value":56},{"name":"u","type":"string","value":"bsc"},{"name":"no","type":"int","value":4},{"name":"zM","type":"int","value":0}],"gid":22,"width":90,"height":60},{"id":71,"x":-360,"y":180,"visible":true,"properties":[{"name":"layer","type":"int","value":1},{"name":"resource_index","type":"int","value":57},{"name":"u","type":"string","value":"enH0"},{"name":"no","type":"int","value":1},{"name":"zM","type":"int","value":0}],"gid":17,"width":90,"height":39},{"id":72,"x":-630,"y":300,"visible":true,"properties":[{"name":"layer","type":"int","value":1},{"name":"resource_index","type":"int","value":58},{"name":"u","type":"string","value":"bsc"},{"name":"no","type":"int","value":0},{"name":"zM","type":"int","value":0}],"gid":24,"width":90,"height":60},{"id":73,"x":-540,"y":300,"visible":true,"properties":[{"name":"layer","type":"int","value":1},{"name":"resource_index","type":"int","value":59},{"name":"u","type":"string","value":"bsc"},{"name":"no","type":"int","value":2},{"name":"zM","type":"int","value":0}],"gid":21,"width":90,"height":60}]},{"id":3,"name":"background_back_0","type":"imagelayer","visible":true,"opacity":1,"image":"../../images/26838.png","imagewidth":10,"imageheight":2134,"offsetx":26,"offsety":-1965,"repeatx":true,"repeaty":true,"parallaxx":1,"parallaxy":1,"properties":[{"name":"a","type":"int","value":255},{"name":"f","type":"int","value":0},{"name":"x","type":"int","value":31},{"name":"y","type":"int","value":-898},{"name":"bS","type":"string","value":"event"},{"name":"cx","type":"int","value":0},{"name":"cy","type":"int","value":0},{"name":"no","type":"int","value":20},{"name":"rx","type":"int","value":-100},{"name":"ry","type":"int","value":-100},{"name":"ani","type":"int","value":0},{"name":"type","type":"int","value":3},{"name":"front","type":"int","value":0}]},{"id":4,"name":"background_back_1","type":"imagelayer","visible":true,"opacity":1,"image":"../../images/26839.png","imagewidth":331,"imageheight":175,"offsetx":-395,"offsety":-399,"repeatx":true,"repeaty":false,"parallaxx":1,"parallaxy":1,"properties":[{"name":"a","type":"int","value":255},{"name":"f","type":"int","value":0},{"name":"x","type":"int","value":-230},{"name":"y","type":"int","value":-312},{"name":"bS","type":"string","value":"event"},{"name":"cx","type":"int","value":1200},{"name":"cy","type":"int","value":0},{"name":"no","type":"int","value":21},{"name":"rx","type":"int","value":5},{"name":"ry","type":"int","value":-20},{"name":"ani","type":"int","value":0},{"name":"type","type":"int","value":4},{"name":"front","type":"int","value":0}]},{"id":5,"name":"background_back_2","type":"imagelayer","visible":true,"opacity":1,"image":"../../images/26840.png","imagewidth":253,"imageheight":128,"offsetx":-4,"offsety":-333,"repeatx":true,"repeaty":false,"parallaxx":1,"parallaxy":1,"properties":[{"name":"a","type":"int","value":255},{"name":"f","type":"int","value":0},{"name":"x","type":"int","value":-1},{"name":"y","type":"int","value":-237},{"name":"bS","type":"string","value":"event"},{"name":"cx","type":"int","value":1200},{"name":"cy","type":"int","value":0},{"name":"no","type":"int","value":22},{"name":"rx","type":"int","value":4},{"name":"ry","type":"int","value":-20},{"name":"ani","type":"int","value":0},{"name":"type","type":"int","value":4},{"name":"front","type":"int","value":0}]},{"id":6,"name":"background_back_3","type":"imagelayer","visible":true,"opacity":1,"image":"../../images/26841.png","imagewidth":333,"imageheight":141,"offsetx":161,"offsety":-387,"repeatx":true,"repeaty":false,"parallaxx":1,"parallaxy":1,"properties":[{"name":"a","type":"int","value":255},{"name":"f","type":"int","value":1},{"name":"x","type":"int","value":327},{"name":"y","type":"int","value":-317},{"name":"bS","type":"string","value":"event"},{"name":"cx","type":"int","value":1200},{"name":"cy","type":"int","value":0},{"name":"no","type":"int","value":23},{"name":"rx","type":"int","value":5},{"name":"ry","type":"int","value":-20},{"name":"ani","type":"int","value":0},{"name":"type","type":"int","value":4},{"name":"front","type":"int","value":0}]},{"id":7,"name":"background_back_4","type":"imagelayer","visible":true,"opacity":1,"image":"../../images/26846.png","imagewidth":417,"imageheight":230,"offsetx":-230,"offsety":-200,"repeatx":true,"repeaty":false,"parallaxx":1,"parallaxy":1,"properties":[{"name":"a","type":"int","value":255},{"name":"f","type":"int","value":0},{"name":"x","type":"int","value":-22},{"name":"y","type":"int","value":-85},{"name":"bS","type":"string","value":"event"},{"name":"cx","type":"int","value":0},{"name":"cy","type":"int","value":0},{"name":"no","type":"int","value":28},{"name":"rx","type":"int","value":-50},{"name":"ry","type":"int","value":-30},{"name":"ani","type":"int","value":0},{"name":"type","type":"int","value":1},{"name":"front","type":"int","value":0}]},{"id":8,"name":"background_back_5","type":"imagelayer","visible":true,"opacity":1,"image":"../../images/26847.png","imagewidth":568,"imageheight":435,"offsetx":-760,"offsety":-384,"repeatx":false,"repeaty":false,"parallaxx":1,"parallaxy":1,"properties":[{"name":"a","type":"int","value":255},{"name":"f","type":"int","value":0},{"name":"x","type":"int","value":-476},{"name":"y","type":"int","value":-167},{"name":"bS","type":"string","value":"event"},{"name":"cx","type":"int","value":0},{"name":"cy","type":"int","value":0},{"name":"no","type":"int","value":29},{"name":"rx","type":"int","value":-60},{"name":"ry","type":"int","value":-50},{"name":"ani","type":"int","value":0},{"name":"type","type":"int","value":0},{"name":"front","type":"int","value":0}]},{"id":9,"name":"background_back_6","type":"imagelayer","visible":true,"opacity":1,"image":"../../images/26848.png","imagewidth":486,"imageheight":300,"offsetx":-192,"offsety":-249,"repeatx":false,"repeaty":false,"parallaxx":1,"parallaxy":1,"properties":[{"name":"a","type":"int","value":255},{"name":"f","type":"int","value":0},{"name":"x","type":"int","value":51},{"name":"y","type":"int","value":-99},{"name":"bS","type":"string","value":"event"},{"name":"cx","type":"int","value":0},{"name":"cy","type":"int","value":0},{"name":"no","type":"int","value":30},{"name":"rx","type":"int","value":-60},{"name":"ry","type":"int","value":-50},{"name":"ani","type":"int","value":0},{"name":"type","type":"int","value":0},{"name":"front","type":"int","value":0}]},{"id":10,"name":"background_back_7","type":"imagelayer","visible":true,"opacity":1,"image":"../../images/26849.png","imagewidth":350,"imageheight":495,"offsetx":294,"offsety":-443,"repeatx":false,"repeaty":false,"parallaxx":1,"parallaxy":1,"properties":[{"name":"a","type":"int","value":255},{"name":"f","type":"int","value":0},{"name":"x","type":"int","value":469},{"name":"y","type":"int","value":-196},{"name":"bS","type":"string","value":"event"},{"name":"cx","type":"int","value":0},{"name":"cy","type":"int","value":0},{"name":"no","type":"int","value":31},{"name":"rx","type":"int","value":-60},{"name":"ry","type":"int","value":-50},{"name":"ani","type":"int","value":0},{"name":"type","type":"int","value":0},{"name":"front","type":"int","value":0}]},{"id":11,"name":"background_back_8","type":"imagelayer","visible":true,"opacity":1,"image":"../../images/26850.png","imagewidth":890,"imageheight":347,"offsetx":-776,"offsety":-155,"repeatx":false,"repeaty":false,"parallaxx":1,"parallaxy":1,"properties":[{"name":"a","type":"int","value":255},{"name":"f","type":"int","value":0},{"name":"x","type":"int","value":-331},{"name":"y","type":"int","value":18},{"name":"bS","type":"string","value":"event"},{"name":"cx","type":"int","value":0},{"name":"cy","type":"int","value":0},{"name":"no","type":"int","value":32},{"name":"rx","type":"int","value":-70},{"name":"ry","type":"int","value":-70},{"name":"ani","type":"int","value":0},{"name":"type","type":"int","value":0},{"name":"front","type":"int","value":0}]},{"id":12,"name":"background_back_9","type":"imagelayer","visible":true,"opacity":1,"image":"../../images/26851.png","imagewidth":891,"imageheight":363,"offsetx":114,"offsety":-171,"repeatx":false,"repeaty":false,"parallaxx":1,"parallaxy":1,"properties":[{"name":"a","type":"int","value":255},{"name":"f","type":"int","value":0},{"name":"x","type":"int","value":559},{"name":"y","type":"int","value":10},{"name":"bS","type":"string","value":"event"},{"name":"cx","type":"int","value":0},{"name":"cy","type":"int","value":0},{"name":"no","type":"int","value":33},{"name":"rx","type":"int","value":-70},{"name":"ry","type":"int","value":-70},{"name":"ani","type":"int","value":0},{"name":"type","type":"int","value":0},{"name":"front","type":"int","value":0}]},{"id":13,"name":"background_back_10","type":"imagelayer","visible":true,"opacity":1,"image":"../../images/26852.png","imagewidth":694,"imageheight":272,"offsetx":-102,"offsety":-86,"repeatx":false,"repeaty":false,"parallaxx":1,"parallaxy":1,"properties":[{"name":"a","type":"int","value":255},{"name":"f","type":"int","value":0},{"name":"x","type":"int","value":245},{"name":"y","type":"int","value":50},{"name":"bS","type":"string","value":"event"},{"name":"cx","type":"int","value":0},{"name":"cy","type":"int","value":0},{"name":"no","type":"int","value":34},{"name":"rx","type":"int","value":-80},{"name":"ry","type":"int","value":-100},{"name":"ani","type":"int","value":0},{"name":"type","type":"int","value":0},{"name":"front","type":"int","value":0}]},{"id":14,"name":"background_back","type":"objectgroup","visible":true,"opacity":1,"objects":[{"id":74,"x":-230,"y":-312,"visible":true,"properties":[{"name":"image_layer_name","type":"string","value":"background_back_1"},{"name":"a","type":"int","value":255},{"name":"f","type":"int","value":0},{"name":"x","type":"int","value":-230},{"name":"y","type":"int","value":-312},{"name":"bS","type":"string","value":"event"},{"name":"cx","type":"int","value":1200},{"name":"cy","type":"int","value":0},{"name":"no","type":"int","value":21},{"name":"rx","type":"int","value":5},{"name":"ry","type":"int","value":-20},{"name":"ani","type":"int","value":0},{"name":"type","type":"int","value":4},{"name":"front","type":"int","value":0}],"point":true},{"id":75,"x":-1,"y":-237,"visible":true,"properties":[{"name":"image_layer_name","type":"string","value":"background_back_2"},{"name":"a","type":"int","value":255},{"name":"f","type":"int","value":0},{"name":"x","type":"int","value":-1},{"name":"y","type":"int","value":-237},{"name":"bS","type":"string","value":"event"},{"name":"cx","type":"int","value":1200},{"name":"cy","type":"int","value":0},{"name":"no","type":"int","value":22},{"name":"rx","type":"int","value":4},{"name":"ry","type":"int","value":-20},{"name":"ani","type":"int","value":0},{"name":"type","type":"int","value":4},{"name":"front","type":"int","value":0}],"point":true},{"id":76,"x":327,"y":-317,"visible":true,"properties":[{"name":"image_layer_name","type":"string","value":"background_back_3"},{"name":"a","type":"int","value":255},{"name":"f","type":"int","value":1},{"name":"x","type":"int","value":327},{"name":"y","type":"int","value":-317},{"name":"bS","type":"string","value":"event"},{"name":"cx","type":"int","value":1200},{"name":"cy","type":"int","value":0},{"name":"no","type":"int","value":23},{"name":"rx","type":"int","value":5},{"name":"ry","type":"int","value":-20},{"name":"ani","type":"int","value":0},{"name":"type","type":"int","value":4},{"name":"front","type":"int","value":0}],"point":true}]},{"id":15,"name":"portal","type":"objectgroup","visible":true,"opacity":1,"objects":[{"id":77,"x":-403,"y":127,"visible":true,"properties":[{"name":"x","type":"int","value":-403},{"name":"y","type":"int","value":127},{"name":"pn","type":"string","value":"sp"},{"name":"pt","type":"int","value":0},{"name":"tm","type":"int","value":999999999},{"name":"tn","type":"string","value":""}],"point":true},{"id":78,"x":-535,"y":144,"visible":true,"properties":[{"name":"x","type":"int","value":-535},{"name":"y","type":"int","value":144},{"name":"pn","type":"string","value":"st00"},{"name":"pt","type":"int","value":1},{"name":"tm","type":"int","value":999999999},{"name":"tn","type":"string","value":""},{"name":"delay","type":"int","value":0},{"name":"script","type":"string","value":""},{"name":"onlyOnce","type":"int","value":0},{"name":"hideTooltip","type":"int","value":0}],"point":true}]},{"id":16,"name":"life","type":"objectgroup","visible":true,"opacity":1,"objects":[{"id":79,"x":240,"y":145,"visible":true,"properties":[{"name":"f","type":"int","value":0},{"name":"x","type":"int","value":240},{"name":"y","type":"int","value":145},{"name":"cy","type":"int","value":155},{"name":"fh","type":"int","value":10},{"name":"id","type":"int","value":9000052},{"name":"rx0","type":"int","value":190},{"name":"rx1","type":"int","value":290},{"name":"hide","type":"int","value":0},{"name":"type","type":"string","value":"n"},{"name":"mobTime","type":"int","value":0}],"point":true}]},{"id":17,"name":"foothold","type":"objectgroup","visible":true,"opacity":1,"objects":[{"id":80,"x":90,"y":155,"visible":true,"properties":[{"name":"layer","type":"int","value":1},{"name":"group","type":"int","value":0},{"name":"id","type":"int","value":1},{"name":"fh_layer","type":"int","value":1},{"name":"fh_group","type":"int","value":0},{"name":"fh_id","type":"int","value":1},{"name":"x1","type":"int","value":90},{"name":"x2","type":"int","value":180},{"name":"y1","type":"int","value":155},{"name":"y2","type":"int","value":155},{"name":"next","type":"int","value":10},{"name":"prev","type":"int","value":7}],"polyline":[{"x":0,"y":0},{"x":90,"y":0}]},{"id":81,"x":-270,"y":155,"visible":true,"properties":[{"name":"layer","type":"int","value":1},{"name":"group","type":"int","value":0},{"name":"id","type":"int","value":2},{"name":"fh_layer","type":"int","value":1},{"name":"fh_group","type":"int","value":0},{"name":"fh_id","type":"int","value":2},{"name":"x1","type":"int","value":-270},{"name":"x2","type":"int","value":-180},{"name":"y1","type":"int","value":155},{"name":"y2","type":"int","value":155},{"name":"next","type":"int","value":4},{"name":"prev","type":"int","value":12}],"polyline":[{"x":0,"y":0},{"x":90,"y":0}]},{"id":82,"x":-90,"y":155,"visible":true,"properties":[{"name":"layer","type":"int","value":1},{"name":"group","type":"int","value":0},{"name":"id","type":"int","value":3},{"name":"fh_layer","type":"int","value":1},{"name":"fh_group","type":"int","value":0},{"name":"fh_id","type":"int","value":3},{"name":"x1","type":"int","value":-90},{"name":"x2","type":"int","value":0},{"name":"y1","type":"int","value":155},{"name":"y2","type":"int","value":155},{"name":"next","type":"int","value":7},{"name":"prev","type":"int","value":4}],"polyline":[{"x":0,"y":0},{"x":90,"y":0}]},{"id":83,"x":-180,"y":155,"visible":true,"properties":[{"name":"layer","type":"int","value":1},{"name":"group","type":"int","value":0},{"name":"id","type":"int","value":4},{"name":"fh_layer","type":"int","value":1},{"name":"fh_group","type":"int","value":0},{"name":"fh_id","type":"int","value":4},{"name":"x1","type":"int","value":-180},{"name":"x2","type":"int","value":-90},{"name":"y1","type":"int","value":155},{"name":"y2","type":"int","value":155},{"name":"next","type":"int","value":3},{"name":"prev","type":"int","value":2}],"polyline":[{"x":0,"y":0},{"x":90,"y":0}]},{"id":84,"x":-450,"y":155,"visible":true,"properties":[{"name":"layer","type":"int","value":1},{"name":"group","type":"int","value":0},{"name":"id","type":"int","value":5},{"name":"fh_layer","type":"int","value":1},{"name":"fh_group","type":"int","value":0},{"name":"fh_id","type":"int","value":5},{"name":"x1","type":"int","value":-450},{"name":"x2","type":"int","value":-360},{"name":"y1","type":"int","value":155},{"name":"y2","type":"int","value":155},{"name":"next","type":"int","value":12},{"name":"prev","type":"int","value":6}],"polyline":[{"x":0,"y":0},{"x":90,"y":0}]},{"id":85,"x":-540,"y":155,"visible":true,"properties":[{"name":"layer","type":"int","value":1},{"name":"group","type":"int","value":0},{"name":"id","type":"int","value":6},{"name":"fh_layer","type":"int","value":1},{"name":"fh_group","type":"int","value":0},{"name":"fh_id","type":"int","value":6},{"name":"x1","type":"int","value":-540},{"name":"x2","type":"int","value":-450},{"name":"y1","type":"int","value":155},{"name":"y2","type":"int","value":155},{"name":"next","type":"int","value":5},{"name":"prev","type":"int","value":11}],"polyline":[{"x":0,"y":0},{"x":90,"y":0}]},{"id":86,"x":0,"y":155,"visible":true,"properties":[{"name":"layer","type":"int","value":1},{"name":"group","type":"int","value":0},{"name":"id","type":"int","value":7},{"name":"fh_layer","type":"int","value":1},{"name":"fh_group","type":"int","value":0},{"name":"fh_id","type":"int","value":7},{"name":"x1","type":"int","value":0},{"name":"x2","type":"int","value":90},{"name":"y1","type":"int","value":155},{"name":"y2","type":"int","value":155},{"name":"next","type":"int","value":1},{"name":"prev","type":"int","value":3}],"polyline":[{"x":0,"y":0},{"x":90,"y":0}]},{"id":87,"x":360,"y":155,"visible":true,"properties":[{"name":"layer","type":"int","value":1},{"name":"group","type":"int","value":0},{"name":"id","type":"int","value":8},{"name":"fh_layer","type":"int","value":1},{"name":"fh_group","type":"int","value":0},{"name":"fh_id","type":"int","value":8},{"name":"x1","type":"int","value":360},{"name":"x2","type":"int","value":450},{"name":"y1","type":"int","value":155},{"name":"y2","type":"int","value":155},{"name":"next","type":"int","value":0},{"name":"prev","type":"int","value":9}],"polyline":[{"x":0,"y":0},{"x":90,"y":0}]},{"id":88,"x":270,"y":155,"visible":true,"properties":[{"name":"layer","type":"int","value":1},{"name":"group","type":"int","value":0},{"name":"id","type":"int","value":9},{"name":"fh_layer","type":"int","value":1},{"name":"fh_group","type":"int","value":0},{"name":"fh_id","type":"int","value":9},{"name":"x1","type":"int","value":270},{"name":"x2","type":"int","value":360},{"name":"y1","type":"int","value":155},{"name":"y2","type":"int","value":155},{"name":"next","type":"int","value":8},{"name":"prev","type":"int","value":10}],"polyline":[{"x":0,"y":0},{"x":90,"y":0}]},{"id":89,"x":180,"y":155,"visible":true,"properties":[{"name":"layer","type":"int","value":1},{"name":"group","type":"int","value":0},{"name":"id","type":"int","value":10},{"name":"fh_layer","type":"int","value":1},{"name":"fh_group","type":"int","value":0},{"name":"fh_id","type":"int","value":10},{"name":"x1","type":"int","value":180},{"name":"x2","type":"int","value":270},{"name":"y1","type":"int","value":155},{"name":"y2","type":"int","value":155},{"name":"next","type":"int","value":9},{"name":"prev","type":"int","value":1}],"polyline":[{"x":0,"y":0},{"x":90,"y":0}]},{"id":90,"x":-630,"y":155,"visible":true,"properties":[{"name":"layer","type":"int","value":1},{"name":"group","type":"int","value":0},{"name":"id","type":"int","value":11},{"name":"fh_layer","type":"int","value":1},{"name":"fh_group","type":"int","value":0},{"name":"fh_id","type":"int","value":11},{"name":"x1","type":"int","value":-630},{"name":"x2","type":"int","value":-540},{"name":"y1","type":"int","value":155},{"name":"y2","type":"int","value":155},{"name":"next","type":"int","value":6},{"name":"prev","type":"int","value":0}],"polyline":[{"x":0,"y":0},{"x":90,"y":0}]},{"id":91,"x":-360,"y":155,"visible":true,"properties":[{"name":"layer","type":"int","value":1},{"name":"group","type":"int","value":0},{"name":"id","type":"int","value":12},{"name":"fh_layer","type":"int","value":1},{"name":"fh_group","type":"int","value":0},{"name":"fh_id","type":"int","value":12},{"name":"x1","type":"int","value":-360},{"name":"x2","type":"int","value":-270},{"name":"y1","type":"int","value":155},{"name":"y2","type":"int","value":155},{"name":"next","type":"int","value":2},{"name":"prev","type":"int","value":5}],"polyline":[{"x":0,"y":0},{"x":90,"y":0}]}]},{"id":18,"name":"miniMap","type":"objectgroup","visible":true,"opacity":1,"objects":[{"id":92,"x":697,"y":640,"visible":true,"properties":[{"name":"mag","type":"int","value":4},{"name":"centerX","type":"int","value":697},{"name":"centerY","type":"int","value":640},{"name":"canvas_path","type":"string","value":"../../images/30838.png"},{"name":"canvas_width","type":"int","value":75},{"name":"canvas_height","type":"int","value":67},{"name":"canvas_origin_x","type":"int","value":0},{"name":"canvas_origin_y","type":"int","value":0}],"point":true}]}],"tilesets":[{"firstgid":1,"source":"../../tilesets/bg_event.tsj"},{"firstgid":13,"source":"../../tilesets/tile_grassySoil.tsj"},{"firstgid":35,"source":"../../tilesets/obj_event_battleField_acc.tsj"},{"firstgid":41,"source":"../../tilesets/obj_event_battleField_wind.tsj"},{"firstgid":45,"source":"../../tilesets/obj_event_battleField_nature.tsj"}],"properties":[{"name":"bgm","type":"string","value":"Bgm18/WolfAndSheep"},{"name":"fly","type":"int","value":0},{"name":"swim","type":"int","value":0},{"name":"town","type":"int","value":0},{"name":"VRTop","type":"int","value":-300},{"name":"cloud","type":"int","value":0},{"name":"VRLeft","type":"int","value":-630},{"name":"VRRight","type":"int","value":450},{"name":"mapMark","type":"string","value":"Event"},{"name":"mobRate","type":"float","value":1},{"name":"version","type":"int","value":10},{"name":"VRBottom","type":"int","value":300},{"name":"noMapCmd","type":"int","value":0},{"name":"returnMap","type":"int","value":109050001},{"name":"fieldLimit","type":"int","value":337912},{"name":"hideMinimap","type":"int","value":0},{"name":"onUserEnter","type":"string","value":"BF_sheepChat"},{"name":"forcedReturn","type":"int","value":109050001},{"name":"onFirstUserEnter","type":"string","value":"BF_sheepSet"}]}