{"type":"map","orientation":"orthogonal","renderorder":"right-down","infinite":false,"tilewidth":1,"tileheight":1,"width":800,"height":600,"nextlayerid":7,"nextobjectid":80,"layers":[{"id":1,"name":"layer_1_obj","type":"objectgroup","visible":true,"opacity":1,"objects":[{"id":1,"x":-400,"y":299,"visible":true,"properties":[{"name":"layer","type":"int","value":1},{"name":"resource_index","type":"int","value":0},{"name":"oS","type":"string","value":"shop2"},{"name":"l0","type":"string","value":"shop"},{"name":"l1","type":"string","value":"skincareGS"},{"name":"l2","type":"string","value":"0"},{"name":"z","type":"int","value":0},{"name":"zM","type":"int","value":0},{"name":"f","type":"int","value":0}],"gid":9,"width":800,"height":600},{"id":2,"x":-324,"y":-228,"visible":true,"properties":[{"name":"layer","type":"int","value":1},{"name":"resource_index","type":"int","value":1},{"name":"oS","type":"string","value":"shop"},{"name":"l0","type":"string","value":"shop"},{"name":"l1","type":"string","value":"hairshopGS"},{"name":"l2","type":"string","value":"7"},{"name":"z","type":"int","value":2},{"name":"zM","type":"int","value":0},{"name":"f","type":"int","value":0}],"gid":2,"width":647,"height":57},{"id":3,"x":-321,"y":182,"visible":true,"properties":[{"name":"layer","type":"int","value":1},{"name":"resource_index","type":"int","value":2},{"name":"oS","type":"string","value":"shop2"},{"name":"l0","type":"string","value":"shop"},{"name":"l1","type":"string","value":"skincareGS"},{"name":"l2","type":"string","value":"7"},{"name":"z","type":"int","value":3},{"name":"zM","type":"int","value":0},{"name":"f","type":"int","value":0}],"gid":10,"width":101,"height":168},{"id":4,"x":-48,"y":183,"visible":true,"properties":[{"name":"layer","type":"int","value":1},{"name":"resource_index","type":"int","value":3},{"name":"oS","type":"string","value":"shop2"},{"name":"l0","type":"string","value":"shop"},{"name":"l1","type":"string","value":"skincareGS"},{"name":"l2","type":"string","value":"10"},{"name":"z","type":"int","value":3},{"name":"zM","type":"int","value":0},{"name":"f","type":"int","value":0}],"gid":11,"width":132,"height":48},{"id":5,"x":-292,"y":183,"visible":true,"properties":[{"name":"layer","type":"int","value":1},{"name":"resource_index","type":"int","value":4},{"name":"oS","type":"string","value":"shop2"},{"name":"l0","type":"string","value":"shop"},{"name":"l1","type":"string","value":"skincareGS"},{"name":"l2","type":"string","value":"14"},{"name":"z","type":"int","value":6},{"name":"zM","type":"int","value":0},{"name":"f","type":"int","value":0}],"gid":12,"width":50,"height":74},{"id":6,"x":-98,"y":182,"visible":true,"properties":[{"name":"layer","type":"int","value":1},{"name":"resource_index","type":"int","value":5},{"name":"oS","type":"string","value":"shop2"},{"name":"l0","type":"string","value":"shop"},{"name":"l1","type":"string","value":"skincareGS"},{"name":"l2","type":"string","value":"13"},{"name":"z","type":"int","value":2},{"name":"zM","type":"int","value":0},{"name":"f","type":"int","value":0}],"gid":13,"width":49,"height":95},{"id":7,"x":-246,"y":182,"visible":true,"properties":[{"name":"layer","type":"int","value":1},{"name":"resource_index","type":"int","value":6},{"name":"oS","type":"string","value":"shop2"},{"name":"l0","type":"string","value":"shop"},{"name":"l1","type":"string","value":"skincareGS"},{"name":"l2","type":"string","value":"7"},{"name":"z","type":"int","value":2},{"name":"zM","type":"int","value":0},{"name":"f","type":"int","value":0}],"gid":10,"width":101,"height":168},{"id":8,"x":-123,"y":181,"visible":true,"properties":[{"name":"layer","type":"int","value":1},{"name":"resource_index","type":"int","value":7},{"name":"oS","type":"string","value":"shop2"},{"name":"l0","type":"string","value":"shop"},{"name":"l1","type":"string","value":"skincareGS"},{"name":"l2","type":"string","value":"15"},{"name":"z","type":"int","value":3},{"name":"zM","type":"int","value":0},{"name":"f","type":"int","value":0}],"gid":14,"width":51,"height":52},{"id":9,"x":37,"y":-52,"visible":true,"properties":[{"name":"layer","type":"int","value":1},{"name":"resource_index","type":"int","value":8},{"name":"oS","type":"string","value":"shop2"},{"name":"l0","type":"string","value":"shop"},{"name":"l1","type":"string","value":"skincareGS"},{"name":"l2","type":"string","value":"16"},{"name":"z","type":"int","value":3},{"name":"zM","type":"int","value":0},{"name":"f","type":"int","value":0}],"gid":15,"width":82,"height":139},{"id":10,"x":-258,"y":184,"visible":true,"properties":[{"name":"layer","type":"int","value":1},{"name":"resource_index","type":"int","value":9},{"name":"oS","type":"string","value":"shop2"},{"name":"l0","type":"string","value":"shop"},{"name":"l1","type":"string","value":"skincareGS"},{"name":"l2","type":"string","value":"6"},{"name":"z","type":"int","value":4},{"name":"zM","type":"int","value":0},{"name":"f","type":"int","value":0}],"gid":16,"width":189,"height":101},{"id":11,"x":-31,"y":139,"visible":true,"properties":[{"name":"layer","type":"int","value":1},{"name":"resource_index","type":"int","value":10},{"name":"oS","type":"string","value":"shop2"},{"name":"l0","type":"string","value":"shop"},{"name":"l1","type":"string","value":"skincareGS"},{"name":"l2","type":"string","value":"20"},{"name":"z","type":"int","value":3},{"name":"zM","type":"int","value":0},{"name":"f","type":"int","value":0}],"gid":17,"width":46,"height":52},{"id":12,"x":-303,"y":-21,"visible":true,"properties":[{"name":"layer","type":"int","value":1},{"name":"resource_index","type":"int","value":11},{"name":"oS","type":"string","value":"shop2"},{"name":"l0","type":"string","value":"shop"},{"name":"l1","type":"string","value":"skincareGS"},{"name":"l2","type":"string","value":"12"},{"name":"z","type":"int","value":3},{"name":"zM","type":"int","value":0},{"name":"f","type":"int","value":0}],"gid":18,"width":66,"height":88},{"id":13,"x":-258,"y":-21,"visible":true,"properties":[{"name":"layer","type":"int","value":1},{"name":"resource_index","type":"int","value":12},{"name":"oS","type":"string","value":"shop2"},{"name":"l0","type":"string","value":"shop"},{"name":"l1","type":"string","value":"skincareGS"},{"name":"l2","type":"string","value":"8"},{"name":"z","type":"int","value":4},{"name":"zM","type":"int","value":0},{"name":"f","type":"int","value":0}],"gid":19,"width":90,"height":71},{"id":14,"x":-142,"y":-20,"visible":true,"properties":[{"name":"layer","type":"int","value":1},{"name":"resource_index","type":"int","value":13},{"name":"oS","type":"string","value":"shop2"},{"name":"l0","type":"string","value":"shop"},{"name":"l1","type":"string","value":"skincareGS"},{"name":"l2","type":"string","value":"13"},{"name":"z","type":"int","value":3},{"name":"zM","type":"int","value":0},{"name":"f","type":"int","value":0}],"gid":13,"width":49,"height":95},{"id":15,"x":-83,"y":-52,"visible":true,"properties":[{"name":"layer","type":"int","value":1},{"name":"resource_index","type":"int","value":14},{"name":"oS","type":"string","value":"shop2"},{"name":"l0","type":"string","value":"shop"},{"name":"l1","type":"string","value":"skincareGS"},{"name":"l2","type":"string","value":"16"},{"name":"z","type":"int","value":3},{"name":"zM","type":"int","value":0},{"name":"f","type":"int","value":0}],"gid":15,"width":82,"height":139},{"id":16,"x":-299,"y":-56,"visible":true,"properties":[{"name":"layer","type":"int","value":1},{"name":"resource_index","type":"int","value":15},{"name":"oS","type":"string","value":"shop2"},{"name":"l0","type":"string","value":"shop"},{"name":"l1","type":"string","value":"skincareGS"},{"name":"l2","type":"string","value":"26"},{"name":"z","type":"int","value":1},{"name":"zM","type":"int","value":0},{"name":"f","type":"int","value":0}],"gid":20,"width":86,"height":99},{"id":17,"x":-123,"y":-54,"visible":true,"properties":[{"name":"layer","type":"int","value":1},{"name":"resource_index","type":"int","value":16},{"name":"oS","type":"string","value":"shop2"},{"name":"l0","type":"string","value":"shop"},{"name":"l1","type":"string","value":"skincareGS"},{"name":"l2","type":"string","value":"25"},{"name":"z","type":"int","value":1},{"name":"zM","type":"int","value":0},{"name":"f","type":"int","value":0}],"gid":21,"width":185,"height":100},{"id":18,"x":-140,"y":182,"visible":true,"properties":[{"name":"layer","type":"int","value":1},{"name":"resource_index","type":"int","value":17},{"name":"oS","type":"string","value":"shop2"},{"name":"l0","type":"string","value":"shop"},{"name":"l1","type":"string","value":"skincareGS"},{"name":"l2","type":"string","value":"27"},{"name":"z","type":"int","value":1},{"name":"zM","type":"int","value":0},{"name":"f","type":"int","value":0}],"gid":22,"width":240,"height":152}]},{"id":2,"name":"layer_2_obj","type":"objectgroup","visible":true,"opacity":1,"objects":[{"id":19,"x":-306,"y":8,"visible":true,"properties":[{"name":"layer","type":"int","value":2},{"name":"resource_index","type":"int","value":0},{"name":"oS","type":"string","value":"shop2"},{"name":"l0","type":"string","value":"shop"},{"name":"l1","type":"string","value":"skincareGS"},{"name":"l2","type":"string","value":"3"},{"name":"z","type":"int","value":6},{"name":"zM","type":"int","value":4},{"name":"f","type":"int","value":0}],"gid":23,"width":461,"height":29},{"id":20,"x":124,"y":144,"visible":true,"properties":[{"name":"layer","type":"int","value":2},{"name":"resource_index","type":"int","value":1},{"name":"oS","type":"string","value":"shop2"},{"name":"l0","type":"string","value":"shop"},{"name":"l1","type":"string","value":"skincareGS"},{"name":"l2","type":"string","value":"1"},{"name":"z","type":"int","value":3},{"name":"zM","type":"int","value":2},{"name":"f","type":"int","value":0}],"gid":24,"width":56,"height":132},{"id":21,"x":-314,"y":63,"visible":true,"properties":[{"name":"layer","type":"int","value":2},{"name":"resource_index","type":"int","value":2},{"name":"oS","type":"string","value":"shop2"},{"name":"l0","type":"string","value":"shop"},{"name":"l1","type":"string","value":"skincareGS"},{"name":"l2","type":"string","value":"4"},{"name":"z","type":"int","value":4},{"name":"zM","type":"int","value":4},{"name":"f","type":"int","value":0}],"gid":25,"width":467,"height":62},{"id":22,"x":-94,"y":-20,"visible":true,"properties":[{"name":"layer","type":"int","value":2},{"name":"resource_index","type":"int","value":3},{"name":"oS","type":"string","value":"shop2"},{"name":"l0","type":"string","value":"shop"},{"name":"l1","type":"string","value":"skincareGS"},{"name":"l2","type":"string","value":"17"},{"name":"z","type":"int","value":3},{"name":"zM","type":"int","value":4},{"name":"f","type":"int","value":0}],"gid":26,"width":104,"height":179},{"id":23,"x":26,"y":-20,"visible":true,"properties":[{"name":"layer","type":"int","value":2},{"name":"resource_index","type":"int","value":4},{"name":"oS","type":"string","value":"shop2"},{"name":"l0","type":"string","value":"shop"},{"name":"l1","type":"string","value":"skincareGS"},{"name":"l2","type":"string","value":"17"},{"name":"z","type":"int","value":2},{"name":"zM","type":"int","value":4},{"name":"f","type":"int","value":0}],"gid":26,"width":104,"height":179},{"id":24,"x":7,"y":161,"visible":true,"properties":[{"name":"layer","type":"int","value":2},{"name":"resource_index","type":"int","value":5},{"name":"oS","type":"string","value":"shop2"},{"name":"l0","type":"string","value":"shop"},{"name":"l1","type":"string","value":"skincareGS"},{"name":"l2","type":"string","value":"11"},{"name":"z","type":"int","value":3},{"name":"zM","type":"int","value":3},{"name":"f","type":"int","value":0}],"gid":27,"width":71,"height":89},{"id":25,"x":-89,"y":8,"visible":true,"properties":[{"name":"layer","type":"int","value":2},{"name":"resource_index","type":"int","value":6},{"name":"oS","type":"string","value":"shop2"},{"name":"l0","type":"string","value":"shop"},{"name":"l1","type":"string","value":"skincareGS"},{"name":"l2","type":"string","value":"14"},{"name":"z","type":"int","value":5},{"name":"zM","type":"int","value":4},{"name":"f","type":"int","value":0}],"gid":12,"width":50,"height":74},{"id":26,"x":-106,"y":-97,"visible":true,"properties":[{"name":"layer","type":"int","value":2},{"name":"resource_index","type":"int","value":7},{"name":"oS","type":"string","value":"shop2"},{"name":"l0","type":"string","value":"shop"},{"name":"l1","type":"string","value":"skincareGS"},{"name":"l2","type":"string","value":"19"},{"name":"z","type":"int","value":4},{"name":"zM","type":"int","value":4},{"name":"f","type":"int","value":0}],"gid":28,"width":120,"height":24},{"id":27,"x":15,"y":-97,"visible":true,"properties":[{"name":"layer","type":"int","value":2},{"name":"resource_index","type":"int","value":8},{"name":"oS","type":"string","value":"shop2"},{"name":"l0","type":"string","value":"shop"},{"name":"l1","type":"string","value":"skincareGS"},{"name":"l2","type":"string","value":"18"},{"name":"z","type":"int","value":3},{"name":"zM","type":"int","value":4},{"name":"f","type":"int","value":0}],"gid":29,"width":120,"height":24},{"id":28,"x":-40,"y":-138,"visible":true,"properties":[{"name":"layer","type":"int","value":2},{"name":"resource_index","type":"int","value":9},{"name":"oS","type":"string","value":"shop2"},{"name":"l0","type":"string","value":"shop"},{"name":"l1","type":"string","value":"skincareGS"},{"name":"l2","type":"string","value":"21"},{"name":"z","type":"int","value":0},{"name":"zM","type":"int","value":4},{"name":"f","type":"int","value":0}],"gid":30,"width":24,"height":39},{"id":29,"x":-69,"y":-136,"visible":true,"properties":[{"name":"layer","type":"int","value":2},{"name":"resource_index","type":"int","value":10},{"name":"oS","type":"string","value":"shop2"},{"name":"l0","type":"string","value":"shop"},{"name":"l1","type":"string","value":"skincareGS"},{"name":"l2","type":"string","value":"23"},{"name":"z","type":"int","value":0},{"name":"zM","type":"int","value":4},{"name":"f","type":"int","value":0}],"gid":31,"width":24,"height":42},{"id":30,"x":-55,"y":-132,"visible":true,"properties":[{"name":"layer","type":"int","value":2},{"name":"resource_index","type":"int","value":11},{"name":"oS","type":"string","value":"shop2"},{"name":"l0","type":"string","value":"shop"},{"name":"l1","type":"string","value":"skincareGS"},{"name":"l2","type":"string","value":"22"},{"name":"z","type":"int","value":1},{"name":"zM","type":"int","value":4},{"name":"f","type":"int","value":0}],"gid":32,"width":25,"height":45},{"id":31,"x":80,"y":-138,"visible":true,"properties":[{"name":"layer","type":"int","value":2},{"name":"resource_index","type":"int","value":12},{"name":"oS","type":"string","value":"shop2"},{"name":"l0","type":"string","value":"shop"},{"name":"l1","type":"string","value":"skincareGS"},{"name":"l2","type":"string","value":"21"},{"name":"z","type":"int","value":1},{"name":"zM","type":"int","value":4},{"name":"f","type":"int","value":0}],"gid":30,"width":24,"height":39},{"id":32,"x":51,"y":-136,"visible":true,"properties":[{"name":"layer","type":"int","value":2},{"name":"resource_index","type":"int","value":13},{"name":"oS","type":"string","value":"shop2"},{"name":"l0","type":"string","value":"shop"},{"name":"l1","type":"string","value":"skincareGS"},{"name":"l2","type":"string","value":"23"},{"name":"z","type":"int","value":1},{"name":"zM","type":"int","value":4},{"name":"f","type":"int","value":0}],"gid":31,"width":24,"height":42},{"id":33,"x":65,"y":-132,"visible":true,"properties":[{"name":"layer","type":"int","value":2},{"name":"resource_index","type":"int","value":14},{"name":"oS","type":"string","value":"shop2"},{"name":"l0","type":"string","value":"shop"},{"name":"l1","type":"string","value":"skincareGS"},{"name":"l2","type":"string","value":"22"},{"name":"z","type":"int","value":0},{"name":"zM","type":"int","value":4},{"name":"f","type":"int","value":0}],"gid":32,"width":25,"height":45},{"id":34,"x":91,"y":181,"visible":true,"properties":[{"name":"layer","type":"int","value":2},{"name":"resource_index","type":"int","value":15},{"name":"oS","type":"string","value":"shop2"},{"name":"l0","type":"string","value":"shop"},{"name":"l1","type":"string","value":"skincareGS"},{"name":"l2","type":"string","value":"9"},{"name":"z","type":"int","value":6},{"name":"zM","type":"int","value":2},{"name":"f","type":"int","value":0}],"gid":33,"width":35,"height":63}]},{"id":3,"name":"layer_3_obj","type":"objectgroup","visible":true,"opacity":1,"objects":[{"id":35,"x":267,"y":185,"visible":true,"properties":[{"name":"layer","type":"int","value":3},{"name":"resource_index","type":"int","value":0},{"name":"oS","type":"string","value":"shop"},{"name":"l0","type":"string","value":"shop"},{"name":"l1","type":"string","value":"hairshopGS"},{"name":"l2","type":"string","value":"5"},{"name":"z","type":"int","value":2},{"name":"zM","type":"int","value":1},{"name":"f","type":"int","value":0}],"gid":4,"width":119,"height":136},{"id":36,"x":-400,"y":299,"visible":true,"properties":[{"name":"layer","type":"int","value":3},{"name":"resource_index","type":"int","value":1},{"name":"oS","type":"string","value":"shop"},{"name":"l0","type":"string","value":"shop"},{"name":"l1","type":"string","value":"hairshopGS"},{"name":"l2","type":"string","value":"1"},{"name":"z","type":"int","value":4},{"name":"zM","type":"int","value":1},{"name":"f","type":"int","value":0}],"gid":5,"width":800,"height":120},{"id":37,"x":-400,"y":182,"visible":true,"properties":[{"name":"layer","type":"int","value":3},{"name":"resource_index","type":"int","value":2},{"name":"oS","type":"string","value":"shop"},{"name":"l0","type":"string","value":"shop"},{"name":"l1","type":"string","value":"hairshopGS"},{"name":"l2","type":"string","value":"2"},{"name":"z","type":"int","value":3},{"name":"zM","type":"int","value":1},{"name":"f","type":"int","value":0}],"gid":6,"width":800,"height":483},{"id":38,"x":-400,"y":299,"visible":true,"properties":[{"name":"layer","type":"int","value":3},{"name":"resource_index","type":"int","value":3},{"name":"oS","type":"string","value":"shop"},{"name":"l0","type":"string","value":"shop"},{"name":"l1","type":"string","value":"hairshopGS"},{"name":"l2","type":"string","value":"6"},{"name":"z","type":"int","value":7},{"name":"zM","type":"int","value":1},{"name":"f","type":"int","value":0}],"gid":8,"width":800,"height":600},{"id":39,"x":-399,"y":203,"visible":true,"properties":[{"name":"layer","type":"int","value":3},{"name":"resource_index","type":"int","value":4},{"name":"oS","type":"string","value":"shop2"},{"name":"l0","type":"string","value":"shop"},{"name":"l1","type":"string","value":"skincareGS"},{"name":"l2","type":"string","value":"2"},{"name":"z","type":"int","value":4},{"name":"zM","type":"int","value":1},{"name":"f","type":"int","value":0}],"gid":34,"width":800,"height":22},{"id":40,"x":-286,"y":-174,"visible":true,"properties":[{"name":"layer","type":"int","value":3},{"name":"resource_index","type":"int","value":5},{"name":"oS","type":"string","value":"shop2"},{"name":"l0","type":"string","value":"shop"},{"name":"l1","type":"string","value":"skincareGS"},{"name":"l2","type":"string","value":"5"},{"name":"z","type":"int","value":3},{"name":"zM","type":"int","value":1},{"name":"f","type":"int","value":0}],"gid":35,"width":162,"height":127},{"id":41,"x":-151,"y":-174,"visible":true,"properties":[{"name":"layer","type":"int","value":3},{"name":"resource_index","type":"int","value":6},{"name":"oS","type":"string","value":"shop2"},{"name":"l0","type":"string","value":"shop"},{"name":"l1","type":"string","value":"skincareGS"},{"name":"l2","type":"string","value":"5"},{"name":"z","type":"int","value":2},{"name":"zM","type":"int","value":1},{"name":"f","type":"int","value":0}],"gid":35,"width":162,"height":127},{"id":42,"x":-14,"y":-174,"visible":true,"properties":[{"name":"layer","type":"int","value":3},{"name":"resource_index","type":"int","value":7},{"name":"oS","type":"string","value":"shop2"},{"name":"l0","type":"string","value":"shop"},{"name":"l1","type":"string","value":"skincareGS"},{"name":"l2","type":"string","value":"5"},{"name":"z","type":"int","value":1},{"name":"zM","type":"int","value":1},{"name":"f","type":"int","value":0}],"gid":35,"width":162,"height":127},{"id":43,"x":123,"y":-174,"visible":true,"properties":[{"name":"layer","type":"int","value":3},{"name":"resource_index","type":"int","value":8},{"name":"oS","type":"string","value":"shop2"},{"name":"l0","type":"string","value":"shop"},{"name":"l1","type":"string","value":"skincareGS"},{"name":"l2","type":"string","value":"5"},{"name":"z","type":"int","value":3},{"name":"zM","type":"int","value":1},{"name":"f","type":"int","value":0}],"gid":35,"width":162,"height":127}]},{"id":4,"name":"portal","type":"objectgroup","visible":true,"opacity":1,"objects":[{"id":44,"x":246,"y":153,"visible":true,"properties":[{"name":"x","type":"int","value":246},{"name":"y","type":"int","value":153},{"name":"pn","type":"string","value":"sp"},{"name":"pt","type":"int","value":0},{"name":"tm","type":"int","value":999999999},{"name":"tn","type":"string","value":""}],"point":true},{"id":45,"x":191,"y":159,"visible":true,"properties":[{"name":"x","type":"int","value":191},{"name":"y","type":"int","value":159},{"name":"pn","type":"string","value":"sp"},{"name":"pt","type":"int","value":0},{"name":"tm","type":"int","value":999999999},{"name":"tn","type":"string","value":""}],"point":true},{"id":46,"x":-314,"y":139,"visible":true,"properties":[{"name":"x","type":"int","value":-314},{"name":"y","type":"int","value":139},{"name":"pn","type":"string","value":"sp"},{"name":"pt","type":"int","value":0},{"name":"tm","type":"int","value":999999999},{"name":"tn","type":"string","value":""}],"point":true},{"id":47,"x":-275,"y":153,"visible":true,"properties":[{"name":"x","type":"int","value":-275},{"name":"y","type":"int","value":153},{"name":"pn","type":"string","value":"sp"},{"name":"pt","type":"int","value":0},{"name":"tm","type":"int","value":999999999},{"name":"tn","type":"string","value":""}],"point":true},{"id":48,"x":-63,"y":170,"visible":true,"properties":[{"name":"x","type":"int","value":-63},{"name":"y","type":"int","value":170},{"name":"pn","type":"string","value":"sp"},{"name":"pt","type":"int","value":0},{"name":"tm","type":"int","value":999999999},{"name":"tn","type":"string","value":""}],"point":true},{"id":49,"x":340,"y":179,"visible":true,"properties":[{"name":"x","type":"int","value":340},{"name":"y","type":"int","value":179},{"name":"pn","type":"string","value":"out00"},{"name":"pt","type":"int","value":2},{"name":"tm","type":"int","value":100000100},{"name":"tn","type":"string","value":"in06"}],"point":true}]},{"id":5,"name":"life","type":"objectgroup","visible":true,"opacity":1,"objects":[{"id":50,"x":-147,"y":-21,"visible":true,"properties":[{"name":"f","type":"int","value":0},{"name":"x","type":"int","value":-147},{"name":"y","type":"int","value":-21},{"name":"cy","type":"int","value":-21},{"name":"fh","type":"int","value":22},{"name":"id","type":"int","value":1012105},{"name":"rx0","type":"int","value":-197},{"name":"rx1","type":"int","value":-97},{"name":"type","type":"string","value":"n"},{"name":"mobTime","type":"int","value":0}],"point":true}]},{"id":6,"name":"foothold","type":"objectgroup","visible":true,"opacity":1,"objects":[{"id":51,"x":205,"y":157,"visible":true,"properties":[{"name":"layer","type":"int","value":1},{"name":"group","type":"int","value":0},{"name":"id","type":"int","value":1},{"name":"fh_layer","type":"int","value":1},{"name":"fh_group","type":"int","value":0},{"name":"fh_id","type":"int","value":1},{"name":"x1","type":"int","value":205},{"name":"x2","type":"int","value":310},{"name":"y1","type":"int","value":157},{"name":"y2","type":"int","value":157},{"name":"next","type":"int","value":2},{"name":"prev","type":"int","value":0}],"polyline":[{"x":0,"y":0},{"x":105,"y":0}]},{"id":52,"x":310,"y":157,"visible":true,"properties":[{"name":"layer","type":"int","value":1},{"name":"group","type":"int","value":0},{"name":"id","type":"int","value":2},{"name":"fh_layer","type":"int","value":1},{"name":"fh_group","type":"int","value":0},{"name":"fh_id","type":"int","value":2},{"name":"x1","type":"int","value":310},{"name":"x2","type":"int","value":310},{"name":"y1","type":"int","value":157},{"name":"y2","type":"int","value":132},{"name":"next","type":"int","value":3},{"name":"prev","type":"int","value":1}],"polyline":[{"x":0,"y":0},{"x":0,"y":-25}]},{"id":53,"x":310,"y":132,"visible":true,"properties":[{"name":"layer","type":"int","value":1},{"name":"group","type":"int","value":0},{"name":"id","type":"int","value":3},{"name":"fh_layer","type":"int","value":1},{"name":"fh_group","type":"int","value":0},{"name":"fh_id","type":"int","value":3},{"name":"x1","type":"int","value":310},{"name":"x2","type":"int","value":333},{"name":"y1","type":"int","value":132},{"name":"y2","type":"int","value":132},{"name":"next","type":"int","value":4},{"name":"prev","type":"int","value":7}],"polyline":[{"x":0,"y":0},{"x":23,"y":0}]},{"id":54,"x":333,"y":132,"visible":true,"properties":[{"name":"layer","type":"int","value":1},{"name":"group","type":"int","value":0},{"name":"id","type":"int","value":4},{"name":"fh_layer","type":"int","value":1},{"name":"fh_group","type":"int","value":0},{"name":"fh_id","type":"int","value":4},{"name":"x1","type":"int","value":333},{"name":"x2","type":"int","value":333},{"name":"y1","type":"int","value":132},{"name":"y2","type":"int","value":107},{"name":"next","type":"int","value":5},{"name":"prev","type":"int","value":3}],"polyline":[{"x":0,"y":0},{"x":0,"y":-25}]},{"id":55,"x":333,"y":107,"visible":true,"properties":[{"name":"layer","type":"int","value":1},{"name":"group","type":"int","value":0},{"name":"id","type":"int","value":5},{"name":"fh_layer","type":"int","value":1},{"name":"fh_group","type":"int","value":0},{"name":"fh_id","type":"int","value":5},{"name":"x1","type":"int","value":333},{"name":"x2","type":"int","value":355},{"name":"y1","type":"int","value":107},{"name":"y2","type":"int","value":107},{"name":"next","type":"int","value":6},{"name":"prev","type":"int","value":8}],"polyline":[{"x":0,"y":0},{"x":22,"y":0}]},{"id":56,"x":355,"y":107,"visible":true,"properties":[{"name":"layer","type":"int","value":1},{"name":"group","type":"int","value":0},{"name":"id","type":"int","value":6},{"name":"fh_layer","type":"int","value":1},{"name":"fh_group","type":"int","value":0},{"name":"fh_id","type":"int","value":6},{"name":"x1","type":"int","value":355},{"name":"x2","type":"int","value":355},{"name":"y1","type":"int","value":107},{"name":"y2","type":"int","value":82},{"name":"next","type":"int","value":10},{"name":"prev","type":"int","value":5}],"polyline":[{"x":0,"y":0},{"x":0,"y":-25}]},{"id":57,"x":228,"y":132,"visible":true,"properties":[{"name":"layer","type":"int","value":1},{"name":"group","type":"int","value":0},{"name":"id","type":"int","value":7},{"name":"fh_layer","type":"int","value":1},{"name":"fh_group","type":"int","value":0},{"name":"fh_id","type":"int","value":7},{"name":"x1","type":"int","value":228},{"name":"x2","type":"int","value":310},{"name":"y1","type":"int","value":132},{"name":"y2","type":"int","value":132},{"name":"next","type":"int","value":3},{"name":"prev","type":"int","value":0}],"polyline":[{"x":0,"y":0},{"x":82,"y":0}]},{"id":58,"x":249,"y":107,"visible":true,"properties":[{"name":"layer","type":"int","value":1},{"name":"group","type":"int","value":0},{"name":"id","type":"int","value":8},{"name":"fh_layer","type":"int","value":1},{"name":"fh_group","type":"int","value":0},{"name":"fh_id","type":"int","value":8},{"name":"x1","type":"int","value":249},{"name":"x2","type":"int","value":333},{"name":"y1","type":"int","value":107},{"name":"y2","type":"int","value":107},{"name":"next","type":"int","value":5},{"name":"prev","type":"int","value":0}],"polyline":[{"x":0,"y":0},{"x":84,"y":0}]},{"id":59,"x":272,"y":82,"visible":true,"properties":[{"name":"layer","type":"int","value":1},{"name":"group","type":"int","value":0},{"name":"id","type":"int","value":9},{"name":"fh_layer","type":"int","value":1},{"name":"fh_group","type":"int","value":0},{"name":"fh_id","type":"int","value":9},{"name":"x1","type":"int","value":272},{"name":"x2","type":"int","value":355},{"name":"y1","type":"int","value":82},{"name":"y2","type":"int","value":82},{"name":"next","type":"int","value":10},{"name":"prev","type":"int","value":0}],"polyline":[{"x":0,"y":0},{"x":83,"y":0}]},{"id":60,"x":355,"y":82,"visible":true,"properties":[{"name":"layer","type":"int","value":1},{"name":"group","type":"int","value":0},{"name":"id","type":"int","value":10},{"name":"fh_layer","type":"int","value":1},{"name":"fh_group","type":"int","value":0},{"name":"fh_id","type":"int","value":10},{"name":"x1","type":"int","value":355},{"name":"x2","type":"int","value":372},{"name":"y1","type":"int","value":82},{"name":"y2","type":"int","value":82},{"name":"next","type":"int","value":11},{"name":"prev","type":"int","value":9}],"polyline":[{"x":0,"y":0},{"x":17,"y":0}]},{"id":61,"x":372,"y":82,"visible":true,"properties":[{"name":"layer","type":"int","value":1},{"name":"group","type":"int","value":0},{"name":"id","type":"int","value":11},{"name":"fh_layer","type":"int","value":1},{"name":"fh_group","type":"int","value":0},{"name":"fh_id","type":"int","value":11},{"name":"x1","type":"int","value":372},{"name":"x2","type":"int","value":372},{"name":"y1","type":"int","value":82},{"name":"y2","type":"int","value":-288},{"name":"next","type":"int","value":0},{"name":"prev","type":"int","value":10}],"polyline":[{"x":0,"y":0},{"x":0,"y":-370}]},{"id":62,"x":185,"y":-94,"visible":true,"properties":[{"name":"layer","type":"int","value":1},{"name":"group","type":"int","value":0},{"name":"id","type":"int","value":12},{"name":"fh_layer","type":"int","value":1},{"name":"fh_group","type":"int","value":0},{"name":"fh_id","type":"int","value":12},{"name":"x1","type":"int","value":185},{"name":"x2","type":"int","value":306},{"name":"y1","type":"int","value":-94},{"name":"y2","type":"int","value":-94},{"name":"next","type":"int","value":0},{"name":"prev","type":"int","value":0}],"polyline":[{"x":0,"y":0},{"x":121,"y":0}]},{"id":63,"x":-46,"y":139,"visible":true,"properties":[{"name":"layer","type":"int","value":1},{"name":"group","type":"int","value":0},{"name":"id","type":"int","value":13},{"name":"fh_layer","type":"int","value":1},{"name":"fh_group","type":"int","value":0},{"name":"fh_id","type":"int","value":13},{"name":"x1","type":"int","value":-46},{"name":"x2","type":"int","value":83},{"name":"y1","type":"int","value":139},{"name":"y2","type":"int","value":139},{"name":"next","type":"int","value":0},{"name":"prev","type":"int","value":0}],"polyline":[{"x":0,"y":0},{"x":129,"y":0}]},{"id":64,"x":35,"y":-52,"visible":true,"properties":[{"name":"layer","type":"int","value":1},{"name":"group","type":"int","value":0},{"name":"id","type":"int","value":14},{"name":"fh_layer","type":"int","value":1},{"name":"fh_group","type":"int","value":0},{"name":"fh_id","type":"int","value":14},{"name":"x1","type":"int","value":35},{"name":"x2","type":"int","value":39},{"name":"y1","type":"int","value":-52},{"name":"y2","type":"int","value":-52},{"name":"next","type":"int","value":15},{"name":"prev","type":"int","value":0}],"polyline":[{"x":0,"y":0},{"x":4,"y":0}]},{"id":65,"x":39,"y":-52,"visible":true,"properties":[{"name":"layer","type":"int","value":1},{"name":"group","type":"int","value":0},{"name":"id","type":"int","value":15},{"name":"fh_layer","type":"int","value":1},{"name":"fh_group","type":"int","value":0},{"name":"fh_id","type":"int","value":15},{"name":"x1","type":"int","value":39},{"name":"x2","type":"int","value":118},{"name":"y1","type":"int","value":-52},{"name":"y2","type":"int","value":-52},{"name":"next","type":"int","value":16},{"name":"prev","type":"int","value":14}],"polyline":[{"x":0,"y":0},{"x":79,"y":0}]},{"id":66,"x":118,"y":-52,"visible":true,"properties":[{"name":"layer","type":"int","value":1},{"name":"group","type":"int","value":0},{"name":"id","type":"int","value":16},{"name":"fh_layer","type":"int","value":1},{"name":"fh_group","type":"int","value":0},{"name":"fh_id","type":"int","value":16},{"name":"x1","type":"int","value":118},{"name":"x2","type":"int","value":121},{"name":"y1","type":"int","value":-52},{"name":"y2","type":"int","value":-52},{"name":"next","type":"int","value":0},{"name":"prev","type":"int","value":15}],"polyline":[{"x":0,"y":0},{"x":3,"y":0}]},{"id":67,"x":-243,"y":148,"visible":true,"properties":[{"name":"layer","type":"int","value":1},{"name":"group","type":"int","value":0},{"name":"id","type":"int","value":17},{"name":"fh_layer","type":"int","value":1},{"name":"fh_group","type":"int","value":0},{"name":"fh_id","type":"int","value":17},{"name":"x1","type":"int","value":-243},{"name":"x2","type":"int","value":-69},{"name":"y1","type":"int","value":148},{"name":"y2","type":"int","value":148},{"name":"next","type":"int","value":0},{"name":"prev","type":"int","value":0}],"polyline":[{"x":0,"y":0},{"x":174,"y":0}]},{"id":68,"x":-85,"y":-52,"visible":true,"properties":[{"name":"layer","type":"int","value":1},{"name":"group","type":"int","value":0},{"name":"id","type":"int","value":18},{"name":"fh_layer","type":"int","value":1},{"name":"fh_group","type":"int","value":0},{"name":"fh_id","type":"int","value":18},{"name":"x1","type":"int","value":-85},{"name":"x2","type":"int","value":-81},{"name":"y1","type":"int","value":-52},{"name":"y2","type":"int","value":-52},{"name":"next","type":"int","value":19},{"name":"prev","type":"int","value":0}],"polyline":[{"x":0,"y":0},{"x":4,"y":0}]},{"id":69,"x":-81,"y":-52,"visible":true,"properties":[{"name":"layer","type":"int","value":1},{"name":"group","type":"int","value":0},{"name":"id","type":"int","value":19},{"name":"fh_layer","type":"int","value":1},{"name":"fh_group","type":"int","value":0},{"name":"fh_id","type":"int","value":19},{"name":"x1","type":"int","value":-81},{"name":"x2","type":"int","value":-2},{"name":"y1","type":"int","value":-52},{"name":"y2","type":"int","value":-52},{"name":"next","type":"int","value":20},{"name":"prev","type":"int","value":18}],"polyline":[{"x":0,"y":0},{"x":79,"y":0}]},{"id":70,"x":-2,"y":-52,"visible":true,"properties":[{"name":"layer","type":"int","value":1},{"name":"group","type":"int","value":0},{"name":"id","type":"int","value":20},{"name":"fh_layer","type":"int","value":1},{"name":"fh_group","type":"int","value":0},{"name":"fh_id","type":"int","value":20},{"name":"x1","type":"int","value":-2},{"name":"x2","type":"int","value":1},{"name":"y1","type":"int","value":-52},{"name":"y2","type":"int","value":-52},{"name":"next","type":"int","value":0},{"name":"prev","type":"int","value":19}],"polyline":[{"x":0,"y":0},{"x":3,"y":0}]},{"id":71,"x":129,"y":21,"visible":true,"properties":[{"name":"layer","type":"int","value":2},{"name":"group","type":"int","value":2},{"name":"id","type":"int","value":25},{"name":"fh_layer","type":"int","value":2},{"name":"fh_group","type":"int","value":2},{"name":"fh_id","type":"int","value":25},{"name":"x1","type":"int","value":129},{"name":"x2","type":"int","value":175},{"name":"y1","type":"int","value":21},{"name":"y2","type":"int","value":21},{"name":"next","type":"int","value":0},{"name":"prev","type":"int","value":0}],"polyline":[{"x":0,"y":0},{"x":46,"y":0}]},{"id":72,"x":129,"y":72,"visible":true,"properties":[{"name":"layer","type":"int","value":2},{"name":"group","type":"int","value":2},{"name":"id","type":"int","value":26},{"name":"fh_layer","type":"int","value":2},{"name":"fh_group","type":"int","value":2},{"name":"fh_id","type":"int","value":26},{"name":"x1","type":"int","value":129},{"name":"x2","type":"int","value":175},{"name":"y1","type":"int","value":72},{"name":"y2","type":"int","value":72},{"name":"next","type":"int","value":0},{"name":"prev","type":"int","value":0}],"polyline":[{"x":0,"y":0},{"x":46,"y":0}]},{"id":73,"x":129,"y":120,"visible":true,"properties":[{"name":"layer","type":"int","value":2},{"name":"group","type":"int","value":2},{"name":"id","type":"int","value":27},{"name":"fh_layer","type":"int","value":2},{"name":"fh_group","type":"int","value":2},{"name":"fh_id","type":"int","value":27},{"name":"x1","type":"int","value":129},{"name":"x2","type":"int","value":175},{"name":"y1","type":"int","value":120},{"name":"y2","type":"int","value":120},{"name":"next","type":"int","value":0},{"name":"prev","type":"int","value":0}],"polyline":[{"x":0,"y":0},{"x":46,"y":0}]},{"id":74,"x":-306,"y":-244,"visible":true,"properties":[{"name":"layer","type":"int","value":2},{"name":"group","type":"int","value":4},{"name":"id","type":"int","value":21},{"name":"fh_layer","type":"int","value":2},{"name":"fh_group","type":"int","value":4},{"name":"fh_id","type":"int","value":21},{"name":"x1","type":"int","value":-306},{"name":"x2","type":"int","value":-306},{"name":"y1","type":"int","value":-244},{"name":"y2","type":"int","value":-21},{"name":"next","type":"int","value":22},{"name":"prev","type":"int","value":0}],"polyline":[{"x":0,"y":0},{"x":0,"y":223}]},{"id":75,"x":-306,"y":-21,"visible":true,"properties":[{"name":"layer","type":"int","value":2},{"name":"group","type":"int","value":4},{"name":"id","type":"int","value":22},{"name":"fh_layer","type":"int","value":2},{"name":"fh_group","type":"int","value":4},{"name":"fh_id","type":"int","value":22},{"name":"x1","type":"int","value":-306},{"name":"x2","type":"int","value":155},{"name":"y1","type":"int","value":-21},{"name":"y2","type":"int","value":-21},{"name":"next","type":"int","value":0},{"name":"prev","type":"int","value":21}],"polyline":[{"x":0,"y":0},{"x":461,"y":0}]},{"id":76,"x":6,"y":-24,"visible":true,"properties":[{"name":"layer","type":"int","value":2},{"name":"group","type":"int","value":4},{"name":"id","type":"int","value":23},{"name":"fh_layer","type":"int","value":2},{"name":"fh_group","type":"int","value":4},{"name":"fh_id","type":"int","value":23},{"name":"x1","type":"int","value":6},{"name":"x2","type":"int","value":-91},{"name":"y1","type":"int","value":-24},{"name":"y2","type":"int","value":-24},{"name":"next","type":"int","value":0},{"name":"prev","type":"int","value":0}],"polyline":[{"x":0,"y":0},{"x":-97,"y":0}]},{"id":77,"x":127,"y":-24,"visible":true,"properties":[{"name":"layer","type":"int","value":2},{"name":"group","type":"int","value":4},{"name":"id","type":"int","value":24},{"name":"fh_layer","type":"int","value":2},{"name":"fh_group","type":"int","value":4},{"name":"fh_id","type":"int","value":24},{"name":"x1","type":"int","value":127},{"name":"x2","type":"int","value":31},{"name":"y1","type":"int","value":-24},{"name":"y2","type":"int","value":-24},{"name":"next","type":"int","value":0},{"name":"prev","type":"int","value":0}],"polyline":[{"x":0,"y":0},{"x":-96,"y":0}]},{"id":78,"x":-400,"y":182,"visible":true,"properties":[{"name":"layer","type":"int","value":3},{"name":"group","type":"int","value":1},{"name":"id","type":"int","value":28},{"name":"fh_layer","type":"int","value":3},{"name":"fh_group","type":"int","value":1},{"name":"fh_id","type":"int","value":28},{"name":"x1","type":"int","value":-400},{"name":"x2","type":"int","value":400},{"name":"y1","type":"int","value":182},{"name":"y2","type":"int","value":182},{"name":"next","type":"int","value":29},{"name":"prev","type":"int","value":0}],"polyline":[{"x":0,"y":0},{"x":800,"y":0}]},{"id":79,"x":400,"y":182,"visible":true,"properties":[{"name":"layer","type":"int","value":3},{"name":"group","type":"int","value":1},{"name":"id","type":"int","value":29},{"name":"fh_layer","type":"int","value":3},{"name":"fh_group","type":"int","value":1},{"name":"fh_id","type":"int","value":29},{"name":"x1","type":"int","value":400},{"name":"x2","type":"int","value":401},{"name":"y1","type":"int","value":182},{"name":"y2","type":"int","value":182},{"name":"next","type":"int","value":0},{"name":"prev","type":"int","value":28}],"polyline":[{"x":0,"y":0},{"x":1,"y":0}]}]}],"tilesets":[{"firstgid":1,"source":"../../tilesets/obj_shop_shop_hairshopGS.tsj"},{"firstgid":9,"source":"../../tilesets/obj_shop2_shop_skincareGS.tsj"}],"properties":[{"name":"bgm","type":"string","value":"Bgm00/FloralLife"},{"name":"town","type":"int","value":1},{"name":"VRTop","type":"int","value":-300},{"name":"cloud","type":"int","value":0},{"name":"VRLeft","type":"int","value":-400},{"name":"VRRight","type":"int","value":400},{"name":"mapDesc","type":"string","value":""},{"name":"mapMark","type":"string","value":"Henesys"},{"name":"mobRate","type":"float","value":1},{"name":"version","type":"int","value":10},{"name":"VRBottom","type":"int","value":300},{"name":"moveLimit","type":"int","value":0},{"name":"returnMap","type":"int","value":100000000},{"name":"fieldLimit","type":"int","value":0},{"name":"hideMinimap","type":"int","value":0},{"name":"forcedReturn","type":"int","value":999999999}]}