{"type":"map","orientation":"orthogonal","renderorder":"right-down","infinite":false,"tilewidth":1,"tileheight":1,"width":1090,"height":600,"nextlayerid":16,"nextobjectid":62,"layers":[{"id":1,"name":"layer_3_obj","type":"objectgroup","visible":true,"opacity":1,"objects":[{"id":1,"x":-400,"y":150,"visible":true,"properties":[{"name":"layer","type":"int","value":3},{"name":"resource_index","type":"int","value":0},{"name":"oS","type":"string","value":"acc9"},{"name":"l0","type":"string","value":"inside"},{"name":"l1","type":"string","value":"voyage"},{"name":"l2","type":"string","value":"4"},{"name":"z","type":"int","value":9},{"name":"zM","type":"int","value":3},{"name":"f","type":"int","value":0}],"gid":23,"width":618,"height":100},{"id":2,"x":-400,"y":-105,"visible":true,"properties":[{"name":"layer","type":"int","value":3},{"name":"resource_index","type":"int","value":1},{"name":"oS","type":"string","value":"acc9"},{"name":"l0","type":"string","value":"inside"},{"name":"l1","type":"string","value":"voyage"},{"name":"l2","type":"string","value":"0"},{"name":"z","type":"int","value":9},{"name":"zM","type":"int","value":7},{"name":"f","type":"int","value":0}],"gid":24,"width":302,"height":195},{"id":3,"x":-98,"y":-105,"visible":true,"properties":[{"name":"layer","type":"int","value":3},{"name":"resource_index","type":"int","value":2},{"name":"oS","type":"string","value":"acc9"},{"name":"l0","type":"string","value":"inside"},{"name":"l1","type":"string","value":"voyage"},{"name":"l2","type":"string","value":"1"},{"name":"z","type":"int","value":9},{"name":"zM","type":"int","value":8},{"name":"f","type":"int","value":0}],"gid":25,"width":316,"height":195},{"id":4,"x":-400,"y":50,"visible":true,"properties":[{"name":"layer","type":"int","value":3},{"name":"resource_index","type":"int","value":3},{"name":"oS","type":"string","value":"acc9"},{"name":"l0","type":"string","value":"inside"},{"name":"l1","type":"string","value":"voyage"},{"name":"l2","type":"string","value":"2"},{"name":"z","type":"int","value":9},{"name":"zM","type":"int","value":5},{"name":"f","type":"int","value":0}],"gid":26,"width":216,"height":155},{"id":5,"x":-184,"y":50,"visible":true,"properties":[{"name":"layer","type":"int","value":3},{"name":"resource_index","type":"int","value":4},{"name":"oS","type":"string","value":"acc9"},{"name":"l0","type":"string","value":"inside"},{"name":"l1","type":"string","value":"voyage"},{"name":"l2","type":"string","value":"3"},{"name":"z","type":"int","value":9},{"name":"zM","type":"int","value":6},{"name":"f","type":"int","value":0}],"gid":27,"width":402,"height":155},{"id":6,"x":218,"y":150,"visible":true,"properties":[{"name":"layer","type":"int","value":3},{"name":"resource_index","type":"int","value":5},{"name":"oS","type":"string","value":"acc9"},{"name":"l0","type":"string","value":"inside"},{"name":"l1","type":"string","value":"voyage"},{"name":"l2","type":"string","value":"5"},{"name":"z","type":"int","value":9},{"name":"zM","type":"int","value":1},{"name":"f","type":"int","value":0}],"gid":28,"width":115,"height":450},{"id":7,"x":333,"y":-108,"visible":true,"properties":[{"name":"layer","type":"int","value":3},{"name":"resource_index","type":"int","value":6},{"name":"oS","type":"string","value":"acc9"},{"name":"l0","type":"string","value":"inside"},{"name":"l1","type":"string","value":"voyage"},{"name":"l2","type":"string","value":"6"},{"name":"z","type":"int","value":9},{"name":"zM","type":"int","value":4},{"name":"f","type":"int","value":0}],"gid":29,"width":367,"height":192},{"id":8,"x":333,"y":150,"visible":true,"properties":[{"name":"layer","type":"int","value":3},{"name":"resource_index","type":"int","value":7},{"name":"oS","type":"string","value":"acc9"},{"name":"l0","type":"string","value":"inside"},{"name":"l1","type":"string","value":"voyage"},{"name":"l2","type":"string","value":"7"},{"name":"z","type":"int","value":9},{"name":"zM","type":"int","value":2},{"name":"f","type":"int","value":0}],"gid":30,"width":181,"height":258},{"id":9,"x":513,"y":150,"visible":true,"properties":[{"name":"layer","type":"int","value":3},{"name":"resource_index","type":"int","value":8},{"name":"oS","type":"string","value":"acc9"},{"name":"l0","type":"string","value":"inside"},{"name":"l1","type":"string","value":"voyage"},{"name":"l2","type":"string","value":"8"},{"name":"z","type":"int","value":9},{"name":"zM","type":"int","value":2},{"name":"f","type":"int","value":0}],"gid":31,"width":186,"height":258},{"id":10,"x":513,"y":-134,"visible":true,"properties":[{"name":"layer","type":"int","value":3},{"name":"resource_index","type":"int","value":9},{"name":"oS","type":"string","value":"acc9"},{"name":"l0","type":"string","value":"inside"},{"name":"l1","type":"string","value":"voyage"},{"name":"l2","type":"string","value":"10"},{"name":"z","type":"int","value":10},{"name":"zM","type":"int","value":4},{"name":"f","type":"int","value":0}],"gid":32,"width":110,"height":130},{"id":11,"x":-347,"y":32,"visible":true,"properties":[{"name":"layer","type":"int","value":3},{"name":"resource_index","type":"int","value":10},{"name":"oS","type":"string","value":"acc9"},{"name":"l0","type":"string","value":"inside"},{"name":"l1","type":"string","value":"voyage"},{"name":"l2","type":"string","value":"11"},{"name":"z","type":"int","value":9},{"name":"zM","type":"int","value":5},{"name":"f","type":"int","value":0}],"gid":33,"width":135,"height":129},{"id":12,"x":31,"y":26,"visible":true,"properties":[{"name":"layer","type":"int","value":3},{"name":"resource_index","type":"int","value":11},{"name":"oS","type":"string","value":"acc9"},{"name":"l0","type":"string","value":"inside"},{"name":"l1","type":"string","value":"voyage"},{"name":"l2","type":"string","value":"12"},{"name":"z","type":"int","value":10},{"name":"zM","type":"int","value":6},{"name":"f","type":"int","value":0}],"gid":34,"width":54,"height":29},{"id":13,"x":-302,"y":-169,"visible":true,"properties":[{"name":"layer","type":"int","value":3},{"name":"resource_index","type":"int","value":12},{"name":"oS","type":"string","value":"acc9"},{"name":"l0","type":"string","value":"inside"},{"name":"l1","type":"string","value":"voyage"},{"name":"l2","type":"string","value":"13"},{"name":"z","type":"int","value":10},{"name":"zM","type":"int","value":7},{"name":"f","type":"int","value":0}],"gid":35,"width":121,"height":72},{"id":14,"x":42,"y":-169,"visible":true,"properties":[{"name":"layer","type":"int","value":3},{"name":"resource_index","type":"int","value":13},{"name":"oS","type":"string","value":"acc9"},{"name":"l0","type":"string","value":"inside"},{"name":"l1","type":"string","value":"voyage"},{"name":"l2","type":"string","value":"14"},{"name":"z","type":"int","value":10},{"name":"zM","type":"int","value":8},{"name":"f","type":"int","value":0}],"gid":36,"width":106,"height":71},{"id":15,"x":445,"y":-96,"visible":true,"properties":[{"name":"layer","type":"int","value":3},{"name":"resource_index","type":"int","value":14},{"name":"oS","type":"string","value":"connect"},{"name":"l0","type":"string","value":"ladder"},{"name":"l1","type":"string","value":"57"},{"name":"l2","type":"string","value":"0"},{"name":"z","type":"int","value":9},{"name":"zM","type":"int","value":4},{"name":"f","type":"int","value":0}],"gid":20,"width":45,"height":27},{"id":16,"x":445,"y":13,"visible":true,"properties":[{"name":"layer","type":"int","value":3},{"name":"resource_index","type":"int","value":15},{"name":"oS","type":"string","value":"connect"},{"name":"l0","type":"string","value":"ladder"},{"name":"l1","type":"string","value":"57"},{"name":"l2","type":"string","value":"3"},{"name":"z","type":"int","value":10},{"name":"zM","type":"int","value":4},{"name":"f","type":"int","value":0}],"gid":21,"width":40,"height":121},{"id":17,"x":445,"y":113,"visible":true,"properties":[{"name":"layer","type":"int","value":3},{"name":"resource_index","type":"int","value":16},{"name":"oS","type":"string","value":"connect"},{"name":"l0","type":"string","value":"ladder"},{"name":"l1","type":"string","value":"57"},{"name":"l2","type":"string","value":"3"},{"name":"z","type":"int","value":10},{"name":"zM","type":"int","value":4},{"name":"f","type":"int","value":0}],"gid":21,"width":40,"height":121},{"id":18,"x":444,"y":122,"visible":true,"properties":[{"name":"layer","type":"int","value":3},{"name":"resource_index","type":"int","value":17},{"name":"oS","type":"string","value":"connect"},{"name":"l0","type":"string","value":"ladder"},{"name":"l1","type":"string","value":"57"},{"name":"l2","type":"string","value":"2"},{"name":"z","type":"int","value":9},{"name":"zM","type":"int","value":4},{"name":"f","type":"int","value":0}],"gid":22,"width":42,"height":30},{"id":19,"x":494,"y":126,"visible":true,"properties":[{"name":"layer","type":"int","value":3},{"name":"resource_index","type":"int","value":18},{"name":"oS","type":"string","value":"signboard"},{"name":"l0","type":"string","value":"market"},{"name":"l1","type":"string","value":"arrow"},{"name":"l2","type":"string","value":"10"},{"name":"z","type":"int","value":9},{"name":"zM","type":"int","value":0},{"name":"f","type":"int","value":0}],"gid":38,"width":54,"height":44},{"id":20,"x":-360,"y":155,"visible":true,"properties":[{"name":"layer","type":"int","value":3},{"name":"resource_index","type":"int","value":19},{"name":"oS","type":"string","value":"guide"},{"name":"l0","type":"string","value":"miniD"},{"name":"l1","type":"string","value":"portalEff"},{"name":"l2","type":"string","value":"0"},{"name":"z","type":"int","value":12},{"name":"zM","type":"int","value":0},{"name":"f","type":"int","value":0}],"gid":37,"width":131,"height":166}]},{"id":2,"name":"layer_5_obj","type":"objectgroup","visible":true,"opacity":1,"objects":[{"id":21,"x":-402,"y":300,"visible":true,"properties":[{"name":"layer","type":"int","value":5},{"name":"resource_index","type":"int","value":0},{"name":"oS","type":"string","value":"acc9"},{"name":"l0","type":"string","value":"inside"},{"name":"l1","type":"string","value":"etc"},{"name":"l2","type":"string","value":"0"},{"name":"z","type":"int","value":9},{"name":"zM","type":"int","value":0},{"name":"f","type":"int","value":0}],"gid":16,"width":150,"height":150},{"id":22,"x":-253,"y":300,"visible":true,"properties":[{"name":"layer","type":"int","value":5},{"name":"resource_index","type":"int","value":1},{"name":"oS","type":"string","value":"acc9"},{"name":"l0","type":"string","value":"inside"},{"name":"l1","type":"string","value":"etc"},{"name":"l2","type":"string","value":"0"},{"name":"z","type":"int","value":9},{"name":"zM","type":"int","value":0},{"name":"f","type":"int","value":0}],"gid":16,"width":150,"height":150},{"id":23,"x":-104,"y":300,"visible":true,"properties":[{"name":"layer","type":"int","value":5},{"name":"resource_index","type":"int","value":2},{"name":"oS","type":"string","value":"acc9"},{"name":"l0","type":"string","value":"inside"},{"name":"l1","type":"string","value":"etc"},{"name":"l2","type":"string","value":"0"},{"name":"z","type":"int","value":9},{"name":"zM","type":"int","value":0},{"name":"f","type":"int","value":0}],"gid":16,"width":150,"height":150},{"id":24,"x":45,"y":300,"visible":true,"properties":[{"name":"layer","type":"int","value":5},{"name":"resource_index","type":"int","value":3},{"name":"oS","type":"string","value":"acc9"},{"name":"l0","type":"string","value":"inside"},{"name":"l1","type":"string","value":"etc"},{"name":"l2","type":"string","value":"0"},{"name":"z","type":"int","value":9},{"name":"zM","type":"int","value":0},{"name":"f","type":"int","value":0}],"gid":16,"width":150,"height":150},{"id":25,"x":194,"y":300,"visible":true,"properties":[{"name":"layer","type":"int","value":5},{"name":"resource_index","type":"int","value":4},{"name":"oS","type":"string","value":"acc9"},{"name":"l0","type":"string","value":"inside"},{"name":"l1","type":"string","value":"etc"},{"name":"l2","type":"string","value":"0"},{"name":"z","type":"int","value":9},{"name":"zM","type":"int","value":0},{"name":"f","type":"int","value":0}],"gid":16,"width":150,"height":150},{"id":26,"x":343,"y":300,"visible":true,"properties":[{"name":"layer","type":"int","value":5},{"name":"resource_index","type":"int","value":5},{"name":"oS","type":"string","value":"acc9"},{"name":"l0","type":"string","value":"inside"},{"name":"l1","type":"string","value":"etc"},{"name":"l2","type":"string","value":"0"},{"name":"z","type":"int","value":9},{"name":"zM","type":"int","value":0},{"name":"f","type":"int","value":0}],"gid":16,"width":150,"height":150},{"id":27,"x":492,"y":300,"visible":true,"properties":[{"name":"layer","type":"int","value":5},{"name":"resource_index","type":"int","value":6},{"name":"oS","type":"string","value":"acc9"},{"name":"l0","type":"string","value":"inside"},{"name":"l1","type":"string","value":"etc"},{"name":"l2","type":"string","value":"0"},{"name":"z","type":"int","value":9},{"name":"zM","type":"int","value":0},{"name":"f","type":"int","value":0}],"gid":16,"width":150,"height":150},{"id":28,"x":550,"y":300,"visible":true,"properties":[{"name":"layer","type":"int","value":5},{"name":"resource_index","type":"int","value":7},{"name":"oS","type":"string","value":"acc9"},{"name":"l0","type":"string","value":"inside"},{"name":"l1","type":"string","value":"etc"},{"name":"l2","type":"string","value":"0"},{"name":"z","type":"int","value":9},{"name":"zM","type":"int","value":0},{"name":"f","type":"int","value":0}],"gid":16,"width":150,"height":150}]},{"id":3,"name":"background_back_0","type":"imagelayer","visible":true,"opacity":1,"image":"../../images/26717.png","imagewidth":58,"imageheight":64,"offsetx":21,"offsety":52,"repeatx":true,"repeaty":true,"parallaxx":1,"parallaxy":1,"properties":[{"name":"a","type":"int","value":255},{"name":"f","type":"int","value":0},{"name":"x","type":"int","value":50},{"name":"y","type":"int","value":84},{"name":"bS","type":"string","value":"nautilusPort"},{"name":"cx","type":"int","value":0},{"name":"cy","type":"int","value":0},{"name":"no","type":"int","value":0},{"name":"rx","type":"int","value":0},{"name":"ry","type":"int","value":0},{"name":"ani","type":"int","value":0},{"name":"type","type":"int","value":3},{"name":"front","type":"int","value":0}]},{"id":4,"name":"background_back_1","type":"imagelayer","visible":true,"opacity":1,"image":"../../images/26718.png","imagewidth":60,"imageheight":578,"offsetx":27,"offsety":-569,"repeatx":true,"repeaty":false,"parallaxx":1,"parallaxy":1,"properties":[{"name":"a","type":"int","value":255},{"name":"f","type":"int","value":0},{"name":"x","type":"int","value":57},{"name":"y","type":"int","value":-280},{"name":"bS","type":"string","value":"nautilusPort"},{"name":"cx","type":"int","value":0},{"name":"cy","type":"int","value":0},{"name":"no","type":"int","value":1},{"name":"rx","type":"int","value":-7},{"name":"ry","type":"int","value":-20},{"name":"ani","type":"int","value":0},{"name":"type","type":"int","value":1},{"name":"front","type":"int","value":0}]},{"id":5,"name":"background_back_2","type":"imagelayer","visible":true,"opacity":1,"image":"../../images/26719.png","imagewidth":800,"imageheight":366,"offsetx":-770,"offsety":-383,"repeatx":true,"repeaty":false,"parallaxx":1,"parallaxy":1,"properties":[{"name":"a","type":"int","value":255},{"name":"f","type":"int","value":0},{"name":"x","type":"int","value":-370},{"name":"y","type":"int","value":-200},{"name":"bS","type":"string","value":"nautilusPort"},{"name":"cx","type":"int","value":800},{"name":"cy","type":"int","value":0},{"name":"no","type":"int","value":2},{"name":"rx","type":"int","value":3},{"name":"ry","type":"int","value":0},{"name":"ani","type":"int","value":0},{"name":"type","type":"int","value":4},{"name":"front","type":"int","value":0}]},{"id":6,"name":"background_back_3","type":"imagelayer","visible":true,"opacity":1,"image":"../../images/26720.png","imagewidth":800,"imageheight":206,"offsetx":32,"offsety":-319,"repeatx":true,"repeaty":false,"parallaxx":1,"parallaxy":1,"properties":[{"name":"a","type":"int","value":255},{"name":"f","type":"int","value":0},{"name":"x","type":"int","value":432},{"name":"y","type":"int","value":-216},{"name":"bS","type":"string","value":"nautilusPort"},{"name":"cx","type":"int","value":800},{"name":"cy","type":"int","value":0},{"name":"no","type":"int","value":3},{"name":"rx","type":"int","value":3},{"name":"ry","type":"int","value":0},{"name":"ani","type":"int","value":0},{"name":"type","type":"int","value":4},{"name":"front","type":"int","value":0}]},{"id":7,"name":"background_back_4","type":"imagelayer","visible":true,"opacity":1,"image":"../../images/26742.png","imagewidth":33,"imageheight":11,"offsetx":236,"offsety":-187,"repeatx":false,"repeaty":false,"parallaxx":1,"parallaxy":1,"properties":[{"name":"a","type":"int","value":255},{"name":"f","type":"int","value":0},{"name":"x","type":"int","value":266},{"name":"y","type":"int","value":-179},{"name":"bS","type":"string","value":"nautilusPort"},{"name":"cx","type":"int","value":0},{"name":"cy","type":"int","value":0},{"name":"no","type":"int","value":3},{"name":"rx","type":"int","value":-15},{"name":"ry","type":"int","value":-20},{"name":"ani","type":"int","value":1},{"name":"type","type":"int","value":0},{"name":"front","type":"int","value":0}]},{"id":8,"name":"background_back_5","type":"imagelayer","visible":true,"opacity":1,"image":"../../images/26721.png","imagewidth":800,"imageheight":89,"offsetx":-532,"offsety":-73,"repeatx":true,"repeaty":false,"parallaxx":1,"parallaxy":1,"properties":[{"name":"a","type":"int","value":255},{"name":"f","type":"int","value":0},{"name":"x","type":"int","value":-132},{"name":"y","type":"int","value":-29},{"name":"bS","type":"string","value":"nautilusPort"},{"name":"cx","type":"int","value":0},{"name":"cy","type":"int","value":0},{"name":"no","type":"int","value":4},{"name":"rx","type":"int","value":-18},{"name":"ry","type":"int","value":-20},{"name":"ani","type":"int","value":0},{"name":"type","type":"int","value":1},{"name":"front","type":"int","value":0}]},{"id":9,"name":"background_back_6","type":"imagelayer","visible":true,"opacity":1,"image":"../../images/26737.png","imagewidth":61,"imageheight":17,"offsetx":-95,"offsety":-137,"repeatx":false,"repeaty":false,"parallaxx":1,"parallaxy":1,"properties":[{"name":"a","type":"int","value":255},{"name":"f","type":"int","value":0},{"name":"x","type":"int","value":-65},{"name":"y","type":"int","value":-129},{"name":"bS","type":"string","value":"nautilusPort"},{"name":"cx","type":"int","value":0},{"name":"cy","type":"int","value":0},{"name":"no","type":"int","value":2},{"name":"rx","type":"int","value":-25},{"name":"ry","type":"int","value":-30},{"name":"ani","type":"int","value":1},{"name":"type","type":"int","value":0},{"name":"front","type":"int","value":0}]},{"id":10,"name":"background_back_7","type":"imagelayer","visible":true,"opacity":1,"image":"../../images/26722.png","imagewidth":800,"imageheight":180,"offsetx":-349,"offsety":4,"repeatx":true,"repeaty":false,"parallaxx":1,"parallaxy":1,"properties":[{"name":"a","type":"int","value":255},{"name":"f","type":"int","value":0},{"name":"x","type":"int","value":51},{"name":"y","type":"int","value":94},{"name":"bS","type":"string","value":"nautilusPort"},{"name":"cx","type":"int","value":0},{"name":"cy","type":"int","value":0},{"name":"no","type":"int","value":5},{"name":"rx","type":"int","value":-18},{"name":"ry","type":"int","value":-20},{"name":"ani","type":"int","value":0},{"name":"type","type":"int","value":1},{"name":"front","type":"int","value":0}]},{"id":11,"name":"background_back","type":"objectgroup","visible":true,"opacity":1,"objects":[{"id":29,"x":-370,"y":-200,"visible":true,"properties":[{"name":"image_layer_name","type":"string","value":"background_back_2"},{"name":"a","type":"int","value":255},{"name":"f","type":"int","value":0},{"name":"x","type":"int","value":-370},{"name":"y","type":"int","value":-200},{"name":"bS","type":"string","value":"nautilusPort"},{"name":"cx","type":"int","value":800},{"name":"cy","type":"int","value":0},{"name":"no","type":"int","value":2},{"name":"rx","type":"int","value":3},{"name":"ry","type":"int","value":0},{"name":"ani","type":"int","value":0},{"name":"type","type":"int","value":4},{"name":"front","type":"int","value":0}],"point":true},{"id":30,"x":432,"y":-216,"visible":true,"properties":[{"name":"image_layer_name","type":"string","value":"background_back_3"},{"name":"a","type":"int","value":255},{"name":"f","type":"int","value":0},{"name":"x","type":"int","value":432},{"name":"y","type":"int","value":-216},{"name":"bS","type":"string","value":"nautilusPort"},{"name":"cx","type":"int","value":800},{"name":"cy","type":"int","value":0},{"name":"no","type":"int","value":3},{"name":"rx","type":"int","value":3},{"name":"ry","type":"int","value":0},{"name":"ani","type":"int","value":0},{"name":"type","type":"int","value":4},{"name":"front","type":"int","value":0}],"point":true}]},{"id":12,"name":"portal","type":"objectgroup","visible":true,"opacity":1,"objects":[{"id":31,"x":381,"y":-134,"visible":true,"properties":[{"name":"x","type":"int","value":381},{"name":"y","type":"int","value":-134},{"name":"pn","type":"string","value":"sp"},{"name":"pt","type":"int","value":0},{"name":"tm","type":"int","value":999999999},{"name":"tn","type":"string","value":""}],"point":true},{"id":32,"x":614,"y":150,"visible":true,"properties":[{"name":"x","type":"int","value":614},{"name":"y","type":"int","value":150},{"name":"pn","type":"string","value":"ao00"},{"name":"pt","type":"int","value":2},{"name":"tm","type":"int","value":120000100},{"name":"tn","type":"string","value":"ai00"},{"name":"delay","type":"int","value":0},{"name":"script","type":"string","value":""},{"name":"onlyOnce","type":"int","value":0},{"name":"hideTooltip","type":"int","value":0}],"point":true},{"id":33,"x":-296,"y":149,"visible":true,"properties":[{"name":"x","type":"int","value":-296},{"name":"y","type":"int","value":149},{"name":"pn","type":"string","value":"rank00"},{"name":"pt","type":"int","value":7},{"name":"tm","type":"int","value":999999999},{"name":"tn","type":"string","value":""},{"name":"script","type":"string","value":"rankRoom"},{"name":"horizontalImpact","type":"int","value":0}],"point":true},{"id":34,"x":570,"y":-120,"visible":true,"properties":[{"name":"x","type":"int","value":570},{"name":"y","type":"int","value":-120},{"name":"pn","type":"string","value":"earth01"},{"name":"pt","type":"int","value":8},{"name":"tm","type":"int","value":999999999},{"name":"tn","type":"string","value":""},{"name":"delay","type":"int","value":0},{"name":"script","type":"string","value":"enter_earth00"},{"name":"onlyOnce","type":"int","value":0},{"name":"hideTooltip","type":"int","value":0}],"point":true},{"id":35,"x":497,"y":105,"visible":true,"properties":[{"name":"x","type":"int","value":497},{"name":"y","type":"int","value":105},{"name":"pn","type":"string","value":"tutorial"},{"name":"pt","type":"int","value":9},{"name":"tm","type":"int","value":999999999},{"name":"tn","type":"string","value":""},{"name":"delay","type":"int","value":1000},{"name":"script","type":"string","value":"tutorialNPC"},{"name":"onlyOnce","type":"int","value":1},{"name":"hideTooltip","type":"int","value":0}],"point":true}]},{"id":13,"name":"life","type":"objectgroup","visible":true,"opacity":1,"objects":[{"id":36,"x":174,"y":57,"visible":true,"properties":[{"name":"f","type":"int","value":0},{"name":"x","type":"int","value":174},{"name":"y","type":"int","value":57},{"name":"cy","type":"int","value":66},{"name":"fh","type":"int","value":1},{"name":"id","type":"int","value":1090000},{"name":"rx0","type":"int","value":124},{"name":"rx1","type":"int","value":198},{"name":"hide","type":"int","value":0},{"name":"type","type":"string","value":"n"},{"name":"mobTime","type":"int","value":0}],"point":true}]},{"id":14,"name":"foothold","type":"objectgroup","visible":true,"opacity":1,"objects":[{"id":37,"x":-391,"y":66,"visible":true,"properties":[{"name":"layer","type":"int","value":3},{"name":"group","type":"int","value":3},{"name":"id","type":"int","value":1},{"name":"fh_layer","type":"int","value":3},{"name":"fh_group","type":"int","value":3},{"name":"fh_id","type":"int","value":1},{"name":"x1","type":"int","value":-391},{"name":"x2","type":"int","value":218},{"name":"y1","type":"int","value":66},{"name":"y2","type":"int","value":66},{"name":"next","type":"int","value":0},{"name":"prev","type":"int","value":0}],"polyline":[{"x":0,"y":0},{"x":609,"y":0}]},{"id":38,"x":-148,"y":73,"visible":true,"properties":[{"name":"layer","type":"int","value":3},{"name":"group","type":"int","value":3},{"name":"id","type":"int","value":2},{"name":"fh_layer","type":"int","value":3},{"name":"fh_group","type":"int","value":3},{"name":"fh_id","type":"int","value":2},{"name":"x1","type":"int","value":-148},{"name":"x2","type":"int","value":109},{"name":"y1","type":"int","value":73},{"name":"y2","type":"int","value":73},{"name":"next","type":"int","value":0},{"name":"prev","type":"int","value":0}],"polyline":[{"x":0,"y":0},{"x":257,"y":0}]},{"id":39,"x":-127,"y":99,"visible":true,"properties":[{"name":"layer","type":"int","value":3},{"name":"group","type":"int","value":3},{"name":"id","type":"int","value":3},{"name":"fh_layer","type":"int","value":3},{"name":"fh_group","type":"int","value":3},{"name":"fh_id","type":"int","value":3},{"name":"x1","type":"int","value":-127},{"name":"x2","type":"int","value":129},{"name":"y1","type":"int","value":99},{"name":"y2","type":"int","value":99},{"name":"next","type":"int","value":0},{"name":"prev","type":"int","value":0}],"polyline":[{"x":0,"y":0},{"x":256,"y":0}]},{"id":40,"x":-99,"y":125,"visible":true,"properties":[{"name":"layer","type":"int","value":3},{"name":"group","type":"int","value":3},{"name":"id","type":"int","value":4},{"name":"fh_layer","type":"int","value":3},{"name":"fh_group","type":"int","value":3},{"name":"fh_id","type":"int","value":4},{"name":"x1","type":"int","value":-99},{"name":"x2","type":"int","value":153},{"name":"y1","type":"int","value":125},{"name":"y2","type":"int","value":125},{"name":"next","type":"int","value":0},{"name":"prev","type":"int","value":0}],"polyline":[{"x":0,"y":0},{"x":252,"y":0}]},{"id":41,"x":335,"y":-115,"visible":true,"properties":[{"name":"layer","type":"int","value":3},{"name":"group","type":"int","value":4},{"name":"id","type":"int","value":16},{"name":"fh_layer","type":"int","value":3},{"name":"fh_group","type":"int","value":4},{"name":"fh_id","type":"int","value":16},{"name":"x1","type":"int","value":335},{"name":"x2","type":"int","value":703},{"name":"y1","type":"int","value":-115},{"name":"y2","type":"int","value":-115},{"name":"next","type":"int","value":0},{"name":"prev","type":"int","value":0}],"polyline":[{"x":0,"y":0},{"x":368,"y":0}]},{"id":42,"x":-377,"y":-17,"visible":true,"properties":[{"name":"layer","type":"int","value":3},{"name":"group","type":"int","value":5},{"name":"id","type":"int","value":5},{"name":"fh_layer","type":"int","value":3},{"name":"fh_group","type":"int","value":5},{"name":"fh_id","type":"int","value":5},{"name":"x1","type":"int","value":-377},{"name":"x2","type":"int","value":-204},{"name":"y1","type":"int","value":-17},{"name":"y2","type":"int","value":-16},{"name":"next","type":"int","value":0},{"name":"prev","type":"int","value":0}],"polyline":[{"x":0,"y":0},{"x":173,"y":1}]},{"id":43,"x":-184,"y":-50,"visible":true,"properties":[{"name":"layer","type":"int","value":3},{"name":"group","type":"int","value":6},{"name":"id","type":"int","value":6},{"name":"fh_layer","type":"int","value":3},{"name":"fh_group","type":"int","value":6},{"name":"fh_id","type":"int","value":6},{"name":"x1","type":"int","value":-184},{"name":"x2","type":"int","value":-143},{"name":"y1","type":"int","value":-50},{"name":"y2","type":"int","value":-50},{"name":"next","type":"int","value":7},{"name":"prev","type":"int","value":0}],"polyline":[{"x":0,"y":0},{"x":41,"y":0}]},{"id":44,"x":-143,"y":-50,"visible":true,"properties":[{"name":"layer","type":"int","value":3},{"name":"group","type":"int","value":6},{"name":"id","type":"int","value":7},{"name":"fh_layer","type":"int","value":3},{"name":"fh_group","type":"int","value":6},{"name":"fh_id","type":"int","value":7},{"name":"x1","type":"int","value":-143},{"name":"x2","type":"int","value":-137},{"name":"y1","type":"int","value":-50},{"name":"y2","type":"int","value":-55},{"name":"next","type":"int","value":8},{"name":"prev","type":"int","value":6}],"polyline":[{"x":0,"y":0},{"x":6,"y":-5}]},{"id":45,"x":-137,"y":-55,"visible":true,"properties":[{"name":"layer","type":"int","value":3},{"name":"group","type":"int","value":6},{"name":"id","type":"int","value":8},{"name":"fh_layer","type":"int","value":3},{"name":"fh_group","type":"int","value":6},{"name":"fh_id","type":"int","value":8},{"name":"x1","type":"int","value":-137},{"name":"x2","type":"int","value":-128},{"name":"y1","type":"int","value":-55},{"name":"y2","type":"int","value":-74},{"name":"next","type":"int","value":9},{"name":"prev","type":"int","value":7}],"polyline":[{"x":0,"y":0},{"x":9,"y":-19}]},{"id":46,"x":-128,"y":-74,"visible":true,"properties":[{"name":"layer","type":"int","value":3},{"name":"group","type":"int","value":6},{"name":"id","type":"int","value":9},{"name":"fh_layer","type":"int","value":3},{"name":"fh_group","type":"int","value":6},{"name":"fh_id","type":"int","value":9},{"name":"x1","type":"int","value":-128},{"name":"x2","type":"int","value":-120},{"name":"y1","type":"int","value":-74},{"name":"y2","type":"int","value":-83},{"name":"next","type":"int","value":10},{"name":"prev","type":"int","value":8}],"polyline":[{"x":0,"y":0},{"x":8,"y":-9}]},{"id":47,"x":-120,"y":-83,"visible":true,"properties":[{"name":"layer","type":"int","value":3},{"name":"group","type":"int","value":6},{"name":"id","type":"int","value":10},{"name":"fh_layer","type":"int","value":3},{"name":"fh_group","type":"int","value":6},{"name":"fh_id","type":"int","value":10},{"name":"x1","type":"int","value":-120},{"name":"x2","type":"int","value":-94},{"name":"y1","type":"int","value":-83},{"name":"y2","type":"int","value":-90},{"name":"next","type":"int","value":11},{"name":"prev","type":"int","value":9}],"polyline":[{"x":0,"y":0},{"x":26,"y":-7}]},{"id":48,"x":-94,"y":-90,"visible":true,"properties":[{"name":"layer","type":"int","value":3},{"name":"group","type":"int","value":6},{"name":"id","type":"int","value":11},{"name":"fh_layer","type":"int","value":3},{"name":"fh_group","type":"int","value":6},{"name":"fh_id","type":"int","value":11},{"name":"x1","type":"int","value":-94},{"name":"x2","type":"int","value":-65},{"name":"y1","type":"int","value":-90},{"name":"y2","type":"int","value":-84},{"name":"next","type":"int","value":12},{"name":"prev","type":"int","value":10}],"polyline":[{"x":0,"y":0},{"x":29,"y":6}]},{"id":49,"x":-65,"y":-84,"visible":true,"properties":[{"name":"layer","type":"int","value":3},{"name":"group","type":"int","value":6},{"name":"id","type":"int","value":12},{"name":"fh_layer","type":"int","value":3},{"name":"fh_group","type":"int","value":6},{"name":"fh_id","type":"int","value":12},{"name":"x1","type":"int","value":-65},{"name":"x2","type":"int","value":-41},{"name":"y1","type":"int","value":-84},{"name":"y2","type":"int","value":-65},{"name":"next","type":"int","value":13},{"name":"prev","type":"int","value":11}],"polyline":[{"x":0,"y":0},{"x":24,"y":19}]},{"id":50,"x":-41,"y":-65,"visible":true,"properties":[{"name":"layer","type":"int","value":3},{"name":"group","type":"int","value":6},{"name":"id","type":"int","value":13},{"name":"fh_layer","type":"int","value":3},{"name":"fh_group","type":"int","value":6},{"name":"fh_id","type":"int","value":13},{"name":"x1","type":"int","value":-41},{"name":"x2","type":"int","value":-31},{"name":"y1","type":"int","value":-65},{"name":"y2","type":"int","value":-49},{"name":"next","type":"int","value":0},{"name":"prev","type":"int","value":12}],"polyline":[{"x":0,"y":0},{"x":10,"y":16}]},{"id":51,"x":-18,"y":-17,"visible":true,"properties":[{"name":"layer","type":"int","value":3},{"name":"group","type":"int","value":6},{"name":"id","type":"int","value":14},{"name":"fh_layer","type":"int","value":3},{"name":"fh_group","type":"int","value":6},{"name":"fh_id","type":"int","value":14},{"name":"x1","type":"int","value":-18},{"name":"x2","type":"int","value":117},{"name":"y1","type":"int","value":-17},{"name":"y2","type":"int","value":-17},{"name":"next","type":"int","value":0},{"name":"prev","type":"int","value":0}],"polyline":[{"x":0,"y":0},{"x":135,"y":0}]},{"id":52,"x":-152,"y":25,"visible":true,"properties":[{"name":"layer","type":"int","value":3},{"name":"group","type":"int","value":6},{"name":"id","type":"int","value":15},{"name":"fh_layer","type":"int","value":3},{"name":"fh_group","type":"int","value":6},{"name":"fh_id","type":"int","value":15},{"name":"x1","type":"int","value":-152},{"name":"x2","type":"int","value":11},{"name":"y1","type":"int","value":25},{"name":"y2","type":"int","value":25},{"name":"next","type":"int","value":0},{"name":"prev","type":"int","value":0}],"polyline":[{"x":0,"y":0},{"x":163,"y":0}]},{"id":53,"x":-403,"y":151,"visible":true,"properties":[{"name":"layer","type":"int","value":5},{"name":"group","type":"int","value":0},{"name":"id","type":"int","value":17},{"name":"fh_layer","type":"int","value":5},{"name":"fh_group","type":"int","value":0},{"name":"fh_id","type":"int","value":17},{"name":"x1","type":"int","value":-403},{"name":"x2","type":"int","value":-250},{"name":"y1","type":"int","value":151},{"name":"y2","type":"int","value":151},{"name":"next","type":"int","value":18},{"name":"prev","type":"int","value":0}],"polyline":[{"x":0,"y":0},{"x":153,"y":0}]},{"id":54,"x":-250,"y":151,"visible":true,"properties":[{"name":"layer","type":"int","value":5},{"name":"group","type":"int","value":0},{"name":"id","type":"int","value":18},{"name":"fh_layer","type":"int","value":5},{"name":"fh_group","type":"int","value":0},{"name":"fh_id","type":"int","value":18},{"name":"x1","type":"int","value":-250},{"name":"x2","type":"int","value":-101},{"name":"y1","type":"int","value":151},{"name":"y2","type":"int","value":151},{"name":"next","type":"int","value":19},{"name":"prev","type":"int","value":17}],"polyline":[{"x":0,"y":0},{"x":149,"y":0}]},{"id":55,"x":-101,"y":151,"visible":true,"properties":[{"name":"layer","type":"int","value":5},{"name":"group","type":"int","value":0},{"name":"id","type":"int","value":19},{"name":"fh_layer","type":"int","value":5},{"name":"fh_group","type":"int","value":0},{"name":"fh_id","type":"int","value":19},{"name":"x1","type":"int","value":-101},{"name":"x2","type":"int","value":48},{"name":"y1","type":"int","value":151},{"name":"y2","type":"int","value":151},{"name":"next","type":"int","value":20},{"name":"prev","type":"int","value":18}],"polyline":[{"x":0,"y":0},{"x":149,"y":0}]},{"id":56,"x":48,"y":151,"visible":true,"properties":[{"name":"layer","type":"int","value":5},{"name":"group","type":"int","value":0},{"name":"id","type":"int","value":20},{"name":"fh_layer","type":"int","value":5},{"name":"fh_group","type":"int","value":0},{"name":"fh_id","type":"int","value":20},{"name":"x1","type":"int","value":48},{"name":"x2","type":"int","value":197},{"name":"y1","type":"int","value":151},{"name":"y2","type":"int","value":151},{"name":"next","type":"int","value":21},{"name":"prev","type":"int","value":19}],"polyline":[{"x":0,"y":0},{"x":149,"y":0}]},{"id":57,"x":197,"y":151,"visible":true,"properties":[{"name":"layer","type":"int","value":5},{"name":"group","type":"int","value":0},{"name":"id","type":"int","value":21},{"name":"fh_layer","type":"int","value":5},{"name":"fh_group","type":"int","value":0},{"name":"fh_id","type":"int","value":21},{"name":"x1","type":"int","value":197},{"name":"x2","type":"int","value":346},{"name":"y1","type":"int","value":151},{"name":"y2","type":"int","value":151},{"name":"next","type":"int","value":22},{"name":"prev","type":"int","value":20}],"polyline":[{"x":0,"y":0},{"x":149,"y":0}]},{"id":58,"x":346,"y":151,"visible":true,"properties":[{"name":"layer","type":"int","value":5},{"name":"group","type":"int","value":0},{"name":"id","type":"int","value":22},{"name":"fh_layer","type":"int","value":5},{"name":"fh_group","type":"int","value":0},{"name":"fh_id","type":"int","value":22},{"name":"x1","type":"int","value":346},{"name":"x2","type":"int","value":495},{"name":"y1","type":"int","value":151},{"name":"y2","type":"int","value":151},{"name":"next","type":"int","value":23},{"name":"prev","type":"int","value":21}],"polyline":[{"x":0,"y":0},{"x":149,"y":0}]},{"id":59,"x":495,"y":151,"visible":true,"properties":[{"name":"layer","type":"int","value":5},{"name":"group","type":"int","value":0},{"name":"id","type":"int","value":23},{"name":"fh_layer","type":"int","value":5},{"name":"fh_group","type":"int","value":0},{"name":"fh_id","type":"int","value":23},{"name":"x1","type":"int","value":495},{"name":"x2","type":"int","value":644},{"name":"y1","type":"int","value":151},{"name":"y2","type":"int","value":151},{"name":"next","type":"int","value":24},{"name":"prev","type":"int","value":22}],"polyline":[{"x":0,"y":0},{"x":149,"y":0}]},{"id":60,"x":644,"y":151,"visible":true,"properties":[{"name":"layer","type":"int","value":5},{"name":"group","type":"int","value":0},{"name":"id","type":"int","value":24},{"name":"fh_layer","type":"int","value":5},{"name":"fh_group","type":"int","value":0},{"name":"fh_id","type":"int","value":24},{"name":"x1","type":"int","value":644},{"name":"x2","type":"int","value":702},{"name":"y1","type":"int","value":151},{"name":"y2","type":"int","value":151},{"name":"next","type":"int","value":0},{"name":"prev","type":"int","value":23}],"polyline":[{"x":0,"y":0},{"x":58,"y":0}]}]},{"id":15,"name":"ladderRope","type":"objectgroup","visible":true,"opacity":1,"objects":[{"id":61,"x":465,"y":-113,"visible":true,"properties":[{"name":"ladder_id","type":"int","value":1},{"name":"l","type":"int","value":1},{"name":"x","type":"int","value":465},{"name":"uf","type":"int","value":1},{"name":"y1","type":"int","value":-113},{"name":"y2","type":"int","value":135},{"name":"page","type":"int","value":3}],"polyline":[{"x":0,"y":0},{"x":0,"y":248}]}]}],"tilesets":[{"firstgid":1,"source":"../../tilesets/bg_nautilusPort.tsj"},{"firstgid":15,"source":"../../tilesets/obj_acc9_inside_etc.tsj"},{"firstgid":20,"source":"../../tilesets/obj_connect_ladder_57.tsj"},{"firstgid":23,"source":"../../tilesets/obj_acc9_inside_voyage.tsj"},{"firstgid":37,"source":"../../tilesets/obj_guide_miniD_portalEff.tsj"},{"firstgid":38,"source":"../../tilesets/obj_signboard_market_arrow.tsj"}],"properties":[{"name":"bgm","type":"string","value":"Bgm15/inNautilus"},{"name":"swim","type":"int","value":0},{"name":"town","type":"int","value":1},{"name":"VRTop","type":"int","value":-300},{"name":"cloud","type":"int","value":0},{"name":"VRLeft","type":"int","value":-400},{"name":"VRRight","type":"int","value":690},{"name":"mapMark","type":"string","value":"Nautilus"},{"name":"mobRate","type":"float","value":1},{"name":"version","type":"int","value":10},{"name":"VRBottom","type":"int","value":300},{"name":"returnMap","type":"int","value":120000000},{"name":"fieldLimit","type":"int","value":8},{"name":"hideMinimap","type":"int","value":0},{"name":"forcedReturn","type":"int","value":999999999}]}