{"type":"map","orientation":"orthogonal","renderorder":"right-down","infinite":false,"tilewidth":1,"tileheight":1,"width":1200,"height":600,"nextlayerid":8,"nextobjectid":39,"layers":[{"id":1,"name":"layer_3_obj","type":"objectgroup","visible":true,"opacity":1,"objects":[{"id":1,"x":-401,"y":149,"visible":true,"properties":[{"name":"layer","type":"int","value":3},{"name":"resource_index","type":"int","value":0},{"name":"oS","type":"string","value":"acc9"},{"name":"l0","type":"string","value":"inside"},{"name":"l1","type":"string","value":"conference"},{"name":"l2","type":"string","value":"0"},{"name":"z","type":"int","value":9},{"name":"zM","type":"int","value":8},{"name":"f","type":"int","value":0}],"gid":6,"width":200,"height":450},{"id":2,"x":-201,"y":149,"visible":true,"properties":[{"name":"layer","type":"int","value":3},{"name":"resource_index","type":"int","value":1},{"name":"oS","type":"string","value":"acc9"},{"name":"l0","type":"string","value":"inside"},{"name":"l1","type":"string","value":"conference"},{"name":"l2","type":"string","value":"1"},{"name":"z","type":"int","value":9},{"name":"zM","type":"int","value":9},{"name":"f","type":"int","value":0}],"gid":7,"width":200,"height":450},{"id":3,"x":-1,"y":150,"visible":true,"properties":[{"name":"layer","type":"int","value":3},{"name":"resource_index","type":"int","value":2},{"name":"oS","type":"string","value":"acc9"},{"name":"l0","type":"string","value":"inside"},{"name":"l1","type":"string","value":"conference"},{"name":"l2","type":"string","value":"2"},{"name":"z","type":"int","value":9},{"name":"zM","type":"int","value":6},{"name":"f","type":"int","value":0}],"gid":8,"width":200,"height":450},{"id":4,"x":199,"y":150,"visible":true,"properties":[{"name":"layer","type":"int","value":3},{"name":"resource_index","type":"int","value":3},{"name":"oS","type":"string","value":"acc9"},{"name":"l0","type":"string","value":"inside"},{"name":"l1","type":"string","value":"conference"},{"name":"l2","type":"string","value":"3"},{"name":"z","type":"int","value":9},{"name":"zM","type":"int","value":7},{"name":"f","type":"int","value":0}],"gid":9,"width":200,"height":450},{"id":5,"x":399,"y":151,"visible":true,"properties":[{"name":"layer","type":"int","value":3},{"name":"resource_index","type":"int","value":4},{"name":"oS","type":"string","value":"acc9"},{"name":"l0","type":"string","value":"inside"},{"name":"l1","type":"string","value":"conference"},{"name":"l2","type":"string","value":"4"},{"name":"z","type":"int","value":9},{"name":"zM","type":"int","value":4},{"name":"f","type":"int","value":0}],"gid":10,"width":200,"height":450},{"id":6,"x":599,"y":151,"visible":true,"properties":[{"name":"layer","type":"int","value":3},{"name":"resource_index","type":"int","value":5},{"name":"oS","type":"string","value":"acc9"},{"name":"l0","type":"string","value":"inside"},{"name":"l1","type":"string","value":"conference"},{"name":"l2","type":"string","value":"5"},{"name":"z","type":"int","value":9},{"name":"zM","type":"int","value":5},{"name":"f","type":"int","value":0}],"gid":11,"width":200,"height":450},{"id":7,"x":-332,"y":53,"visible":true,"properties":[{"name":"layer","type":"int","value":3},{"name":"resource_index","type":"int","value":6},{"name":"oS","type":"string","value":"acc9"},{"name":"l0","type":"string","value":"inside"},{"name":"l1","type":"string","value":"conference"},{"name":"l2","type":"string","value":"8"},{"name":"z","type":"int","value":10},{"name":"zM","type":"int","value":8},{"name":"f","type":"int","value":0}],"gid":12,"width":123,"height":273}]},{"id":2,"name":"layer_5_obj","type":"objectgroup","visible":true,"opacity":1,"objects":[{"id":8,"x":-401,"y":299,"visible":true,"properties":[{"name":"layer","type":"int","value":5},{"name":"resource_index","type":"int","value":0},{"name":"oS","type":"string","value":"acc9"},{"name":"l0","type":"string","value":"inside"},{"name":"l1","type":"string","value":"etc"},{"name":"l2","type":"string","value":"0"},{"name":"z","type":"int","value":9},{"name":"zM","type":"int","value":0},{"name":"f","type":"int","value":0}],"gid":2,"width":150,"height":150},{"id":9,"x":-252,"y":299,"visible":true,"properties":[{"name":"layer","type":"int","value":5},{"name":"resource_index","type":"int","value":1},{"name":"oS","type":"string","value":"acc9"},{"name":"l0","type":"string","value":"inside"},{"name":"l1","type":"string","value":"etc"},{"name":"l2","type":"string","value":"0"},{"name":"z","type":"int","value":9},{"name":"zM","type":"int","value":0},{"name":"f","type":"int","value":0}],"gid":2,"width":150,"height":150},{"id":10,"x":-104,"y":299,"visible":true,"properties":[{"name":"layer","type":"int","value":5},{"name":"resource_index","type":"int","value":2},{"name":"oS","type":"string","value":"acc9"},{"name":"l0","type":"string","value":"inside"},{"name":"l1","type":"string","value":"etc"},{"name":"l2","type":"string","value":"0"},{"name":"z","type":"int","value":9},{"name":"zM","type":"int","value":0},{"name":"f","type":"int","value":0}],"gid":2,"width":150,"height":150},{"id":11,"x":46,"y":299,"visible":true,"properties":[{"name":"layer","type":"int","value":5},{"name":"resource_index","type":"int","value":3},{"name":"oS","type":"string","value":"acc9"},{"name":"l0","type":"string","value":"inside"},{"name":"l1","type":"string","value":"etc"},{"name":"l2","type":"string","value":"0"},{"name":"z","type":"int","value":9},{"name":"zM","type":"int","value":1},{"name":"f","type":"int","value":0}],"gid":2,"width":150,"height":150},{"id":12,"x":193,"y":299,"visible":true,"properties":[{"name":"layer","type":"int","value":5},{"name":"resource_index","type":"int","value":4},{"name":"oS","type":"string","value":"acc9"},{"name":"l0","type":"string","value":"inside"},{"name":"l1","type":"string","value":"etc"},{"name":"l2","type":"string","value":"0"},{"name":"z","type":"int","value":9},{"name":"zM","type":"int","value":1},{"name":"f","type":"int","value":0}],"gid":2,"width":150,"height":150},{"id":13,"x":343,"y":299,"visible":true,"properties":[{"name":"layer","type":"int","value":5},{"name":"resource_index","type":"int","value":5},{"name":"oS","type":"string","value":"acc9"},{"name":"l0","type":"string","value":"inside"},{"name":"l1","type":"string","value":"etc"},{"name":"l2","type":"string","value":"0"},{"name":"z","type":"int","value":9},{"name":"zM","type":"int","value":2},{"name":"f","type":"int","value":0}],"gid":2,"width":150,"height":150},{"id":14,"x":492,"y":299,"visible":true,"properties":[{"name":"layer","type":"int","value":5},{"name":"resource_index","type":"int","value":6},{"name":"oS","type":"string","value":"acc9"},{"name":"l0","type":"string","value":"inside"},{"name":"l1","type":"string","value":"etc"},{"name":"l2","type":"string","value":"0"},{"name":"z","type":"int","value":9},{"name":"zM","type":"int","value":2},{"name":"f","type":"int","value":0}],"gid":2,"width":150,"height":150},{"id":15,"x":649,"y":299,"visible":true,"properties":[{"name":"layer","type":"int","value":5},{"name":"resource_index","type":"int","value":7},{"name":"oS","type":"string","value":"acc9"},{"name":"l0","type":"string","value":"inside"},{"name":"l1","type":"string","value":"etc"},{"name":"l2","type":"string","value":"0"},{"name":"z","type":"int","value":9},{"name":"zM","type":"int","value":3},{"name":"f","type":"int","value":0}],"gid":2,"width":150,"height":150},{"id":16,"x":641,"y":299,"visible":true,"properties":[{"name":"layer","type":"int","value":5},{"name":"resource_index","type":"int","value":8},{"name":"oS","type":"string","value":"acc9"},{"name":"l0","type":"string","value":"inside"},{"name":"l1","type":"string","value":"etc"},{"name":"l2","type":"string","value":"0"},{"name":"z","type":"int","value":9},{"name":"zM","type":"int","value":2},{"name":"f","type":"int","value":0}],"gid":2,"width":150,"height":150}]},{"id":3,"name":"layer_7_obj","type":"objectgroup","visible":true,"opacity":1,"objects":[{"id":17,"x":-236,"y":-119,"visible":true,"properties":[{"name":"layer","type":"int","value":7},{"name":"resource_index","type":"int","value":0},{"name":"oS","type":"string","value":"acc9"},{"name":"l0","type":"string","value":"inside"},{"name":"l1","type":"string","value":"conference"},{"name":"l2","type":"string","value":"6"},{"name":"z","type":"int","value":9},{"name":"zM","type":"int","value":10},{"name":"f","type":"int","value":0}],"gid":13,"width":124,"height":150}]},{"id":4,"name":"portal","type":"objectgroup","visible":true,"opacity":1,"objects":[{"id":18,"x":-52,"y":-125,"visible":true,"properties":[{"name":"x","type":"int","value":-52},{"name":"y","type":"int","value":-125},{"name":"pn","type":"string","value":"sp"},{"name":"pt","type":"int","value":0},{"name":"tm","type":"int","value":999999999},{"name":"tn","type":"string","value":""}],"point":true},{"id":19,"x":704,"y":149,"visible":true,"properties":[{"name":"x","type":"int","value":704},{"name":"y","type":"int","value":149},{"name":"pn","type":"string","value":"bo00"},{"name":"pt","type":"int","value":2},{"name":"tm","type":"int","value":120000200},{"name":"tn","type":"string","value":"bi00"},{"name":"delay","type":"int","value":0},{"name":"script","type":"string","value":""},{"name":"onlyOnce","type":"int","value":0},{"name":"hideTooltip","type":"int","value":0}],"point":true}]},{"id":5,"name":"life","type":"objectgroup","visible":true,"opacity":1,"objects":[{"id":20,"x":5,"y":140,"visible":true,"properties":[{"name":"f","type":"int","value":0},{"name":"x","type":"int","value":5},{"name":"y","type":"int","value":140},{"name":"cy","type":"int","value":150},{"name":"fh","type":"int","value":11},{"name":"id","type":"int","value":1092006},{"name":"rx0","type":"int","value":-45},{"name":"rx1","type":"int","value":28},{"name":"hide","type":"int","value":0},{"name":"type","type":"string","value":"n"},{"name":"mobTime","type":"int","value":0}],"point":true}]},{"id":6,"name":"foothold","type":"objectgroup","visible":true,"opacity":1,"objects":[{"id":21,"x":3,"y":89,"visible":true,"properties":[{"name":"layer","type":"int","value":3},{"name":"group","type":"int","value":6},{"name":"id","type":"int","value":7},{"name":"fh_layer","type":"int","value":3},{"name":"fh_group","type":"int","value":6},{"name":"fh_id","type":"int","value":7},{"name":"x1","type":"int","value":3},{"name":"x2","type":"int","value":205},{"name":"y1","type":"int","value":89},{"name":"y2","type":"int","value":89},{"name":"next","type":"int","value":8},{"name":"prev","type":"int","value":0}],"polyline":[{"x":0,"y":0},{"x":202,"y":0}]},{"id":22,"x":205,"y":89,"visible":true,"properties":[{"name":"layer","type":"int","value":3},{"name":"group","type":"int","value":7},{"name":"id","type":"int","value":8},{"name":"fh_layer","type":"int","value":3},{"name":"fh_group","type":"int","value":7},{"name":"fh_id","type":"int","value":8},{"name":"x1","type":"int","value":205},{"name":"x2","type":"int","value":389},{"name":"y1","type":"int","value":89},{"name":"y2","type":"int","value":89},{"name":"next","type":"int","value":0},{"name":"prev","type":"int","value":7}],"polyline":[{"x":0,"y":0},{"x":184,"y":0}]},{"id":23,"x":-364,"y":104,"visible":true,"properties":[{"name":"layer","type":"int","value":3},{"name":"group","type":"int","value":8},{"name":"id","type":"int","value":1},{"name":"fh_layer","type":"int","value":3},{"name":"fh_group","type":"int","value":8},{"name":"fh_id","type":"int","value":1},{"name":"x1","type":"int","value":-364},{"name":"x2","type":"int","value":-271},{"name":"y1","type":"int","value":104},{"name":"y2","type":"int","value":104},{"name":"next","type":"int","value":0},{"name":"prev","type":"int","value":0}],"polyline":[{"x":0,"y":0},{"x":93,"y":0}]},{"id":24,"x":-155,"y":-94,"visible":true,"properties":[{"name":"layer","type":"int","value":3},{"name":"group","type":"int","value":9},{"name":"id","type":"int","value":2},{"name":"fh_layer","type":"int","value":3},{"name":"fh_group","type":"int","value":9},{"name":"fh_id","type":"int","value":2},{"name":"x1","type":"int","value":-155},{"name":"x2","type":"int","value":-48},{"name":"y1","type":"int","value":-94},{"name":"y2","type":"int","value":-94},{"name":"next","type":"int","value":0},{"name":"prev","type":"int","value":0}],"polyline":[{"x":0,"y":0},{"x":107,"y":0}]},{"id":25,"x":-97,"y":4,"visible":true,"properties":[{"name":"layer","type":"int","value":3},{"name":"group","type":"int","value":9},{"name":"id","type":"int","value":3},{"name":"fh_layer","type":"int","value":3},{"name":"fh_group","type":"int","value":9},{"name":"fh_id","type":"int","value":3},{"name":"x1","type":"int","value":-97},{"name":"x2","type":"int","value":-13},{"name":"y1","type":"int","value":4},{"name":"y2","type":"int","value":4},{"name":"next","type":"int","value":0},{"name":"prev","type":"int","value":0}],"polyline":[{"x":0,"y":0},{"x":84,"y":0}]},{"id":26,"x":-184,"y":89,"visible":true,"properties":[{"name":"layer","type":"int","value":3},{"name":"group","type":"int","value":9},{"name":"id","type":"int","value":4},{"name":"fh_layer","type":"int","value":3},{"name":"fh_group","type":"int","value":9},{"name":"fh_id","type":"int","value":4},{"name":"x1","type":"int","value":-184},{"name":"x2","type":"int","value":-91},{"name":"y1","type":"int","value":89},{"name":"y2","type":"int","value":89},{"name":"next","type":"int","value":0},{"name":"prev","type":"int","value":0}],"polyline":[{"x":0,"y":0},{"x":93,"y":0}]},{"id":27,"x":-177,"y":109,"visible":true,"properties":[{"name":"layer","type":"int","value":3},{"name":"group","type":"int","value":9},{"name":"id","type":"int","value":5},{"name":"fh_layer","type":"int","value":3},{"name":"fh_group","type":"int","value":9},{"name":"fh_id","type":"int","value":5},{"name":"x1","type":"int","value":-177},{"name":"x2","type":"int","value":-84},{"name":"y1","type":"int","value":109},{"name":"y2","type":"int","value":109},{"name":"next","type":"int","value":0},{"name":"prev","type":"int","value":0}],"polyline":[{"x":0,"y":0},{"x":93,"y":0}]},{"id":28,"x":-170,"y":129,"visible":true,"properties":[{"name":"layer","type":"int","value":3},{"name":"group","type":"int","value":9},{"name":"id","type":"int","value":6},{"name":"fh_layer","type":"int","value":3},{"name":"fh_group","type":"int","value":9},{"name":"fh_id","type":"int","value":6},{"name":"x1","type":"int","value":-170},{"name":"x2","type":"int","value":-77},{"name":"y1","type":"int","value":129},{"name":"y2","type":"int","value":129},{"name":"next","type":"int","value":0},{"name":"prev","type":"int","value":0}],"polyline":[{"x":0,"y":0},{"x":93,"y":0}]},{"id":29,"x":-402,"y":150,"visible":true,"properties":[{"name":"layer","type":"int","value":5},{"name":"group","type":"int","value":0},{"name":"id","type":"int","value":9},{"name":"fh_layer","type":"int","value":5},{"name":"fh_group","type":"int","value":0},{"name":"fh_id","type":"int","value":9},{"name":"x1","type":"int","value":-402},{"name":"x2","type":"int","value":-249},{"name":"y1","type":"int","value":150},{"name":"y2","type":"int","value":150},{"name":"next","type":"int","value":10},{"name":"prev","type":"int","value":0}],"polyline":[{"x":0,"y":0},{"x":153,"y":0}]},{"id":30,"x":-249,"y":150,"visible":true,"properties":[{"name":"layer","type":"int","value":5},{"name":"group","type":"int","value":0},{"name":"id","type":"int","value":10},{"name":"fh_layer","type":"int","value":5},{"name":"fh_group","type":"int","value":0},{"name":"fh_id","type":"int","value":10},{"name":"x1","type":"int","value":-249},{"name":"x2","type":"int","value":-100},{"name":"y1","type":"int","value":150},{"name":"y2","type":"int","value":150},{"name":"next","type":"int","value":11},{"name":"prev","type":"int","value":9}],"polyline":[{"x":0,"y":0},{"x":149,"y":0}]},{"id":31,"x":-100,"y":150,"visible":true,"properties":[{"name":"layer","type":"int","value":5},{"name":"group","type":"int","value":0},{"name":"id","type":"int","value":11},{"name":"fh_layer","type":"int","value":5},{"name":"fh_group","type":"int","value":0},{"name":"fh_id","type":"int","value":11},{"name":"x1","type":"int","value":-100},{"name":"x2","type":"int","value":48},{"name":"y1","type":"int","value":150},{"name":"y2","type":"int","value":150},{"name":"next","type":"int","value":12},{"name":"prev","type":"int","value":10}],"polyline":[{"x":0,"y":0},{"x":148,"y":0}]},{"id":32,"x":48,"y":150,"visible":true,"properties":[{"name":"layer","type":"int","value":5},{"name":"group","type":"int","value":1},{"name":"id","type":"int","value":12},{"name":"fh_layer","type":"int","value":5},{"name":"fh_group","type":"int","value":1},{"name":"fh_id","type":"int","value":12},{"name":"x1","type":"int","value":48},{"name":"x2","type":"int","value":198},{"name":"y1","type":"int","value":150},{"name":"y2","type":"int","value":150},{"name":"next","type":"int","value":13},{"name":"prev","type":"int","value":11}],"polyline":[{"x":0,"y":0},{"x":150,"y":0}]},{"id":33,"x":198,"y":150,"visible":true,"properties":[{"name":"layer","type":"int","value":5},{"name":"group","type":"int","value":1},{"name":"id","type":"int","value":13},{"name":"fh_layer","type":"int","value":5},{"name":"fh_group","type":"int","value":1},{"name":"fh_id","type":"int","value":13},{"name":"x1","type":"int","value":198},{"name":"x2","type":"int","value":345},{"name":"y1","type":"int","value":150},{"name":"y2","type":"int","value":150},{"name":"next","type":"int","value":14},{"name":"prev","type":"int","value":12}],"polyline":[{"x":0,"y":0},{"x":147,"y":0}]},{"id":34,"x":345,"y":150,"visible":true,"properties":[{"name":"layer","type":"int","value":5},{"name":"group","type":"int","value":2},{"name":"id","type":"int","value":14},{"name":"fh_layer","type":"int","value":5},{"name":"fh_group","type":"int","value":2},{"name":"fh_id","type":"int","value":14},{"name":"x1","type":"int","value":345},{"name":"x2","type":"int","value":495},{"name":"y1","type":"int","value":150},{"name":"y2","type":"int","value":150},{"name":"next","type":"int","value":15},{"name":"prev","type":"int","value":13}],"polyline":[{"x":0,"y":0},{"x":150,"y":0}]},{"id":35,"x":495,"y":150,"visible":true,"properties":[{"name":"layer","type":"int","value":5},{"name":"group","type":"int","value":2},{"name":"id","type":"int","value":15},{"name":"fh_layer","type":"int","value":5},{"name":"fh_group","type":"int","value":2},{"name":"fh_id","type":"int","value":15},{"name":"x1","type":"int","value":495},{"name":"x2","type":"int","value":644},{"name":"y1","type":"int","value":150},{"name":"y2","type":"int","value":150},{"name":"next","type":"int","value":16},{"name":"prev","type":"int","value":14}],"polyline":[{"x":0,"y":0},{"x":149,"y":0}]},{"id":36,"x":644,"y":150,"visible":true,"properties":[{"name":"layer","type":"int","value":5},{"name":"group","type":"int","value":2},{"name":"id","type":"int","value":16},{"name":"fh_layer","type":"int","value":5},{"name":"fh_group","type":"int","value":2},{"name":"fh_id","type":"int","value":16},{"name":"x1","type":"int","value":644},{"name":"x2","type":"int","value":648},{"name":"y1","type":"int","value":150},{"name":"y2","type":"int","value":150},{"name":"next","type":"int","value":17},{"name":"prev","type":"int","value":15}],"polyline":[{"x":0,"y":0},{"x":4,"y":0}]},{"id":37,"x":648,"y":150,"visible":true,"properties":[{"name":"layer","type":"int","value":5},{"name":"group","type":"int","value":3},{"name":"id","type":"int","value":17},{"name":"fh_layer","type":"int","value":5},{"name":"fh_group","type":"int","value":3},{"name":"fh_id","type":"int","value":17},{"name":"x1","type":"int","value":648},{"name":"x2","type":"int","value":801},{"name":"y1","type":"int","value":150},{"name":"y2","type":"int","value":150},{"name":"next","type":"int","value":0},{"name":"prev","type":"int","value":16}],"polyline":[{"x":0,"y":0},{"x":153,"y":0}]}]},{"id":7,"name":"miniMap","type":"objectgroup","visible":true,"opacity":1,"objects":[{"id":38,"x":449,"y":451,"visible":true,"properties":[{"name":"mag","type":"int","value":4},{"name":"centerX","type":"int","value":449},{"name":"centerY","type":"int","value":451},{"name":"canvas_path","type":"string","value":"../../images/30645.png"},{"name":"canvas_width","type":"int","value":81},{"name":"canvas_height","type":"int","value":49},{"name":"canvas_origin_x","type":"int","value":0},{"name":"canvas_origin_y","type":"int","value":0}],"point":true}]}],"tilesets":[{"firstgid":1,"source":"../../tilesets/obj_acc9_inside_etc.tsj"},{"firstgid":6,"source":"../../tilesets/obj_acc9_inside_conference.tsj"}],"properties":[{"name":"bgm","type":"string","value":"Bgm15/inNautilus"},{"name":"swim","type":"int","value":0},{"name":"town","type":"int","value":1},{"name":"VRTop","type":"int","value":-302},{"name":"cloud","type":"int","value":0},{"name":"VRLeft","type":"int","value":-405},{"name":"VRRight","type":"int","value":795},{"name":"mapMark","type":"string","value":"Nautilus"},{"name":"mobRate","type":"float","value":1},{"name":"version","type":"int","value":10},{"name":"VRBottom","type":"int","value":298},{"name":"returnMap","type":"int","value":120000000},{"name":"fieldLimit","type":"int","value":8},{"name":"hideMinimap","type":"int","value":0},{"name":"forcedReturn","type":"int","value":999999999}]}