{"type":"map","orientation":"orthogonal","renderorder":"right-down","infinite":false,"tilewidth":1,"tileheight":1,"width":800,"height":600,"nextlayerid":6,"nextobjectid":12,"layers":[{"id":1,"name":"layer_1_obj","type":"objectgroup","visible":true,"opacity":1,"objects":[{"id":1,"x":-400,"y":299,"visible":true,"properties":[{"name":"layer","type":"int","value":1},{"name":"resource_index","type":"int","value":0},{"name":"oS","type":"string","value":"acc1"},{"name":"l0","type":"string","value":"lv200"},{"name":"l1","type":"string","value":"thief"},{"name":"l2","type":"string","value":"0"},{"name":"z","type":"int","value":1},{"name":"zM","type":"int","value":1},{"name":"f","type":"int","value":0}],"gid":1,"width":800,"height":600},{"id":2,"x":-401,"y":165,"visible":true,"properties":[{"name":"layer","type":"int","value":1},{"name":"resource_index","type":"int","value":1},{"name":"oS","type":"string","value":"acc1"},{"name":"l0","type":"string","value":"lv200"},{"name":"l1","type":"string","value":"thief"},{"name":"l2","type":"string","value":"1"},{"name":"z","type":"int","value":5},{"name":"zM","type":"int","value":1},{"name":"f","type":"int","value":0}],"gid":2,"width":800,"height":377}]},{"id":2,"name":"layer_3_obj","type":"objectgroup","visible":true,"opacity":1,"objects":[{"id":3,"x":-400,"y":300,"visible":true,"properties":[{"name":"layer","type":"int","value":3},{"name":"resource_index","type":"int","value":0},{"name":"oS","type":"string","value":"acc1"},{"name":"l0","type":"string","value":"lv200"},{"name":"l1","type":"string","value":"thief"},{"name":"l2","type":"string","value":"2"},{"name":"z","type":"int","value":9},{"name":"zM","type":"int","value":0},{"name":"f","type":"int","value":0}],"gid":3,"width":800,"height":146},{"id":4,"x":-336,"y":303,"visible":true,"properties":[{"name":"layer","type":"int","value":3},{"name":"resource_index","type":"int","value":1},{"name":"oS","type":"string","value":"acc1"},{"name":"l0","type":"string","value":"lv200"},{"name":"l1","type":"string","value":"thief"},{"name":"l2","type":"string","value":"3"},{"name":"z","type":"int","value":10},{"name":"zM","type":"int","value":0},{"name":"f","type":"int","value":0}],"gid":4,"width":725,"height":109}]},{"id":3,"name":"portal","type":"objectgroup","visible":true,"opacity":1,"objects":[{"id":5,"x":-223,"y":145,"visible":true,"properties":[{"name":"x","type":"int","value":-223},{"name":"y","type":"int","value":145},{"name":"pn","type":"string","value":"sp"},{"name":"pt","type":"int","value":0},{"name":"tm","type":"int","value":999999999},{"name":"tn","type":"string","value":""},{"name":"horizontalImpact","type":"int","value":0}],"point":true},{"id":6,"x":310,"y":154,"visible":true,"properties":[{"name":"x","type":"int","value":310},{"name":"y","type":"int","value":154},{"name":"pn","type":"string","value":"out00"},{"name":"pt","type":"int","value":2},{"name":"tm","type":"int","value":103000003},{"name":"tn","type":"string","value":"rank00"},{"name":"horizontalImpact","type":"int","value":0}],"point":true}]},{"id":4,"name":"life","type":"objectgroup","visible":true,"opacity":1,"objects":[{"id":7,"x":-1,"y":-18,"visible":true,"properties":[{"name":"f","type":"int","value":0},{"name":"x","type":"int","value":-1},{"name":"y","type":"int","value":-18},{"name":"cy","type":"int","value":-6},{"name":"fh","type":"int","value":1},{"name":"id","type":"int","value":9901300},{"name":"rx0","type":"int","value":-51},{"name":"rx1","type":"int","value":49},{"name":"hide","type":"int","value":0},{"name":"type","type":"string","value":"n"},{"name":"mobTime","type":"int","value":0}],"point":true},{"id":8,"x":-117,"y":56,"visible":true,"properties":[{"name":"f","type":"int","value":0},{"name":"x","type":"int","value":-117},{"name":"y","type":"int","value":56},{"name":"cy","type":"int","value":72},{"name":"fh","type":"int","value":2},{"name":"id","type":"int","value":9901301},{"name":"rx0","type":"int","value":-140},{"name":"rx1","type":"int","value":-67},{"name":"hide","type":"int","value":0},{"name":"type","type":"string","value":"n"},{"name":"mobTime","type":"int","value":0}],"point":true}]},{"id":5,"name":"foothold","type":"objectgroup","visible":true,"opacity":1,"objects":[{"id":9,"x":-87,"y":-6,"visible":true,"properties":[{"name":"layer","type":"int","value":1},{"name":"group","type":"int","value":1},{"name":"id","type":"int","value":1},{"name":"fh_layer","type":"int","value":1},{"name":"fh_group","type":"int","value":1},{"name":"fh_id","type":"int","value":1},{"name":"x1","type":"int","value":-87},{"name":"x2","type":"int","value":93},{"name":"y1","type":"int","value":-6},{"name":"y2","type":"int","value":-6},{"name":"next","type":"int","value":0},{"name":"prev","type":"int","value":0}],"polyline":[{"x":0,"y":0},{"x":180,"y":0}]},{"id":10,"x":-160,"y":72,"visible":true,"properties":[{"name":"layer","type":"int","value":1},{"name":"group","type":"int","value":1},{"name":"id","type":"int","value":2},{"name":"fh_layer","type":"int","value":1},{"name":"fh_group","type":"int","value":1},{"name":"fh_id","type":"int","value":2},{"name":"x1","type":"int","value":-160},{"name":"x2","type":"int","value":-65},{"name":"y1","type":"int","value":72},{"name":"y2","type":"int","value":72},{"name":"next","type":"int","value":0},{"name":"prev","type":"int","value":0}],"polyline":[{"x":0,"y":0},{"x":95,"y":0}]},{"id":11,"x":-400,"y":157,"visible":true,"properties":[{"name":"layer","type":"int","value":3},{"name":"group","type":"int","value":0},{"name":"id","type":"int","value":3},{"name":"fh_layer","type":"int","value":3},{"name":"fh_group","type":"int","value":0},{"name":"fh_id","type":"int","value":3},{"name":"x1","type":"int","value":-400},{"name":"x2","type":"int","value":400},{"name":"y1","type":"int","value":157},{"name":"y2","type":"int","value":157},{"name":"next","type":"int","value":0},{"name":"prev","type":"int","value":0}],"polyline":[{"x":0,"y":0},{"x":800,"y":0}]}]}],"tilesets":[{"firstgid":1,"source":"../../tilesets/obj_acc1_lv200_thief.tsj"}],"properties":[{"name":"bgm","type":"string","value":"Bgm01/BadGuys"},{"name":"fly","type":"int","value":0},{"name":"swim","type":"int","value":0},{"name":"town","type":"int","value":1},{"name":"VRTop","type":"int","value":-300},{"name":"cloud","type":"int","value":0},{"name":"VRLeft","type":"int","value":-400},{"name":"VRRight","type":"int","value":400},{"name":"mapMark","type":"string","value":"KerningCity"},{"name":"mobRate","type":"float","value":1},{"name":"version","type":"int","value":10},{"name":"VRBottom","type":"int","value":300},{"name":"noMapCmd","type":"int","value":0},{"name":"returnMap","type":"int","value":103000000},{"name":"fieldLimit","type":"int","value":0},{"name":"hideMinimap","type":"int","value":0},{"name":"onUserEnter","type":"string","value":""},{"name":"forcedReturn","type":"int","value":999999999},{"name":"onFirstUserEnter","type":"string","value":""}]}