{"type":"map","orientation":"orthogonal","renderorder":"right-down","infinite":false,"tilewidth":1,"tileheight":1,"width":800,"height":600,"nextlayerid":6,"nextobjectid":31,"layers":[{"id":1,"name":"layer_1_obj","type":"objectgroup","visible":true,"opacity":1,"objects":[{"id":1,"x":-400,"y":299,"visible":true,"properties":[{"name":"layer","type":"int","value":1},{"name":"resource_index","type":"int","value":0},{"name":"oS","type":"string","value":"acc1"},{"name":"l0","type":"string","value":"lv200"},{"name":"l1","type":"string","value":"warrior"},{"name":"l2","type":"string","value":"0"},{"name":"z","type":"int","value":1},{"name":"zM","type":"int","value":1},{"name":"f","type":"int","value":0}],"gid":3,"width":800,"height":600},{"id":2,"x":-400,"y":199,"visible":true,"properties":[{"name":"layer","type":"int","value":1},{"name":"resource_index","type":"int","value":1},{"name":"oS","type":"string","value":"acc1"},{"name":"l0","type":"string","value":"lv200"},{"name":"l1","type":"string","value":"warrior"},{"name":"l2","type":"string","value":"1"},{"name":"z","type":"int","value":5},{"name":"zM","type":"int","value":1},{"name":"f","type":"int","value":0}],"gid":4,"width":800,"height":500},{"id":3,"x":-231,"y":300,"visible":true,"properties":[{"name":"layer","type":"int","value":1},{"name":"resource_index","type":"int","value":2},{"name":"oS","type":"string","value":"acc1"},{"name":"l0","type":"string","value":"lv200"},{"name":"l1","type":"string","value":"light"},{"name":"l2","type":"string","value":"0"},{"name":"z","type":"int","value":4},{"name":"zM","type":"int","value":1},{"name":"f","type":"int","value":0}],"gid":1,"width":435,"height":600},{"id":4,"x":-122,"y":24,"visible":true,"properties":[{"name":"layer","type":"int","value":1},{"name":"resource_index","type":"int","value":3},{"name":"oS","type":"string","value":"acc1"},{"name":"l0","type":"string","value":"lv200"},{"name":"l1","type":"string","value":"light"},{"name":"l2","type":"string","value":"2"},{"name":"z","type":"int","value":4},{"name":"zM","type":"int","value":1},{"name":"f","type":"int","value":0}],"gid":2,"width":316,"height":325}]},{"id":2,"name":"layer_3_obj","type":"objectgroup","visible":true,"opacity":1,"objects":[{"id":5,"x":-400,"y":301,"visible":true,"properties":[{"name":"layer","type":"int","value":3},{"name":"resource_index","type":"int","value":0},{"name":"oS","type":"string","value":"acc1"},{"name":"l0","type":"string","value":"lv200"},{"name":"l1","type":"string","value":"warrior"},{"name":"l2","type":"string","value":"2"},{"name":"z","type":"int","value":9},{"name":"zM","type":"int","value":0},{"name":"f","type":"int","value":0}],"gid":5,"width":800,"height":146}]},{"id":3,"name":"portal","type":"objectgroup","visible":true,"opacity":1,"objects":[{"id":6,"x":0,"y":0,"visible":true,"properties":[{"name":"x","type":"int","value":0},{"name":"y","type":"int","value":0},{"name":"pn","type":"string","value":"sp"},{"name":"pt","type":"int","value":0},{"name":"tm","type":"int","value":999999999},{"name":"tn","type":"string","value":""},{"name":"horizontalImpact","type":"int","value":0}],"point":true},{"id":7,"x":341,"y":113,"visible":true,"properties":[{"name":"x","type":"int","value":341},{"name":"y","type":"int","value":113},{"name":"pn","type":"string","value":"out00"},{"name":"pt","type":"int","value":2},{"name":"tm","type":"int","value":102000003},{"name":"tn","type":"string","value":"rank00"},{"name":"horizontalImpact","type":"int","value":0}],"point":true}]},{"id":4,"name":"life","type":"objectgroup","visible":true,"opacity":1,"objects":[{"id":8,"x":-2,"y":28,"visible":true,"properties":[{"name":"f","type":"int","value":0},{"name":"x","type":"int","value":-2},{"name":"y","type":"int","value":28},{"name":"cy","type":"int","value":35},{"name":"fh","type":"int","value":3},{"name":"id","type":"int","value":9901700},{"name":"rx0","type":"int","value":-52},{"name":"rx1","type":"int","value":48},{"name":"hide","type":"int","value":0},{"name":"type","type":"string","value":"n"},{"name":"mobTime","type":"int","value":0}],"point":true},{"id":9,"x":-78,"y":-79,"visible":true,"properties":[{"name":"f","type":"int","value":0},{"name":"x","type":"int","value":-78},{"name":"y","type":"int","value":-79},{"name":"cy","type":"int","value":-72},{"name":"fh","type":"int","value":10},{"name":"id","type":"int","value":9901701},{"name":"rx0","type":"int","value":-128},{"name":"rx1","type":"int","value":-28},{"name":"hide","type":"int","value":0},{"name":"type","type":"string","value":"n"},{"name":"mobTime","type":"int","value":0}],"point":true},{"id":10,"x":69,"y":-78,"visible":true,"properties":[{"name":"f","type":"int","value":0},{"name":"x","type":"int","value":69},{"name":"y","type":"int","value":-78},{"name":"cy","type":"int","value":-72},{"name":"fh","type":"int","value":11},{"name":"id","type":"int","value":9901702},{"name":"rx0","type":"int","value":19},{"name":"rx1","type":"int","value":119},{"name":"hide","type":"int","value":0},{"name":"type","type":"string","value":"n"},{"name":"mobTime","type":"int","value":0}],"point":true},{"id":11,"x":-118,"y":61,"visible":true,"properties":[{"name":"f","type":"int","value":0},{"name":"x","type":"int","value":-118},{"name":"y","type":"int","value":61},{"name":"cy","type":"int","value":69},{"name":"fh","type":"int","value":2},{"name":"id","type":"int","value":9901703},{"name":"rx0","type":"int","value":-168},{"name":"rx1","type":"int","value":-68},{"name":"hide","type":"int","value":0},{"name":"type","type":"string","value":"n"},{"name":"mobTime","type":"int","value":0}],"point":true},{"id":12,"x":112,"y":62,"visible":true,"properties":[{"name":"f","type":"int","value":0},{"name":"x","type":"int","value":112},{"name":"y","type":"int","value":62},{"name":"cy","type":"int","value":68},{"name":"fh","type":"int","value":4},{"name":"id","type":"int","value":9901704},{"name":"rx0","type":"int","value":62},{"name":"rx1","type":"int","value":162},{"name":"hide","type":"int","value":0},{"name":"type","type":"string","value":"n"},{"name":"mobTime","type":"int","value":0}],"point":true},{"id":13,"x":-236,"y":116,"visible":true,"properties":[{"name":"f","type":"int","value":0},{"name":"x","type":"int","value":-236},{"name":"y","type":"int","value":116},{"name":"cy","type":"int","value":120},{"name":"fh","type":"int","value":7},{"name":"id","type":"int","value":9901705},{"name":"rx0","type":"int","value":-286},{"name":"rx1","type":"int","value":-186},{"name":"hide","type":"int","value":0},{"name":"type","type":"string","value":"n"},{"name":"mobTime","type":"int","value":0}],"point":true},{"id":14,"x":238,"y":115,"visible":true,"properties":[{"name":"f","type":"int","value":0},{"name":"x","type":"int","value":238},{"name":"y","type":"int","value":115},{"name":"cy","type":"int","value":122},{"name":"fh","type":"int","value":8},{"name":"id","type":"int","value":9901706},{"name":"rx0","type":"int","value":188},{"name":"rx1","type":"int","value":288},{"name":"hide","type":"int","value":0},{"name":"type","type":"string","value":"n"},{"name":"mobTime","type":"int","value":0}],"point":true},{"id":15,"x":-316,"y":-97,"visible":true,"properties":[{"name":"f","type":"int","value":0},{"name":"x","type":"int","value":-316},{"name":"y","type":"int","value":-97},{"name":"cy","type":"int","value":-92},{"name":"fh","type":"int","value":1},{"name":"id","type":"int","value":9901707},{"name":"rx0","type":"int","value":-366},{"name":"rx1","type":"int","value":-266},{"name":"hide","type":"int","value":0},{"name":"type","type":"string","value":"n"},{"name":"mobTime","type":"int","value":0}],"point":true},{"id":16,"x":319,"y":-95,"visible":true,"properties":[{"name":"f","type":"int","value":0},{"name":"x","type":"int","value":319},{"name":"y","type":"int","value":-95},{"name":"cy","type":"int","value":-90},{"name":"fh","type":"int","value":6},{"name":"id","type":"int","value":9901708},{"name":"rx0","type":"int","value":269},{"name":"rx1","type":"int","value":369},{"name":"hide","type":"int","value":0},{"name":"type","type":"string","value":"n"},{"name":"mobTime","type":"int","value":0}],"point":true},{"id":17,"x":-339,"y":106,"visible":true,"properties":[{"name":"f","type":"int","value":0},{"name":"x","type":"int","value":-339},{"name":"y","type":"int","value":106},{"name":"cy","type":"int","value":112},{"name":"fh","type":"int","value":5},{"name":"id","type":"int","value":9901709},{"name":"rx0","type":"int","value":-367},{"name":"rx1","type":"int","value":-289},{"name":"hide","type":"int","value":0},{"name":"type","type":"string","value":"n"},{"name":"mobTime","type":"int","value":0}],"point":true},{"id":18,"x":10,"y":153,"visible":true,"properties":[{"name":"f","type":"int","value":0},{"name":"x","type":"int","value":10},{"name":"y","type":"int","value":153},{"name":"cy","type":"int","value":158},{"name":"fh","type":"int","value":12},{"name":"id","type":"int","value":9010021},{"name":"rx0","type":"int","value":-40},{"name":"rx1","type":"int","value":60},{"name":"hide","type":"int","value":0},{"name":"type","type":"string","value":"n"},{"name":"mobTime","type":"int","value":0}],"point":true}]},{"id":5,"name":"foothold","type":"objectgroup","visible":true,"opacity":1,"objects":[{"id":19,"x":-386,"y":-92,"visible":true,"properties":[{"name":"layer","type":"int","value":1},{"name":"group","type":"int","value":1},{"name":"id","type":"int","value":1},{"name":"fh_layer","type":"int","value":1},{"name":"fh_group","type":"int","value":1},{"name":"fh_id","type":"int","value":1},{"name":"x1","type":"int","value":-386},{"name":"x2","type":"int","value":-285},{"name":"y1","type":"int","value":-92},{"name":"y2","type":"int","value":-92},{"name":"next","type":"int","value":0},{"name":"prev","type":"int","value":0}],"polyline":[{"x":0,"y":0},{"x":101,"y":0}]},{"id":20,"x":-173,"y":69,"visible":true,"properties":[{"name":"layer","type":"int","value":1},{"name":"group","type":"int","value":1},{"name":"id","type":"int","value":2},{"name":"fh_layer","type":"int","value":1},{"name":"fh_group","type":"int","value":1},{"name":"fh_id","type":"int","value":2},{"name":"x1","type":"int","value":-173},{"name":"x2","type":"int","value":-54},{"name":"y1","type":"int","value":69},{"name":"y2","type":"int","value":69},{"name":"next","type":"int","value":0},{"name":"prev","type":"int","value":0}],"polyline":[{"x":0,"y":0},{"x":119,"y":0}]},{"id":21,"x":-60,"y":35,"visible":true,"properties":[{"name":"layer","type":"int","value":1},{"name":"group","type":"int","value":1},{"name":"id","type":"int","value":3},{"name":"fh_layer","type":"int","value":1},{"name":"fh_group","type":"int","value":1},{"name":"fh_id","type":"int","value":3},{"name":"x1","type":"int","value":-60},{"name":"x2","type":"int","value":56},{"name":"y1","type":"int","value":35},{"name":"y2","type":"int","value":35},{"name":"next","type":"int","value":0},{"name":"prev","type":"int","value":0}],"polyline":[{"x":0,"y":0},{"x":116,"y":0}]},{"id":22,"x":53,"y":68,"visible":true,"properties":[{"name":"layer","type":"int","value":1},{"name":"group","type":"int","value":1},{"name":"id","type":"int","value":4},{"name":"fh_layer","type":"int","value":1},{"name":"fh_group","type":"int","value":1},{"name":"fh_id","type":"int","value":4},{"name":"x1","type":"int","value":53},{"name":"x2","type":"int","value":169},{"name":"y1","type":"int","value":68},{"name":"y2","type":"int","value":68},{"name":"next","type":"int","value":0},{"name":"prev","type":"int","value":0}],"polyline":[{"x":0,"y":0},{"x":116,"y":0}]},{"id":23,"x":-387,"y":112,"visible":true,"properties":[{"name":"layer","type":"int","value":1},{"name":"group","type":"int","value":1},{"name":"id","type":"int","value":5},{"name":"fh_layer","type":"int","value":1},{"name":"fh_group","type":"int","value":1},{"name":"fh_id","type":"int","value":5},{"name":"x1","type":"int","value":-387},{"name":"x2","type":"int","value":-301},{"name":"y1","type":"int","value":112},{"name":"y2","type":"int","value":112},{"name":"next","type":"int","value":0},{"name":"prev","type":"int","value":0}],"polyline":[{"x":0,"y":0},{"x":86,"y":0}]},{"id":24,"x":283,"y":-90,"visible":true,"properties":[{"name":"layer","type":"int","value":1},{"name":"group","type":"int","value":1},{"name":"id","type":"int","value":6},{"name":"fh_layer","type":"int","value":1},{"name":"fh_group","type":"int","value":1},{"name":"fh_id","type":"int","value":6},{"name":"x1","type":"int","value":283},{"name":"x2","type":"int","value":386},{"name":"y1","type":"int","value":-90},{"name":"y2","type":"int","value":-90},{"name":"next","type":"int","value":0},{"name":"prev","type":"int","value":0}],"polyline":[{"x":0,"y":0},{"x":103,"y":0}]},{"id":25,"x":-297,"y":120,"visible":true,"properties":[{"name":"layer","type":"int","value":1},{"name":"group","type":"int","value":1},{"name":"id","type":"int","value":7},{"name":"fh_layer","type":"int","value":1},{"name":"fh_group","type":"int","value":1},{"name":"fh_id","type":"int","value":7},{"name":"x1","type":"int","value":-297},{"name":"x2","type":"int","value":-186},{"name":"y1","type":"int","value":120},{"name":"y2","type":"int","value":121},{"name":"next","type":"int","value":0},{"name":"prev","type":"int","value":0}],"polyline":[{"x":0,"y":0},{"x":111,"y":1}]},{"id":26,"x":185,"y":122,"visible":true,"properties":[{"name":"layer","type":"int","value":1},{"name":"group","type":"int","value":1},{"name":"id","type":"int","value":8},{"name":"fh_layer","type":"int","value":1},{"name":"fh_group","type":"int","value":1},{"name":"fh_id","type":"int","value":8},{"name":"x1","type":"int","value":185},{"name":"x2","type":"int","value":297},{"name":"y1","type":"int","value":122},{"name":"y2","type":"int","value":122},{"name":"next","type":"int","value":0},{"name":"prev","type":"int","value":0}],"polyline":[{"x":0,"y":0},{"x":112,"y":0}]},{"id":27,"x":301,"y":113,"visible":true,"properties":[{"name":"layer","type":"int","value":1},{"name":"group","type":"int","value":1},{"name":"id","type":"int","value":9},{"name":"fh_layer","type":"int","value":1},{"name":"fh_group","type":"int","value":1},{"name":"fh_id","type":"int","value":9},{"name":"x1","type":"int","value":301},{"name":"x2","type":"int","value":398},{"name":"y1","type":"int","value":113},{"name":"y2","type":"int","value":113},{"name":"next","type":"int","value":0},{"name":"prev","type":"int","value":0}],"polyline":[{"x":0,"y":0},{"x":97,"y":0}]},{"id":28,"x":-109,"y":-72,"visible":true,"properties":[{"name":"layer","type":"int","value":1},{"name":"group","type":"int","value":1},{"name":"id","type":"int","value":10},{"name":"fh_layer","type":"int","value":1},{"name":"fh_group","type":"int","value":1},{"name":"fh_id","type":"int","value":10},{"name":"x1","type":"int","value":-109},{"name":"x2","type":"int","value":-43},{"name":"y1","type":"int","value":-72},{"name":"y2","type":"int","value":-72},{"name":"next","type":"int","value":0},{"name":"prev","type":"int","value":0}],"polyline":[{"x":0,"y":0},{"x":66,"y":0}]},{"id":29,"x":33,"y":-72,"visible":true,"properties":[{"name":"layer","type":"int","value":1},{"name":"group","type":"int","value":1},{"name":"id","type":"int","value":11},{"name":"fh_layer","type":"int","value":1},{"name":"fh_group","type":"int","value":1},{"name":"fh_id","type":"int","value":11},{"name":"x1","type":"int","value":33},{"name":"x2","type":"int","value":106},{"name":"y1","type":"int","value":-72},{"name":"y2","type":"int","value":-72},{"name":"next","type":"int","value":0},{"name":"prev","type":"int","value":0}],"polyline":[{"x":0,"y":0},{"x":73,"y":0}]},{"id":30,"x":-400,"y":158,"visible":true,"properties":[{"name":"layer","type":"int","value":3},{"name":"group","type":"int","value":0},{"name":"id","type":"int","value":12},{"name":"fh_layer","type":"int","value":3},{"name":"fh_group","type":"int","value":0},{"name":"fh_id","type":"int","value":12},{"name":"x1","type":"int","value":-400},{"name":"x2","type":"int","value":400},{"name":"y1","type":"int","value":158},{"name":"y2","type":"int","value":158},{"name":"next","type":"int","value":0},{"name":"prev","type":"int","value":0}],"polyline":[{"x":0,"y":0},{"x":800,"y":0}]}]}],"tilesets":[{"firstgid":1,"source":"../../tilesets/obj_acc1_lv200_light.tsj"},{"firstgid":3,"source":"../../tilesets/obj_acc1_lv200_warrior.tsj"}],"properties":[{"name":"bgm","type":"string","value":"Bgm00/Nightmare"},{"name":"fly","type":"int","value":0},{"name":"swim","type":"int","value":0},{"name":"town","type":"int","value":1},{"name":"VRTop","type":"int","value":-300},{"name":"cloud","type":"int","value":0},{"name":"VRLeft","type":"int","value":-400},{"name":"VRRight","type":"int","value":400},{"name":"mapMark","type":"string","value":"Perion"},{"name":"mobRate","type":"float","value":1},{"name":"version","type":"int","value":10},{"name":"VRBottom","type":"int","value":300},{"name":"noMapCmd","type":"int","value":0},{"name":"returnMap","type":"int","value":102000000},{"name":"fieldLimit","type":"int","value":0},{"name":"hideMinimap","type":"int","value":0},{"name":"onUserEnter","type":"string","value":""},{"name":"forcedReturn","type":"int","value":999999999},{"name":"onFirstUserEnter","type":"string","value":""}]}