{"type":"map","orientation":"orthogonal","renderorder":"right-down","infinite":false,"tilewidth":1,"tileheight":1,"width":1080,"height":600,"nextlayerid":1,"nextobjectid":1,"layers":[],"tilesets":[],"properties":[{"name":"bgm","type":"string","value":"Bgm18/WolfAndSheep"},{"name":"fly","type":"int","value":0},{"name":"link","type":"int","value":109090100},{"name":"swim","type":"int","value":0},{"name":"town","type":"int","value":0},{"name":"VRTop","type":"int","value":-300},{"name":"cloud","type":"int","value":0},{"name":"VRLeft","type":"int","value":-630},{"name":"VRRight","type":"int","value":450},{"name":"mapMark","type":"string","value":"Event"},{"name":"mobRate","type":"float","value":1},{"name":"version","type":"int","value":10},{"name":"VRBottom","type":"int","value":300},{"name":"noMapCmd","type":"int","value":0},{"name":"returnMap","type":"int","value":910040001},{"name":"fieldLimit","type":"int","value":337912},{"name":"hideMinimap","type":"int","value":0},{"name":"onUserEnter","type":"string","value":"BF_sheepChat"},{"name":"forcedReturn","type":"int","value":910040001},{"name":"onFirstUserEnter","type":"string","value":"BF_sheepSet"}]}