{"type":"map","orientation":"orthogonal","renderorder":"right-down","infinite":false,"tilewidth":1,"tileheight":1,"width":1200,"height":820,"nextlayerid":17,"nextobjectid":170,"layers":[{"id":1,"name":"layer_0_obj","type":"objectgroup","visible":true,"opacity":1,"objects":[{"id":1,"x":93,"y":-104,"visible":true,"properties":[{"name":"layer","type":"int","value":0},{"name":"resource_index","type":"int","value":0},{"name":"oS","type":"string","value":"dungeon"},{"name":"l0","type":"string","value":"blueCave"},{"name":"l1","type":"string","value":"boss"},{"name":"l2","type":"string","value":"4"},{"name":"z","type":"int","value":9},{"name":"zM","type":"int","value":11},{"name":"f","type":"int","value":0}],"gid":39,"width":71,"height":108}]},{"id":2,"name":"layer_3_obj","type":"objectgroup","visible":true,"opacity":1,"objects":[{"id":2,"x":84,"y":264,"visible":true,"properties":[{"name":"layer","type":"int","value":3},{"name":"resource_index","type":"int","value":0},{"name":"oS","type":"string","value":"dungeon"},{"name":"l0","type":"string","value":"blueCave"},{"name":"l1","type":"string","value":"boss"},{"name":"l2","type":"string","value":"23"},{"name":"z","type":"int","value":9},{"name":"zM","type":"int","value":3},{"name":"f","type":"int","value":0}],"gid":54,"width":513,"height":200},{"id":3,"x":472,"y":260,"visible":true,"properties":[{"name":"layer","type":"int","value":3},{"name":"resource_index","type":"int","value":1},{"name":"oS","type":"string","value":"dungeon"},{"name":"l0","type":"string","value":"blueCave"},{"name":"l1","type":"string","value":"boss"},{"name":"l2","type":"string","value":"24"},{"name":"z","type":"int","value":9},{"name":"zM","type":"int","value":3},{"name":"f","type":"int","value":0}],"gid":43,"width":304,"height":124},{"id":4,"x":506,"y":261,"visible":true,"properties":[{"name":"layer","type":"int","value":3},{"name":"resource_index","type":"int","value":2},{"name":"oS","type":"string","value":"dungeon"},{"name":"l0","type":"string","value":"blueCave"},{"name":"l1","type":"string","value":"boss"},{"name":"l2","type":"string","value":"23"},{"name":"z","type":"int","value":7},{"name":"zM","type":"int","value":3},{"name":"f","type":"int","value":0}],"gid":54,"width":513,"height":200},{"id":5,"x":-61,"y":262,"visible":true,"properties":[{"name":"layer","type":"int","value":3},{"name":"resource_index","type":"int","value":3},{"name":"oS","type":"string","value":"dungeon"},{"name":"l0","type":"string","value":"blueCave"},{"name":"l1","type":"string","value":"boss"},{"name":"l2","type":"string","value":"24"},{"name":"z","type":"int","value":7},{"name":"zM","type":"int","value":3},{"name":"f","type":"int","value":0}],"gid":43,"width":304,"height":124}]},{"id":3,"name":"layer_4_obj","type":"objectgroup","visible":true,"opacity":1,"objects":[{"id":60,"x":846,"y":505,"visible":true,"properties":[{"name":"layer","type":"int","value":4},{"name":"resource_index","type":"int","value":0},{"name":"oS","type":"string","value":"dungeon"},{"name":"l0","type":"string","value":"blueCave"},{"name":"l1","type":"string","value":"boss"},{"name":"l2","type":"string","value":"16"},{"name":"z","type":"int","value":9},{"name":"zM","type":"int","value":10},{"name":"f","type":"int","value":0}],"gid":40,"width":238,"height":257},{"id":61,"x":483,"y":505,"visible":true,"properties":[{"name":"layer","type":"int","value":4},{"name":"resource_index","type":"int","value":1},{"name":"oS","type":"string","value":"dungeon"},{"name":"l0","type":"string","value":"blueCave"},{"name":"l1","type":"string","value":"boss"},{"name":"l2","type":"string","value":"17"},{"name":"z","type":"int","value":9},{"name":"zM","type":"int","value":1},{"name":"f","type":"int","value":0}],"gid":47,"width":363,"height":258},{"id":62,"x":112,"y":506,"visible":true,"properties":[{"name":"layer","type":"int","value":4},{"name":"resource_index","type":"int","value":2},{"name":"oS","type":"string","value":"dungeon"},{"name":"l0","type":"string","value":"blueCave"},{"name":"l1","type":"string","value":"boss"},{"name":"l2","type":"string","value":"18"},{"name":"z","type":"int","value":9},{"name":"zM","type":"int","value":0},{"name":"f","type":"int","value":0}],"gid":48,"width":371,"height":258},{"id":63,"x":-116,"y":505,"visible":true,"properties":[{"name":"layer","type":"int","value":4},{"name":"resource_index","type":"int","value":3},{"name":"oS","type":"string","value":"dungeon"},{"name":"l0","type":"string","value":"blueCave"},{"name":"l1","type":"string","value":"boss"},{"name":"l2","type":"string","value":"19"},{"name":"z","type":"int","value":9},{"name":"zM","type":"int","value":2},{"name":"f","type":"int","value":0}],"gid":49,"width":228,"height":253},{"id":64,"x":-117,"y":264,"visible":true,"properties":[{"name":"layer","type":"int","value":4},{"name":"resource_index","type":"int","value":4},{"name":"oS","type":"string","value":"dungeon"},{"name":"l0","type":"string","value":"blueCave"},{"name":"l1","type":"string","value":"boss"},{"name":"l2","type":"string","value":"20"},{"name":"z","type":"int","value":6},{"name":"zM","type":"int","value":2},{"name":"f","type":"int","value":0}],"gid":55,"width":219,"height":199},{"id":65,"x":753,"y":259,"visible":true,"properties":[{"name":"layer","type":"int","value":4},{"name":"resource_index","type":"int","value":5},{"name":"oS","type":"string","value":"dungeon"},{"name":"l0","type":"string","value":"blueCave"},{"name":"l1","type":"string","value":"boss"},{"name":"l2","type":"string","value":"21"},{"name":"z","type":"int","value":7},{"name":"zM","type":"int","value":10},{"name":"f","type":"int","value":0}],"gid":56,"width":331,"height":313},{"id":66,"x":-117,"y":219,"visible":true,"properties":[{"name":"layer","type":"int","value":4},{"name":"resource_index","type":"int","value":6},{"name":"oS","type":"string","value":"dungeon"},{"name":"l0","type":"string","value":"blueCave"},{"name":"l1","type":"string","value":"foot2"},{"name":"l2","type":"string","value":"0"},{"name":"z","type":"int","value":5},{"name":"zM","type":"int","value":2},{"name":"f","type":"int","value":0}],"gid":71,"width":300,"height":360},{"id":67,"x":894,"y":150,"visible":true,"properties":[{"name":"layer","type":"int","value":4},{"name":"resource_index","type":"int","value":7},{"name":"oS","type":"string","value":"dungeon"},{"name":"l0","type":"string","value":"blueCave"},{"name":"l1","type":"string","value":"foot"},{"name":"l2","type":"string","value":"10"},{"name":"z","type":"int","value":6},{"name":"zM","type":"int","value":10},{"name":"f","type":"int","value":0}],"gid":66,"width":191,"height":315}]},{"id":4,"name":"layer_4_tile","type":"objectgroup","visible":true,"opacity":1,"objects":[{"id":6,"x":45,"y":210,"visible":true,"properties":[{"name":"layer","type":"int","value":4},{"name":"resource_index","type":"int","value":0},{"name":"u","type":"string","value":"enH0"},{"name":"no","type":"int","value":1},{"name":"zM","type":"int","value":4}],"gid":24,"width":90,"height":23},{"id":7,"x":45,"y":248,"visible":true,"properties":[{"name":"layer","type":"int","value":4},{"name":"resource_index","type":"int","value":1},{"name":"u","type":"string","value":"enH1"},{"name":"no","type":"int","value":0},{"name":"zM","type":"int","value":4}],"gid":27,"width":90,"height":38},{"id":8,"x":115,"y":242,"visible":true,"properties":[{"name":"layer","type":"int","value":4},{"name":"resource_index","type":"int","value":2},{"name":"u","type":"string","value":"edD"},{"name":"no","type":"int","value":0},{"name":"zM","type":"int","value":4}],"gid":29,"width":40,"height":32},{"id":9,"x":115,"y":210,"visible":true,"properties":[{"name":"layer","type":"int","value":4},{"name":"resource_index","type":"int","value":3},{"name":"u","type":"string","value":"edU"},{"name":"no","type":"int","value":0},{"name":"zM","type":"int","value":4}],"gid":21,"width":43,"height":22},{"id":10,"x":25,"y":210,"visible":true,"properties":[{"name":"layer","type":"int","value":4},{"name":"resource_index","type":"int","value":4},{"name":"u","type":"string","value":"edU"},{"name":"no","type":"int","value":0},{"name":"zM","type":"int","value":4}],"gid":21,"width":43,"height":22},{"id":11,"x":25,"y":242,"visible":true,"properties":[{"name":"layer","type":"int","value":4},{"name":"resource_index","type":"int","value":5},{"name":"u","type":"string","value":"edD"},{"name":"no","type":"int","value":0},{"name":"zM","type":"int","value":4}],"gid":29,"width":40,"height":32},{"id":12,"x":45,"y":65,"visible":true,"properties":[{"name":"layer","type":"int","value":4},{"name":"resource_index","type":"int","value":6},{"name":"u","type":"string","value":"enH1"},{"name":"no","type":"int","value":1},{"name":"zM","type":"int","value":8}],"gid":30,"width":90,"height":35},{"id":13,"x":45,"y":30,"visible":true,"properties":[{"name":"layer","type":"int","value":4},{"name":"resource_index","type":"int","value":7},{"name":"u","type":"string","value":"enH0"},{"name":"no","type":"int","value":1},{"name":"zM","type":"int","value":8}],"gid":24,"width":90,"height":23},{"id":14,"x":115,"y":30,"visible":true,"properties":[{"name":"layer","type":"int","value":4},{"name":"resource_index","type":"int","value":8},{"name":"u","type":"string","value":"edU"},{"name":"no","type":"int","value":0},{"name":"zM","type":"int","value":8}],"gid":21,"width":43,"height":22},{"id":15,"x":115,"y":62,"visible":true,"properties":[{"name":"layer","type":"int","value":4},{"name":"resource_index","type":"int","value":9},{"name":"u","type":"string","value":"edD"},{"name":"no","type":"int","value":0},{"name":"zM","type":"int","value":8}],"gid":29,"width":40,"height":32},{"id":16,"x":25,"y":30,"visible":true,"properties":[{"name":"layer","type":"int","value":4},{"name":"resource_index","type":"int","value":10},{"name":"u","type":"string","value":"edU"},{"name":"no","type":"int","value":0},{"name":"zM","type":"int","value":8}],"gid":21,"width":43,"height":22},{"id":17,"x":25,"y":62,"visible":true,"properties":[{"name":"layer","type":"int","value":4},{"name":"resource_index","type":"int","value":11},{"name":"u","type":"string","value":"edD"},{"name":"no","type":"int","value":0},{"name":"zM","type":"int","value":8}],"gid":29,"width":40,"height":32},{"id":18,"x":835,"y":-118,"visible":true,"properties":[{"name":"layer","type":"int","value":4},{"name":"resource_index","type":"int","value":12},{"name":"u","type":"string","value":"edD"},{"name":"no","type":"int","value":0},{"name":"zM","type":"int","value":12}],"gid":29,"width":40,"height":32},{"id":19,"x":835,"y":-150,"visible":true,"properties":[{"name":"layer","type":"int","value":4},{"name":"resource_index","type":"int","value":13},{"name":"u","type":"string","value":"edU"},{"name":"no","type":"int","value":0},{"name":"zM","type":"int","value":12}],"gid":21,"width":43,"height":22},{"id":20,"x":745,"y":-118,"visible":true,"properties":[{"name":"layer","type":"int","value":4},{"name":"resource_index","type":"int","value":14},{"name":"u","type":"string","value":"edD"},{"name":"no","type":"int","value":0},{"name":"zM","type":"int","value":12}],"gid":29,"width":40,"height":32},{"id":21,"x":745,"y":-150,"visible":true,"properties":[{"name":"layer","type":"int","value":4},{"name":"resource_index","type":"int","value":15},{"name":"u","type":"string","value":"edU"},{"name":"no","type":"int","value":0},{"name":"zM","type":"int","value":12}],"gid":21,"width":43,"height":22},{"id":22,"x":765,"y":-115,"visible":true,"properties":[{"name":"layer","type":"int","value":4},{"name":"resource_index","type":"int","value":16},{"name":"u","type":"string","value":"enH1"},{"name":"no","type":"int","value":1},{"name":"zM","type":"int","value":12}],"gid":30,"width":90,"height":35},{"id":23,"x":765,"y":-150,"visible":true,"properties":[{"name":"layer","type":"int","value":4},{"name":"resource_index","type":"int","value":17},{"name":"u","type":"string","value":"enH0"},{"name":"no","type":"int","value":0},{"name":"zM","type":"int","value":12}],"gid":26,"width":90,"height":24},{"id":24,"x":835,"y":-90,"visible":true,"properties":[{"name":"layer","type":"int","value":4},{"name":"resource_index","type":"int","value":18},{"name":"u","type":"string","value":"edU"},{"name":"no","type":"int","value":0},{"name":"zM","type":"int","value":10}],"gid":21,"width":43,"height":22},{"id":25,"x":835,"y":-58,"visible":true,"properties":[{"name":"layer","type":"int","value":4},{"name":"resource_index","type":"int","value":19},{"name":"u","type":"string","value":"edD"},{"name":"no","type":"int","value":0},{"name":"zM","type":"int","value":10}],"gid":29,"width":40,"height":32},{"id":26,"x":925,"y":-90,"visible":true,"properties":[{"name":"layer","type":"int","value":4},{"name":"resource_index","type":"int","value":20},{"name":"u","type":"string","value":"edU"},{"name":"no","type":"int","value":0},{"name":"zM","type":"int","value":10}],"gid":21,"width":43,"height":22},{"id":27,"x":925,"y":-58,"visible":true,"properties":[{"name":"layer","type":"int","value":4},{"name":"resource_index","type":"int","value":21},{"name":"u","type":"string","value":"edD"},{"name":"no","type":"int","value":0},{"name":"zM","type":"int","value":10}],"gid":29,"width":40,"height":32},{"id":28,"x":855,"y":-90,"visible":true,"properties":[{"name":"layer","type":"int","value":4},{"name":"resource_index","type":"int","value":22},{"name":"u","type":"string","value":"enH0"},{"name":"no","type":"int","value":0},{"name":"zM","type":"int","value":10}],"gid":26,"width":90,"height":24},{"id":29,"x":855,"y":-55,"visible":true,"properties":[{"name":"layer","type":"int","value":4},{"name":"resource_index","type":"int","value":23},{"name":"u","type":"string","value":"enH1"},{"name":"no","type":"int","value":1},{"name":"zM","type":"int","value":10}],"gid":30,"width":90,"height":35},{"id":30,"x":115,"y":-30,"visible":true,"properties":[{"name":"layer","type":"int","value":4},{"name":"resource_index","type":"int","value":24},{"name":"u","type":"string","value":"edU"},{"name":"no","type":"int","value":0},{"name":"zM","type":"int","value":9}],"gid":21,"width":43,"height":22},{"id":31,"x":115,"y":2,"visible":true,"properties":[{"name":"layer","type":"int","value":4},{"name":"resource_index","type":"int","value":25},{"name":"u","type":"string","value":"edD"},{"name":"no","type":"int","value":0},{"name":"zM","type":"int","value":9}],"gid":29,"width":40,"height":32},{"id":32,"x":205,"y":-30,"visible":true,"properties":[{"name":"layer","type":"int","value":4},{"name":"resource_index","type":"int","value":26},{"name":"u","type":"string","value":"edU"},{"name":"no","type":"int","value":0},{"name":"zM","type":"int","value":9}],"gid":21,"width":43,"height":22},{"id":33,"x":205,"y":2,"visible":true,"properties":[{"name":"layer","type":"int","value":4},{"name":"resource_index","type":"int","value":27},{"name":"u","type":"string","value":"edD"},{"name":"no","type":"int","value":0},{"name":"zM","type":"int","value":9}],"gid":29,"width":40,"height":32},{"id":34,"x":135,"y":-30,"visible":true,"properties":[{"name":"layer","type":"int","value":4},{"name":"resource_index","type":"int","value":28},{"name":"u","type":"string","value":"enH0"},{"name":"no","type":"int","value":1},{"name":"zM","type":"int","value":9}],"gid":24,"width":90,"height":23},{"id":35,"x":135,"y":8,"visible":true,"properties":[{"name":"layer","type":"int","value":4},{"name":"resource_index","type":"int","value":29},{"name":"u","type":"string","value":"enH1"},{"name":"no","type":"int","value":0},{"name":"zM","type":"int","value":9}],"gid":27,"width":90,"height":38},{"id":36,"x":-65,"y":-210,"visible":true,"properties":[{"name":"layer","type":"int","value":4},{"name":"resource_index","type":"int","value":30},{"name":"u","type":"string","value":"edU"},{"name":"no","type":"int","value":0},{"name":"zM","type":"int","value":13}],"gid":21,"width":43,"height":22},{"id":37,"x":-65,"y":-178,"visible":true,"properties":[{"name":"layer","type":"int","value":4},{"name":"resource_index","type":"int","value":31},{"name":"u","type":"string","value":"edD"},{"name":"no","type":"int","value":0},{"name":"zM","type":"int","value":13}],"gid":29,"width":40,"height":32},{"id":38,"x":25,"y":-210,"visible":true,"properties":[{"name":"layer","type":"int","value":4},{"name":"resource_index","type":"int","value":32},{"name":"u","type":"string","value":"edU"},{"name":"no","type":"int","value":0},{"name":"zM","type":"int","value":13}],"gid":21,"width":43,"height":22},{"id":39,"x":25,"y":-178,"visible":true,"properties":[{"name":"layer","type":"int","value":4},{"name":"resource_index","type":"int","value":33},{"name":"u","type":"string","value":"edD"},{"name":"no","type":"int","value":0},{"name":"zM","type":"int","value":13}],"gid":29,"width":40,"height":32},{"id":40,"x":-45,"y":-210,"visible":true,"properties":[{"name":"layer","type":"int","value":4},{"name":"resource_index","type":"int","value":34},{"name":"u","type":"string","value":"enH0"},{"name":"no","type":"int","value":0},{"name":"zM","type":"int","value":13}],"gid":26,"width":90,"height":24},{"id":41,"x":-45,"y":-175,"visible":true,"properties":[{"name":"layer","type":"int","value":4},{"name":"resource_index","type":"int","value":35},{"name":"u","type":"string","value":"enH1"},{"name":"no","type":"int","value":1},{"name":"zM","type":"int","value":13}],"gid":30,"width":90,"height":35},{"id":42,"x":745,"y":210,"visible":true,"properties":[{"name":"layer","type":"int","value":4},{"name":"resource_index","type":"int","value":36},{"name":"u","type":"string","value":"edU"},{"name":"no","type":"int","value":0},{"name":"zM","type":"int","value":5}],"gid":21,"width":43,"height":22},{"id":43,"x":745,"y":242,"visible":true,"properties":[{"name":"layer","type":"int","value":4},{"name":"resource_index","type":"int","value":37},{"name":"u","type":"string","value":"edD"},{"name":"no","type":"int","value":0},{"name":"zM","type":"int","value":5}],"gid":29,"width":40,"height":32},{"id":44,"x":655,"y":210,"visible":true,"properties":[{"name":"layer","type":"int","value":4},{"name":"resource_index","type":"int","value":38},{"name":"u","type":"string","value":"edU"},{"name":"no","type":"int","value":0},{"name":"zM","type":"int","value":5}],"gid":21,"width":43,"height":22},{"id":45,"x":655,"y":242,"visible":true,"properties":[{"name":"layer","type":"int","value":4},{"name":"resource_index","type":"int","value":39},{"name":"u","type":"string","value":"edD"},{"name":"no","type":"int","value":0},{"name":"zM","type":"int","value":5}],"gid":29,"width":40,"height":32},{"id":46,"x":675,"y":210,"visible":true,"properties":[{"name":"layer","type":"int","value":4},{"name":"resource_index","type":"int","value":40},{"name":"u","type":"string","value":"enH0"},{"name":"no","type":"int","value":1},{"name":"zM","type":"int","value":5}],"gid":24,"width":90,"height":23},{"id":47,"x":675,"y":248,"visible":true,"properties":[{"name":"layer","type":"int","value":4},{"name":"resource_index","type":"int","value":41},{"name":"u","type":"string","value":"enH1"},{"name":"no","type":"int","value":0},{"name":"zM","type":"int","value":5}],"gid":27,"width":90,"height":38},{"id":48,"x":745,"y":150,"visible":true,"properties":[{"name":"layer","type":"int","value":4},{"name":"resource_index","type":"int","value":42},{"name":"u","type":"string","value":"edU"},{"name":"no","type":"int","value":0},{"name":"zM","type":"int","value":6}],"gid":21,"width":43,"height":22},{"id":49,"x":745,"y":182,"visible":true,"properties":[{"name":"layer","type":"int","value":4},{"name":"resource_index","type":"int","value":43},{"name":"u","type":"string","value":"edD"},{"name":"no","type":"int","value":0},{"name":"zM","type":"int","value":6}],"gid":29,"width":40,"height":32},{"id":50,"x":835,"y":150,"visible":true,"properties":[{"name":"layer","type":"int","value":4},{"name":"resource_index","type":"int","value":44},{"name":"u","type":"string","value":"edU"},{"name":"no","type":"int","value":0},{"name":"zM","type":"int","value":6}],"gid":21,"width":43,"height":22},{"id":51,"x":835,"y":182,"visible":true,"properties":[{"name":"layer","type":"int","value":4},{"name":"resource_index","type":"int","value":45},{"name":"u","type":"string","value":"edD"},{"name":"no","type":"int","value":0},{"name":"zM","type":"int","value":6}],"gid":29,"width":40,"height":32},{"id":52,"x":765,"y":150,"visible":true,"properties":[{"name":"layer","type":"int","value":4},{"name":"resource_index","type":"int","value":46},{"name":"u","type":"string","value":"enH0"},{"name":"no","type":"int","value":1},{"name":"zM","type":"int","value":6}],"gid":24,"width":90,"height":23},{"id":53,"x":765,"y":185,"visible":true,"properties":[{"name":"layer","type":"int","value":4},{"name":"resource_index","type":"int","value":47},{"name":"u","type":"string","value":"enH1"},{"name":"no","type":"int","value":1},{"name":"zM","type":"int","value":6}],"gid":30,"width":90,"height":35},{"id":54,"x":835,"y":30,"visible":true,"properties":[{"name":"layer","type":"int","value":4},{"name":"resource_index","type":"int","value":48},{"name":"u","type":"string","value":"edU"},{"name":"no","type":"int","value":0},{"name":"zM","type":"int","value":7}],"gid":21,"width":43,"height":22},{"id":55,"x":835,"y":62,"visible":true,"properties":[{"name":"layer","type":"int","value":4},{"name":"resource_index","type":"int","value":49},{"name":"u","type":"string","value":"edD"},{"name":"no","type":"int","value":0},{"name":"zM","type":"int","value":7}],"gid":29,"width":40,"height":32},{"id":56,"x":925,"y":30,"visible":true,"properties":[{"name":"layer","type":"int","value":4},{"name":"resource_index","type":"int","value":50},{"name":"u","type":"string","value":"edU"},{"name":"no","type":"int","value":0},{"name":"zM","type":"int","value":7}],"gid":21,"width":43,"height":22},{"id":57,"x":925,"y":62,"visible":true,"properties":[{"name":"layer","type":"int","value":4},{"name":"resource_index","type":"int","value":51},{"name":"u","type":"string","value":"edD"},{"name":"no","type":"int","value":0},{"name":"zM","type":"int","value":7}],"gid":29,"width":40,"height":32},{"id":58,"x":855,"y":30,"visible":true,"properties":[{"name":"layer","type":"int","value":4},{"name":"resource_index","type":"int","value":52},{"name":"u","type":"string","value":"enH0"},{"name":"no","type":"int","value":1},{"name":"zM","type":"int","value":7}],"gid":24,"width":90,"height":23},{"id":59,"x":855,"y":68,"visible":true,"properties":[{"name":"layer","type":"int","value":4},{"name":"resource_index","type":"int","value":53},{"name":"u","type":"string","value":"enH1"},{"name":"no","type":"int","value":0},{"name":"zM","type":"int","value":7}],"gid":27,"width":90,"height":38}]},{"id":5,"name":"background_back_0","type":"imagelayer","visible":true,"opacity":1,"image":"../../images/29767.png","imagewidth":800,"imageheight":600,"offsetx":-400,"offsety":-300,"repeatx":true,"repeaty":true,"parallaxx":1,"parallaxy":1,"properties":[{"name":"a","type":"int","value":255},{"name":"f","type":"int","value":0},{"name":"x","type":"int","value":0},{"name":"y","type":"int","value":0},{"name":"bS","type":"string","value":"blueCave"},{"name":"cx","type":"int","value":0},{"name":"cy","type":"int","value":0},{"name":"no","type":"int","value":0},{"name":"rx","type":"int","value":-30},{"name":"ry","type":"int","value":-70},{"name":"ani","type":"int","value":0},{"name":"type","type":"int","value":3},{"name":"front","type":"int","value":0}]},{"id":6,"name":"background_back_1","type":"imagelayer","visible":true,"opacity":1,"image":"../../images/29768.png","imagewidth":800,"imageheight":600,"offsetx":-400,"offsety":-300,"repeatx":true,"repeaty":true,"parallaxx":1,"parallaxy":1,"properties":[{"name":"a","type":"int","value":255},{"name":"f","type":"int","value":0},{"name":"x","type":"int","value":0},{"name":"y","type":"int","value":0},{"name":"bS","type":"string","value":"blueCave"},{"name":"cx","type":"int","value":0},{"name":"cy","type":"int","value":0},{"name":"no","type":"int","value":1},{"name":"rx","type":"int","value":-50},{"name":"ry","type":"int","value":-70},{"name":"ani","type":"int","value":0},{"name":"type","type":"int","value":3},{"name":"front","type":"int","value":0}]},{"id":7,"name":"background_back_2","type":"imagelayer","visible":true,"opacity":1,"image":"../../images/29769.png","imagewidth":800,"imageheight":600,"offsetx":-400,"offsety":-300,"repeatx":true,"repeaty":true,"parallaxx":1,"parallaxy":1,"properties":[{"name":"a","type":"int","value":255},{"name":"f","type":"int","value":0},{"name":"x","type":"int","value":0},{"name":"y","type":"int","value":0},{"name":"bS","type":"string","value":"blueCave"},{"name":"cx","type":"int","value":0},{"name":"cy","type":"int","value":0},{"name":"no","type":"int","value":2},{"name":"rx","type":"int","value":-70},{"name":"ry","type":"int","value":-70},{"name":"ani","type":"int","value":0},{"name":"type","type":"int","value":3},{"name":"front","type":"int","value":0}]},{"id":8,"name":"background_back_3","type":"imagelayer","visible":true,"opacity":1,"image":"../../images/26895.png","imagewidth":800,"imageheight":600,"offsetx":-306,"offsety":-338,"repeatx":true,"repeaty":true,"parallaxx":1,"parallaxy":1,"properties":[{"name":"a","type":"int","value":255},{"name":"f","type":"int","value":0},{"name":"x","type":"int","value":94},{"name":"y","type":"int","value":-38},{"name":"bS","type":"string","value":"blueCave2"},{"name":"cx","type":"int","value":0},{"name":"cy","type":"int","value":0},{"name":"no","type":"int","value":2},{"name":"rx","type":"int","value":-90},{"name":"ry","type":"int","value":-70},{"name":"ani","type":"int","value":0},{"name":"type","type":"int","value":3},{"name":"front","type":"int","value":0}]},{"id":9,"name":"background_back_4","type":"imagelayer","visible":true,"opacity":1,"image":"../../images/26902.png","imagewidth":419,"imageheight":426,"offsetx":-277,"offsety":-364,"repeatx":false,"repeaty":false,"parallaxx":1,"parallaxy":1,"properties":[{"name":"a","type":"int","value":255},{"name":"f","type":"int","value":0},{"name":"x","type":"int","value":-56},{"name":"y","type":"int","value":-173},{"name":"bS","type":"string","value":"blueCave2"},{"name":"cx","type":"int","value":0},{"name":"cy","type":"int","value":0},{"name":"no","type":"int","value":0},{"name":"rx","type":"int","value":-90},{"name":"ry","type":"int","value":-70},{"name":"ani","type":"int","value":1},{"name":"type","type":"int","value":0},{"name":"front","type":"int","value":0}]},{"id":10,"name":"background_back_5","type":"imagelayer","visible":true,"opacity":1,"image":"../../images/26912.png","imagewidth":403,"imageheight":378,"offsetx":142,"offsety":-365,"repeatx":false,"repeaty":false,"parallaxx":1,"parallaxy":1,"properties":[{"name":"a","type":"int","value":255},{"name":"f","type":"int","value":0},{"name":"x","type":"int","value":322},{"name":"y","type":"int","value":-190},{"name":"bS","type":"string","value":"blueCave2"},{"name":"cx","type":"int","value":0},{"name":"cy","type":"int","value":0},{"name":"no","type":"int","value":1},{"name":"rx","type":"int","value":-90},{"name":"ry","type":"int","value":-70},{"name":"ani","type":"int","value":1},{"name":"type","type":"int","value":0},{"name":"front","type":"int","value":0}]},{"id":11,"name":"background_back_6","type":"imagelayer","visible":true,"opacity":1,"image":"../../images/26922.png","imagewidth":384,"imageheight":162,"offsetx":402,"offsety":-408,"repeatx":false,"repeaty":false,"parallaxx":1,"parallaxy":1,"properties":[{"name":"a","type":"int","value":255},{"name":"f","type":"int","value":0},{"name":"x","type":"int","value":597},{"name":"y","type":"int","value":-315},{"name":"bS","type":"string","value":"blueCave2"},{"name":"cx","type":"int","value":0},{"name":"cy","type":"int","value":0},{"name":"no","type":"int","value":2},{"name":"rx","type":"int","value":-90},{"name":"ry","type":"int","value":-70},{"name":"ani","type":"int","value":1},{"name":"type","type":"int","value":0},{"name":"front","type":"int","value":0}]},{"id":12,"name":"background_back_7","type":"imagelayer","visible":true,"opacity":1,"image":"../../images/26932.png","imagewidth":381,"imageheight":337,"offsetx":784,"offsety":-407,"repeatx":false,"repeaty":false,"parallaxx":1,"parallaxy":1,"properties":[{"name":"a","type":"int","value":255},{"name":"f","type":"int","value":0},{"name":"x","type":"int","value":933},{"name":"y","type":"int","value":-254},{"name":"bS","type":"string","value":"blueCave2"},{"name":"cx","type":"int","value":0},{"name":"cy","type":"int","value":0},{"name":"no","type":"int","value":3},{"name":"rx","type":"int","value":-90},{"name":"ry","type":"int","value":-70},{"name":"ani","type":"int","value":1},{"name":"type","type":"int","value":0},{"name":"front","type":"int","value":0}]},{"id":13,"name":"portal","type":"objectgroup","visible":true,"opacity":1,"objects":[{"id":68,"x":102,"y":168,"visible":true,"properties":[{"name":"x","type":"int","value":102},{"name":"y","type":"int","value":168},{"name":"pn","type":"string","value":"sp"},{"name":"pt","type":"int","value":0},{"name":"tm","type":"int","value":999999999},{"name":"tn","type":"string","value":""}],"point":true},{"id":69,"x":1016,"y":242,"visible":true,"properties":[{"name":"x","type":"int","value":1016},{"name":"y","type":"int","value":242},{"name":"pn","type":"string","value":"sp"},{"name":"pt","type":"int","value":0},{"name":"tm","type":"int","value":999999999},{"name":"tn","type":"string","value":""}],"point":true},{"id":70,"x":808,"y":129,"visible":true,"properties":[{"name":"x","type":"int","value":808},{"name":"y","type":"int","value":129},{"name":"pn","type":"string","value":"out99"},{"name":"pt","type":"int","value":7},{"name":"tm","type":"int","value":999999999},{"name":"tn","type":"string","value":""},{"name":"script","type":"string","value":"balog_end"}],"point":true}]},{"id":14,"name":"reactor","type":"objectgroup","visible":true,"opacity":1,"objects":[{"id":71,"x":402,"y":211,"visible":true,"properties":[{"name":"f","type":"int","value":0},{"name":"x","type":"int","value":402},{"name":"y","type":"int","value":211},{"name":"id","type":"int","value":1052002},{"name":"name","type":"string","value":""},{"name":"reactorTime","type":"int","value":0}],"point":true}]},{"id":15,"name":"foothold","type":"objectgroup","visible":true,"opacity":1,"objects":[{"id":72,"x":-116,"y":76,"visible":true,"properties":[{"name":"layer","type":"int","value":4},{"name":"group","type":"int","value":2},{"name":"id","type":"int","value":72},{"name":"fh_layer","type":"int","value":4},{"name":"fh_group","type":"int","value":2},{"name":"fh_id","type":"int","value":72},{"name":"x1","type":"int","value":-116},{"name":"x2","type":"int","value":-29},{"name":"y1","type":"int","value":76},{"name":"y2","type":"int","value":77},{"name":"next","type":"int","value":73},{"name":"prev","type":"int","value":0}],"polyline":[{"x":0,"y":0},{"x":87,"y":1}]},{"id":73,"x":-29,"y":77,"visible":true,"properties":[{"name":"layer","type":"int","value":4},{"name":"group","type":"int","value":2},{"name":"id","type":"int","value":73},{"name":"fh_layer","type":"int","value":4},{"name":"fh_group","type":"int","value":2},{"name":"fh_id","type":"int","value":73},{"name":"x1","type":"int","value":-29},{"name":"x2","type":"int","value":2},{"name":"y1","type":"int","value":77},{"name":"y2","type":"int","value":88},{"name":"next","type":"int","value":74},{"name":"prev","type":"int","value":72}],"polyline":[{"x":0,"y":0},{"x":31,"y":11}]},{"id":74,"x":2,"y":88,"visible":true,"properties":[{"name":"layer","type":"int","value":4},{"name":"group","type":"int","value":2},{"name":"id","type":"int","value":74},{"name":"fh_layer","type":"int","value":4},{"name":"fh_group","type":"int","value":2},{"name":"fh_id","type":"int","value":74},{"name":"x1","type":"int","value":2},{"name":"x2","type":"int","value":27},{"name":"y1","type":"int","value":88},{"name":"y2","type":"int","value":102},{"name":"next","type":"int","value":75},{"name":"prev","type":"int","value":73}],"polyline":[{"x":0,"y":0},{"x":25,"y":14}]},{"id":75,"x":27,"y":102,"visible":true,"properties":[{"name":"layer","type":"int","value":4},{"name":"group","type":"int","value":2},{"name":"id","type":"int","value":75},{"name":"fh_layer","type":"int","value":4},{"name":"fh_group","type":"int","value":2},{"name":"fh_id","type":"int","value":75},{"name":"x1","type":"int","value":27},{"name":"x2","type":"int","value":50},{"name":"y1","type":"int","value":102},{"name":"y2","type":"int","value":111},{"name":"next","type":"int","value":76},{"name":"prev","type":"int","value":74}],"polyline":[{"x":0,"y":0},{"x":23,"y":9}]},{"id":76,"x":50,"y":111,"visible":true,"properties":[{"name":"layer","type":"int","value":4},{"name":"group","type":"int","value":2},{"name":"id","type":"int","value":76},{"name":"fh_layer","type":"int","value":4},{"name":"fh_group","type":"int","value":2},{"name":"fh_id","type":"int","value":76},{"name":"x1","type":"int","value":50},{"name":"x2","type":"int","value":88},{"name":"y1","type":"int","value":111},{"name":"y2","type":"int","value":110},{"name":"next","type":"int","value":0},{"name":"prev","type":"int","value":75}],"polyline":[{"x":0,"y":0},{"x":38,"y":-1}]},{"id":77,"x":-117,"y":136,"visible":true,"properties":[{"name":"layer","type":"int","value":4},{"name":"group","type":"int","value":2},{"name":"id","type":"int","value":77},{"name":"fh_layer","type":"int","value":4},{"name":"fh_group","type":"int","value":2},{"name":"fh_id","type":"int","value":77},{"name":"x1","type":"int","value":-117},{"name":"x2","type":"int","value":-76},{"name":"y1","type":"int","value":136},{"name":"y2","type":"int","value":128},{"name":"next","type":"int","value":78},{"name":"prev","type":"int","value":0}],"polyline":[{"x":0,"y":0},{"x":41,"y":-8}]},{"id":78,"x":-76,"y":128,"visible":true,"properties":[{"name":"layer","type":"int","value":4},{"name":"group","type":"int","value":2},{"name":"id","type":"int","value":78},{"name":"fh_layer","type":"int","value":4},{"name":"fh_group","type":"int","value":2},{"name":"fh_id","type":"int","value":78},{"name":"x1","type":"int","value":-76},{"name":"x2","type":"int","value":2},{"name":"y1","type":"int","value":128},{"name":"y2","type":"int","value":130},{"name":"next","type":"int","value":79},{"name":"prev","type":"int","value":77}],"polyline":[{"x":0,"y":0},{"x":78,"y":2}]},{"id":79,"x":2,"y":130,"visible":true,"properties":[{"name":"layer","type":"int","value":4},{"name":"group","type":"int","value":2},{"name":"id","type":"int","value":79},{"name":"fh_layer","type":"int","value":4},{"name":"fh_group","type":"int","value":2},{"name":"fh_id","type":"int","value":79},{"name":"x1","type":"int","value":2},{"name":"x2","type":"int","value":89},{"name":"y1","type":"int","value":130},{"name":"y2","type":"int","value":133},{"name":"next","type":"int","value":0},{"name":"prev","type":"int","value":78}],"polyline":[{"x":0,"y":0},{"x":87,"y":3}]},{"id":80,"x":-117,"y":-133,"visible":true,"properties":[{"name":"layer","type":"int","value":4},{"name":"group","type":"int","value":2},{"name":"id","type":"int","value":80},{"name":"fh_layer","type":"int","value":4},{"name":"fh_group","type":"int","value":2},{"name":"fh_id","type":"int","value":80},{"name":"x1","type":"int","value":-117},{"name":"x2","type":"int","value":-91},{"name":"y1","type":"int","value":-133},{"name":"y2","type":"int","value":-134},{"name":"next","type":"int","value":81},{"name":"prev","type":"int","value":0}],"polyline":[{"x":0,"y":0},{"x":26,"y":-1}]},{"id":81,"x":-91,"y":-134,"visible":true,"properties":[{"name":"layer","type":"int","value":4},{"name":"group","type":"int","value":2},{"name":"id","type":"int","value":81},{"name":"fh_layer","type":"int","value":4},{"name":"fh_group","type":"int","value":2},{"name":"fh_id","type":"int","value":81},{"name":"x1","type":"int","value":-91},{"name":"x2","type":"int","value":-79},{"name":"y1","type":"int","value":-134},{"name":"y2","type":"int","value":-133},{"name":"next","type":"int","value":82},{"name":"prev","type":"int","value":80}],"polyline":[{"x":0,"y":0},{"x":12,"y":1}]},{"id":82,"x":-79,"y":-133,"visible":true,"properties":[{"name":"layer","type":"int","value":4},{"name":"group","type":"int","value":2},{"name":"id","type":"int","value":82},{"name":"fh_layer","type":"int","value":4},{"name":"fh_group","type":"int","value":2},{"name":"fh_id","type":"int","value":82},{"name":"x1","type":"int","value":-79},{"name":"x2","type":"int","value":-66},{"name":"y1","type":"int","value":-133},{"name":"y2","type":"int","value":-125},{"name":"next","type":"int","value":83},{"name":"prev","type":"int","value":81}],"polyline":[{"x":0,"y":0},{"x":13,"y":8}]},{"id":83,"x":-66,"y":-125,"visible":true,"properties":[{"name":"layer","type":"int","value":4},{"name":"group","type":"int","value":2},{"name":"id","type":"int","value":83},{"name":"fh_layer","type":"int","value":4},{"name":"fh_group","type":"int","value":2},{"name":"fh_id","type":"int","value":83},{"name":"x1","type":"int","value":-66},{"name":"x2","type":"int","value":-51},{"name":"y1","type":"int","value":-125},{"name":"y2","type":"int","value":-123},{"name":"next","type":"int","value":84},{"name":"prev","type":"int","value":82}],"polyline":[{"x":0,"y":0},{"x":15,"y":2}]},{"id":84,"x":-51,"y":-123,"visible":true,"properties":[{"name":"layer","type":"int","value":4},{"name":"group","type":"int","value":2},{"name":"id","type":"int","value":84},{"name":"fh_layer","type":"int","value":4},{"name":"fh_group","type":"int","value":2},{"name":"fh_id","type":"int","value":84},{"name":"x1","type":"int","value":-51},{"name":"x2","type":"int","value":-33},{"name":"y1","type":"int","value":-123},{"name":"y2","type":"int","value":-107},{"name":"next","type":"int","value":85},{"name":"prev","type":"int","value":83}],"polyline":[{"x":0,"y":0},{"x":18,"y":16}]},{"id":85,"x":-33,"y":-107,"visible":true,"properties":[{"name":"layer","type":"int","value":4},{"name":"group","type":"int","value":2},{"name":"id","type":"int","value":85},{"name":"fh_layer","type":"int","value":4},{"name":"fh_group","type":"int","value":2},{"name":"fh_id","type":"int","value":85},{"name":"x1","type":"int","value":-33},{"name":"x2","type":"int","value":-17},{"name":"y1","type":"int","value":-107},{"name":"y2","type":"int","value":-104},{"name":"next","type":"int","value":86},{"name":"prev","type":"int","value":84}],"polyline":[{"x":0,"y":0},{"x":16,"y":3}]},{"id":86,"x":-17,"y":-104,"visible":true,"properties":[{"name":"layer","type":"int","value":4},{"name":"group","type":"int","value":2},{"name":"id","type":"int","value":86},{"name":"fh_layer","type":"int","value":4},{"name":"fh_group","type":"int","value":2},{"name":"fh_id","type":"int","value":86},{"name":"x1","type":"int","value":-17},{"name":"x2","type":"int","value":-1},{"name":"y1","type":"int","value":-104},{"name":"y2","type":"int","value":-97},{"name":"next","type":"int","value":87},{"name":"prev","type":"int","value":85}],"polyline":[{"x":0,"y":0},{"x":16,"y":7}]},{"id":87,"x":-1,"y":-97,"visible":true,"properties":[{"name":"layer","type":"int","value":4},{"name":"group","type":"int","value":2},{"name":"id","type":"int","value":87},{"name":"fh_layer","type":"int","value":4},{"name":"fh_group","type":"int","value":2},{"name":"fh_id","type":"int","value":87},{"name":"x1","type":"int","value":-1},{"name":"x2","type":"int","value":19},{"name":"y1","type":"int","value":-97},{"name":"y2","type":"int","value":-98},{"name":"next","type":"int","value":88},{"name":"prev","type":"int","value":86}],"polyline":[{"x":0,"y":0},{"x":20,"y":-1}]},{"id":88,"x":19,"y":-98,"visible":true,"properties":[{"name":"layer","type":"int","value":4},{"name":"group","type":"int","value":2},{"name":"id","type":"int","value":88},{"name":"fh_layer","type":"int","value":4},{"name":"fh_group","type":"int","value":2},{"name":"fh_id","type":"int","value":88},{"name":"x1","type":"int","value":19},{"name":"x2","type":"int","value":30},{"name":"y1","type":"int","value":-98},{"name":"y2","type":"int","value":-102},{"name":"next","type":"int","value":89},{"name":"prev","type":"int","value":87}],"polyline":[{"x":0,"y":0},{"x":11,"y":-4}]},{"id":89,"x":30,"y":-102,"visible":true,"properties":[{"name":"layer","type":"int","value":4},{"name":"group","type":"int","value":2},{"name":"id","type":"int","value":89},{"name":"fh_layer","type":"int","value":4},{"name":"fh_group","type":"int","value":2},{"name":"fh_id","type":"int","value":89},{"name":"x1","type":"int","value":30},{"name":"x2","type":"int","value":39},{"name":"y1","type":"int","value":-102},{"name":"y2","type":"int","value":-99},{"name":"next","type":"int","value":90},{"name":"prev","type":"int","value":88}],"polyline":[{"x":0,"y":0},{"x":9,"y":3}]},{"id":90,"x":39,"y":-99,"visible":true,"properties":[{"name":"layer","type":"int","value":4},{"name":"group","type":"int","value":2},{"name":"id","type":"int","value":90},{"name":"fh_layer","type":"int","value":4},{"name":"fh_group","type":"int","value":2},{"name":"fh_id","type":"int","value":90},{"name":"x1","type":"int","value":39},{"name":"x2","type":"int","value":48},{"name":"y1","type":"int","value":-99},{"name":"y2","type":"int","value":-103},{"name":"next","type":"int","value":91},{"name":"prev","type":"int","value":89}],"polyline":[{"x":0,"y":0},{"x":9,"y":-4}]},{"id":91,"x":48,"y":-103,"visible":true,"properties":[{"name":"layer","type":"int","value":4},{"name":"group","type":"int","value":2},{"name":"id","type":"int","value":91},{"name":"fh_layer","type":"int","value":4},{"name":"fh_group","type":"int","value":2},{"name":"fh_id","type":"int","value":91},{"name":"x1","type":"int","value":48},{"name":"x2","type":"int","value":59},{"name":"y1","type":"int","value":-103},{"name":"y2","type":"int","value":-98},{"name":"next","type":"int","value":92},{"name":"prev","type":"int","value":90}],"polyline":[{"x":0,"y":0},{"x":11,"y":5}]},{"id":92,"x":59,"y":-98,"visible":true,"properties":[{"name":"layer","type":"int","value":4},{"name":"group","type":"int","value":2},{"name":"id","type":"int","value":92},{"name":"fh_layer","type":"int","value":4},{"name":"fh_group","type":"int","value":2},{"name":"fh_id","type":"int","value":92},{"name":"x1","type":"int","value":59},{"name":"x2","type":"int","value":87},{"name":"y1","type":"int","value":-98},{"name":"y2","type":"int","value":-99},{"name":"next","type":"int","value":93},{"name":"prev","type":"int","value":91}],"polyline":[{"x":0,"y":0},{"x":28,"y":-1}]},{"id":93,"x":87,"y":-99,"visible":true,"properties":[{"name":"layer","type":"int","value":4},{"name":"group","type":"int","value":2},{"name":"id","type":"int","value":93},{"name":"fh_layer","type":"int","value":4},{"name":"fh_group","type":"int","value":2},{"name":"fh_id","type":"int","value":93},{"name":"x1","type":"int","value":87},{"name":"x2","type":"int","value":92},{"name":"y1","type":"int","value":-99},{"name":"y2","type":"int","value":-102},{"name":"next","type":"int","value":94},{"name":"prev","type":"int","value":92}],"polyline":[{"x":0,"y":0},{"x":5,"y":-3}]},{"id":94,"x":92,"y":-102,"visible":true,"properties":[{"name":"layer","type":"int","value":4},{"name":"group","type":"int","value":2},{"name":"id","type":"int","value":94},{"name":"fh_layer","type":"int","value":4},{"name":"fh_group","type":"int","value":2},{"name":"fh_id","type":"int","value":94},{"name":"x1","type":"int","value":92},{"name":"x2","type":"int","value":129},{"name":"y1","type":"int","value":-102},{"name":"y2","type":"int","value":-103},{"name":"next","type":"int","value":95},{"name":"prev","type":"int","value":93}],"polyline":[{"x":0,"y":0},{"x":37,"y":-1}]},{"id":95,"x":129,"y":-103,"visible":true,"properties":[{"name":"layer","type":"int","value":4},{"name":"group","type":"int","value":2},{"name":"id","type":"int","value":95},{"name":"fh_layer","type":"int","value":4},{"name":"fh_group","type":"int","value":2},{"name":"fh_id","type":"int","value":95},{"name":"x1","type":"int","value":129},{"name":"x2","type":"int","value":143},{"name":"y1","type":"int","value":-103},{"name":"y2","type":"int","value":-97},{"name":"next","type":"int","value":96},{"name":"prev","type":"int","value":94}],"polyline":[{"x":0,"y":0},{"x":14,"y":6}]},{"id":96,"x":143,"y":-97,"visible":true,"properties":[{"name":"layer","type":"int","value":4},{"name":"group","type":"int","value":2},{"name":"id","type":"int","value":96},{"name":"fh_layer","type":"int","value":4},{"name":"fh_group","type":"int","value":2},{"name":"fh_id","type":"int","value":96},{"name":"x1","type":"int","value":143},{"name":"x2","type":"int","value":151},{"name":"y1","type":"int","value":-97},{"name":"y2","type":"int","value":-102},{"name":"next","type":"int","value":97},{"name":"prev","type":"int","value":95}],"polyline":[{"x":0,"y":0},{"x":8,"y":-5}]},{"id":97,"x":151,"y":-102,"visible":true,"properties":[{"name":"layer","type":"int","value":4},{"name":"group","type":"int","value":2},{"name":"id","type":"int","value":97},{"name":"fh_layer","type":"int","value":4},{"name":"fh_group","type":"int","value":2},{"name":"fh_id","type":"int","value":97},{"name":"x1","type":"int","value":151},{"name":"x2","type":"int","value":186},{"name":"y1","type":"int","value":-102},{"name":"y2","type":"int","value":-102},{"name":"next","type":"int","value":0},{"name":"prev","type":"int","value":96}],"polyline":[{"x":0,"y":0},{"x":35,"y":0}]},{"id":98,"x":44,"y":190,"visible":true,"properties":[{"name":"layer","type":"int","value":4},{"name":"group","type":"int","value":4},{"name":"id","type":"int","value":1},{"name":"fh_layer","type":"int","value":4},{"name":"fh_group","type":"int","value":4},{"name":"fh_id","type":"int","value":1},{"name":"x1","type":"int","value":44},{"name":"x2","type":"int","value":72},{"name":"y1","type":"int","value":190},{"name":"y2","type":"int","value":190},{"name":"next","type":"int","value":7},{"name":"prev","type":"int","value":6}],"polyline":[{"x":0,"y":0},{"x":28,"y":0}]},{"id":99,"x":108,"y":190,"visible":true,"properties":[{"name":"layer","type":"int","value":4},{"name":"group","type":"int","value":4},{"name":"id","type":"int","value":2},{"name":"fh_layer","type":"int","value":4},{"name":"fh_group","type":"int","value":4},{"name":"fh_id","type":"int","value":2},{"name":"x1","type":"int","value":108},{"name":"x2","type":"int","value":136},{"name":"y1","type":"int","value":190},{"name":"y2","type":"int","value":190},{"name":"next","type":"int","value":3},{"name":"prev","type":"int","value":7}],"polyline":[{"x":0,"y":0},{"x":28,"y":0}]},{"id":100,"x":136,"y":190,"visible":true,"properties":[{"name":"layer","type":"int","value":4},{"name":"group","type":"int","value":4},{"name":"id","type":"int","value":3},{"name":"fh_layer","type":"int","value":4},{"name":"fh_group","type":"int","value":4},{"name":"fh_id","type":"int","value":3},{"name":"x1","type":"int","value":136},{"name":"x2","type":"int","value":162},{"name":"y1","type":"int","value":190},{"name":"y2","type":"int","value":190},{"name":"next","type":"int","value":4},{"name":"prev","type":"int","value":2}],"polyline":[{"x":0,"y":0},{"x":26,"y":0}]},{"id":101,"x":162,"y":190,"visible":true,"properties":[{"name":"layer","type":"int","value":4},{"name":"group","type":"int","value":4},{"name":"id","type":"int","value":4},{"name":"fh_layer","type":"int","value":4},{"name":"fh_group","type":"int","value":4},{"name":"fh_id","type":"int","value":4},{"name":"x1","type":"int","value":162},{"name":"x2","type":"int","value":162},{"name":"y1","type":"int","value":190},{"name":"y2","type":"int","value":210},{"name":"next","type":"int","value":0},{"name":"prev","type":"int","value":3}],"polyline":[{"x":0,"y":0},{"x":0,"y":20}]},{"id":102,"x":18,"y":210,"visible":true,"properties":[{"name":"layer","type":"int","value":4},{"name":"group","type":"int","value":4},{"name":"id","type":"int","value":5},{"name":"fh_layer","type":"int","value":4},{"name":"fh_group","type":"int","value":4},{"name":"fh_id","type":"int","value":5},{"name":"x1","type":"int","value":18},{"name":"x2","type":"int","value":18},{"name":"y1","type":"int","value":210},{"name":"y2","type":"int","value":190},{"name":"next","type":"int","value":6},{"name":"prev","type":"int","value":0}],"polyline":[{"x":0,"y":0},{"x":0,"y":-20}]},{"id":103,"x":18,"y":190,"visible":true,"properties":[{"name":"layer","type":"int","value":4},{"name":"group","type":"int","value":4},{"name":"id","type":"int","value":6},{"name":"fh_layer","type":"int","value":4},{"name":"fh_group","type":"int","value":4},{"name":"fh_id","type":"int","value":6},{"name":"x1","type":"int","value":18},{"name":"x2","type":"int","value":44},{"name":"y1","type":"int","value":190},{"name":"y2","type":"int","value":190},{"name":"next","type":"int","value":1},{"name":"prev","type":"int","value":5}],"polyline":[{"x":0,"y":0},{"x":26,"y":0}]},{"id":104,"x":72,"y":190,"visible":true,"properties":[{"name":"layer","type":"int","value":4},{"name":"group","type":"int","value":4},{"name":"id","type":"int","value":7},{"name":"fh_layer","type":"int","value":4},{"name":"fh_group","type":"int","value":4},{"name":"fh_id","type":"int","value":7},{"name":"x1","type":"int","value":72},{"name":"x2","type":"int","value":108},{"name":"y1","type":"int","value":190},{"name":"y2","type":"int","value":190},{"name":"next","type":"int","value":2},{"name":"prev","type":"int","value":1}],"polyline":[{"x":0,"y":0},{"x":36,"y":0}]},{"id":105,"x":738,"y":190,"visible":true,"properties":[{"name":"layer","type":"int","value":4},{"name":"group","type":"int","value":5},{"name":"id","type":"int","value":57},{"name":"fh_layer","type":"int","value":4},{"name":"fh_group","type":"int","value":5},{"name":"fh_id","type":"int","value":57},{"name":"x1","type":"int","value":738},{"name":"x2","type":"int","value":792},{"name":"y1","type":"int","value":190},{"name":"y2","type":"int","value":190},{"name":"next","type":"int","value":58},{"name":"prev","type":"int","value":61}],"polyline":[{"x":0,"y":0},{"x":54,"y":0}]},{"id":106,"x":792,"y":190,"visible":true,"properties":[{"name":"layer","type":"int","value":4},{"name":"group","type":"int","value":5},{"name":"id","type":"int","value":58},{"name":"fh_layer","type":"int","value":4},{"name":"fh_group","type":"int","value":5},{"name":"fh_id","type":"int","value":58},{"name":"x1","type":"int","value":792},{"name":"x2","type":"int","value":792},{"name":"y1","type":"int","value":190},{"name":"y2","type":"int","value":210},{"name":"next","type":"int","value":0},{"name":"prev","type":"int","value":57}],"polyline":[{"x":0,"y":0},{"x":0,"y":20}]},{"id":107,"x":648,"y":210,"visible":true,"properties":[{"name":"layer","type":"int","value":4},{"name":"group","type":"int","value":5},{"name":"id","type":"int","value":59},{"name":"fh_layer","type":"int","value":4},{"name":"fh_group","type":"int","value":5},{"name":"fh_id","type":"int","value":59},{"name":"x1","type":"int","value":648},{"name":"x2","type":"int","value":648},{"name":"y1","type":"int","value":210},{"name":"y2","type":"int","value":190},{"name":"next","type":"int","value":60},{"name":"prev","type":"int","value":0}],"polyline":[{"x":0,"y":0},{"x":0,"y":-20}]},{"id":108,"x":648,"y":190,"visible":true,"properties":[{"name":"layer","type":"int","value":4},{"name":"group","type":"int","value":5},{"name":"id","type":"int","value":60},{"name":"fh_layer","type":"int","value":4},{"name":"fh_group","type":"int","value":5},{"name":"fh_id","type":"int","value":60},{"name":"x1","type":"int","value":648},{"name":"x2","type":"int","value":702},{"name":"y1","type":"int","value":190},{"name":"y2","type":"int","value":190},{"name":"next","type":"int","value":61},{"name":"prev","type":"int","value":59}],"polyline":[{"x":0,"y":0},{"x":54,"y":0}]},{"id":109,"x":702,"y":190,"visible":true,"properties":[{"name":"layer","type":"int","value":4},{"name":"group","type":"int","value":5},{"name":"id","type":"int","value":61},{"name":"fh_layer","type":"int","value":4},{"name":"fh_group","type":"int","value":5},{"name":"fh_id","type":"int","value":61},{"name":"x1","type":"int","value":702},{"name":"x2","type":"int","value":738},{"name":"y1","type":"int","value":190},{"name":"y2","type":"int","value":190},{"name":"next","type":"int","value":57},{"name":"prev","type":"int","value":60}],"polyline":[{"x":0,"y":0},{"x":36,"y":0}]},{"id":110,"x":738,"y":150,"visible":true,"properties":[{"name":"layer","type":"int","value":4},{"name":"group","type":"int","value":6},{"name":"id","type":"int","value":62},{"name":"fh_layer","type":"int","value":4},{"name":"fh_group","type":"int","value":6},{"name":"fh_id","type":"int","value":62},{"name":"x1","type":"int","value":738},{"name":"x2","type":"int","value":738},{"name":"y1","type":"int","value":150},{"name":"y2","type":"int","value":130},{"name":"next","type":"int","value":63},{"name":"prev","type":"int","value":0}],"polyline":[{"x":0,"y":0},{"x":0,"y":-20}]},{"id":111,"x":738,"y":130,"visible":true,"properties":[{"name":"layer","type":"int","value":4},{"name":"group","type":"int","value":6},{"name":"id","type":"int","value":63},{"name":"fh_layer","type":"int","value":4},{"name":"fh_group","type":"int","value":6},{"name":"fh_id","type":"int","value":63},{"name":"x1","type":"int","value":738},{"name":"x2","type":"int","value":792},{"name":"y1","type":"int","value":130},{"name":"y2","type":"int","value":130},{"name":"next","type":"int","value":66},{"name":"prev","type":"int","value":62}],"polyline":[{"x":0,"y":0},{"x":54,"y":0}]},{"id":112,"x":828,"y":130,"visible":true,"properties":[{"name":"layer","type":"int","value":4},{"name":"group","type":"int","value":6},{"name":"id","type":"int","value":64},{"name":"fh_layer","type":"int","value":4},{"name":"fh_group","type":"int","value":6},{"name":"fh_id","type":"int","value":64},{"name":"x1","type":"int","value":828},{"name":"x2","type":"int","value":882},{"name":"y1","type":"int","value":130},{"name":"y2","type":"int","value":130},{"name":"next","type":"int","value":65},{"name":"prev","type":"int","value":66}],"polyline":[{"x":0,"y":0},{"x":54,"y":0}]},{"id":113,"x":882,"y":130,"visible":true,"properties":[{"name":"layer","type":"int","value":4},{"name":"group","type":"int","value":6},{"name":"id","type":"int","value":65},{"name":"fh_layer","type":"int","value":4},{"name":"fh_group","type":"int","value":6},{"name":"fh_id","type":"int","value":65},{"name":"x1","type":"int","value":882},{"name":"x2","type":"int","value":882},{"name":"y1","type":"int","value":130},{"name":"y2","type":"int","value":150},{"name":"next","type":"int","value":0},{"name":"prev","type":"int","value":64}],"polyline":[{"x":0,"y":0},{"x":0,"y":20}]},{"id":114,"x":792,"y":130,"visible":true,"properties":[{"name":"layer","type":"int","value":4},{"name":"group","type":"int","value":6},{"name":"id","type":"int","value":66},{"name":"fh_layer","type":"int","value":4},{"name":"fh_group","type":"int","value":6},{"name":"fh_id","type":"int","value":66},{"name":"x1","type":"int","value":792},{"name":"x2","type":"int","value":828},{"name":"y1","type":"int","value":130},{"name":"y2","type":"int","value":130},{"name":"next","type":"int","value":64},{"name":"prev","type":"int","value":63}],"polyline":[{"x":0,"y":0},{"x":36,"y":0}]},{"id":115,"x":828,"y":30,"visible":true,"properties":[{"name":"layer","type":"int","value":4},{"name":"group","type":"int","value":7},{"name":"id","type":"int","value":67},{"name":"fh_layer","type":"int","value":4},{"name":"fh_group","type":"int","value":7},{"name":"fh_id","type":"int","value":67},{"name":"x1","type":"int","value":828},{"name":"x2","type":"int","value":828},{"name":"y1","type":"int","value":30},{"name":"y2","type":"int","value":10},{"name":"next","type":"int","value":68},{"name":"prev","type":"int","value":0}],"polyline":[{"x":0,"y":0},{"x":0,"y":-20}]},{"id":116,"x":828,"y":10,"visible":true,"properties":[{"name":"layer","type":"int","value":4},{"name":"group","type":"int","value":7},{"name":"id","type":"int","value":68},{"name":"fh_layer","type":"int","value":4},{"name":"fh_group","type":"int","value":7},{"name":"fh_id","type":"int","value":68},{"name":"x1","type":"int","value":828},{"name":"x2","type":"int","value":882},{"name":"y1","type":"int","value":10},{"name":"y2","type":"int","value":10},{"name":"next","type":"int","value":71},{"name":"prev","type":"int","value":67}],"polyline":[{"x":0,"y":0},{"x":54,"y":0}]},{"id":117,"x":918,"y":10,"visible":true,"properties":[{"name":"layer","type":"int","value":4},{"name":"group","type":"int","value":7},{"name":"id","type":"int","value":69},{"name":"fh_layer","type":"int","value":4},{"name":"fh_group","type":"int","value":7},{"name":"fh_id","type":"int","value":69},{"name":"x1","type":"int","value":918},{"name":"x2","type":"int","value":972},{"name":"y1","type":"int","value":10},{"name":"y2","type":"int","value":10},{"name":"next","type":"int","value":70},{"name":"prev","type":"int","value":71}],"polyline":[{"x":0,"y":0},{"x":54,"y":0}]},{"id":118,"x":972,"y":10,"visible":true,"properties":[{"name":"layer","type":"int","value":4},{"name":"group","type":"int","value":7},{"name":"id","type":"int","value":70},{"name":"fh_layer","type":"int","value":4},{"name":"fh_group","type":"int","value":7},{"name":"fh_id","type":"int","value":70},{"name":"x1","type":"int","value":972},{"name":"x2","type":"int","value":972},{"name":"y1","type":"int","value":10},{"name":"y2","type":"int","value":30},{"name":"next","type":"int","value":0},{"name":"prev","type":"int","value":69}],"polyline":[{"x":0,"y":0},{"x":0,"y":20}]},{"id":119,"x":882,"y":10,"visible":true,"properties":[{"name":"layer","type":"int","value":4},{"name":"group","type":"int","value":7},{"name":"id","type":"int","value":71},{"name":"fh_layer","type":"int","value":4},{"name":"fh_group","type":"int","value":7},{"name":"fh_id","type":"int","value":71},{"name":"x1","type":"int","value":882},{"name":"x2","type":"int","value":918},{"name":"y1","type":"int","value":10},{"name":"y2","type":"int","value":10},{"name":"next","type":"int","value":69},{"name":"prev","type":"int","value":68}],"polyline":[{"x":0,"y":0},{"x":36,"y":0}]},{"id":120,"x":44,"y":10,"visible":true,"properties":[{"name":"layer","type":"int","value":4},{"name":"group","type":"int","value":8},{"name":"id","type":"int","value":8},{"name":"fh_layer","type":"int","value":4},{"name":"fh_group","type":"int","value":8},{"name":"fh_id","type":"int","value":8},{"name":"x1","type":"int","value":44},{"name":"x2","type":"int","value":72},{"name":"y1","type":"int","value":10},{"name":"y2","type":"int","value":10},{"name":"next","type":"int","value":14},{"name":"prev","type":"int","value":13}],"polyline":[{"x":0,"y":0},{"x":28,"y":0}]},{"id":121,"x":108,"y":10,"visible":true,"properties":[{"name":"layer","type":"int","value":4},{"name":"group","type":"int","value":8},{"name":"id","type":"int","value":9},{"name":"fh_layer","type":"int","value":4},{"name":"fh_group","type":"int","value":8},{"name":"fh_id","type":"int","value":9},{"name":"x1","type":"int","value":108},{"name":"x2","type":"int","value":136},{"name":"y1","type":"int","value":10},{"name":"y2","type":"int","value":10},{"name":"next","type":"int","value":10},{"name":"prev","type":"int","value":14}],"polyline":[{"x":0,"y":0},{"x":28,"y":0}]},{"id":122,"x":136,"y":10,"visible":true,"properties":[{"name":"layer","type":"int","value":4},{"name":"group","type":"int","value":8},{"name":"id","type":"int","value":10},{"name":"fh_layer","type":"int","value":4},{"name":"fh_group","type":"int","value":8},{"name":"fh_id","type":"int","value":10},{"name":"x1","type":"int","value":136},{"name":"x2","type":"int","value":162},{"name":"y1","type":"int","value":10},{"name":"y2","type":"int","value":10},{"name":"next","type":"int","value":11},{"name":"prev","type":"int","value":9}],"polyline":[{"x":0,"y":0},{"x":26,"y":0}]},{"id":123,"x":162,"y":10,"visible":true,"properties":[{"name":"layer","type":"int","value":4},{"name":"group","type":"int","value":8},{"name":"id","type":"int","value":11},{"name":"fh_layer","type":"int","value":4},{"name":"fh_group","type":"int","value":8},{"name":"fh_id","type":"int","value":11},{"name":"x1","type":"int","value":162},{"name":"x2","type":"int","value":162},{"name":"y1","type":"int","value":10},{"name":"y2","type":"int","value":30},{"name":"next","type":"int","value":0},{"name":"prev","type":"int","value":10}],"polyline":[{"x":0,"y":0},{"x":0,"y":20}]},{"id":124,"x":18,"y":30,"visible":true,"properties":[{"name":"layer","type":"int","value":4},{"name":"group","type":"int","value":8},{"name":"id","type":"int","value":12},{"name":"fh_layer","type":"int","value":4},{"name":"fh_group","type":"int","value":8},{"name":"fh_id","type":"int","value":12},{"name":"x1","type":"int","value":18},{"name":"x2","type":"int","value":18},{"name":"y1","type":"int","value":30},{"name":"y2","type":"int","value":10},{"name":"next","type":"int","value":13},{"name":"prev","type":"int","value":0}],"polyline":[{"x":0,"y":0},{"x":0,"y":-20}]},{"id":125,"x":18,"y":10,"visible":true,"properties":[{"name":"layer","type":"int","value":4},{"name":"group","type":"int","value":8},{"name":"id","type":"int","value":13},{"name":"fh_layer","type":"int","value":4},{"name":"fh_group","type":"int","value":8},{"name":"fh_id","type":"int","value":13},{"name":"x1","type":"int","value":18},{"name":"x2","type":"int","value":44},{"name":"y1","type":"int","value":10},{"name":"y2","type":"int","value":10},{"name":"next","type":"int","value":8},{"name":"prev","type":"int","value":12}],"polyline":[{"x":0,"y":0},{"x":26,"y":0}]},{"id":126,"x":72,"y":10,"visible":true,"properties":[{"name":"layer","type":"int","value":4},{"name":"group","type":"int","value":8},{"name":"id","type":"int","value":14},{"name":"fh_layer","type":"int","value":4},{"name":"fh_group","type":"int","value":8},{"name":"fh_id","type":"int","value":14},{"name":"x1","type":"int","value":72},{"name":"x2","type":"int","value":108},{"name":"y1","type":"int","value":10},{"name":"y2","type":"int","value":10},{"name":"next","type":"int","value":9},{"name":"prev","type":"int","value":8}],"polyline":[{"x":0,"y":0},{"x":36,"y":0}]},{"id":127,"x":108,"y":-30,"visible":true,"properties":[{"name":"layer","type":"int","value":4},{"name":"group","type":"int","value":9},{"name":"id","type":"int","value":47},{"name":"fh_layer","type":"int","value":4},{"name":"fh_group","type":"int","value":9},{"name":"fh_id","type":"int","value":47},{"name":"x1","type":"int","value":108},{"name":"x2","type":"int","value":108},{"name":"y1","type":"int","value":-30},{"name":"y2","type":"int","value":-50},{"name":"next","type":"int","value":48},{"name":"prev","type":"int","value":0}],"polyline":[{"x":0,"y":0},{"x":0,"y":-20}]},{"id":128,"x":108,"y":-50,"visible":true,"properties":[{"name":"layer","type":"int","value":4},{"name":"group","type":"int","value":9},{"name":"id","type":"int","value":48},{"name":"fh_layer","type":"int","value":4},{"name":"fh_group","type":"int","value":9},{"name":"fh_id","type":"int","value":48},{"name":"x1","type":"int","value":108},{"name":"x2","type":"int","value":162},{"name":"y1","type":"int","value":-50},{"name":"y2","type":"int","value":-50},{"name":"next","type":"int","value":51},{"name":"prev","type":"int","value":47}],"polyline":[{"x":0,"y":0},{"x":54,"y":0}]},{"id":129,"x":198,"y":-50,"visible":true,"properties":[{"name":"layer","type":"int","value":4},{"name":"group","type":"int","value":9},{"name":"id","type":"int","value":49},{"name":"fh_layer","type":"int","value":4},{"name":"fh_group","type":"int","value":9},{"name":"fh_id","type":"int","value":49},{"name":"x1","type":"int","value":198},{"name":"x2","type":"int","value":252},{"name":"y1","type":"int","value":-50},{"name":"y2","type":"int","value":-50},{"name":"next","type":"int","value":50},{"name":"prev","type":"int","value":51}],"polyline":[{"x":0,"y":0},{"x":54,"y":0}]},{"id":130,"x":252,"y":-50,"visible":true,"properties":[{"name":"layer","type":"int","value":4},{"name":"group","type":"int","value":9},{"name":"id","type":"int","value":50},{"name":"fh_layer","type":"int","value":4},{"name":"fh_group","type":"int","value":9},{"name":"fh_id","type":"int","value":50},{"name":"x1","type":"int","value":252},{"name":"x2","type":"int","value":252},{"name":"y1","type":"int","value":-50},{"name":"y2","type":"int","value":-30},{"name":"next","type":"int","value":0},{"name":"prev","type":"int","value":49}],"polyline":[{"x":0,"y":0},{"x":0,"y":20}]},{"id":131,"x":162,"y":-50,"visible":true,"properties":[{"name":"layer","type":"int","value":4},{"name":"group","type":"int","value":9},{"name":"id","type":"int","value":51},{"name":"fh_layer","type":"int","value":4},{"name":"fh_group","type":"int","value":9},{"name":"fh_id","type":"int","value":51},{"name":"x1","type":"int","value":162},{"name":"x2","type":"int","value":198},{"name":"y1","type":"int","value":-50},{"name":"y2","type":"int","value":-50},{"name":"next","type":"int","value":49},{"name":"prev","type":"int","value":48}],"polyline":[{"x":0,"y":0},{"x":36,"y":0}]},{"id":132,"x":828,"y":-90,"visible":true,"properties":[{"name":"layer","type":"int","value":4},{"name":"group","type":"int","value":10},{"name":"id","type":"int","value":20},{"name":"fh_layer","type":"int","value":4},{"name":"fh_group","type":"int","value":10},{"name":"fh_id","type":"int","value":20},{"name":"x1","type":"int","value":828},{"name":"x2","type":"int","value":828},{"name":"y1","type":"int","value":-90},{"name":"y2","type":"int","value":-110},{"name":"next","type":"int","value":21},{"name":"prev","type":"int","value":0}],"polyline":[{"x":0,"y":0},{"x":0,"y":-20}]},{"id":133,"x":828,"y":-110,"visible":true,"properties":[{"name":"layer","type":"int","value":4},{"name":"group","type":"int","value":10},{"name":"id","type":"int","value":21},{"name":"fh_layer","type":"int","value":4},{"name":"fh_group","type":"int","value":10},{"name":"fh_id","type":"int","value":21},{"name":"x1","type":"int","value":828},{"name":"x2","type":"int","value":882},{"name":"y1","type":"int","value":-110},{"name":"y2","type":"int","value":-110},{"name":"next","type":"int","value":24},{"name":"prev","type":"int","value":20}],"polyline":[{"x":0,"y":0},{"x":54,"y":0}]},{"id":134,"x":918,"y":-110,"visible":true,"properties":[{"name":"layer","type":"int","value":4},{"name":"group","type":"int","value":10},{"name":"id","type":"int","value":22},{"name":"fh_layer","type":"int","value":4},{"name":"fh_group","type":"int","value":10},{"name":"fh_id","type":"int","value":22},{"name":"x1","type":"int","value":918},{"name":"x2","type":"int","value":972},{"name":"y1","type":"int","value":-110},{"name":"y2","type":"int","value":-110},{"name":"next","type":"int","value":23},{"name":"prev","type":"int","value":24}],"polyline":[{"x":0,"y":0},{"x":54,"y":0}]},{"id":135,"x":972,"y":-110,"visible":true,"properties":[{"name":"layer","type":"int","value":4},{"name":"group","type":"int","value":10},{"name":"id","type":"int","value":23},{"name":"fh_layer","type":"int","value":4},{"name":"fh_group","type":"int","value":10},{"name":"fh_id","type":"int","value":23},{"name":"x1","type":"int","value":972},{"name":"x2","type":"int","value":972},{"name":"y1","type":"int","value":-110},{"name":"y2","type":"int","value":-90},{"name":"next","type":"int","value":0},{"name":"prev","type":"int","value":22}],"polyline":[{"x":0,"y":0},{"x":0,"y":20}]},{"id":136,"x":882,"y":-110,"visible":true,"properties":[{"name":"layer","type":"int","value":4},{"name":"group","type":"int","value":10},{"name":"id","type":"int","value":24},{"name":"fh_layer","type":"int","value":4},{"name":"fh_group","type":"int","value":10},{"name":"fh_id","type":"int","value":24},{"name":"x1","type":"int","value":882},{"name":"x2","type":"int","value":918},{"name":"y1","type":"int","value":-110},{"name":"y2","type":"int","value":-110},{"name":"next","type":"int","value":22},{"name":"prev","type":"int","value":21}],"polyline":[{"x":0,"y":0},{"x":36,"y":0}]},{"id":137,"x":-116,"y":262,"visible":true,"properties":[{"name":"layer","type":"int","value":4},{"name":"group","type":"int","value":10},{"name":"id","type":"int","value":25},{"name":"fh_layer","type":"int","value":4},{"name":"fh_group","type":"int","value":10},{"name":"fh_id","type":"int","value":25},{"name":"x1","type":"int","value":-116},{"name":"x2","type":"int","value":197},{"name":"y1","type":"int","value":262},{"name":"y2","type":"int","value":262},{"name":"next","type":"int","value":26},{"name":"prev","type":"int","value":0}],"polyline":[{"x":0,"y":0},{"x":313,"y":0}]},{"id":138,"x":197,"y":262,"visible":true,"properties":[{"name":"layer","type":"int","value":4},{"name":"group","type":"int","value":10},{"name":"id","type":"int","value":26},{"name":"fh_layer","type":"int","value":4},{"name":"fh_group","type":"int","value":10},{"name":"fh_id","type":"int","value":26},{"name":"x1","type":"int","value":197},{"name":"x2","type":"int","value":213},{"name":"y1","type":"int","value":262},{"name":"y2","type":"int","value":258},{"name":"next","type":"int","value":27},{"name":"prev","type":"int","value":25}],"polyline":[{"x":0,"y":0},{"x":16,"y":-4}]},{"id":139,"x":213,"y":258,"visible":true,"properties":[{"name":"layer","type":"int","value":4},{"name":"group","type":"int","value":10},{"name":"id","type":"int","value":27},{"name":"fh_layer","type":"int","value":4},{"name":"fh_group","type":"int","value":10},{"name":"fh_id","type":"int","value":27},{"name":"x1","type":"int","value":213},{"name":"x2","type":"int","value":1084},{"name":"y1","type":"int","value":258},{"name":"y2","type":"int","value":258},{"name":"next","type":"int","value":0},{"name":"prev","type":"int","value":26}],"polyline":[{"x":0,"y":0},{"x":871,"y":0}]},{"id":140,"x":758,"y":-4,"visible":true,"properties":[{"name":"layer","type":"int","value":4},{"name":"group","type":"int","value":10},{"name":"id","type":"int","value":28},{"name":"fh_layer","type":"int","value":4},{"name":"fh_group","type":"int","value":10},{"name":"fh_id","type":"int","value":28},{"name":"x1","type":"int","value":758},{"name":"x2","type":"int","value":829},{"name":"y1","type":"int","value":-4},{"name":"y2","type":"int","value":-12},{"name":"next","type":"int","value":29},{"name":"prev","type":"int","value":0}],"polyline":[{"x":0,"y":0},{"x":71,"y":-8}]},{"id":141,"x":829,"y":-12,"visible":true,"properties":[{"name":"layer","type":"int","value":4},{"name":"group","type":"int","value":10},{"name":"id","type":"int","value":29},{"name":"fh_layer","type":"int","value":4},{"name":"fh_group","type":"int","value":10},{"name":"fh_id","type":"int","value":29},{"name":"x1","type":"int","value":829},{"name":"x2","type":"int","value":899},{"name":"y1","type":"int","value":-12},{"name":"y2","type":"int","value":-35},{"name":"next","type":"int","value":30},{"name":"prev","type":"int","value":28}],"polyline":[{"x":0,"y":0},{"x":70,"y":-23}]},{"id":142,"x":899,"y":-35,"visible":true,"properties":[{"name":"layer","type":"int","value":4},{"name":"group","type":"int","value":10},{"name":"id","type":"int","value":30},{"name":"fh_layer","type":"int","value":4},{"name":"fh_group","type":"int","value":10},{"name":"fh_id","type":"int","value":30},{"name":"x1","type":"int","value":899},{"name":"x2","type":"int","value":1007},{"name":"y1","type":"int","value":-35},{"name":"y2","type":"int","value":-42},{"name":"next","type":"int","value":31},{"name":"prev","type":"int","value":29}],"polyline":[{"x":0,"y":0},{"x":108,"y":-7}]},{"id":143,"x":1007,"y":-42,"visible":true,"properties":[{"name":"layer","type":"int","value":4},{"name":"group","type":"int","value":10},{"name":"id","type":"int","value":31},{"name":"fh_layer","type":"int","value":4},{"name":"fh_group","type":"int","value":10},{"name":"fh_id","type":"int","value":31},{"name":"x1","type":"int","value":1007},{"name":"x2","type":"int","value":1085},{"name":"y1","type":"int","value":-42},{"name":"y2","type":"int","value":-41},{"name":"next","type":"int","value":0},{"name":"prev","type":"int","value":30}],"polyline":[{"x":0,"y":0},{"x":78,"y":1}]},{"id":144,"x":852,"y":121,"visible":true,"properties":[{"name":"layer","type":"int","value":4},{"name":"group","type":"int","value":10},{"name":"id","type":"int","value":32},{"name":"fh_layer","type":"int","value":4},{"name":"fh_group","type":"int","value":10},{"name":"fh_id","type":"int","value":32},{"name":"x1","type":"int","value":852},{"name":"x2","type":"int","value":894},{"name":"y1","type":"int","value":121},{"name":"y2","type":"int","value":113},{"name":"next","type":"int","value":33},{"name":"prev","type":"int","value":0}],"polyline":[{"x":0,"y":0},{"x":42,"y":-8}]},{"id":145,"x":894,"y":113,"visible":true,"properties":[{"name":"layer","type":"int","value":4},{"name":"group","type":"int","value":10},{"name":"id","type":"int","value":33},{"name":"fh_layer","type":"int","value":4},{"name":"fh_group","type":"int","value":10},{"name":"fh_id","type":"int","value":33},{"name":"x1","type":"int","value":894},{"name":"x2","type":"int","value":941},{"name":"y1","type":"int","value":113},{"name":"y2","type":"int","value":115},{"name":"next","type":"int","value":34},{"name":"prev","type":"int","value":32}],"polyline":[{"x":0,"y":0},{"x":47,"y":2}]},{"id":146,"x":941,"y":115,"visible":true,"properties":[{"name":"layer","type":"int","value":4},{"name":"group","type":"int","value":10},{"name":"id","type":"int","value":34},{"name":"fh_layer","type":"int","value":4},{"name":"fh_group","type":"int","value":10},{"name":"fh_id","type":"int","value":34},{"name":"x1","type":"int","value":941},{"name":"x2","type":"int","value":980},{"name":"y1","type":"int","value":115},{"name":"y2","type":"int","value":136},{"name":"next","type":"int","value":35},{"name":"prev","type":"int","value":33}],"polyline":[{"x":0,"y":0},{"x":39,"y":21}]},{"id":147,"x":980,"y":136,"visible":true,"properties":[{"name":"layer","type":"int","value":4},{"name":"group","type":"int","value":10},{"name":"id","type":"int","value":35},{"name":"fh_layer","type":"int","value":4},{"name":"fh_group","type":"int","value":10},{"name":"fh_id","type":"int","value":35},{"name":"x1","type":"int","value":980},{"name":"x2","type":"int","value":999},{"name":"y1","type":"int","value":136},{"name":"y2","type":"int","value":145},{"name":"next","type":"int","value":36},{"name":"prev","type":"int","value":34}],"polyline":[{"x":0,"y":0},{"x":19,"y":9}]},{"id":148,"x":999,"y":145,"visible":true,"properties":[{"name":"layer","type":"int","value":4},{"name":"group","type":"int","value":10},{"name":"id","type":"int","value":36},{"name":"fh_layer","type":"int","value":4},{"name":"fh_group","type":"int","value":10},{"name":"fh_id","type":"int","value":36},{"name":"x1","type":"int","value":999},{"name":"x2","type":"int","value":1024},{"name":"y1","type":"int","value":145},{"name":"y2","type":"int","value":141},{"name":"next","type":"int","value":37},{"name":"prev","type":"int","value":35}],"polyline":[{"x":0,"y":0},{"x":25,"y":-4}]},{"id":149,"x":1024,"y":141,"visible":true,"properties":[{"name":"layer","type":"int","value":4},{"name":"group","type":"int","value":10},{"name":"id","type":"int","value":37},{"name":"fh_layer","type":"int","value":4},{"name":"fh_group","type":"int","value":10},{"name":"fh_id","type":"int","value":37},{"name":"x1","type":"int","value":1024},{"name":"x2","type":"int","value":1041},{"name":"y1","type":"int","value":141},{"name":"y2","type":"int","value":118},{"name":"next","type":"int","value":38},{"name":"prev","type":"int","value":36}],"polyline":[{"x":0,"y":0},{"x":17,"y":-23}]},{"id":150,"x":1041,"y":118,"visible":true,"properties":[{"name":"layer","type":"int","value":4},{"name":"group","type":"int","value":10},{"name":"id","type":"int","value":38},{"name":"fh_layer","type":"int","value":4},{"name":"fh_group","type":"int","value":10},{"name":"fh_id","type":"int","value":38},{"name":"x1","type":"int","value":1041},{"name":"x2","type":"int","value":1071},{"name":"y1","type":"int","value":118},{"name":"y2","type":"int","value":105},{"name":"next","type":"int","value":39},{"name":"prev","type":"int","value":37}],"polyline":[{"x":0,"y":0},{"x":30,"y":-13}]},{"id":151,"x":1071,"y":105,"visible":true,"properties":[{"name":"layer","type":"int","value":4},{"name":"group","type":"int","value":10},{"name":"id","type":"int","value":39},{"name":"fh_layer","type":"int","value":4},{"name":"fh_group","type":"int","value":10},{"name":"fh_id","type":"int","value":39},{"name":"x1","type":"int","value":1071},{"name":"x2","type":"int","value":1085},{"name":"y1","type":"int","value":105},{"name":"y2","type":"int","value":106},{"name":"next","type":"int","value":0},{"name":"prev","type":"int","value":38}],"polyline":[{"x":0,"y":0},{"x":14,"y":1}]},{"id":152,"x":962,"y":48,"visible":true,"properties":[{"name":"layer","type":"int","value":4},{"name":"group","type":"int","value":10},{"name":"id","type":"int","value":40},{"name":"fh_layer","type":"int","value":4},{"name":"fh_group","type":"int","value":10},{"name":"fh_id","type":"int","value":40},{"name":"x1","type":"int","value":962},{"name":"x2","type":"int","value":1033},{"name":"y1","type":"int","value":48},{"name":"y2","type":"int","value":47},{"name":"next","type":"int","value":41},{"name":"prev","type":"int","value":0}],"polyline":[{"x":0,"y":0},{"x":71,"y":-1}]},{"id":153,"x":1033,"y":47,"visible":true,"properties":[{"name":"layer","type":"int","value":4},{"name":"group","type":"int","value":10},{"name":"id","type":"int","value":41},{"name":"fh_layer","type":"int","value":4},{"name":"fh_group","type":"int","value":10},{"name":"fh_id","type":"int","value":41},{"name":"x1","type":"int","value":1033},{"name":"x2","type":"int","value":1053},{"name":"y1","type":"int","value":47},{"name":"y2","type":"int","value":32},{"name":"next","type":"int","value":42},{"name":"prev","type":"int","value":40}],"polyline":[{"x":0,"y":0},{"x":20,"y":-15}]},{"id":154,"x":1053,"y":32,"visible":true,"properties":[{"name":"layer","type":"int","value":4},{"name":"group","type":"int","value":10},{"name":"id","type":"int","value":42},{"name":"fh_layer","type":"int","value":4},{"name":"fh_group","type":"int","value":10},{"name":"fh_id","type":"int","value":42},{"name":"x1","type":"int","value":1053},{"name":"x2","type":"int","value":1084},{"name":"y1","type":"int","value":32},{"name":"y2","type":"int","value":32},{"name":"next","type":"int","value":0},{"name":"prev","type":"int","value":41}],"polyline":[{"x":0,"y":0},{"x":31,"y":0}]},{"id":155,"x":901,"y":-160,"visible":true,"properties":[{"name":"layer","type":"int","value":4},{"name":"group","type":"int","value":10},{"name":"id","type":"int","value":43},{"name":"fh_layer","type":"int","value":4},{"name":"fh_group","type":"int","value":10},{"name":"fh_id","type":"int","value":43},{"name":"x1","type":"int","value":901},{"name":"x2","type":"int","value":991},{"name":"y1","type":"int","value":-160},{"name":"y2","type":"int","value":-162},{"name":"next","type":"int","value":44},{"name":"prev","type":"int","value":0}],"polyline":[{"x":0,"y":0},{"x":90,"y":-2}]},{"id":156,"x":991,"y":-162,"visible":true,"properties":[{"name":"layer","type":"int","value":4},{"name":"group","type":"int","value":10},{"name":"id","type":"int","value":44},{"name":"fh_layer","type":"int","value":4},{"name":"fh_group","type":"int","value":10},{"name":"fh_id","type":"int","value":44},{"name":"x1","type":"int","value":991},{"name":"x2","type":"int","value":1006},{"name":"y1","type":"int","value":-162},{"name":"y2","type":"int","value":-160},{"name":"next","type":"int","value":45},{"name":"prev","type":"int","value":43}],"polyline":[{"x":0,"y":0},{"x":15,"y":2}]},{"id":157,"x":1006,"y":-160,"visible":true,"properties":[{"name":"layer","type":"int","value":4},{"name":"group","type":"int","value":10},{"name":"id","type":"int","value":45},{"name":"fh_layer","type":"int","value":4},{"name":"fh_group","type":"int","value":10},{"name":"fh_id","type":"int","value":45},{"name":"x1","type":"int","value":1006},{"name":"x2","type":"int","value":1026},{"name":"y1","type":"int","value":-160},{"name":"y2","type":"int","value":-163},{"name":"next","type":"int","value":46},{"name":"prev","type":"int","value":44}],"polyline":[{"x":0,"y":0},{"x":20,"y":-3}]},{"id":158,"x":1026,"y":-163,"visible":true,"properties":[{"name":"layer","type":"int","value":4},{"name":"group","type":"int","value":10},{"name":"id","type":"int","value":46},{"name":"fh_layer","type":"int","value":4},{"name":"fh_group","type":"int","value":10},{"name":"fh_id","type":"int","value":46},{"name":"x1","type":"int","value":1026},{"name":"x2","type":"int","value":1085},{"name":"y1","type":"int","value":-163},{"name":"y2","type":"int","value":-162},{"name":"next","type":"int","value":0},{"name":"prev","type":"int","value":45}],"polyline":[{"x":0,"y":0},{"x":59,"y":1}]},{"id":159,"x":828,"y":-170,"visible":true,"properties":[{"name":"layer","type":"int","value":4},{"name":"group","type":"int","value":12},{"name":"id","type":"int","value":15},{"name":"fh_layer","type":"int","value":4},{"name":"fh_group","type":"int","value":12},{"name":"fh_id","type":"int","value":15},{"name":"x1","type":"int","value":828},{"name":"x2","type":"int","value":882},{"name":"y1","type":"int","value":-170},{"name":"y2","type":"int","value":-170},{"name":"next","type":"int","value":16},{"name":"prev","type":"int","value":19}],"polyline":[{"x":0,"y":0},{"x":54,"y":0}]},{"id":160,"x":882,"y":-170,"visible":true,"properties":[{"name":"layer","type":"int","value":4},{"name":"group","type":"int","value":12},{"name":"id","type":"int","value":16},{"name":"fh_layer","type":"int","value":4},{"name":"fh_group","type":"int","value":12},{"name":"fh_id","type":"int","value":16},{"name":"x1","type":"int","value":882},{"name":"x2","type":"int","value":882},{"name":"y1","type":"int","value":-170},{"name":"y2","type":"int","value":-150},{"name":"next","type":"int","value":0},{"name":"prev","type":"int","value":15}],"polyline":[{"x":0,"y":0},{"x":0,"y":20}]},{"id":161,"x":738,"y":-150,"visible":true,"properties":[{"name":"layer","type":"int","value":4},{"name":"group","type":"int","value":12},{"name":"id","type":"int","value":17},{"name":"fh_layer","type":"int","value":4},{"name":"fh_group","type":"int","value":12},{"name":"fh_id","type":"int","value":17},{"name":"x1","type":"int","value":738},{"name":"x2","type":"int","value":738},{"name":"y1","type":"int","value":-150},{"name":"y2","type":"int","value":-170},{"name":"next","type":"int","value":18},{"name":"prev","type":"int","value":0}],"polyline":[{"x":0,"y":0},{"x":0,"y":-20}]},{"id":162,"x":738,"y":-170,"visible":true,"properties":[{"name":"layer","type":"int","value":4},{"name":"group","type":"int","value":12},{"name":"id","type":"int","value":18},{"name":"fh_layer","type":"int","value":4},{"name":"fh_group","type":"int","value":12},{"name":"fh_id","type":"int","value":18},{"name":"x1","type":"int","value":738},{"name":"x2","type":"int","value":792},{"name":"y1","type":"int","value":-170},{"name":"y2","type":"int","value":-170},{"name":"next","type":"int","value":19},{"name":"prev","type":"int","value":17}],"polyline":[{"x":0,"y":0},{"x":54,"y":0}]},{"id":163,"x":792,"y":-170,"visible":true,"properties":[{"name":"layer","type":"int","value":4},{"name":"group","type":"int","value":12},{"name":"id","type":"int","value":19},{"name":"fh_layer","type":"int","value":4},{"name":"fh_group","type":"int","value":12},{"name":"fh_id","type":"int","value":19},{"name":"x1","type":"int","value":792},{"name":"x2","type":"int","value":828},{"name":"y1","type":"int","value":-170},{"name":"y2","type":"int","value":-170},{"name":"next","type":"int","value":15},{"name":"prev","type":"int","value":18}],"polyline":[{"x":0,"y":0},{"x":36,"y":0}]},{"id":164,"x":-72,"y":-210,"visible":true,"properties":[{"name":"layer","type":"int","value":4},{"name":"group","type":"int","value":13},{"name":"id","type":"int","value":52},{"name":"fh_layer","type":"int","value":4},{"name":"fh_group","type":"int","value":13},{"name":"fh_id","type":"int","value":52},{"name":"x1","type":"int","value":-72},{"name":"x2","type":"int","value":-72},{"name":"y1","type":"int","value":-210},{"name":"y2","type":"int","value":-230},{"name":"next","type":"int","value":53},{"name":"prev","type":"int","value":0}],"polyline":[{"x":0,"y":0},{"x":0,"y":-20}]},{"id":165,"x":-72,"y":-230,"visible":true,"properties":[{"name":"layer","type":"int","value":4},{"name":"group","type":"int","value":13},{"name":"id","type":"int","value":53},{"name":"fh_layer","type":"int","value":4},{"name":"fh_group","type":"int","value":13},{"name":"fh_id","type":"int","value":53},{"name":"x1","type":"int","value":-72},{"name":"x2","type":"int","value":-18},{"name":"y1","type":"int","value":-230},{"name":"y2","type":"int","value":-230},{"name":"next","type":"int","value":56},{"name":"prev","type":"int","value":52}],"polyline":[{"x":0,"y":0},{"x":54,"y":0}]},{"id":166,"x":18,"y":-230,"visible":true,"properties":[{"name":"layer","type":"int","value":4},{"name":"group","type":"int","value":13},{"name":"id","type":"int","value":54},{"name":"fh_layer","type":"int","value":4},{"name":"fh_group","type":"int","value":13},{"name":"fh_id","type":"int","value":54},{"name":"x1","type":"int","value":18},{"name":"x2","type":"int","value":72},{"name":"y1","type":"int","value":-230},{"name":"y2","type":"int","value":-230},{"name":"next","type":"int","value":55},{"name":"prev","type":"int","value":56}],"polyline":[{"x":0,"y":0},{"x":54,"y":0}]},{"id":167,"x":72,"y":-230,"visible":true,"properties":[{"name":"layer","type":"int","value":4},{"name":"group","type":"int","value":13},{"name":"id","type":"int","value":55},{"name":"fh_layer","type":"int","value":4},{"name":"fh_group","type":"int","value":13},{"name":"fh_id","type":"int","value":55},{"name":"x1","type":"int","value":72},{"name":"x2","type":"int","value":72},{"name":"y1","type":"int","value":-230},{"name":"y2","type":"int","value":-210},{"name":"next","type":"int","value":0},{"name":"prev","type":"int","value":54}],"polyline":[{"x":0,"y":0},{"x":0,"y":20}]},{"id":168,"x":-18,"y":-230,"visible":true,"properties":[{"name":"layer","type":"int","value":4},{"name":"group","type":"int","value":13},{"name":"id","type":"int","value":56},{"name":"fh_layer","type":"int","value":4},{"name":"fh_group","type":"int","value":13},{"name":"fh_id","type":"int","value":56},{"name":"x1","type":"int","value":-18},{"name":"x2","type":"int","value":18},{"name":"y1","type":"int","value":-230},{"name":"y2","type":"int","value":-230},{"name":"next","type":"int","value":54},{"name":"prev","type":"int","value":53}],"polyline":[{"x":0,"y":0},{"x":36,"y":0}]}]},{"id":16,"name":"miniMap","type":"objectgroup","visible":true,"opacity":1,"objects":[{"id":169,"x":165,"y":384,"visible":true,"properties":[{"name":"mag","type":"int","value":4},{"name":"centerX","type":"int","value":165},{"name":"centerY","type":"int","value":384},{"name":"canvas_path","type":"string","value":"../../images/30676.png"},{"name":"canvas_width","type":"int","value":81},{"name":"canvas_height","type":"int","value":58},{"name":"canvas_origin_x","type":"int","value":0},{"name":"canvas_origin_y","type":"int","value":0}],"point":true}]}],"tilesets":[{"firstgid":1,"source":"../../tilesets/bg_blueCave.tsj"},{"firstgid":8,"source":"../../tilesets/bg_blueCave2.tsj"},{"firstgid":21,"source":"../../tilesets/tile_blueCave2.tsj"},{"firstgid":37,"source":"../../tilesets/obj_dungeon_blueCave_boss.tsj"},{"firstgid":57,"source":"../../tilesets/obj_dungeon_blueCave_foot.tsj"},{"firstgid":69,"source":"../../tilesets/obj_dungeon_blueCave_foot2.tsj"}],"properties":[{"name":"bgm","type":"string","value":"Bgm02/EvilEyes"},{"name":"fly","type":"int","value":0},{"name":"swim","type":"int","value":0},{"name":"town","type":"int","value":0},{"name":"VRTop","type":"int","value":-420},{"name":"cloud","type":"int","value":0},{"name":"VRLeft","type":"int","value":-117},{"name":"VRRight","type":"int","value":1083},{"name":"lvLimit","type":"int","value":50},{"name":"mapMark","type":"string","value":"Dungeon"},{"name":"mobRate","type":"float","value":1},{"name":"version","type":"int","value":10},{"name":"VRBottom","type":"int","value":400},{"name":"noMapCmd","type":"int","value":1},{"name":"returnMap","type":"int","value":105100100},{"name":"fieldLimit","type":"int","value":271100},{"name":"hideMinimap","type":"int","value":0},{"name":"onUserEnter","type":"string","value":"balog_dateSet"},{"name":"forcedReturn","type":"int","value":105100100},{"name":"onFirstUserEnter","type":"string","value":"balog_bonusSetting"}]}