{"type":"map","orientation":"orthogonal","renderorder":"right-down","infinite":false,"tilewidth":1,"tileheight":1,"width":810,"height":1320,"nextlayerid":1,"nextobjectid":1,"layers":[],"tilesets":[],"properties":[{"name":"bgm","type":"string","value":"Bgm19/MushCatle"},{"name":"fly","type":"int","value":0},{"name":"link","type":"int","value":106021001},{"name":"swim","type":"int","value":0},{"name":"town","type":"int","value":0},{"name":"VRTop","type":"int","value":-990},{"name":"cloud","type":"int","value":0},{"name":"VRLeft","type":"int","value":-405},{"name":"VRRight","type":"int","value":405},{"name":"lvLimit","type":"int","value":30},{"name":"mapMark","type":"string","value":"MushCatle"},{"name":"mobRate","type":"float","value":1.5000001192092896},{"name":"version","type":"int","value":10},{"name":"VRBottom","type":"int","value":330},{"name":"noMapCmd","type":"int","value":0},{"name":"fieldType","type":"int","value":6},{"name":"returnMap","type":"int","value":106020000},{"name":"timeLimit","type":"int","value":3600},{"name":"fieldLimit","type":"int","value":262216},{"name":"hideMinimap","type":"int","value":0},{"name":"lvForceMove","type":"int","value":39},{"name":"onUserEnter","type":"string","value":"in_secretroom"},{"name":"forcedReturn","type":"int","value":106021000},{"name":"miniMapOnOff","type":"int","value":1},{"name":"autoLieDetector","type":"string","value":""},{"name":"onFirstUserEnter","type":"string","value":""}]}