{"type":"map","orientation":"orthogonal","renderorder":"right-down","infinite":false,"tilewidth":1,"tileheight":1,"width":800,"height":600,"nextlayerid":6,"nextobjectid":23,"layers":[{"id":1,"name":"layer_1_obj","type":"objectgroup","visible":true,"opacity":1,"objects":[{"id":1,"x":-400,"y":299,"visible":true,"properties":[{"name":"layer","type":"int","value":1},{"name":"resource_index","type":"int","value":0},{"name":"oS","type":"string","value":"acc1"},{"name":"l0","type":"string","value":"lv200"},{"name":"l1","type":"string","value":"warrior"},{"name":"l2","type":"string","value":"0"},{"name":"z","type":"int","value":1},{"name":"zM","type":"int","value":1},{"name":"f","type":"int","value":0}],"gid":3,"width":800,"height":600},{"id":2,"x":-400,"y":199,"visible":true,"properties":[{"name":"layer","type":"int","value":1},{"name":"resource_index","type":"int","value":1},{"name":"oS","type":"string","value":"acc1"},{"name":"l0","type":"string","value":"lv200"},{"name":"l1","type":"string","value":"warrior"},{"name":"l2","type":"string","value":"1"},{"name":"z","type":"int","value":5},{"name":"zM","type":"int","value":1},{"name":"f","type":"int","value":0}],"gid":4,"width":800,"height":500},{"id":3,"x":-231,"y":300,"visible":true,"properties":[{"name":"layer","type":"int","value":1},{"name":"resource_index","type":"int","value":2},{"name":"oS","type":"string","value":"acc1"},{"name":"l0","type":"string","value":"lv200"},{"name":"l1","type":"string","value":"light"},{"name":"l2","type":"string","value":"0"},{"name":"z","type":"int","value":4},{"name":"zM","type":"int","value":0},{"name":"f","type":"int","value":0}],"gid":1,"width":435,"height":600},{"id":4,"x":-122,"y":24,"visible":true,"properties":[{"name":"layer","type":"int","value":1},{"name":"resource_index","type":"int","value":3},{"name":"oS","type":"string","value":"acc1"},{"name":"l0","type":"string","value":"lv200"},{"name":"l1","type":"string","value":"light"},{"name":"l2","type":"string","value":"2"},{"name":"z","type":"int","value":4},{"name":"zM","type":"int","value":0},{"name":"f","type":"int","value":0}],"gid":2,"width":316,"height":325}]},{"id":2,"name":"layer_3_obj","type":"objectgroup","visible":true,"opacity":1,"objects":[{"id":5,"x":-400,"y":301,"visible":true,"properties":[{"name":"layer","type":"int","value":3},{"name":"resource_index","type":"int","value":0},{"name":"oS","type":"string","value":"acc1"},{"name":"l0","type":"string","value":"lv200"},{"name":"l1","type":"string","value":"warrior"},{"name":"l2","type":"string","value":"2"},{"name":"z","type":"int","value":9},{"name":"zM","type":"int","value":0},{"name":"f","type":"int","value":0}],"gid":5,"width":800,"height":146}]},{"id":3,"name":"portal","type":"objectgroup","visible":true,"opacity":1,"objects":[{"id":6,"x":0,"y":0,"visible":true,"properties":[{"name":"x","type":"int","value":0},{"name":"y","type":"int","value":0},{"name":"pn","type":"string","value":"sp"},{"name":"pt","type":"int","value":0},{"name":"tm","type":"int","value":999999999},{"name":"tn","type":"string","value":""},{"name":"horizontalImpact","type":"int","value":0}],"point":true},{"id":7,"x":341,"y":113,"visible":true,"properties":[{"name":"x","type":"int","value":341},{"name":"y","type":"int","value":113},{"name":"pn","type":"string","value":"out00"},{"name":"pt","type":"int","value":2},{"name":"tm","type":"int","value":102000003},{"name":"tn","type":"string","value":"rank00"},{"name":"horizontalImpact","type":"int","value":0}],"point":true}]},{"id":4,"name":"life","type":"objectgroup","visible":true,"opacity":1,"objects":[{"id":8,"x":-1,"y":30,"visible":true,"properties":[{"name":"f","type":"int","value":0},{"name":"x","type":"int","value":-1},{"name":"y","type":"int","value":30},{"name":"cy","type":"int","value":35},{"name":"fh","type":"int","value":5},{"name":"id","type":"int","value":9901000},{"name":"rx0","type":"int","value":-51},{"name":"rx1","type":"int","value":49},{"name":"hide","type":"int","value":0},{"name":"type","type":"string","value":"n"},{"name":"mobTime","type":"int","value":0}],"point":true},{"id":9,"x":-113,"y":61,"visible":true,"properties":[{"name":"f","type":"int","value":0},{"name":"x","type":"int","value":-113},{"name":"y","type":"int","value":61},{"name":"cy","type":"int","value":70},{"name":"fh","type":"int","value":3},{"name":"id","type":"int","value":9901001},{"name":"rx0","type":"int","value":-152},{"name":"rx1","type":"int","value":-63},{"name":"hide","type":"int","value":0},{"name":"type","type":"string","value":"n"},{"name":"mobTime","type":"int","value":0}],"point":true},{"id":10,"x":113,"y":61,"visible":true,"properties":[{"name":"f","type":"int","value":0},{"name":"x","type":"int","value":113},{"name":"y","type":"int","value":61},{"name":"cy","type":"int","value":70},{"name":"fh","type":"int","value":4},{"name":"id","type":"int","value":9901002},{"name":"rx0","type":"int","value":63},{"name":"rx1","type":"int","value":163},{"name":"hide","type":"int","value":0},{"name":"type","type":"string","value":"n"},{"name":"mobTime","type":"int","value":0}],"point":true},{"id":11,"x":62,"y":150,"visible":true,"properties":[{"name":"f","type":"int","value":0},{"name":"x","type":"int","value":62},{"name":"y","type":"int","value":150},{"name":"cy","type":"int","value":158},{"name":"fh","type":"int","value":6},{"name":"id","type":"int","value":9901003},{"name":"rx0","type":"int","value":12},{"name":"rx1","type":"int","value":112},{"name":"hide","type":"int","value":0},{"name":"type","type":"string","value":"n"},{"name":"mobTime","type":"int","value":0}],"point":true},{"id":12,"x":-42,"y":148,"visible":true,"properties":[{"name":"f","type":"int","value":0},{"name":"x","type":"int","value":-42},{"name":"y","type":"int","value":148},{"name":"cy","type":"int","value":158},{"name":"fh","type":"int","value":6},{"name":"id","type":"int","value":9901004},{"name":"rx0","type":"int","value":-92},{"name":"rx1","type":"int","value":8},{"name":"hide","type":"int","value":0},{"name":"type","type":"string","value":"n"},{"name":"mobTime","type":"int","value":0}],"point":true},{"id":13,"x":-147,"y":149,"visible":true,"properties":[{"name":"f","type":"int","value":0},{"name":"x","type":"int","value":-147},{"name":"y","type":"int","value":149},{"name":"cy","type":"int","value":158},{"name":"fh","type":"int","value":6},{"name":"id","type":"int","value":9901005},{"name":"rx0","type":"int","value":-197},{"name":"rx1","type":"int","value":-97},{"name":"hide","type":"int","value":0},{"name":"type","type":"string","value":"n"},{"name":"mobTime","type":"int","value":0}],"point":true},{"id":14,"x":156,"y":147,"visible":true,"properties":[{"name":"f","type":"int","value":0},{"name":"x","type":"int","value":156},{"name":"y","type":"int","value":147},{"name":"cy","type":"int","value":158},{"name":"fh","type":"int","value":6},{"name":"id","type":"int","value":9901006},{"name":"rx0","type":"int","value":106},{"name":"rx1","type":"int","value":206},{"name":"hide","type":"int","value":0},{"name":"type","type":"string","value":"n"},{"name":"mobTime","type":"int","value":0}],"point":true},{"id":15,"x":259,"y":146,"visible":true,"properties":[{"name":"f","type":"int","value":0},{"name":"x","type":"int","value":259},{"name":"y","type":"int","value":146},{"name":"cy","type":"int","value":158},{"name":"fh","type":"int","value":6},{"name":"id","type":"int","value":9901007},{"name":"rx0","type":"int","value":209},{"name":"rx1","type":"int","value":309},{"name":"hide","type":"int","value":0},{"name":"type","type":"string","value":"n"},{"name":"mobTime","type":"int","value":0}],"point":true},{"id":16,"x":-241,"y":150,"visible":true,"properties":[{"name":"f","type":"int","value":0},{"name":"x","type":"int","value":-241},{"name":"y","type":"int","value":150},{"name":"cy","type":"int","value":158},{"name":"fh","type":"int","value":6},{"name":"id","type":"int","value":9901008},{"name":"rx0","type":"int","value":-291},{"name":"rx1","type":"int","value":-191},{"name":"hide","type":"int","value":0},{"name":"type","type":"string","value":"n"},{"name":"mobTime","type":"int","value":0}],"point":true}]},{"id":5,"name":"foothold","type":"objectgroup","visible":true,"opacity":1,"objects":[{"id":17,"x":300,"y":114,"visible":true,"properties":[{"name":"layer","type":"int","value":1},{"name":"group","type":"int","value":1},{"name":"id","type":"int","value":1},{"name":"fh_layer","type":"int","value":1},{"name":"fh_group","type":"int","value":1},{"name":"fh_id","type":"int","value":1},{"name":"x1","type":"int","value":300},{"name":"x2","type":"int","value":386},{"name":"y1","type":"int","value":114},{"name":"y2","type":"int","value":114},{"name":"next","type":"int","value":0},{"name":"prev","type":"int","value":0}],"polyline":[{"x":0,"y":0},{"x":86,"y":0}]},{"id":18,"x":282,"y":135,"visible":true,"properties":[{"name":"layer","type":"int","value":1},{"name":"group","type":"int","value":1},{"name":"id","type":"int","value":2},{"name":"fh_layer","type":"int","value":1},{"name":"fh_group","type":"int","value":1},{"name":"fh_id","type":"int","value":2},{"name":"x1","type":"int","value":282},{"name":"x2","type":"int","value":373},{"name":"y1","type":"int","value":135},{"name":"y2","type":"int","value":135},{"name":"next","type":"int","value":0},{"name":"prev","type":"int","value":0}],"polyline":[{"x":0,"y":0},{"x":91,"y":0}]},{"id":19,"x":-172,"y":70,"visible":true,"properties":[{"name":"layer","type":"int","value":1},{"name":"group","type":"int","value":1},{"name":"id","type":"int","value":3},{"name":"fh_layer","type":"int","value":1},{"name":"fh_group","type":"int","value":1},{"name":"fh_id","type":"int","value":3},{"name":"x1","type":"int","value":-172},{"name":"x2","type":"int","value":-55},{"name":"y1","type":"int","value":70},{"name":"y2","type":"int","value":70},{"name":"next","type":"int","value":0},{"name":"prev","type":"int","value":0}],"polyline":[{"x":0,"y":0},{"x":117,"y":0}]},{"id":20,"x":53,"y":70,"visible":true,"properties":[{"name":"layer","type":"int","value":1},{"name":"group","type":"int","value":1},{"name":"id","type":"int","value":4},{"name":"fh_layer","type":"int","value":1},{"name":"fh_group","type":"int","value":1},{"name":"fh_id","type":"int","value":4},{"name":"x1","type":"int","value":53},{"name":"x2","type":"int","value":170},{"name":"y1","type":"int","value":70},{"name":"y2","type":"int","value":70},{"name":"next","type":"int","value":0},{"name":"prev","type":"int","value":0}],"polyline":[{"x":0,"y":0},{"x":117,"y":0}]},{"id":21,"x":-31,"y":35,"visible":true,"properties":[{"name":"layer","type":"int","value":1},{"name":"group","type":"int","value":1},{"name":"id","type":"int","value":5},{"name":"fh_layer","type":"int","value":1},{"name":"fh_group","type":"int","value":1},{"name":"fh_id","type":"int","value":5},{"name":"x1","type":"int","value":-31},{"name":"x2","type":"int","value":34},{"name":"y1","type":"int","value":35},{"name":"y2","type":"int","value":35},{"name":"next","type":"int","value":0},{"name":"prev","type":"int","value":0}],"polyline":[{"x":0,"y":0},{"x":65,"y":0}]},{"id":22,"x":-400,"y":158,"visible":true,"properties":[{"name":"layer","type":"int","value":3},{"name":"group","type":"int","value":0},{"name":"id","type":"int","value":6},{"name":"fh_layer","type":"int","value":3},{"name":"fh_group","type":"int","value":0},{"name":"fh_id","type":"int","value":6},{"name":"x1","type":"int","value":-400},{"name":"x2","type":"int","value":400},{"name":"y1","type":"int","value":158},{"name":"y2","type":"int","value":158},{"name":"next","type":"int","value":0},{"name":"prev","type":"int","value":0}],"polyline":[{"x":0,"y":0},{"x":800,"y":0}]}]}],"tilesets":[{"firstgid":1,"source":"../../tilesets/obj_acc1_lv200_light.tsj"},{"firstgid":3,"source":"../../tilesets/obj_acc1_lv200_warrior.tsj"}],"properties":[{"name":"bgm","type":"string","value":"Bgm00/Nightmare"},{"name":"fly","type":"int","value":0},{"name":"swim","type":"int","value":0},{"name":"town","type":"int","value":1},{"name":"VRTop","type":"int","value":-300},{"name":"cloud","type":"int","value":0},{"name":"VRLeft","type":"int","value":-400},{"name":"VRRight","type":"int","value":400},{"name":"mapMark","type":"string","value":"Perion"},{"name":"mobRate","type":"float","value":1},{"name":"version","type":"int","value":10},{"name":"VRBottom","type":"int","value":300},{"name":"noMapCmd","type":"int","value":0},{"name":"returnMap","type":"int","value":102000000},{"name":"fieldLimit","type":"int","value":0},{"name":"hideMinimap","type":"int","value":0},{"name":"onUserEnter","type":"string","value":""},{"name":"forcedReturn","type":"int","value":999999999},{"name":"onFirstUserEnter","type":"string","value":""}]}