{"type":"map","orientation":"orthogonal","renderorder":"right-down","infinite":false,"tilewidth":1,"tileheight":1,"width":800,"height":735,"parallaxoriginx":-400,"parallaxoriginy":80,"nextlayerid":8,"nextobjectid":63,"layers":[{"id":1,"name":"layer_0_obj","type":"objectgroup","visible":true,"opacity":1,"draworder":"index","offsetx":0,"offsety":0,"parallaxx":1,"parallaxy":1,"objects":[{"id":1,"x":-400,"y":299,"visible":true,"properties":[{"name":"layer","type":"int","value":0},{"name":"resource_index","type":"int","value":0},{"name":"oS","type":"string","value":"insideGS"},{"name":"l0","type":"string","value":"house3"},{"name":"l1","type":"string","value":"basic"},{"name":"l2","type":"string","value":"0"},{"name":"z","type":"int","value":0},{"name":"zM","type":"int","value":0},{"name":"f","type":"int","value":0}],"gid":13,"width":800,"height":721},{"id":2,"x":56,"y":-8,"visible":true,"properties":[{"name":"layer","type":"int","value":0},{"name":"resource_index","type":"int","value":1},{"name":"oS","type":"string","value":"job"},{"name":"l0","type":"string","value":"job"},{"name":"l1","type":"string","value":"bowman"},{"name":"l2","type":"string","value":"7"},{"name":"z","type":"int","value":3},{"name":"zM","type":"int","value":0},{"name":"f","type":"int","value":0}],"gid":1,"width":109,"height":189},{"id":3,"x":-349,"y":-57,"visible":true,"properties":[{"name":"layer","type":"int","value":0},{"name":"resource_index","type":"int","value":2},{"name":"oS","type":"string","value":"job"},{"name":"l0","type":"string","value":"job"},{"name":"l1","type":"string","value":"bowman"},{"name":"l2","type":"string","value":"4"},{"name":"z","type":"int","value":1},{"name":"zM","type":"int","value":0},{"name":"f","type":"int","value":0}],"gid":2,"width":638,"height":207}],"properties":[]},{"id":2,"name":"layer_1_obj","type":"objectgroup","visible":true,"opacity":1,"draworder":"index","offsetx":0,"offsety":0,"parallaxx":1,"parallaxy":1,"objects":[{"id":4,"x":206,"y":30,"visible":true,"properties":[{"name":"layer","type":"int","value":1},{"name":"resource_index","type":"int","value":0},{"name":"oS","type":"string","value":"job"},{"name":"l0","type":"string","value":"job"},{"name":"l1","type":"string","value":"bowman"},{"name":"l2","type":"string","value":"9"},{"name":"z","type":"int","value":3},{"name":"zM","type":"int","value":1},{"name":"f","type":"int","value":0}],"gid":3,"width":124,"height":254},{"id":5,"x":-401,"y":207,"visible":true,"properties":[{"name":"layer","type":"int","value":1},{"name":"resource_index","type":"int","value":1},{"name":"oS","type":"string","value":"job"},{"name":"l0","type":"string","value":"job"},{"name":"l1","type":"string","value":"bowman"},{"name":"l2","type":"string","value":"0"},{"name":"z","type":"int","value":5},{"name":"zM","type":"int","value":1},{"name":"f","type":"int","value":0}],"gid":4,"width":629,"height":235},{"id":6,"x":92,"y":186,"visible":true,"properties":[{"name":"layer","type":"int","value":1},{"name":"resource_index","type":"int","value":2},{"name":"oS","type":"string","value":"shop"},{"name":"l0","type":"string","value":"shop"},{"name":"l1","type":"string","value":"weapon"},{"name":"l2","type":"string","value":"1"},{"name":"z","type":"int","value":6},{"name":"zM","type":"int","value":1},{"name":"f","type":"int","value":0}],"gid":11,"width":62,"height":33},{"id":7,"x":-194,"y":-177,"visible":true,"properties":[{"name":"layer","type":"int","value":1},{"name":"resource_index","type":"int","value":3},{"name":"oS","type":"string","value":"job"},{"name":"l0","type":"string","value":"job"},{"name":"l1","type":"string","value":"bowman"},{"name":"l2","type":"string","value":"5"},{"name":"z","type":"int","value":3},{"name":"zM","type":"int","value":1},{"name":"f","type":"int","value":0}],"gid":5,"width":456,"height":245},{"id":8,"x":189,"y":204,"visible":true,"properties":[{"name":"layer","type":"int","value":1},{"name":"resource_index","type":"int","value":4},{"name":"oS","type":"string","value":"job"},{"name":"l0","type":"string","value":"job"},{"name":"l1","type":"string","value":"bowman"},{"name":"l2","type":"string","value":"6"},{"name":"z","type":"int","value":1},{"name":"zM","type":"int","value":1},{"name":"f","type":"int","value":0}],"gid":6,"width":167,"height":168},{"id":9,"x":-20,"y":1,"visible":true,"properties":[{"name":"layer","type":"int","value":1},{"name":"resource_index","type":"int","value":5},{"name":"oS","type":"string","value":"job"},{"name":"l0","type":"string","value":"job"},{"name":"l1","type":"string","value":"bowman"},{"name":"l2","type":"string","value":"8"},{"name":"z","type":"int","value":3},{"name":"zM","type":"int","value":1},{"name":"f","type":"int","value":0}],"gid":7,"width":162,"height":80},{"id":10,"x":139,"y":161,"visible":true,"properties":[{"name":"layer","type":"int","value":1},{"name":"resource_index","type":"int","value":6},{"name":"oS","type":"string","value":"signboard"},{"name":"l0","type":"string","value":"market"},{"name":"l1","type":"string","value":"arrow"},{"name":"l2","type":"string","value":"10"},{"name":"z","type":"int","value":13},{"name":"zM","type":"int","value":0},{"name":"f","type":"int","value":0}],"gid":16,"width":54,"height":44}],"properties":[]},{"id":3,"name":"layer_2_obj","type":"objectgroup","visible":true,"opacity":1,"draworder":"index","offsetx":0,"offsety":0,"parallaxx":1,"parallaxy":1,"objects":[{"id":11,"x":-401,"y":207,"visible":true,"properties":[{"name":"layer","type":"int","value":2},{"name":"resource_index","type":"int","value":0},{"name":"oS","type":"string","value":"job"},{"name":"l0","type":"string","value":"job"},{"name":"l1","type":"string","value":"bowman"},{"name":"l2","type":"string","value":"1"},{"name":"z","type":"int","value":3},{"name":"zM","type":"int","value":2},{"name":"f","type":"int","value":0}],"gid":8,"width":306,"height":237},{"id":12,"x":-257,"y":-9,"visible":true,"properties":[{"name":"layer","type":"int","value":2},{"name":"resource_index","type":"int","value":1},{"name":"oS","type":"string","value":"job"},{"name":"l0","type":"string","value":"job"},{"name":"l1","type":"string","value":"bowman"},{"name":"l2","type":"string","value":"3"},{"name":"z","type":"int","value":3},{"name":"zM","type":"int","value":2},{"name":"f","type":"int","value":0}],"gid":9,"width":462,"height":50}],"properties":[]},{"id":4,"name":"layer_3_obj","type":"objectgroup","visible":true,"opacity":1,"draworder":"index","offsetx":0,"offsety":0,"parallaxx":1,"parallaxy":1,"objects":[{"id":13,"x":-400,"y":185,"visible":true,"properties":[{"name":"layer","type":"int","value":3},{"name":"resource_index","type":"int","value":0},{"name":"oS","type":"string","value":"insideGS"},{"name":"l0","type":"string","value":"house3"},{"name":"l1","type":"string","value":"basic"},{"name":"l2","type":"string","value":"1"},{"name":"z","type":"int","value":3},{"name":"zM","type":"int","value":3},{"name":"f","type":"int","value":0}],"gid":14,"width":800,"height":608},{"id":14,"x":-400,"y":206,"visible":true,"properties":[{"name":"layer","type":"int","value":3},{"name":"resource_index","type":"int","value":1},{"name":"oS","type":"string","value":"insideGS"},{"name":"l0","type":"string","value":"house3"},{"name":"l1","type":"string","value":"basic"},{"name":"l2","type":"string","value":"2"},{"name":"z","type":"int","value":15},{"name":"zM","type":"int","value":3},{"name":"f","type":"int","value":0}],"gid":15,"width":800,"height":27},{"id":15,"x":-367,"y":184,"visible":true,"properties":[{"name":"layer","type":"int","value":3},{"name":"resource_index","type":"int","value":2},{"name":"oS","type":"string","value":"job"},{"name":"l0","type":"string","value":"job"},{"name":"l1","type":"string","value":"bowman"},{"name":"l2","type":"string","value":"2"},{"name":"z","type":"int","value":2},{"name":"zM","type":"int","value":3},{"name":"f","type":"int","value":0}],"gid":10,"width":186,"height":214},{"id":16,"x":-386,"y":185,"visible":true,"properties":[{"name":"layer","type":"int","value":3},{"name":"resource_index","type":"int","value":3},{"name":"oS","type":"string","value":"guide"},{"name":"l0","type":"string","value":"miniD"},{"name":"l1","type":"string","value":"portalEff"},{"name":"l2","type":"string","value":"0"},{"name":"z","type":"int","value":9},{"name":"zM","type":"int","value":0},{"name":"f","type":"int","value":0}],"gid":12,"width":131,"height":166}],"properties":[]},{"id":5,"name":"portal","type":"objectgroup","visible":true,"opacity":1,"draworder":"index","offsetx":0,"offsety":0,"parallaxx":1,"parallaxy":1,"objects":[{"id":17,"x":49,"y":112,"visible":true,"properties":[{"name":"x","type":"int","value":49},{"name":"y","type":"int","value":112},{"name":"pn","type":"string","value":"sp"},{"name":"pt","type":"int","value":0},{"name":"tm","type":"int","value":999999999},{"name":"tn","type":"string","value":""}],"point":true},{"id":18,"x":105,"y":118,"visible":true,"properties":[{"name":"x","type":"int","value":105},{"name":"y","type":"int","value":118},{"name":"pn","type":"string","value":"sp"},{"name":"pt","type":"int","value":0},{"name":"tm","type":"int","value":999999999},{"name":"tn","type":"string","value":""}],"point":true},{"id":19,"x":160,"y":117,"visible":true,"properties":[{"name":"x","type":"int","value":160},{"name":"y","type":"int","value":117},{"name":"pn","type":"string","value":"sp"},{"name":"pt","type":"int","value":0},{"name":"tm","type":"int","value":999999999},{"name":"tn","type":"string","value":""}],"point":true},{"id":20,"x":227,"y":115,"visible":true,"properties":[{"name":"x","type":"int","value":227},{"name":"y","type":"int","value":115},{"name":"pn","type":"string","value":"sp"},{"name":"pt","type":"int","value":0},{"name":"tm","type":"int","value":999999999},{"name":"tn","type":"string","value":""}],"point":true},{"id":21,"x":-11,"y":105,"visible":true,"properties":[{"name":"x","type":"int","value":-11},{"name":"y","type":"int","value":105},{"name":"pn","type":"string","value":"sp"},{"name":"pt","type":"int","value":0},{"name":"tm","type":"int","value":999999999},{"name":"tn","type":"string","value":""}],"point":true},{"id":22,"x":-219,"y":-63,"visible":true,"properties":[{"name":"x","type":"int","value":-219},{"name":"y","type":"int","value":-63},{"name":"pn","type":"string","value":"sp"},{"name":"pt","type":"int","value":0},{"name":"tm","type":"int","value":999999999},{"name":"tn","type":"string","value":""}],"point":true},{"id":23,"x":-186,"y":-61,"visible":true,"properties":[{"name":"x","type":"int","value":-186},{"name":"y","type":"int","value":-61},{"name":"pn","type":"string","value":"sp"},{"name":"pt","type":"int","value":0},{"name":"tm","type":"int","value":999999999},{"name":"tn","type":"string","value":""}],"point":true},{"id":24,"x":-135,"y":-63,"visible":true,"properties":[{"name":"x","type":"int","value":-135},{"name":"y","type":"int","value":-63},{"name":"pn","type":"string","value":"sp"},{"name":"pt","type":"int","value":0},{"name":"tm","type":"int","value":999999999},{"name":"tn","type":"string","value":""}],"point":true},{"id":25,"x":-63,"y":-57,"visible":true,"properties":[{"name":"x","type":"int","value":-63},{"name":"y","type":"int","value":-57},{"name":"pn","type":"string","value":"sp"},{"name":"pt","type":"int","value":0},{"name":"tm","type":"int","value":999999999},{"name":"tn","type":"string","value":""}],"point":true},{"id":26,"x":226,"y":189,"visible":true,"properties":[{"name":"x","type":"int","value":270},{"name":"y","type":"int","value":180},{"name":"pn","type":"string","value":"out02"},{"name":"pt","type":"int","value":2},{"name":"tm","type":"int","value":100000200},{"name":"tn","type":"string","value":"in02"}],"gid":18,"width":89,"height":257},{"id":27,"x":-323,"y":181,"visible":true,"properties":[{"name":"x","type":"int","value":-323},{"name":"y","type":"int","value":181},{"name":"pn","type":"string","value":"rank00"},{"name":"pt","type":"int","value":7},{"name":"tm","type":"int","value":999999999},{"name":"tn","type":"string","value":""},{"name":"script","type":"string","value":"rankRoom"},{"name":"horizontalImpact","type":"int","value":0}],"point":true},{"id":28,"x":155,"y":137,"visible":true,"properties":[{"name":"x","type":"int","value":155},{"name":"y","type":"int","value":137},{"name":"pn","type":"string","value":"tutorial"},{"name":"pt","type":"int","value":9},{"name":"tm","type":"int","value":999999999},{"name":"tn","type":"string","value":""},{"name":"delay","type":"int","value":1000},{"name":"script","type":"string","value":"tutorialNPC"},{"name":"onlyOnce","type":"int","value":1},{"name":"hideTooltip","type":"int","value":0}],"point":true}],"properties":[]},{"id":6,"name":"life","type":"objectgroup","visible":true,"opacity":1,"draworder":"index","offsetx":0,"offsety":0,"parallaxx":1,"parallaxy":1,"objects":[{"id":29,"x":75,"y":-62,"visible":true,"properties":[{"name":"f","type":"int","value":1},{"name":"x","type":"int","value":75},{"name":"y","type":"int","value":-62},{"name":"cy","type":"int","value":-62},{"name":"fh","type":"int","value":2},{"name":"id","type":"int","value":1012100},{"name":"rx0","type":"int","value":25},{"name":"rx1","type":"int","value":125},{"name":"type","type":"string","value":"n"},{"name":"npc_aseprite","type":"file","value":"../../Npc/1012100.img/animation.aseprite"}],"point":true}],"properties":[]},{"id":7,"name":"foothold","type":"objectgroup","visible":true,"opacity":1,"draworder":"index","offsetx":0,"offsety":0,"parallaxx":1,"parallaxy":1,"objects":[{"id":30,"x":-400,"y":183,"visible":true,"properties":[{"name":"layer","type":"int","value":0},{"name":"group","type":"int","value":0},{"name":"id","type":"int","value":1},{"name":"fh_layer","type":"int","value":0},{"name":"fh_group","type":"int","value":0},{"name":"fh_id","type":"int","value":1},{"name":"x1","type":"int","value":-400},{"name":"x2","type":"int","value":400},{"name":"y1","type":"int","value":183},{"name":"y2","type":"int","value":183},{"name":"next","type":"int","value":0},{"name":"prev","type":"int","value":0}],"polyline":[{"x":0,"y":0},{"x":800,"y":0}]},{"id":31,"x":47,"y":-62,"visible":true,"properties":[{"name":"layer","type":"int","value":0},{"name":"group","type":"int","value":0},{"name":"id","type":"int","value":2},{"name":"fh_layer","type":"int","value":0},{"name":"fh_group","type":"int","value":0},{"name":"fh_id","type":"int","value":2},{"name":"x1","type":"int","value":47},{"name":"x2","type":"int","value":143},{"name":"y1","type":"int","value":-62},{"name":"y2","type":"int","value":-62},{"name":"next","type":"int","value":3},{"name":"prev","type":"int","value":5}],"polyline":[{"x":0,"y":0},{"x":96,"y":0}]},{"id":32,"x":143,"y":-62,"visible":true,"properties":[{"name":"layer","type":"int","value":0},{"name":"group","type":"int","value":0},{"name":"id","type":"int","value":3},{"name":"fh_layer","type":"int","value":0},{"name":"fh_group","type":"int","value":0},{"name":"fh_id","type":"int","value":3},{"name":"x1","type":"int","value":143},{"name":"x2","type":"int","value":143},{"name":"y1","type":"int","value":-62},{"name":"y2","type":"int","value":-158},{"name":"next","type":"int","value":4},{"name":"prev","type":"int","value":2}],"polyline":[{"x":0,"y":0},{"x":0,"y":-96}]},{"id":33,"x":143,"y":-158,"visible":true,"properties":[{"name":"layer","type":"int","value":0},{"name":"group","type":"int","value":0},{"name":"id","type":"int","value":4},{"name":"fh_layer","type":"int","value":0},{"name":"fh_group","type":"int","value":0},{"name":"fh_id","type":"int","value":4},{"name":"x1","type":"int","value":143},{"name":"x2","type":"int","value":47},{"name":"y1","type":"int","value":-158},{"name":"y2","type":"int","value":-158},{"name":"next","type":"int","value":5},{"name":"prev","type":"int","value":3}],"polyline":[{"x":0,"y":0},{"x":-96,"y":0}]},{"id":34,"x":47,"y":-158,"visible":true,"properties":[{"name":"layer","type":"int","value":0},{"name":"group","type":"int","value":0},{"name":"id","type":"int","value":5},{"name":"fh_layer","type":"int","value":0},{"name":"fh_group","type":"int","value":0},{"name":"fh_id","type":"int","value":5},{"name":"x1","type":"int","value":47},{"name":"x2","type":"int","value":47},{"name":"y1","type":"int","value":-158},{"name":"y2","type":"int","value":-62},{"name":"next","type":"int","value":2},{"name":"prev","type":"int","value":4}],"polyline":[{"x":0,"y":0},{"x":0,"y":96}]},{"id":35,"x":-307,"y":7,"visible":true,"properties":[{"name":"layer","type":"int","value":1},{"name":"group","type":"int","value":1},{"name":"id","type":"int","value":6},{"name":"fh_layer","type":"int","value":1},{"name":"fh_group","type":"int","value":1},{"name":"fh_id","type":"int","value":6},{"name":"x1","type":"int","value":-307},{"name":"x2","type":"int","value":-275},{"name":"y1","type":"int","value":7},{"name":"y2","type":"int","value":7},{"name":"next","type":"int","value":7},{"name":"prev","type":"int","value":0}],"polyline":[{"x":0,"y":0},{"x":32,"y":0}]},{"id":36,"x":-275,"y":7,"visible":true,"properties":[{"name":"layer","type":"int","value":1},{"name":"group","type":"int","value":1},{"name":"id","type":"int","value":7},{"name":"fh_layer","type":"int","value":1},{"name":"fh_group","type":"int","value":1},{"name":"fh_id","type":"int","value":7},{"name":"x1","type":"int","value":-275},{"name":"x2","type":"int","value":-275},{"name":"y1","type":"int","value":7},{"name":"y2","type":"int","value":-18},{"name":"next","type":"int","value":8},{"name":"prev","type":"int","value":6}],"polyline":[{"x":0,"y":0},{"x":0,"y":-25}]},{"id":37,"x":-275,"y":-18,"visible":true,"properties":[{"name":"layer","type":"int","value":1},{"name":"group","type":"int","value":1},{"name":"id","type":"int","value":8},{"name":"fh_layer","type":"int","value":1},{"name":"fh_group","type":"int","value":1},{"name":"fh_id","type":"int","value":8},{"name":"x1","type":"int","value":-275},{"name":"x2","type":"int","value":172},{"name":"y1","type":"int","value":-18},{"name":"y2","type":"int","value":-18},{"name":"next","type":"int","value":9},{"name":"prev","type":"int","value":7}],"polyline":[{"x":0,"y":0},{"x":447,"y":0}]},{"id":38,"x":172,"y":-18,"visible":true,"properties":[{"name":"layer","type":"int","value":1},{"name":"group","type":"int","value":1},{"name":"id","type":"int","value":9},{"name":"fh_layer","type":"int","value":1},{"name":"fh_group","type":"int","value":1},{"name":"fh_id","type":"int","value":9},{"name":"x1","type":"int","value":172},{"name":"x2","type":"int","value":172},{"name":"y1","type":"int","value":-18},{"name":"y2","type":"int","value":-291},{"name":"next","type":"int","value":0},{"name":"prev","type":"int","value":8}],"polyline":[{"x":0,"y":0},{"x":0,"y":-273}]},{"id":39,"x":-338,"y":-108,"visible":true,"properties":[{"name":"layer","type":"int","value":1},{"name":"group","type":"int","value":1},{"name":"id","type":"int","value":10},{"name":"fh_layer","type":"int","value":1},{"name":"fh_group","type":"int","value":1},{"name":"fh_id","type":"int","value":10},{"name":"x1","type":"int","value":-338},{"name":"x2","type":"int","value":-338},{"name":"y1","type":"int","value":-108},{"name":"y2","type":"int","value":7},{"name":"next","type":"int","value":11},{"name":"prev","type":"int","value":0}],"polyline":[{"x":0,"y":0},{"x":0,"y":115}]},{"id":40,"x":-338,"y":7,"visible":true,"properties":[{"name":"layer","type":"int","value":1},{"name":"group","type":"int","value":1},{"name":"id","type":"int","value":11},{"name":"fh_layer","type":"int","value":1},{"name":"fh_group","type":"int","value":1},{"name":"fh_id","type":"int","value":11},{"name":"x1","type":"int","value":-338},{"name":"x2","type":"int","value":-309},{"name":"y1","type":"int","value":7},{"name":"y2","type":"int","value":7},{"name":"next","type":"int","value":0},{"name":"prev","type":"int","value":10}],"polyline":[{"x":0,"y":0},{"x":29,"y":0}]},{"id":41,"x":26,"y":-52,"visible":true,"properties":[{"name":"layer","type":"int","value":1},{"name":"group","type":"int","value":1},{"name":"id","type":"int","value":12},{"name":"fh_layer","type":"int","value":1},{"name":"fh_group","type":"int","value":1},{"name":"fh_id","type":"int","value":12},{"name":"x1","type":"int","value":26},{"name":"x2","type":"int","value":26},{"name":"y1","type":"int","value":-52},{"name":"y2","type":"int","value":-171},{"name":"next","type":"int","value":13},{"name":"prev","type":"int","value":15}],"polyline":[{"x":0,"y":0},{"x":0,"y":-119}]},{"id":42,"x":26,"y":-171,"visible":true,"properties":[{"name":"layer","type":"int","value":1},{"name":"group","type":"int","value":1},{"name":"id","type":"int","value":13},{"name":"fh_layer","type":"int","value":1},{"name":"fh_group","type":"int","value":1},{"name":"fh_id","type":"int","value":13},{"name":"x1","type":"int","value":26},{"name":"x2","type":"int","value":150},{"name":"y1","type":"int","value":-171},{"name":"y2","type":"int","value":-171},{"name":"next","type":"int","value":14},{"name":"prev","type":"int","value":12}],"polyline":[{"x":0,"y":0},{"x":124,"y":0}]},{"id":43,"x":150,"y":-171,"visible":true,"properties":[{"name":"layer","type":"int","value":1},{"name":"group","type":"int","value":1},{"name":"id","type":"int","value":14},{"name":"fh_layer","type":"int","value":1},{"name":"fh_group","type":"int","value":1},{"name":"fh_id","type":"int","value":14},{"name":"x1","type":"int","value":150},{"name":"x2","type":"int","value":150},{"name":"y1","type":"int","value":-171},{"name":"y2","type":"int","value":-52},{"name":"next","type":"int","value":15},{"name":"prev","type":"int","value":13}],"polyline":[{"x":0,"y":0},{"x":0,"y":119}]},{"id":44,"x":150,"y":-52,"visible":true,"properties":[{"name":"layer","type":"int","value":1},{"name":"group","type":"int","value":1},{"name":"id","type":"int","value":15},{"name":"fh_layer","type":"int","value":1},{"name":"fh_group","type":"int","value":1},{"name":"fh_id","type":"int","value":15},{"name":"x1","type":"int","value":150},{"name":"x2","type":"int","value":26},{"name":"y1","type":"int","value":-52},{"name":"y2","type":"int","value":-52},{"name":"next","type":"int","value":12},{"name":"prev","type":"int","value":14}],"polyline":[{"x":0,"y":0},{"x":-124,"y":0}]},{"id":45,"x":-341,"y":-107,"visible":true,"properties":[{"name":"layer","type":"int","value":2},{"name":"group","type":"int","value":2},{"name":"id","type":"int","value":16},{"name":"fh_layer","type":"int","value":2},{"name":"fh_group","type":"int","value":2},{"name":"fh_id","type":"int","value":16},{"name":"x1","type":"int","value":-341},{"name":"x2","type":"int","value":-341},{"name":"y1","type":"int","value":-107},{"name":"y2","type":"int","value":31},{"name":"next","type":"int","value":17},{"name":"prev","type":"int","value":0}],"polyline":[{"x":0,"y":0},{"x":0,"y":138}]},{"id":46,"x":-341,"y":31,"visible":true,"properties":[{"name":"layer","type":"int","value":2},{"name":"group","type":"int","value":2},{"name":"id","type":"int","value":17},{"name":"fh_layer","type":"int","value":2},{"name":"fh_group","type":"int","value":2},{"name":"fh_id","type":"int","value":17},{"name":"x1","type":"int","value":-341},{"name":"x2","type":"int","value":-319},{"name":"y1","type":"int","value":31},{"name":"y2","type":"int","value":31},{"name":"next","type":"int","value":28},{"name":"prev","type":"int","value":16}],"polyline":[{"x":0,"y":0},{"x":22,"y":0}]},{"id":47,"x":-319,"y":31,"visible":true,"properties":[{"name":"layer","type":"int","value":2},{"name":"group","type":"int","value":2},{"name":"id","type":"int","value":18},{"name":"fh_layer","type":"int","value":2},{"name":"fh_group","type":"int","value":2},{"name":"fh_id","type":"int","value":18},{"name":"x1","type":"int","value":-319},{"name":"x2","type":"int","value":-319},{"name":"y1","type":"int","value":31},{"name":"y2","type":"int","value":57},{"name":"next","type":"int","value":19},{"name":"prev","type":"int","value":17}],"polyline":[{"x":0,"y":0},{"x":0,"y":26}]},{"id":48,"x":-319,"y":57,"visible":true,"properties":[{"name":"layer","type":"int","value":2},{"name":"group","type":"int","value":2},{"name":"id","type":"int","value":19},{"name":"fh_layer","type":"int","value":2},{"name":"fh_group","type":"int","value":2},{"name":"fh_id","type":"int","value":19},{"name":"x1","type":"int","value":-319},{"name":"x2","type":"int","value":-297},{"name":"y1","type":"int","value":57},{"name":"y2","type":"int","value":57},{"name":"next","type":"int","value":29},{"name":"prev","type":"int","value":18}],"polyline":[{"x":0,"y":0},{"x":22,"y":0}]},{"id":49,"x":-297,"y":57,"visible":true,"properties":[{"name":"layer","type":"int","value":2},{"name":"group","type":"int","value":2},{"name":"id","type":"int","value":20},{"name":"fh_layer","type":"int","value":2},{"name":"fh_group","type":"int","value":2},{"name":"fh_id","type":"int","value":20},{"name":"x1","type":"int","value":-297},{"name":"x2","type":"int","value":-297},{"name":"y1","type":"int","value":57},{"name":"y2","type":"int","value":81},{"name":"next","type":"int","value":21},{"name":"prev","type":"int","value":19}],"polyline":[{"x":0,"y":0},{"x":0,"y":24}]},{"id":50,"x":-297,"y":81,"visible":true,"properties":[{"name":"layer","type":"int","value":2},{"name":"group","type":"int","value":2},{"name":"id","type":"int","value":21},{"name":"fh_layer","type":"int","value":2},{"name":"fh_group","type":"int","value":2},{"name":"fh_id","type":"int","value":21},{"name":"x1","type":"int","value":-297},{"name":"x2","type":"int","value":-274},{"name":"y1","type":"int","value":81},{"name":"y2","type":"int","value":81},{"name":"next","type":"int","value":30},{"name":"prev","type":"int","value":20}],"polyline":[{"x":0,"y":0},{"x":23,"y":0}]},{"id":51,"x":-274,"y":81,"visible":true,"properties":[{"name":"layer","type":"int","value":2},{"name":"group","type":"int","value":2},{"name":"id","type":"int","value":22},{"name":"fh_layer","type":"int","value":2},{"name":"fh_group","type":"int","value":2},{"name":"fh_id","type":"int","value":22},{"name":"x1","type":"int","value":-274},{"name":"x2","type":"int","value":-274},{"name":"y1","type":"int","value":81},{"name":"y2","type":"int","value":106},{"name":"next","type":"int","value":23},{"name":"prev","type":"int","value":21}],"polyline":[{"x":0,"y":0},{"x":0,"y":25}]},{"id":52,"x":-274,"y":106,"visible":true,"properties":[{"name":"layer","type":"int","value":2},{"name":"group","type":"int","value":2},{"name":"id","type":"int","value":23},{"name":"fh_layer","type":"int","value":2},{"name":"fh_group","type":"int","value":2},{"name":"fh_id","type":"int","value":23},{"name":"x1","type":"int","value":-274},{"name":"x2","type":"int","value":-251},{"name":"y1","type":"int","value":106},{"name":"y2","type":"int","value":106},{"name":"next","type":"int","value":31},{"name":"prev","type":"int","value":22}],"polyline":[{"x":0,"y":0},{"x":23,"y":0}]},{"id":53,"x":-251,"y":106,"visible":true,"properties":[{"name":"layer","type":"int","value":2},{"name":"group","type":"int","value":2},{"name":"id","type":"int","value":24},{"name":"fh_layer","type":"int","value":2},{"name":"fh_group","type":"int","value":2},{"name":"fh_id","type":"int","value":24},{"name":"x1","type":"int","value":-251},{"name":"x2","type":"int","value":-251},{"name":"y1","type":"int","value":106},{"name":"y2","type":"int","value":131},{"name":"next","type":"int","value":25},{"name":"prev","type":"int","value":23}],"polyline":[{"x":0,"y":0},{"x":0,"y":25}]},{"id":54,"x":-251,"y":131,"visible":true,"properties":[{"name":"layer","type":"int","value":2},{"name":"group","type":"int","value":2},{"name":"id","type":"int","value":25},{"name":"fh_layer","type":"int","value":2},{"name":"fh_group","type":"int","value":2},{"name":"fh_id","type":"int","value":25},{"name":"x1","type":"int","value":-251},{"name":"x2","type":"int","value":-229},{"name":"y1","type":"int","value":131},{"name":"y2","type":"int","value":131},{"name":"next","type":"int","value":32},{"name":"prev","type":"int","value":24}],"polyline":[{"x":0,"y":0},{"x":22,"y":0}]},{"id":55,"x":-229,"y":131,"visible":true,"properties":[{"name":"layer","type":"int","value":2},{"name":"group","type":"int","value":2},{"name":"id","type":"int","value":26},{"name":"fh_layer","type":"int","value":2},{"name":"fh_group","type":"int","value":2},{"name":"fh_id","type":"int","value":26},{"name":"x1","type":"int","value":-229},{"name":"x2","type":"int","value":-229},{"name":"y1","type":"int","value":131},{"name":"y2","type":"int","value":156},{"name":"next","type":"int","value":27},{"name":"prev","type":"int","value":25}],"polyline":[{"x":0,"y":0},{"x":0,"y":25}]},{"id":56,"x":-229,"y":156,"visible":true,"properties":[{"name":"layer","type":"int","value":2},{"name":"group","type":"int","value":2},{"name":"id","type":"int","value":27},{"name":"fh_layer","type":"int","value":2},{"name":"fh_group","type":"int","value":2},{"name":"fh_id","type":"int","value":27},{"name":"x1","type":"int","value":-229},{"name":"x2","type":"int","value":-138},{"name":"y1","type":"int","value":156},{"name":"y2","type":"int","value":156},{"name":"next","type":"int","value":0},{"name":"prev","type":"int","value":26}],"polyline":[{"x":0,"y":0},{"x":91,"y":0}]},{"id":57,"x":-319,"y":31,"visible":true,"properties":[{"name":"layer","type":"int","value":2},{"name":"group","type":"int","value":2},{"name":"id","type":"int","value":28},{"name":"fh_layer","type":"int","value":2},{"name":"fh_group","type":"int","value":2},{"name":"fh_id","type":"int","value":28},{"name":"x1","type":"int","value":-319},{"name":"x2","type":"int","value":-245},{"name":"y1","type":"int","value":31},{"name":"y2","type":"int","value":31},{"name":"next","type":"int","value":0},{"name":"prev","type":"int","value":17}],"polyline":[{"x":0,"y":0},{"x":74,"y":0}]},{"id":58,"x":-297,"y":57,"visible":true,"properties":[{"name":"layer","type":"int","value":2},{"name":"group","type":"int","value":2},{"name":"id","type":"int","value":29},{"name":"fh_layer","type":"int","value":2},{"name":"fh_group","type":"int","value":2},{"name":"fh_id","type":"int","value":29},{"name":"x1","type":"int","value":-297},{"name":"x2","type":"int","value":-223},{"name":"y1","type":"int","value":57},{"name":"y2","type":"int","value":57},{"name":"next","type":"int","value":0},{"name":"prev","type":"int","value":19}],"polyline":[{"x":0,"y":0},{"x":74,"y":0}]},{"id":59,"x":-274,"y":81,"visible":true,"properties":[{"name":"layer","type":"int","value":2},{"name":"group","type":"int","value":2},{"name":"id","type":"int","value":30},{"name":"fh_layer","type":"int","value":2},{"name":"fh_group","type":"int","value":2},{"name":"fh_id","type":"int","value":30},{"name":"x1","type":"int","value":-274},{"name":"x2","type":"int","value":-199},{"name":"y1","type":"int","value":81},{"name":"y2","type":"int","value":81},{"name":"next","type":"int","value":0},{"name":"prev","type":"int","value":21}],"polyline":[{"x":0,"y":0},{"x":75,"y":0}]},{"id":60,"x":-251,"y":106,"visible":true,"properties":[{"name":"layer","type":"int","value":2},{"name":"group","type":"int","value":2},{"name":"id","type":"int","value":31},{"name":"fh_layer","type":"int","value":2},{"name":"fh_group","type":"int","value":2},{"name":"fh_id","type":"int","value":31},{"name":"x1","type":"int","value":-251},{"name":"x2","type":"int","value":-179},{"name":"y1","type":"int","value":106},{"name":"y2","type":"int","value":106},{"name":"next","type":"int","value":0},{"name":"prev","type":"int","value":23}],"polyline":[{"x":0,"y":0},{"x":72,"y":0}]},{"id":61,"x":-229,"y":131,"visible":true,"properties":[{"name":"layer","type":"int","value":2},{"name":"group","type":"int","value":2},{"name":"id","type":"int","value":32},{"name":"fh_layer","type":"int","value":2},{"name":"fh_group","type":"int","value":2},{"name":"fh_id","type":"int","value":32},{"name":"x1","type":"int","value":-229},{"name":"x2","type":"int","value":-154},{"name":"y1","type":"int","value":131},{"name":"y2","type":"int","value":131},{"name":"next","type":"int","value":0},{"name":"prev","type":"int","value":25}],"polyline":[{"x":0,"y":0},{"x":75,"y":0}]},{"id":62,"x":-400,"y":181,"visible":true,"properties":[{"name":"layer","type":"int","value":3},{"name":"group","type":"int","value":3},{"name":"id","type":"int","value":33},{"name":"fh_layer","type":"int","value":3},{"name":"fh_group","type":"int","value":3},{"name":"fh_id","type":"int","value":33},{"name":"x1","type":"int","value":-400},{"name":"x2","type":"int","value":400},{"name":"y1","type":"int","value":181},{"name":"y2","type":"int","value":181},{"name":"next","type":"int","value":0},{"name":"prev","type":"int","value":0}],"polyline":[{"x":0,"y":0},{"x":800,"y":0}]}],"properties":[]}],"tilesets":[{"firstgid":1,"source":"../tilesets/obj_job_job_bowman.tsj"},{"firstgid":11,"source":"../tilesets/obj_shop_shop_weapon.tsj"},{"firstgid":12,"source":"../tilesets/obj_guide_miniD_portalEff.tsj"},{"firstgid":13,"source":"../tilesets/obj_insideGS_house3_basic.tsj"},{"firstgid":16,"source":"../tilesets/obj_signboard_market_arrow.tsj"},{"firstgid":18,"source":"../tilesets/portal_MapHelper.img_portal_game_pv.tsj"}],"properties":[{"name":"bgm","type":"string","value":"Bgm00/FloralLife"},{"name":"town","type":"int","value":1},{"name":"VRTop","type":"int","value":-425},{"name":"cloud","type":"int","value":0},{"name":"VRLeft","type":"int","value":-400},{"name":"VRRight","type":"int","value":400},{"name":"mapDesc","type":"string","value":""},{"name":"mapMark","type":"string","value":"Henesys"},{"name":"mobRate","type":"float","value":1},{"name":"version","type":"int","value":10},{"name":"VRBottom","type":"int","value":310},{"name":"moveLimit","type":"int","value":0},{"name":"returnMap","type":"int","value":100000000},{"name":"hideMinimap","type":"int","value":0},{"name":"forcedReturn","type":"int","value":999999999}]}