{"type":"map","orientation":"orthogonal","renderorder":"right-down","infinite":false,"tilewidth":1,"tileheight":1,"width":800,"height":915,"parallaxoriginx":-400,"parallaxoriginy":80,"nextlayerid":8,"nextobjectid":74,"layers":[{"id":1,"name":"layer_0_obj","type":"objectgroup","visible":true,"opacity":1,"draworder":"index","offsetx":0,"offsety":0,"parallaxx":1,"parallaxy":1,"objects":[{"id":1,"x":-400,"y":299,"visible":true,"properties":[{"name":"layer","type":"int","value":0},{"name":"resource_index","type":"int","value":0},{"name":"oS","type":"string","value":"shop"},{"name":"l0","type":"string","value":"shop"},{"name":"l1","type":"string","value":"weaponGS"},{"name":"l2","type":"string","value":"0"},{"name":"z","type":"int","value":4},{"name":"zM","type":"int","value":0},{"name":"f","type":"int","value":0}],"gid":1,"width":800,"height":913},{"id":2,"x":50,"y":-265,"visible":true,"properties":[{"name":"layer","type":"int","value":0},{"name":"resource_index","type":"int","value":1},{"name":"oS","type":"string","value":"acc1"},{"name":"l0","type":"string","value":"grassySoil"},{"name":"l1","type":"string","value":"market"},{"name":"l2","type":"string","value":"50"},{"name":"z","type":"int","value":4},{"name":"zM","type":"int","value":0},{"name":"f","type":"int","value":0}],"gid":19,"width":56,"height":34},{"id":3,"x":50,"y":-354,"visible":true,"properties":[{"name":"layer","type":"int","value":0},{"name":"resource_index","type":"int","value":2},{"name":"oS","type":"string","value":"acc1"},{"name":"l0","type":"string","value":"grassySoil"},{"name":"l1","type":"string","value":"market"},{"name":"l2","type":"string","value":"50"},{"name":"z","type":"int","value":4},{"name":"zM","type":"int","value":0},{"name":"f","type":"int","value":0}],"gid":19,"width":56,"height":34},{"id":4,"x":44,"y":-182,"visible":true,"properties":[{"name":"layer","type":"int","value":0},{"name":"resource_index","type":"int","value":3},{"name":"oS","type":"string","value":"acc1"},{"name":"l0","type":"string","value":"grassySoil"},{"name":"l1","type":"string","value":"market"},{"name":"l2","type":"string","value":"50"},{"name":"z","type":"int","value":4},{"name":"zM","type":"int","value":0},{"name":"f","type":"int","value":0}],"gid":19,"width":56,"height":34},{"id":5,"x":79,"y":-182,"visible":true,"properties":[{"name":"layer","type":"int","value":0},{"name":"resource_index","type":"int","value":4},{"name":"oS","type":"string","value":"acc1"},{"name":"l0","type":"string","value":"grassySoil"},{"name":"l1","type":"string","value":"market"},{"name":"l2","type":"string","value":"50"},{"name":"z","type":"int","value":5},{"name":"zM","type":"int","value":0},{"name":"f","type":"int","value":0}],"gid":19,"width":56,"height":34}],"properties":[]},{"id":2,"name":"layer_2_obj","type":"objectgroup","visible":true,"opacity":1,"draworder":"index","offsetx":0,"offsety":0,"parallaxx":1,"parallaxy":1,"objects":[{"id":6,"x":-369,"y":-182,"visible":true,"properties":[{"name":"layer","type":"int","value":2},{"name":"resource_index","type":"int","value":0},{"name":"oS","type":"string","value":"shop"},{"name":"l0","type":"string","value":"shop"},{"name":"l1","type":"string","value":"weaponGS"},{"name":"l2","type":"string","value":"2"},{"name":"z","type":"int","value":3},{"name":"zM","type":"int","value":3},{"name":"f","type":"int","value":0}],"gid":2,"width":185,"height":129},{"id":7,"x":-399,"y":182,"visible":true,"properties":[{"name":"layer","type":"int","value":2},{"name":"resource_index","type":"int","value":1},{"name":"oS","type":"string","value":"shop"},{"name":"l0","type":"string","value":"shop"},{"name":"l1","type":"string","value":"weaponGS"},{"name":"l2","type":"string","value":"5"},{"name":"z","type":"int","value":2},{"name":"zM","type":"int","value":1},{"name":"f","type":"int","value":0}],"gid":3,"width":62,"height":33},{"id":8,"x":-382,"y":181,"visible":true,"properties":[{"name":"layer","type":"int","value":2},{"name":"resource_index","type":"int","value":2},{"name":"oS","type":"string","value":"shop"},{"name":"l0","type":"string","value":"shop"},{"name":"l1","type":"string","value":"weaponGS"},{"name":"l2","type":"string","value":"1"},{"name":"z","type":"int","value":3},{"name":"zM","type":"int","value":1},{"name":"f","type":"int","value":0}],"gid":4,"width":232,"height":114}],"properties":[]},{"id":3,"name":"layer_3_obj","type":"objectgroup","visible":true,"opacity":1,"draworder":"index","offsetx":0,"offsety":0,"parallaxx":1,"parallaxy":1,"objects":[{"id":9,"x":-401,"y":-183,"visible":true,"properties":[{"name":"layer","type":"int","value":3},{"name":"resource_index","type":"int","value":0},{"name":"oS","type":"string","value":"shop"},{"name":"l0","type":"string","value":"shop"},{"name":"l1","type":"string","value":"weaponGS"},{"name":"l2","type":"string","value":"3"},{"name":"z","type":"int","value":3},{"name":"zM","type":"int","value":2},{"name":"f","type":"int","value":0}],"gid":5,"width":800,"height":431},{"id":10,"x":-401,"y":182,"visible":true,"properties":[{"name":"layer","type":"int","value":3},{"name":"resource_index","type":"int","value":1},{"name":"oS","type":"string","value":"shop"},{"name":"l0","type":"string","value":"shop"},{"name":"l1","type":"string","value":"weaponGS"},{"name":"l2","type":"string","value":"4"},{"name":"z","type":"int","value":4},{"name":"zM","type":"int","value":2},{"name":"f","type":"int","value":0}],"gid":6,"width":800,"height":443}],"properties":[]},{"id":4,"name":"portal","type":"objectgroup","visible":true,"opacity":1,"draworder":"index","offsetx":0,"offsety":0,"parallaxx":1,"parallaxy":1,"objects":[{"id":11,"x":186,"y":104,"visible":true,"properties":[{"name":"x","type":"int","value":186},{"name":"y","type":"int","value":104},{"name":"pn","type":"string","value":"sp"},{"name":"pt","type":"int","value":0},{"name":"tm","type":"int","value":999999999},{"name":"tn","type":"string","value":""}],"point":true},{"id":12,"x":302,"y":96,"visible":true,"properties":[{"name":"x","type":"int","value":302},{"name":"y","type":"int","value":96},{"name":"pn","type":"string","value":"sp"},{"name":"pt","type":"int","value":0},{"name":"tm","type":"int","value":999999999},{"name":"tn","type":"string","value":""}],"point":true},{"id":13,"x":351,"y":95,"visible":true,"properties":[{"name":"x","type":"int","value":351},{"name":"y","type":"int","value":95},{"name":"pn","type":"string","value":"sp"},{"name":"pt","type":"int","value":0},{"name":"tm","type":"int","value":999999999},{"name":"tn","type":"string","value":""}],"point":true},{"id":14,"x":-1,"y":110,"visible":true,"properties":[{"name":"x","type":"int","value":-1},{"name":"y","type":"int","value":110},{"name":"pn","type":"string","value":"sp"},{"name":"pt","type":"int","value":0},{"name":"tm","type":"int","value":999999999},{"name":"tn","type":"string","value":""}],"point":true},{"id":15,"x":-74,"y":107,"visible":true,"properties":[{"name":"x","type":"int","value":-74},{"name":"y","type":"int","value":107},{"name":"pn","type":"string","value":"sp"},{"name":"pt","type":"int","value":0},{"name":"tm","type":"int","value":999999999},{"name":"tn","type":"string","value":""}],"point":true},{"id":16,"x":-81,"y":-221,"visible":true,"properties":[{"name":"x","type":"int","value":-81},{"name":"y","type":"int","value":-221},{"name":"pn","type":"string","value":"sp"},{"name":"pt","type":"int","value":0},{"name":"tm","type":"int","value":999999999},{"name":"tn","type":"string","value":""}],"point":true},{"id":17,"x":-24,"y":-225,"visible":true,"properties":[{"name":"x","type":"int","value":-24},{"name":"y","type":"int","value":-225},{"name":"pn","type":"string","value":"sp"},{"name":"pt","type":"int","value":0},{"name":"tm","type":"int","value":999999999},{"name":"tn","type":"string","value":""}],"point":true},{"id":18,"x":66,"y":-411,"visible":true,"properties":[{"name":"x","type":"int","value":66},{"name":"y","type":"int","value":-411},{"name":"pn","type":"string","value":"sp"},{"name":"pt","type":"int","value":0},{"name":"tm","type":"int","value":999999999},{"name":"tn","type":"string","value":""}],"point":true},{"id":19,"x":188,"y":-180,"visible":true,"properties":[{"name":"x","type":"int","value":188},{"name":"y","type":"int","value":-180},{"name":"pn","type":"string","value":"sp"},{"name":"pt","type":"int","value":0},{"name":"tm","type":"int","value":999999999},{"name":"tn","type":"string","value":""}],"point":true},{"id":20,"x":200,"y":189,"visible":true,"properties":[{"name":"x","type":"int","value":244},{"name":"y","type":"int","value":180},{"name":"pn","type":"string","value":"out00"},{"name":"pt","type":"int","value":2},{"name":"tm","type":"int","value":100000100},{"name":"tn","type":"string","value":"in00"}],"gid":39,"width":89,"height":257}],"properties":[]},{"id":5,"name":"life","type":"objectgroup","visible":true,"opacity":1,"draworder":"index","offsetx":0,"offsety":0,"parallaxx":1,"parallaxy":1,"objects":[{"id":21,"x":-280,"y":121,"visible":true,"properties":[{"name":"f","type":"int","value":1},{"name":"x","type":"int","value":-280},{"name":"y","type":"int","value":121},{"name":"cy","type":"int","value":122},{"name":"fh","type":"int","value":18},{"name":"id","type":"int","value":1011000},{"name":"rx0","type":"int","value":-280},{"name":"rx1","type":"int","value":-230},{"name":"type","type":"string","value":"n"},{"name":"npc_aseprite","type":"file","value":"../../Npc/1011000.img/animation.aseprite"}],"point":true},{"id":22,"x":-275,"y":-225,"visible":true,"properties":[{"name":"f","type":"int","value":1},{"name":"x","type":"int","value":-275},{"name":"y","type":"int","value":-225},{"name":"cy","type":"int","value":-224},{"name":"fh","type":"int","value":22},{"name":"id","type":"int","value":1011001},{"name":"rx0","type":"int","value":-279},{"name":"rx1","type":"int","value":-225},{"name":"type","type":"string","value":"n"},{"name":"npc_aseprite","type":"file","value":"../../Npc/1011001.img/animation.aseprite"}],"point":true}],"properties":[]},{"id":6,"name":"foothold","type":"objectgroup","visible":true,"opacity":1,"draworder":"index","offsetx":0,"offsety":0,"parallaxx":1,"parallaxy":1,"objects":[{"id":23,"x":41,"y":146,"visible":true,"properties":[{"name":"layer","type":"int","value":0},{"name":"group","type":"int","value":0},{"name":"id","type":"int","value":1},{"name":"fh_layer","type":"int","value":0},{"name":"fh_group","type":"int","value":0},{"name":"fh_id","type":"int","value":1},{"name":"x1","type":"int","value":41},{"name":"x2","type":"int","value":92},{"name":"y1","type":"int","value":146},{"name":"y2","type":"int","value":146},{"name":"next","type":"int","value":2},{"name":"prev","type":"int","value":0}],"polyline":[{"x":0,"y":0},{"x":51,"y":0}]},{"id":24,"x":92,"y":146,"visible":true,"properties":[{"name":"layer","type":"int","value":0},{"name":"group","type":"int","value":0},{"name":"id","type":"int","value":2},{"name":"fh_layer","type":"int","value":0},{"name":"fh_group","type":"int","value":0},{"name":"fh_id","type":"int","value":2},{"name":"x1","type":"int","value":92},{"name":"x2","type":"int","value":138},{"name":"y1","type":"int","value":146},{"name":"y2","type":"int","value":147},{"name":"next","type":"int","value":0},{"name":"prev","type":"int","value":1}],"polyline":[{"x":0,"y":0},{"x":46,"y":1}]},{"id":25,"x":52,"y":104,"visible":true,"properties":[{"name":"layer","type":"int","value":0},{"name":"group","type":"int","value":0},{"name":"id","type":"int","value":3},{"name":"fh_layer","type":"int","value":0},{"name":"fh_group","type":"int","value":0},{"name":"fh_id","type":"int","value":3},{"name":"x1","type":"int","value":52},{"name":"x2","type":"int","value":104},{"name":"y1","type":"int","value":104},{"name":"y2","type":"int","value":104},{"name":"next","type":"int","value":0},{"name":"prev","type":"int","value":0}],"polyline":[{"x":0,"y":0},{"x":52,"y":0}]},{"id":26,"x":21,"y":57,"visible":true,"properties":[{"name":"layer","type":"int","value":0},{"name":"group","type":"int","value":0},{"name":"id","type":"int","value":4},{"name":"fh_layer","type":"int","value":0},{"name":"fh_group","type":"int","value":0},{"name":"fh_id","type":"int","value":4},{"name":"x1","type":"int","value":21},{"name":"x2","type":"int","value":159},{"name":"y1","type":"int","value":57},{"name":"y2","type":"int","value":57},{"name":"next","type":"int","value":0},{"name":"prev","type":"int","value":0}],"polyline":[{"x":0,"y":0},{"x":138,"y":0}]},{"id":27,"x":44,"y":24,"visible":true,"properties":[{"name":"layer","type":"int","value":0},{"name":"group","type":"int","value":0},{"name":"id","type":"int","value":5},{"name":"fh_layer","type":"int","value":0},{"name":"fh_group","type":"int","value":0},{"name":"fh_id","type":"int","value":5},{"name":"x1","type":"int","value":44},{"name":"x2","type":"int","value":81},{"name":"y1","type":"int","value":24},{"name":"y2","type":"int","value":24},{"name":"next","type":"int","value":0},{"name":"prev","type":"int","value":0}],"polyline":[{"x":0,"y":0},{"x":37,"y":0}]},{"id":28,"x":78,"y":27,"visible":true,"properties":[{"name":"layer","type":"int","value":0},{"name":"group","type":"int","value":0},{"name":"id","type":"int","value":6},{"name":"fh_layer","type":"int","value":0},{"name":"fh_group","type":"int","value":0},{"name":"fh_id","type":"int","value":6},{"name":"x1","type":"int","value":78},{"name":"x2","type":"int","value":140},{"name":"y1","type":"int","value":27},{"name":"y2","type":"int","value":27},{"name":"next","type":"int","value":0},{"name":"prev","type":"int","value":0}],"polyline":[{"x":0,"y":0},{"x":62,"y":0}]},{"id":29,"x":13,"y":-32,"visible":true,"properties":[{"name":"layer","type":"int","value":0},{"name":"group","type":"int","value":0},{"name":"id","type":"int","value":7},{"name":"fh_layer","type":"int","value":0},{"name":"fh_group","type":"int","value":0},{"name":"fh_id","type":"int","value":7},{"name":"x1","type":"int","value":13},{"name":"x2","type":"int","value":142},{"name":"y1","type":"int","value":-32},{"name":"y2","type":"int","value":-32},{"name":"next","type":"int","value":0},{"name":"prev","type":"int","value":0}],"polyline":[{"x":0,"y":0},{"x":129,"y":0}]},{"id":30,"x":43,"y":-54,"visible":true,"properties":[{"name":"layer","type":"int","value":0},{"name":"group","type":"int","value":0},{"name":"id","type":"int","value":8},{"name":"fh_layer","type":"int","value":0},{"name":"fh_group","type":"int","value":0},{"name":"fh_id","type":"int","value":8},{"name":"x1","type":"int","value":43},{"name":"x2","type":"int","value":95},{"name":"y1","type":"int","value":-54},{"name":"y2","type":"int","value":-55},{"name":"next","type":"int","value":0},{"name":"prev","type":"int","value":0}],"polyline":[{"x":0,"y":0},{"x":52,"y":-1}]},{"id":31,"x":138,"y":-101,"visible":true,"properties":[{"name":"layer","type":"int","value":0},{"name":"group","type":"int","value":0},{"name":"id","type":"int","value":9},{"name":"fh_layer","type":"int","value":0},{"name":"fh_group","type":"int","value":0},{"name":"fh_id","type":"int","value":9},{"name":"x1","type":"int","value":138},{"name":"x2","type":"int","value":338},{"name":"y1","type":"int","value":-101},{"name":"y2","type":"int","value":-101},{"name":"next","type":"int","value":0},{"name":"prev","type":"int","value":0}],"polyline":[{"x":0,"y":0},{"x":200,"y":0}]},{"id":32,"x":124,"y":-146,"visible":true,"properties":[{"name":"layer","type":"int","value":0},{"name":"group","type":"int","value":0},{"name":"id","type":"int","value":10},{"name":"fh_layer","type":"int","value":0},{"name":"fh_group","type":"int","value":0},{"name":"fh_id","type":"int","value":10},{"name":"x1","type":"int","value":124},{"name":"x2","type":"int","value":293},{"name":"y1","type":"int","value":-146},{"name":"y2","type":"int","value":-146},{"name":"next","type":"int","value":11},{"name":"prev","type":"int","value":0}],"polyline":[{"x":0,"y":0},{"x":169,"y":0}]},{"id":33,"x":293,"y":-146,"visible":true,"properties":[{"name":"layer","type":"int","value":0},{"name":"group","type":"int","value":0},{"name":"id","type":"int","value":11},{"name":"fh_layer","type":"int","value":0},{"name":"fh_group","type":"int","value":0},{"name":"fh_id","type":"int","value":11},{"name":"x1","type":"int","value":293},{"name":"x2","type":"int","value":293},{"name":"y1","type":"int","value":-146},{"name":"y2","type":"int","value":-178},{"name":"next","type":"int","value":12},{"name":"prev","type":"int","value":10}],"polyline":[{"x":0,"y":0},{"x":0,"y":-32}]},{"id":34,"x":293,"y":-178,"visible":true,"properties":[{"name":"layer","type":"int","value":0},{"name":"group","type":"int","value":0},{"name":"id","type":"int","value":12},{"name":"fh_layer","type":"int","value":0},{"name":"fh_group","type":"int","value":0},{"name":"fh_id","type":"int","value":12},{"name":"x1","type":"int","value":293},{"name":"x2","type":"int","value":389},{"name":"y1","type":"int","value":-178},{"name":"y2","type":"int","value":-178},{"name":"next","type":"int","value":13},{"name":"prev","type":"int","value":11}],"polyline":[{"x":0,"y":0},{"x":96,"y":0}]},{"id":35,"x":389,"y":-178,"visible":true,"properties":[{"name":"layer","type":"int","value":0},{"name":"group","type":"int","value":0},{"name":"id","type":"int","value":13},{"name":"fh_layer","type":"int","value":0},{"name":"fh_group","type":"int","value":0},{"name":"fh_id","type":"int","value":13},{"name":"x1","type":"int","value":389},{"name":"x2","type":"int","value":389},{"name":"y1","type":"int","value":-178},{"name":"y2","type":"int","value":-603},{"name":"next","type":"int","value":0},{"name":"prev","type":"int","value":12}],"polyline":[{"x":0,"y":0},{"x":0,"y":-425}]},{"id":36,"x":12,"y":-354,"visible":true,"properties":[{"name":"layer","type":"int","value":0},{"name":"group","type":"int","value":0},{"name":"id","type":"int","value":14},{"name":"fh_layer","type":"int","value":0},{"name":"fh_group","type":"int","value":0},{"name":"fh_id","type":"int","value":14},{"name":"x1","type":"int","value":12},{"name":"x2","type":"int","value":113},{"name":"y1","type":"int","value":-354},{"name":"y2","type":"int","value":-354},{"name":"next","type":"int","value":0},{"name":"prev","type":"int","value":0}],"polyline":[{"x":0,"y":0},{"x":101,"y":0}]},{"id":37,"x":110,"y":-290,"visible":true,"properties":[{"name":"layer","type":"int","value":0},{"name":"group","type":"int","value":0},{"name":"id","type":"int","value":15},{"name":"fh_layer","type":"int","value":0},{"name":"fh_group","type":"int","value":0},{"name":"fh_id","type":"int","value":15},{"name":"x1","type":"int","value":110},{"name":"x2","type":"int","value":358},{"name":"y1","type":"int","value":-290},{"name":"y2","type":"int","value":-290},{"name":"next","type":"int","value":0},{"name":"prev","type":"int","value":0}],"polyline":[{"x":0,"y":0},{"x":248,"y":0}]},{"id":38,"x":110,"y":-421,"visible":true,"properties":[{"name":"layer","type":"int","value":0},{"name":"group","type":"int","value":0},{"name":"id","type":"int","value":16},{"name":"fh_layer","type":"int","value":0},{"name":"fh_group","type":"int","value":0},{"name":"fh_id","type":"int","value":16},{"name":"x1","type":"int","value":110},{"name":"x2","type":"int","value":336},{"name":"y1","type":"int","value":-421},{"name":"y2","type":"int","value":-421},{"name":"next","type":"int","value":0},{"name":"prev","type":"int","value":0}],"polyline":[{"x":0,"y":0},{"x":226,"y":0}]},{"id":39,"x":155,"y":-464,"visible":true,"properties":[{"name":"layer","type":"int","value":0},{"name":"group","type":"int","value":0},{"name":"id","type":"int","value":17},{"name":"fh_layer","type":"int","value":0},{"name":"fh_group","type":"int","value":0},{"name":"fh_id","type":"int","value":17},{"name":"x1","type":"int","value":155},{"name":"x2","type":"int","value":249},{"name":"y1","type":"int","value":-464},{"name":"y2","type":"int","value":-464},{"name":"next","type":"int","value":0},{"name":"prev","type":"int","value":0}],"polyline":[{"x":0,"y":0},{"x":94,"y":0}]},{"id":40,"x":-299,"y":122,"visible":true,"properties":[{"name":"layer","type":"int","value":0},{"name":"group","type":"int","value":0},{"name":"id","type":"int","value":18},{"name":"fh_layer","type":"int","value":0},{"name":"fh_group","type":"int","value":0},{"name":"fh_id","type":"int","value":18},{"name":"x1","type":"int","value":-299},{"name":"x2","type":"int","value":-263},{"name":"y1","type":"int","value":122},{"name":"y2","type":"int","value":122},{"name":"next","type":"int","value":19},{"name":"prev","type":"int","value":21}],"polyline":[{"x":0,"y":0},{"x":36,"y":0}]},{"id":41,"x":-263,"y":122,"visible":true,"properties":[{"name":"layer","type":"int","value":0},{"name":"group","type":"int","value":0},{"name":"id","type":"int","value":19},{"name":"fh_layer","type":"int","value":0},{"name":"fh_group","type":"int","value":0},{"name":"fh_id","type":"int","value":19},{"name":"x1","type":"int","value":-263},{"name":"x2","type":"int","value":-263},{"name":"y1","type":"int","value":122},{"name":"y2","type":"int","value":41},{"name":"next","type":"int","value":20},{"name":"prev","type":"int","value":18}],"polyline":[{"x":0,"y":0},{"x":0,"y":-81}]},{"id":42,"x":-263,"y":41,"visible":true,"properties":[{"name":"layer","type":"int","value":0},{"name":"group","type":"int","value":0},{"name":"id","type":"int","value":20},{"name":"fh_layer","type":"int","value":0},{"name":"fh_group","type":"int","value":0},{"name":"fh_id","type":"int","value":20},{"name":"x1","type":"int","value":-263},{"name":"x2","type":"int","value":-299},{"name":"y1","type":"int","value":41},{"name":"y2","type":"int","value":41},{"name":"next","type":"int","value":21},{"name":"prev","type":"int","value":19}],"polyline":[{"x":0,"y":0},{"x":-36,"y":0}]},{"id":43,"x":-299,"y":41,"visible":true,"properties":[{"name":"layer","type":"int","value":0},{"name":"group","type":"int","value":0},{"name":"id","type":"int","value":21},{"name":"fh_layer","type":"int","value":0},{"name":"fh_group","type":"int","value":0},{"name":"fh_id","type":"int","value":21},{"name":"x1","type":"int","value":-299},{"name":"x2","type":"int","value":-299},{"name":"y1","type":"int","value":41},{"name":"y2","type":"int","value":122},{"name":"next","type":"int","value":18},{"name":"prev","type":"int","value":20}],"polyline":[{"x":0,"y":0},{"x":0,"y":81}]},{"id":44,"x":-298,"y":-224,"visible":true,"properties":[{"name":"layer","type":"int","value":0},{"name":"group","type":"int","value":0},{"name":"id","type":"int","value":22},{"name":"fh_layer","type":"int","value":0},{"name":"fh_group","type":"int","value":0},{"name":"fh_id","type":"int","value":22},{"name":"x1","type":"int","value":-298},{"name":"x2","type":"int","value":-262},{"name":"y1","type":"int","value":-224},{"name":"y2","type":"int","value":-224},{"name":"next","type":"int","value":23},{"name":"prev","type":"int","value":25}],"polyline":[{"x":0,"y":0},{"x":36,"y":0}]},{"id":45,"x":-262,"y":-224,"visible":true,"properties":[{"name":"layer","type":"int","value":0},{"name":"group","type":"int","value":0},{"name":"id","type":"int","value":23},{"name":"fh_layer","type":"int","value":0},{"name":"fh_group","type":"int","value":0},{"name":"fh_id","type":"int","value":23},{"name":"x1","type":"int","value":-262},{"name":"x2","type":"int","value":-262},{"name":"y1","type":"int","value":-224},{"name":"y2","type":"int","value":-305},{"name":"next","type":"int","value":24},{"name":"prev","type":"int","value":22}],"polyline":[{"x":0,"y":0},{"x":0,"y":-81}]},{"id":46,"x":-262,"y":-305,"visible":true,"properties":[{"name":"layer","type":"int","value":0},{"name":"group","type":"int","value":0},{"name":"id","type":"int","value":24},{"name":"fh_layer","type":"int","value":0},{"name":"fh_group","type":"int","value":0},{"name":"fh_id","type":"int","value":24},{"name":"x1","type":"int","value":-262},{"name":"x2","type":"int","value":-298},{"name":"y1","type":"int","value":-305},{"name":"y2","type":"int","value":-305},{"name":"next","type":"int","value":25},{"name":"prev","type":"int","value":23}],"polyline":[{"x":0,"y":0},{"x":-36,"y":0}]},{"id":47,"x":-298,"y":-305,"visible":true,"properties":[{"name":"layer","type":"int","value":0},{"name":"group","type":"int","value":0},{"name":"id","type":"int","value":25},{"name":"fh_layer","type":"int","value":0},{"name":"fh_group","type":"int","value":0},{"name":"fh_id","type":"int","value":25},{"name":"x1","type":"int","value":-298},{"name":"x2","type":"int","value":-298},{"name":"y1","type":"int","value":-305},{"name":"y2","type":"int","value":-224},{"name":"next","type":"int","value":22},{"name":"prev","type":"int","value":24}],"polyline":[{"x":0,"y":0},{"x":0,"y":81}]},{"id":48,"x":50,"y":-298,"visible":true,"properties":[{"name":"layer","type":"int","value":0},{"name":"group","type":"int","value":0},{"name":"id","type":"int","value":26},{"name":"fh_layer","type":"int","value":0},{"name":"fh_group","type":"int","value":0},{"name":"fh_id","type":"int","value":26},{"name":"x1","type":"int","value":50},{"name":"x2","type":"int","value":107},{"name":"y1","type":"int","value":-298},{"name":"y2","type":"int","value":-298},{"name":"next","type":"int","value":0},{"name":"prev","type":"int","value":0}],"polyline":[{"x":0,"y":0},{"x":57,"y":0}]},{"id":49,"x":50,"y":-387,"visible":true,"properties":[{"name":"layer","type":"int","value":0},{"name":"group","type":"int","value":0},{"name":"id","type":"int","value":27},{"name":"fh_layer","type":"int","value":0},{"name":"fh_group","type":"int","value":0},{"name":"fh_id","type":"int","value":27},{"name":"x1","type":"int","value":50},{"name":"x2","type":"int","value":107},{"name":"y1","type":"int","value":-387},{"name":"y2","type":"int","value":-387},{"name":"next","type":"int","value":0},{"name":"prev","type":"int","value":0}],"polyline":[{"x":0,"y":0},{"x":57,"y":0}]},{"id":50,"x":44,"y":-215,"visible":true,"properties":[{"name":"layer","type":"int","value":0},{"name":"group","type":"int","value":0},{"name":"id","type":"int","value":28},{"name":"fh_layer","type":"int","value":0},{"name":"fh_group","type":"int","value":0},{"name":"fh_id","type":"int","value":28},{"name":"x1","type":"int","value":44},{"name":"x2","type":"int","value":101},{"name":"y1","type":"int","value":-215},{"name":"y2","type":"int","value":-215},{"name":"next","type":"int","value":29},{"name":"prev","type":"int","value":0}],"polyline":[{"x":0,"y":0},{"x":57,"y":0}]},{"id":51,"x":101,"y":-215,"visible":true,"properties":[{"name":"layer","type":"int","value":0},{"name":"group","type":"int","value":0},{"name":"id","type":"int","value":29},{"name":"fh_layer","type":"int","value":0},{"name":"fh_group","type":"int","value":0},{"name":"fh_id","type":"int","value":29},{"name":"x1","type":"int","value":101},{"name":"x2","type":"int","value":136},{"name":"y1","type":"int","value":-215},{"name":"y2","type":"int","value":-215},{"name":"next","type":"int","value":0},{"name":"prev","type":"int","value":28}],"polyline":[{"x":0,"y":0},{"x":35,"y":0}]},{"id":52,"x":-400,"y":182,"visible":true,"properties":[{"name":"layer","type":"int","value":2},{"name":"group","type":"int","value":1},{"name":"id","type":"int","value":30},{"name":"fh_layer","type":"int","value":2},{"name":"fh_group","type":"int","value":1},{"name":"fh_id","type":"int","value":30},{"name":"x1","type":"int","value":-400},{"name":"x2","type":"int","value":400},{"name":"y1","type":"int","value":182},{"name":"y2","type":"int","value":182},{"name":"next","type":"int","value":0},{"name":"prev","type":"int","value":0}],"polyline":[{"x":0,"y":0},{"x":800,"y":0}]},{"id":53,"x":-193,"y":-258,"visible":true,"properties":[{"name":"layer","type":"int","value":2},{"name":"group","type":"int","value":1},{"name":"id","type":"int","value":31},{"name":"fh_layer","type":"int","value":2},{"name":"fh_group","type":"int","value":1},{"name":"fh_id","type":"int","value":31},{"name":"x1","type":"int","value":-193},{"name":"x2","type":"int","value":-183},{"name":"y1","type":"int","value":-258},{"name":"y2","type":"int","value":-258},{"name":"next","type":"int","value":32},{"name":"prev","type":"int","value":0}],"polyline":[{"x":0,"y":0},{"x":10,"y":0}]},{"id":54,"x":-183,"y":-258,"visible":true,"properties":[{"name":"layer","type":"int","value":2},{"name":"group","type":"int","value":1},{"name":"id","type":"int","value":32},{"name":"fh_layer","type":"int","value":2},{"name":"fh_group","type":"int","value":1},{"name":"fh_id","type":"int","value":32},{"name":"x1","type":"int","value":-183},{"name":"x2","type":"int","value":-181},{"name":"y1","type":"int","value":-258},{"name":"y2","type":"int","value":-260},{"name":"next","type":"int","value":33},{"name":"prev","type":"int","value":31}],"polyline":[{"x":0,"y":0},{"x":2,"y":-2}]},{"id":55,"x":-181,"y":-260,"visible":true,"properties":[{"name":"layer","type":"int","value":2},{"name":"group","type":"int","value":1},{"name":"id","type":"int","value":33},{"name":"fh_layer","type":"int","value":2},{"name":"fh_group","type":"int","value":1},{"name":"fh_id","type":"int","value":33},{"name":"x1","type":"int","value":-181},{"name":"x2","type":"int","value":-171},{"name":"y1","type":"int","value":-260},{"name":"y2","type":"int","value":-260},{"name":"next","type":"int","value":34},{"name":"prev","type":"int","value":32}],"polyline":[{"x":0,"y":0},{"x":10,"y":0}]},{"id":56,"x":-171,"y":-260,"visible":true,"properties":[{"name":"layer","type":"int","value":2},{"name":"group","type":"int","value":1},{"name":"id","type":"int","value":34},{"name":"fh_layer","type":"int","value":2},{"name":"fh_group","type":"int","value":1},{"name":"fh_id","type":"int","value":34},{"name":"x1","type":"int","value":-171},{"name":"x2","type":"int","value":-169},{"name":"y1","type":"int","value":-260},{"name":"y2","type":"int","value":-259},{"name":"next","type":"int","value":35},{"name":"prev","type":"int","value":33}],"polyline":[{"x":0,"y":0},{"x":2,"y":1}]},{"id":57,"x":-169,"y":-259,"visible":true,"properties":[{"name":"layer","type":"int","value":2},{"name":"group","type":"int","value":1},{"name":"id","type":"int","value":35},{"name":"fh_layer","type":"int","value":2},{"name":"fh_group","type":"int","value":1},{"name":"fh_id","type":"int","value":35},{"name":"x1","type":"int","value":-169},{"name":"x2","type":"int","value":-155},{"name":"y1","type":"int","value":-259},{"name":"y2","type":"int","value":-260},{"name":"next","type":"int","value":36},{"name":"prev","type":"int","value":34}],"polyline":[{"x":0,"y":0},{"x":14,"y":-1}]},{"id":58,"x":-155,"y":-260,"visible":true,"properties":[{"name":"layer","type":"int","value":2},{"name":"group","type":"int","value":1},{"name":"id","type":"int","value":36},{"name":"fh_layer","type":"int","value":2},{"name":"fh_group","type":"int","value":1},{"name":"fh_id","type":"int","value":36},{"name":"x1","type":"int","value":-155},{"name":"x2","type":"int","value":-153},{"name":"y1","type":"int","value":-260},{"name":"y2","type":"int","value":-262},{"name":"next","type":"int","value":37},{"name":"prev","type":"int","value":35}],"polyline":[{"x":0,"y":0},{"x":2,"y":-2}]},{"id":59,"x":-153,"y":-262,"visible":true,"properties":[{"name":"layer","type":"int","value":2},{"name":"group","type":"int","value":1},{"name":"id","type":"int","value":37},{"name":"fh_layer","type":"int","value":2},{"name":"fh_group","type":"int","value":1},{"name":"fh_id","type":"int","value":37},{"name":"x1","type":"int","value":-153},{"name":"x2","type":"int","value":-144},{"name":"y1","type":"int","value":-262},{"name":"y2","type":"int","value":-261},{"name":"next","type":"int","value":38},{"name":"prev","type":"int","value":36}],"polyline":[{"x":0,"y":0},{"x":9,"y":1}]},{"id":60,"x":-144,"y":-261,"visible":true,"properties":[{"name":"layer","type":"int","value":2},{"name":"group","type":"int","value":1},{"name":"id","type":"int","value":38},{"name":"fh_layer","type":"int","value":2},{"name":"fh_group","type":"int","value":1},{"name":"fh_id","type":"int","value":38},{"name":"x1","type":"int","value":-144},{"name":"x2","type":"int","value":-143},{"name":"y1","type":"int","value":-261},{"name":"y2","type":"int","value":-260},{"name":"next","type":"int","value":39},{"name":"prev","type":"int","value":37}],"polyline":[{"x":0,"y":0},{"x":1,"y":1}]},{"id":61,"x":-143,"y":-260,"visible":true,"properties":[{"name":"layer","type":"int","value":2},{"name":"group","type":"int","value":1},{"name":"id","type":"int","value":39},{"name":"fh_layer","type":"int","value":2},{"name":"fh_group","type":"int","value":1},{"name":"fh_id","type":"int","value":39},{"name":"x1","type":"int","value":-143},{"name":"x2","type":"int","value":-132},{"name":"y1","type":"int","value":-260},{"name":"y2","type":"int","value":-260},{"name":"next","type":"int","value":0},{"name":"prev","type":"int","value":38}],"polyline":[{"x":0,"y":0},{"x":11,"y":0}]},{"id":62,"x":-119,"y":-264,"visible":true,"properties":[{"name":"layer","type":"int","value":2},{"name":"group","type":"int","value":1},{"name":"id","type":"int","value":40},{"name":"fh_layer","type":"int","value":2},{"name":"fh_group","type":"int","value":1},{"name":"fh_id","type":"int","value":40},{"name":"x1","type":"int","value":-119},{"name":"x2","type":"int","value":113},{"name":"y1","type":"int","value":-264},{"name":"y2","type":"int","value":-264},{"name":"next","type":"int","value":0},{"name":"prev","type":"int","value":0}],"polyline":[{"x":0,"y":0},{"x":232,"y":0}]},{"id":63,"x":-105,"y":-66,"visible":true,"properties":[{"name":"layer","type":"int","value":2},{"name":"group","type":"int","value":1},{"name":"id","type":"int","value":41},{"name":"fh_layer","type":"int","value":2},{"name":"fh_group","type":"int","value":1},{"name":"fh_id","type":"int","value":41},{"name":"x1","type":"int","value":-105},{"name":"x2","type":"int","value":7},{"name":"y1","type":"int","value":-66},{"name":"y2","type":"int","value":-66},{"name":"next","type":"int","value":0},{"name":"prev","type":"int","value":0}],"polyline":[{"x":0,"y":0},{"x":112,"y":0}]},{"id":64,"x":-400,"y":-183,"visible":true,"properties":[{"name":"layer","type":"int","value":2},{"name":"group","type":"int","value":1},{"name":"id","type":"int","value":42},{"name":"fh_layer","type":"int","value":2},{"name":"fh_group","type":"int","value":1},{"name":"fh_id","type":"int","value":42},{"name":"x1","type":"int","value":-400},{"name":"x2","type":"int","value":152},{"name":"y1","type":"int","value":-183},{"name":"y2","type":"int","value":-183},{"name":"next","type":"int","value":0},{"name":"prev","type":"int","value":0}],"polyline":[{"x":0,"y":0},{"x":552,"y":0}]},{"id":65,"x":-259,"y":124,"visible":true,"properties":[{"name":"layer","type":"int","value":2},{"name":"group","type":"int","value":1},{"name":"id","type":"int","value":43},{"name":"fh_layer","type":"int","value":2},{"name":"fh_group","type":"int","value":1},{"name":"fh_id","type":"int","value":43},{"name":"x1","type":"int","value":-259},{"name":"x2","type":"int","value":-303},{"name":"y1","type":"int","value":124},{"name":"y2","type":"int","value":124},{"name":"next","type":"int","value":44},{"name":"prev","type":"int","value":46}],"polyline":[{"x":0,"y":0},{"x":-44,"y":0}]},{"id":66,"x":-303,"y":124,"visible":true,"properties":[{"name":"layer","type":"int","value":2},{"name":"group","type":"int","value":1},{"name":"id","type":"int","value":44},{"name":"fh_layer","type":"int","value":2},{"name":"fh_group","type":"int","value":1},{"name":"fh_id","type":"int","value":44},{"name":"x1","type":"int","value":-303},{"name":"x2","type":"int","value":-303},{"name":"y1","type":"int","value":124},{"name":"y2","type":"int","value":38},{"name":"next","type":"int","value":45},{"name":"prev","type":"int","value":43}],"polyline":[{"x":0,"y":0},{"x":0,"y":-86}]},{"id":67,"x":-303,"y":38,"visible":true,"properties":[{"name":"layer","type":"int","value":2},{"name":"group","type":"int","value":1},{"name":"id","type":"int","value":45},{"name":"fh_layer","type":"int","value":2},{"name":"fh_group","type":"int","value":1},{"name":"fh_id","type":"int","value":45},{"name":"x1","type":"int","value":-303},{"name":"x2","type":"int","value":-259},{"name":"y1","type":"int","value":38},{"name":"y2","type":"int","value":38},{"name":"next","type":"int","value":46},{"name":"prev","type":"int","value":44}],"polyline":[{"x":0,"y":0},{"x":44,"y":0}]},{"id":68,"x":-259,"y":38,"visible":true,"properties":[{"name":"layer","type":"int","value":2},{"name":"group","type":"int","value":1},{"name":"id","type":"int","value":46},{"name":"fh_layer","type":"int","value":2},{"name":"fh_group","type":"int","value":1},{"name":"fh_id","type":"int","value":46},{"name":"x1","type":"int","value":-259},{"name":"x2","type":"int","value":-259},{"name":"y1","type":"int","value":38},{"name":"y2","type":"int","value":124},{"name":"next","type":"int","value":43},{"name":"prev","type":"int","value":45}],"polyline":[{"x":0,"y":0},{"x":0,"y":86}]},{"id":69,"x":-259,"y":-221,"visible":true,"properties":[{"name":"layer","type":"int","value":2},{"name":"group","type":"int","value":1},{"name":"id","type":"int","value":47},{"name":"fh_layer","type":"int","value":2},{"name":"fh_group","type":"int","value":1},{"name":"fh_id","type":"int","value":47},{"name":"x1","type":"int","value":-259},{"name":"x2","type":"int","value":-303},{"name":"y1","type":"int","value":-221},{"name":"y2","type":"int","value":-221},{"name":"next","type":"int","value":48},{"name":"prev","type":"int","value":50}],"polyline":[{"x":0,"y":0},{"x":-44,"y":0}]},{"id":70,"x":-303,"y":-221,"visible":true,"properties":[{"name":"layer","type":"int","value":2},{"name":"group","type":"int","value":1},{"name":"id","type":"int","value":48},{"name":"fh_layer","type":"int","value":2},{"name":"fh_group","type":"int","value":1},{"name":"fh_id","type":"int","value":48},{"name":"x1","type":"int","value":-303},{"name":"x2","type":"int","value":-303},{"name":"y1","type":"int","value":-221},{"name":"y2","type":"int","value":-307},{"name":"next","type":"int","value":49},{"name":"prev","type":"int","value":47}],"polyline":[{"x":0,"y":0},{"x":0,"y":-86}]},{"id":71,"x":-303,"y":-307,"visible":true,"properties":[{"name":"layer","type":"int","value":2},{"name":"group","type":"int","value":1},{"name":"id","type":"int","value":49},{"name":"fh_layer","type":"int","value":2},{"name":"fh_group","type":"int","value":1},{"name":"fh_id","type":"int","value":49},{"name":"x1","type":"int","value":-303},{"name":"x2","type":"int","value":-259},{"name":"y1","type":"int","value":-307},{"name":"y2","type":"int","value":-307},{"name":"next","type":"int","value":50},{"name":"prev","type":"int","value":48}],"polyline":[{"x":0,"y":0},{"x":44,"y":0}]},{"id":72,"x":-259,"y":-307,"visible":true,"properties":[{"name":"layer","type":"int","value":2},{"name":"group","type":"int","value":1},{"name":"id","type":"int","value":50},{"name":"fh_layer","type":"int","value":2},{"name":"fh_group","type":"int","value":1},{"name":"fh_id","type":"int","value":50},{"name":"x1","type":"int","value":-259},{"name":"x2","type":"int","value":-259},{"name":"y1","type":"int","value":-307},{"name":"y2","type":"int","value":-221},{"name":"next","type":"int","value":47},{"name":"prev","type":"int","value":49}],"polyline":[{"x":0,"y":0},{"x":0,"y":86}]}],"properties":[]},{"id":7,"name":"miniMap","type":"objectgroup","visible":true,"opacity":1,"draworder":"index","offsetx":0,"offsety":0,"parallaxx":1,"parallaxy":1,"objects":[{"id":73,"x":449,"y":764,"visible":true,"properties":[{"name":"mag","type":"int","value":4},{"name":"centerX","type":"int","value":449},{"name":"centerY","type":"int","value":764},{"name":"canvas_path","type":"string","value":"../images/30571.png"},{"name":"canvas_width","type":"int","value":56},{"name":"canvas_height","type":"int","value":69},{"name":"canvas_origin_x","type":"int","value":0},{"name":"canvas_origin_y","type":"int","value":0}],"point":true}],"properties":[]}],"tilesets":[{"firstgid":1,"source":"../tilesets/obj_shop_shop_weaponGS.tsj"},{"firstgid":7,"source":"../tilesets/obj_acc1_grassySoil_market.tsj"},{"firstgid":39,"source":"../tilesets/portal_MapHelper.img_portal_game_pv.tsj"}],"properties":[{"name":"bgm","type":"string","value":"Bgm00/FloralLife"},{"name":"town","type":"int","value":1},{"name":"VRTop","type":"int","value":-615},{"name":"cloud","type":"int","value":0},{"name":"VRLeft","type":"int","value":-400},{"name":"VRRight","type":"int","value":400},{"name":"mapDesc","type":"string","value":""},{"name":"mapMark","type":"string","value":"Henesys"},{"name":"mobRate","type":"float","value":1},{"name":"version","type":"int","value":10},{"name":"VRBottom","type":"int","value":300},{"name":"moveLimit","type":"int","value":0},{"name":"returnMap","type":"int","value":100000000},{"name":"hideMinimap","type":"int","value":0},{"name":"forcedReturn","type":"int","value":999999999}]}