{"type":"map","orientation":"orthogonal","renderorder":"right-down","infinite":false,"tilewidth":1,"tileheight":1,"width":800,"height":600,"parallaxoriginx":-400,"parallaxoriginy":80,"nextlayerid":6,"nextobjectid":27,"layers":[{"id":1,"name":"layer_1_obj","type":"objectgroup","visible":true,"opacity":1,"draworder":"index","offsetx":0,"offsety":0,"parallaxx":1,"parallaxy":1,"objects":[{"id":1,"x":-400,"y":162,"visible":true,"properties":[{"name":"layer","type":"int","value":1},{"name":"resource_index","type":"int","value":0},{"name":"oS","type":"string","value":"acc1"},{"name":"l0","type":"string","value":"lv200"},{"name":"l1","type":"string","value":"archer"},{"name":"l2","type":"string","value":"1"},{"name":"z","type":"int","value":9},{"name":"zM","type":"int","value":0},{"name":"f","type":"int","value":0}],"gid":1,"width":800,"height":463},{"id":2,"x":-399,"y":300,"visible":true,"properties":[{"name":"layer","type":"int","value":1},{"name":"resource_index","type":"int","value":1},{"name":"oS","type":"string","value":"acc1"},{"name":"l0","type":"string","value":"lv200"},{"name":"l1","type":"string","value":"archer"},{"name":"l2","type":"string","value":"0"},{"name":"z","type":"int","value":0},{"name":"zM","type":"int","value":0},{"name":"f","type":"int","value":0}],"gid":2,"width":800,"height":600}],"properties":[]},{"id":2,"name":"layer_3_obj","type":"objectgroup","visible":true,"opacity":1,"draworder":"index","offsetx":0,"offsety":0,"parallaxx":1,"parallaxy":1,"objects":[{"id":3,"x":-400,"y":300,"visible":true,"properties":[{"name":"layer","type":"int","value":3},{"name":"resource_index","type":"int","value":0},{"name":"oS","type":"string","value":"acc1"},{"name":"l0","type":"string","value":"lv200"},{"name":"l1","type":"string","value":"archer"},{"name":"l2","type":"string","value":"2"},{"name":"z","type":"int","value":9},{"name":"zM","type":"int","value":1},{"name":"f","type":"int","value":0}],"gid":3,"width":800,"height":150}],"properties":[]},{"id":3,"name":"portal","type":"objectgroup","visible":true,"opacity":1,"draworder":"index","offsetx":0,"offsety":0,"parallaxx":1,"parallaxy":1,"objects":[{"id":4,"x":-212,"y":141,"visible":true,"properties":[{"name":"x","type":"int","value":-212},{"name":"y","type":"int","value":141},{"name":"pn","type":"string","value":"sp"},{"name":"pt","type":"int","value":0},{"name":"tm","type":"int","value":999999999},{"name":"tn","type":"string","value":""},{"name":"horizontalImpact","type":"int","value":0}],"point":true},{"id":5,"x":-141,"y":141,"visible":true,"properties":[{"name":"x","type":"int","value":-141},{"name":"y","type":"int","value":141},{"name":"pn","type":"string","value":"sp"},{"name":"pt","type":"int","value":0},{"name":"tm","type":"int","value":999999999},{"name":"tn","type":"string","value":""},{"name":"horizontalImpact","type":"int","value":0}],"point":true},{"id":6,"x":-376,"y":166,"visible":true,"properties":[{"name":"x","type":"int","value":-332},{"name":"y","type":"int","value":157},{"name":"pn","type":"string","value":"out00"},{"name":"pt","type":"int","value":2},{"name":"tm","type":"int","value":100000201},{"name":"tn","type":"string","value":"rank00"},{"name":"delay","type":"int","value":0},{"name":"script","type":"string","value":""},{"name":"onlyOnce","type":"int","value":0},{"name":"hideTooltip","type":"int","value":0},{"name":"horizontalImpact","type":"int","value":0}],"gid":4,"width":89,"height":257}],"properties":[]},{"id":4,"name":"life","type":"objectgroup","visible":true,"opacity":1,"draworder":"index","offsetx":0,"offsety":0,"parallaxx":1,"parallaxy":1,"objects":[{"id":7,"x":0,"y":-7,"visible":true,"properties":[{"name":"f","type":"int","value":0},{"name":"x","type":"int","value":0},{"name":"y","type":"int","value":-7},{"name":"cy","type":"int","value":1},{"name":"fh","type":"int","value":3},{"name":"id","type":"int","value":9901720},{"name":"rx0","type":"int","value":-50},{"name":"rx1","type":"int","value":50},{"name":"hide","type":"int","value":0},{"name":"type","type":"string","value":"n"},{"name":"mobTime","type":"int","value":0},{"name":"npc_aseprite","type":"file","value":"../../Npc/9901720.img/animation.aseprite"}],"point":true},{"id":8,"x":-73,"y":-123,"visible":true,"properties":[{"name":"f","type":"int","value":0},{"name":"x","type":"int","value":-73},{"name":"y","type":"int","value":-123},{"name":"cy","type":"int","value":-116},{"name":"fh","type":"int","value":1},{"name":"id","type":"int","value":9901721},{"name":"rx0","type":"int","value":-123},{"name":"rx1","type":"int","value":-23},{"name":"hide","type":"int","value":0},{"name":"type","type":"string","value":"n"},{"name":"mobTime","type":"int","value":0},{"name":"npc_aseprite","type":"file","value":"../../Npc/9901721.img/animation.aseprite"}],"point":true},{"id":9,"x":75,"y":-121,"visible":true,"properties":[{"name":"f","type":"int","value":0},{"name":"x","type":"int","value":75},{"name":"y","type":"int","value":-121},{"name":"cy","type":"int","value":-115},{"name":"fh","type":"int","value":2},{"name":"id","type":"int","value":9901722},{"name":"rx0","type":"int","value":25},{"name":"rx1","type":"int","value":125},{"name":"hide","type":"int","value":0},{"name":"type","type":"string","value":"n"},{"name":"mobTime","type":"int","value":0},{"name":"npc_aseprite","type":"file","value":"../../Npc/9901722.img/animation.aseprite"}],"point":true},{"id":10,"x":-130,"y":74,"visible":true,"properties":[{"name":"f","type":"int","value":0},{"name":"x","type":"int","value":-130},{"name":"y","type":"int","value":74},{"name":"cy","type":"int","value":81},{"name":"fh","type":"int","value":6},{"name":"id","type":"int","value":9901723},{"name":"rx0","type":"int","value":-180},{"name":"rx1","type":"int","value":-80},{"name":"hide","type":"int","value":0},{"name":"type","type":"string","value":"n"},{"name":"mobTime","type":"int","value":0},{"name":"npc_aseprite","type":"file","value":"../../Npc/9901723.img/animation.aseprite"}],"point":true},{"id":11,"x":132,"y":75,"visible":true,"properties":[{"name":"f","type":"int","value":0},{"name":"x","type":"int","value":132},{"name":"y","type":"int","value":75},{"name":"cy","type":"int","value":81},{"name":"fh","type":"int","value":7},{"name":"id","type":"int","value":9901724},{"name":"rx0","type":"int","value":82},{"name":"rx1","type":"int","value":182},{"name":"hide","type":"int","value":0},{"name":"type","type":"string","value":"n"},{"name":"mobTime","type":"int","value":0},{"name":"npc_aseprite","type":"file","value":"../../Npc/9901724.img/animation.aseprite"}],"point":true},{"id":12,"x":3,"y":132,"visible":true,"properties":[{"name":"f","type":"int","value":0},{"name":"x","type":"int","value":3},{"name":"y","type":"int","value":132},{"name":"cy","type":"int","value":137},{"name":"fh","type":"int","value":8},{"name":"id","type":"int","value":9901725},{"name":"rx0","type":"int","value":-47},{"name":"rx1","type":"int","value":53},{"name":"hide","type":"int","value":0},{"name":"type","type":"string","value":"n"},{"name":"mobTime","type":"int","value":0},{"name":"npc_aseprite","type":"file","value":"../../Npc/9901725.img/animation.aseprite"}],"point":true},{"id":13,"x":-261,"y":-3,"visible":true,"properties":[{"name":"f","type":"int","value":0},{"name":"x","type":"int","value":-261},{"name":"y","type":"int","value":-3},{"name":"cy","type":"int","value":3},{"name":"fh","type":"int","value":4},{"name":"id","type":"int","value":9901726},{"name":"rx0","type":"int","value":-279},{"name":"rx1","type":"int","value":-211},{"name":"hide","type":"int","value":0},{"name":"type","type":"string","value":"n"},{"name":"mobTime","type":"int","value":0},{"name":"npc_aseprite","type":"file","value":"../../Npc/9901726.img/animation.aseprite"}],"point":true},{"id":14,"x":259,"y":-1,"visible":true,"properties":[{"name":"f","type":"int","value":0},{"name":"x","type":"int","value":259},{"name":"y","type":"int","value":-1},{"name":"cy","type":"int","value":6},{"name":"fh","type":"int","value":5},{"name":"id","type":"int","value":9901727},{"name":"rx0","type":"int","value":209},{"name":"rx1","type":"int","value":281},{"name":"hide","type":"int","value":0},{"name":"type","type":"string","value":"n"},{"name":"mobTime","type":"int","value":0},{"name":"npc_aseprite","type":"file","value":"../../Npc/9901727.img/animation.aseprite"}],"point":true},{"id":15,"x":-195,"y":153,"visible":true,"properties":[{"name":"f","type":"int","value":0},{"name":"x","type":"int","value":-195},{"name":"y","type":"int","value":153},{"name":"cy","type":"int","value":162},{"name":"fh","type":"int","value":9},{"name":"id","type":"int","value":9901728},{"name":"rx0","type":"int","value":-245},{"name":"rx1","type":"int","value":-145},{"name":"hide","type":"int","value":0},{"name":"type","type":"string","value":"n"},{"name":"mobTime","type":"int","value":0},{"name":"npc_aseprite","type":"file","value":"../../Npc/9901728.img/animation.aseprite"}],"point":true},{"id":16,"x":203,"y":154,"visible":true,"properties":[{"name":"f","type":"int","value":0},{"name":"x","type":"int","value":203},{"name":"y","type":"int","value":154},{"name":"cy","type":"int","value":161},{"name":"fh","type":"int","value":9},{"name":"id","type":"int","value":9901729},{"name":"rx0","type":"int","value":153},{"name":"rx1","type":"int","value":253},{"name":"hide","type":"int","value":0},{"name":"type","type":"string","value":"n"},{"name":"mobTime","type":"int","value":0},{"name":"npc_aseprite","type":"file","value":"../../Npc/9901729.img/animation.aseprite"}],"point":true},{"id":17,"x":337,"y":155,"visible":true,"properties":[{"name":"f","type":"int","value":0},{"name":"x","type":"int","value":337},{"name":"y","type":"int","value":155},{"name":"cy","type":"int","value":161},{"name":"fh","type":"int","value":9},{"name":"id","type":"int","value":9010021},{"name":"rx0","type":"int","value":287},{"name":"rx1","type":"int","value":380},{"name":"hide","type":"int","value":0},{"name":"type","type":"string","value":"n"},{"name":"mobTime","type":"int","value":0},{"name":"npc_aseprite","type":"file","value":"../../Npc/9010021.img/animation.aseprite"}],"point":true}],"properties":[]},{"id":5,"name":"foothold","type":"objectgroup","visible":true,"opacity":1,"draworder":"index","offsetx":0,"offsety":0,"parallaxx":1,"parallaxy":1,"objects":[{"id":18,"x":-104,"y":-116,"visible":true,"properties":[{"name":"layer","type":"int","value":1},{"name":"group","type":"int","value":0},{"name":"id","type":"int","value":1},{"name":"fh_layer","type":"int","value":1},{"name":"fh_group","type":"int","value":0},{"name":"fh_id","type":"int","value":1},{"name":"x1","type":"int","value":-104},{"name":"x2","type":"int","value":-35},{"name":"y1","type":"int","value":-116},{"name":"y2","type":"int","value":-116},{"name":"next","type":"int","value":0},{"name":"prev","type":"int","value":0}],"polyline":[{"x":0,"y":0},{"x":69,"y":0}]},{"id":19,"x":42,"y":-115,"visible":true,"properties":[{"name":"layer","type":"int","value":1},{"name":"group","type":"int","value":0},{"name":"id","type":"int","value":2},{"name":"fh_layer","type":"int","value":1},{"name":"fh_group","type":"int","value":0},{"name":"fh_id","type":"int","value":2},{"name":"x1","type":"int","value":42},{"name":"x2","type":"int","value":111},{"name":"y1","type":"int","value":-115},{"name":"y2","type":"int","value":-115},{"name":"next","type":"int","value":0},{"name":"prev","type":"int","value":0}],"polyline":[{"x":0,"y":0},{"x":69,"y":0}]},{"id":20,"x":-33,"y":1,"visible":true,"properties":[{"name":"layer","type":"int","value":1},{"name":"group","type":"int","value":0},{"name":"id","type":"int","value":3},{"name":"fh_layer","type":"int","value":1},{"name":"fh_group","type":"int","value":0},{"name":"fh_id","type":"int","value":3},{"name":"x1","type":"int","value":-33},{"name":"x2","type":"int","value":36},{"name":"y1","type":"int","value":1},{"name":"y2","type":"int","value":1},{"name":"next","type":"int","value":0},{"name":"prev","type":"int","value":0}],"polyline":[{"x":0,"y":0},{"x":69,"y":0}]},{"id":21,"x":-299,"y":-5,"visible":true,"properties":[{"name":"layer","type":"int","value":1},{"name":"group","type":"int","value":0},{"name":"id","type":"int","value":4},{"name":"fh_layer","type":"int","value":1},{"name":"fh_group","type":"int","value":0},{"name":"fh_id","type":"int","value":4},{"name":"x1","type":"int","value":-299},{"name":"x2","type":"int","value":-223},{"name":"y1","type":"int","value":-5},{"name":"y2","type":"int","value":11},{"name":"next","type":"int","value":0},{"name":"prev","type":"int","value":0}],"polyline":[{"x":0,"y":0},{"x":76,"y":16}]},{"id":22,"x":225,"y":12,"visible":true,"properties":[{"name":"layer","type":"int","value":1},{"name":"group","type":"int","value":0},{"name":"id","type":"int","value":5},{"name":"fh_layer","type":"int","value":1},{"name":"fh_group","type":"int","value":0},{"name":"fh_id","type":"int","value":5},{"name":"x1","type":"int","value":225},{"name":"x2","type":"int","value":301},{"name":"y1","type":"int","value":12},{"name":"y2","type":"int","value":-3},{"name":"next","type":"int","value":0},{"name":"prev","type":"int","value":0}],"polyline":[{"x":0,"y":0},{"x":76,"y":-15}]},{"id":23,"x":-166,"y":81,"visible":true,"properties":[{"name":"layer","type":"int","value":1},{"name":"group","type":"int","value":0},{"name":"id","type":"int","value":6},{"name":"fh_layer","type":"int","value":1},{"name":"fh_group","type":"int","value":0},{"name":"fh_id","type":"int","value":6},{"name":"x1","type":"int","value":-166},{"name":"x2","type":"int","value":-89},{"name":"y1","type":"int","value":81},{"name":"y2","type":"int","value":81},{"name":"next","type":"int","value":0},{"name":"prev","type":"int","value":0}],"polyline":[{"x":0,"y":0},{"x":77,"y":0}]},{"id":24,"x":95,"y":81,"visible":true,"properties":[{"name":"layer","type":"int","value":1},{"name":"group","type":"int","value":0},{"name":"id","type":"int","value":7},{"name":"fh_layer","type":"int","value":1},{"name":"fh_group","type":"int","value":0},{"name":"fh_id","type":"int","value":7},{"name":"x1","type":"int","value":95},{"name":"x2","type":"int","value":172},{"name":"y1","type":"int","value":81},{"name":"y2","type":"int","value":81},{"name":"next","type":"int","value":0},{"name":"prev","type":"int","value":0}],"polyline":[{"x":0,"y":0},{"x":77,"y":0}]},{"id":25,"x":-53,"y":137,"visible":true,"properties":[{"name":"layer","type":"int","value":1},{"name":"group","type":"int","value":0},{"name":"id","type":"int","value":8},{"name":"fh_layer","type":"int","value":1},{"name":"fh_group","type":"int","value":0},{"name":"fh_id","type":"int","value":8},{"name":"x1","type":"int","value":-53},{"name":"x2","type":"int","value":61},{"name":"y1","type":"int","value":137},{"name":"y2","type":"int","value":137},{"name":"next","type":"int","value":0},{"name":"prev","type":"int","value":0}],"polyline":[{"x":0,"y":0},{"x":114,"y":0}]},{"id":26,"x":-400,"y":162,"visible":true,"properties":[{"name":"layer","type":"int","value":3},{"name":"group","type":"int","value":1},{"name":"id","type":"int","value":9},{"name":"fh_layer","type":"int","value":3},{"name":"fh_group","type":"int","value":1},{"name":"fh_id","type":"int","value":9},{"name":"x1","type":"int","value":-400},{"name":"x2","type":"int","value":400},{"name":"y1","type":"int","value":162},{"name":"y2","type":"int","value":160},{"name":"next","type":"int","value":0},{"name":"prev","type":"int","value":0}],"polyline":[{"x":0,"y":0},{"x":800,"y":-2}]}],"properties":[]}],"tilesets":[{"firstgid":1,"source":"../tilesets/obj_acc1_lv200_archer.tsj"},{"firstgid":4,"source":"../tilesets/portal_MapHelper.img_portal_game_pv.tsj"}],"properties":[{"name":"bgm","type":"string","value":"Bgm00/FloralLife"},{"name":"fly","type":"int","value":0},{"name":"swim","type":"int","value":0},{"name":"town","type":"int","value":1},{"name":"VRTop","type":"int","value":-300},{"name":"cloud","type":"int","value":0},{"name":"VRLeft","type":"int","value":-400},{"name":"VRRight","type":"int","value":400},{"name":"mapMark","type":"string","value":"Henesys"},{"name":"mobRate","type":"float","value":1},{"name":"version","type":"int","value":10},{"name":"VRBottom","type":"int","value":300},{"name":"noMapCmd","type":"int","value":0},{"name":"returnMap","type":"int","value":100000000},{"name":"fieldLimit","type":"int","value":0},{"name":"hideMinimap","type":"int","value":0},{"name":"onUserEnter","type":"string","value":""},{"name":"forcedReturn","type":"int","value":999999999},{"name":"onFirstUserEnter","type":"string","value":""}]}