{"type":"map","orientation":"orthogonal","renderorder":"right-down","infinite":false,"tilewidth":1,"tileheight":1,"width":800,"height":820,"parallaxoriginx":-400,"parallaxoriginy":80,"nextlayerid":11,"nextobjectid":53,"layers":[{"id":1,"name":"layer_0_obj","type":"objectgroup","visible":true,"opacity":1,"draworder":"index","offsetx":0,"offsety":0,"parallaxx":1,"parallaxy":1,"objects":[{"id":1,"x":-400,"y":194,"visible":true,"properties":[{"name":"layer","type":"int","value":0},{"name":"resource_index","type":"int","value":0},{"name":"oS","type":"string","value":"job"},{"name":"l0","type":"string","value":"job"},{"name":"l1","type":"string","value":"magician"},{"name":"l2","type":"string","value":"0"},{"name":"z","type":"int","value":0},{"name":"zM","type":"int","value":1},{"name":"f","type":"int","value":0}],"gid":1,"width":800,"height":713}],"properties":[]},{"id":2,"name":"layer_1_obj","type":"objectgroup","visible":true,"opacity":1,"draworder":"index","offsetx":0,"offsety":0,"parallaxx":1,"parallaxy":1,"objects":[{"id":2,"x":-196,"y":184,"visible":true,"properties":[{"name":"layer","type":"int","value":1},{"name":"resource_index","type":"int","value":0},{"name":"oS","type":"string","value":"job"},{"name":"l0","type":"string","value":"job"},{"name":"l1","type":"string","value":"magician"},{"name":"l2","type":"string","value":"3"},{"name":"z","type":"int","value":1},{"name":"zM","type":"int","value":3},{"name":"f","type":"int","value":0}],"gid":2,"width":346,"height":703},{"id":3,"x":-97,"y":-81,"visible":true,"properties":[{"name":"layer","type":"int","value":1},{"name":"resource_index","type":"int","value":1},{"name":"oS","type":"string","value":"job"},{"name":"l0","type":"string","value":"job"},{"name":"l1","type":"string","value":"magician"},{"name":"l2","type":"string","value":"5"},{"name":"z","type":"int","value":3},{"name":"zM","type":"int","value":3},{"name":"f","type":"int","value":0}],"gid":3,"width":173,"height":171},{"id":4,"x":-39,"y":-264,"visible":true,"properties":[{"name":"layer","type":"int","value":1},{"name":"resource_index","type":"int","value":2},{"name":"oS","type":"string","value":"job"},{"name":"l0","type":"string","value":"job"},{"name":"l1","type":"string","value":"magician"},{"name":"l2","type":"string","value":"6"},{"name":"z","type":"int","value":3},{"name":"zM","type":"int","value":3},{"name":"f","type":"int","value":0}],"gid":4,"width":59,"height":59},{"id":5,"x":59,"y":-225,"visible":true,"properties":[{"name":"layer","type":"int","value":1},{"name":"resource_index","type":"int","value":3},{"name":"oS","type":"string","value":"job"},{"name":"l0","type":"string","value":"job"},{"name":"l1","type":"string","value":"magician"},{"name":"l2","type":"string","value":"7"},{"name":"z","type":"int","value":3},{"name":"zM","type":"int","value":3},{"name":"f","type":"int","value":0}],"gid":5,"width":67,"height":64},{"id":6,"x":106,"y":-133,"visible":true,"properties":[{"name":"layer","type":"int","value":1},{"name":"resource_index","type":"int","value":4},{"name":"oS","type":"string","value":"job"},{"name":"l0","type":"string","value":"job"},{"name":"l1","type":"string","value":"magician"},{"name":"l2","type":"string","value":"8"},{"name":"z","type":"int","value":3},{"name":"zM","type":"int","value":3},{"name":"f","type":"int","value":0}],"gid":6,"width":60,"height":62},{"id":7,"x":63,"y":-40,"visible":true,"properties":[{"name":"layer","type":"int","value":1},{"name":"resource_index","type":"int","value":5},{"name":"oS","type":"string","value":"job"},{"name":"l0","type":"string","value":"job"},{"name":"l1","type":"string","value":"magician"},{"name":"l2","type":"string","value":"9"},{"name":"z","type":"int","value":3},{"name":"zM","type":"int","value":3},{"name":"f","type":"int","value":0}],"gid":7,"width":59,"height":59},{"id":8,"x":-41,"y":-1,"visible":true,"properties":[{"name":"layer","type":"int","value":1},{"name":"resource_index","type":"int","value":6},{"name":"oS","type":"string","value":"job"},{"name":"l0","type":"string","value":"job"},{"name":"l1","type":"string","value":"magician"},{"name":"l2","type":"string","value":"10"},{"name":"z","type":"int","value":3},{"name":"zM","type":"int","value":3},{"name":"f","type":"int","value":0}],"gid":8,"width":59,"height":59},{"id":9,"x":-144,"y":-41,"visible":true,"properties":[{"name":"layer","type":"int","value":1},{"name":"resource_index","type":"int","value":7},{"name":"oS","type":"string","value":"job"},{"name":"l0","type":"string","value":"job"},{"name":"l1","type":"string","value":"magician"},{"name":"l2","type":"string","value":"11"},{"name":"z","type":"int","value":3},{"name":"zM","type":"int","value":3},{"name":"f","type":"int","value":0}],"gid":9,"width":65,"height":66},{"id":10,"x":-179,"y":-133,"visible":true,"properties":[{"name":"layer","type":"int","value":1},{"name":"resource_index","type":"int","value":8},{"name":"oS","type":"string","value":"job"},{"name":"l0","type":"string","value":"job"},{"name":"l1","type":"string","value":"magician"},{"name":"l2","type":"string","value":"12"},{"name":"z","type":"int","value":3},{"name":"zM","type":"int","value":3},{"name":"f","type":"int","value":0}],"gid":10,"width":59,"height":59},{"id":11,"x":-143,"y":-218,"visible":true,"properties":[{"name":"layer","type":"int","value":1},{"name":"resource_index","type":"int","value":9},{"name":"oS","type":"string","value":"job"},{"name":"l0","type":"string","value":"job"},{"name":"l1","type":"string","value":"magician"},{"name":"l2","type":"string","value":"13"},{"name":"z","type":"int","value":3},{"name":"zM","type":"int","value":3},{"name":"f","type":"int","value":0}],"gid":11,"width":62,"height":63},{"id":12,"x":128,"y":164,"visible":true,"properties":[{"name":"layer","type":"int","value":1},{"name":"resource_index","type":"int","value":10},{"name":"oS","type":"string","value":"signboard"},{"name":"l0","type":"string","value":"market"},{"name":"l1","type":"string","value":"arrow"},{"name":"l2","type":"string","value":"10"},{"name":"z","type":"int","value":9},{"name":"zM","type":"int","value":0},{"name":"f","type":"int","value":0}],"gid":16,"width":54,"height":44}],"properties":[]},{"id":3,"name":"layer_2_obj","type":"objectgroup","visible":true,"opacity":1,"draworder":"index","offsetx":0,"offsety":0,"parallaxx":1,"parallaxy":1,"objects":[{"id":13,"x":-400,"y":299,"visible":true,"properties":[{"name":"layer","type":"int","value":2},{"name":"resource_index","type":"int","value":0},{"name":"oS","type":"string","value":"job"},{"name":"l0","type":"string","value":"job"},{"name":"l1","type":"string","value":"magician"},{"name":"l2","type":"string","value":"1"},{"name":"z","type":"int","value":11},{"name":"zM","type":"int","value":0},{"name":"f","type":"int","value":0}],"gid":12,"width":800,"height":115},{"id":14,"x":-68,"y":190,"visible":true,"properties":[{"name":"layer","type":"int","value":2},{"name":"resource_index","type":"int","value":1},{"name":"oS","type":"string","value":"guide"},{"name":"l0","type":"string","value":"miniD"},{"name":"l1","type":"string","value":"portalEff"},{"name":"l2","type":"string","value":"0"},{"name":"z","type":"int","value":8},{"name":"zM","type":"int","value":0},{"name":"f","type":"int","value":0}],"gid":15,"width":131,"height":166}],"properties":[]},{"id":4,"name":"layer_3_obj","type":"objectgroup","visible":true,"opacity":1,"draworder":"index","offsetx":0,"offsety":0,"parallaxx":1,"parallaxy":1,"objects":[{"id":15,"x":-283,"y":185,"visible":true,"properties":[{"name":"layer","type":"int","value":3},{"name":"resource_index","type":"int","value":0},{"name":"oS","type":"string","value":"job"},{"name":"l0","type":"string","value":"job"},{"name":"l1","type":"string","value":"magician"},{"name":"l2","type":"string","value":"4"},{"name":"z","type":"int","value":3},{"name":"zM","type":"int","value":2},{"name":"f","type":"int","value":0}],"gid":13,"width":246,"height":194},{"id":16,"x":227,"y":-44,"visible":true,"properties":[{"name":"layer","type":"int","value":3},{"name":"resource_index","type":"int","value":1},{"name":"oS","type":"string","value":"job"},{"name":"l0","type":"string","value":"job"},{"name":"l1","type":"string","value":"magician"},{"name":"l2","type":"string","value":"2"},{"name":"z","type":"int","value":3},{"name":"zM","type":"int","value":4},{"name":"f","type":"int","value":0}],"gid":14,"width":63,"height":225}],"properties":[]},{"id":5,"name":"portal","type":"objectgroup","visible":true,"opacity":1,"draworder":"index","offsetx":0,"offsety":0,"parallaxx":1,"parallaxy":1,"objects":[{"id":17,"x":-275,"y":55,"visible":true,"properties":[{"name":"x","type":"int","value":-275},{"name":"y","type":"int","value":55},{"name":"pn","type":"string","value":"sp"},{"name":"pt","type":"int","value":0},{"name":"tm","type":"int","value":999999999},{"name":"tn","type":"string","value":""}],"point":true},{"id":18,"x":-205,"y":54,"visible":true,"properties":[{"name":"x","type":"int","value":-205},{"name":"y","type":"int","value":54},{"name":"pn","type":"string","value":"sp"},{"name":"pt","type":"int","value":0},{"name":"tm","type":"int","value":999999999},{"name":"tn","type":"string","value":""}],"point":true},{"id":19,"x":-128,"y":50,"visible":true,"properties":[{"name":"x","type":"int","value":-128},{"name":"y","type":"int","value":50},{"name":"pn","type":"string","value":"sp"},{"name":"pt","type":"int","value":0},{"name":"tm","type":"int","value":999999999},{"name":"tn","type":"string","value":""}],"point":true},{"id":20,"x":-55,"y":54,"visible":true,"properties":[{"name":"x","type":"int","value":-55},{"name":"y","type":"int","value":54},{"name":"pn","type":"string","value":"sp"},{"name":"pt","type":"int","value":0},{"name":"tm","type":"int","value":999999999},{"name":"tn","type":"string","value":""}],"point":true},{"id":21,"x":8,"y":53,"visible":true,"properties":[{"name":"x","type":"int","value":8},{"name":"y","type":"int","value":53},{"name":"pn","type":"string","value":"sp"},{"name":"pt","type":"int","value":0},{"name":"tm","type":"int","value":999999999},{"name":"tn","type":"string","value":""}],"point":true},{"id":22,"x":69,"y":50,"visible":true,"properties":[{"name":"x","type":"int","value":69},{"name":"y","type":"int","value":50},{"name":"pn","type":"string","value":"sp"},{"name":"pt","type":"int","value":0},{"name":"tm","type":"int","value":999999999},{"name":"tn","type":"string","value":""}],"point":true},{"id":23,"x":125,"y":136,"visible":true,"properties":[{"name":"x","type":"int","value":125},{"name":"y","type":"int","value":136},{"name":"pn","type":"string","value":"sp"},{"name":"pt","type":"int","value":0},{"name":"tm","type":"int","value":999999999},{"name":"tn","type":"string","value":""}],"point":true},{"id":24,"x":195,"y":131,"visible":true,"properties":[{"name":"x","type":"int","value":195},{"name":"y","type":"int","value":131},{"name":"pn","type":"string","value":"sp"},{"name":"pt","type":"int","value":0},{"name":"tm","type":"int","value":999999999},{"name":"tn","type":"string","value":""}],"point":true},{"id":25,"x":213,"y":194,"visible":true,"properties":[{"name":"x","type":"int","value":257},{"name":"y","type":"int","value":185},{"name":"pn","type":"string","value":"jobout00"},{"name":"pt","type":"int","value":2},{"name":"tm","type":"int","value":101000000},{"name":"tn","type":"string","value":"jobin00"}],"gid":20,"width":89,"height":257},{"id":26,"x":-2,"y":183,"visible":true,"properties":[{"name":"x","type":"int","value":-2},{"name":"y","type":"int","value":183},{"name":"pn","type":"string","value":"rank00"},{"name":"pt","type":"int","value":7},{"name":"tm","type":"int","value":999999999},{"name":"tn","type":"string","value":""},{"name":"script","type":"string","value":"rankRoom"},{"name":"horizontalImpact","type":"int","value":0}],"point":true},{"id":27,"x":142,"y":138,"visible":true,"properties":[{"name":"x","type":"int","value":142},{"name":"y","type":"int","value":138},{"name":"pn","type":"string","value":"tutorial"},{"name":"pt","type":"int","value":9},{"name":"tm","type":"int","value":999999999},{"name":"tn","type":"string","value":""},{"name":"delay","type":"int","value":1000},{"name":"script","type":"string","value":"tutorialNPC"},{"name":"onlyOnce","type":"int","value":1},{"name":"hideTooltip","type":"int","value":0}],"point":true}],"properties":[]},{"id":6,"name":"life","type":"objectgroup","visible":true,"opacity":1,"draworder":"index","offsetx":0,"offsety":0,"parallaxx":1,"parallaxy":1,"objects":[{"id":28,"x":-7,"y":-77,"visible":true,"properties":[{"name":"f","type":"int","value":1},{"name":"x","type":"int","value":-7},{"name":"y","type":"int","value":-77},{"name":"cy","type":"int","value":-77},{"name":"fh","type":"int","value":17},{"name":"id","type":"int","value":1032001},{"name":"rx0","type":"int","value":-57},{"name":"rx1","type":"int","value":43},{"name":"type","type":"string","value":"n"},{"name":"npc_aseprite","type":"file","value":"../../Npc/1032001.img/animation.aseprite"}],"point":true}],"properties":[]},{"id":7,"name":"reactor","type":"objectgroup","visible":true,"opacity":1,"draworder":"index","offsetx":0,"offsety":0,"parallaxx":1,"parallaxy":1,"objects":[{"id":29,"x":227,"y":-16,"visible":true,"properties":[{"name":"f","type":"int","value":1},{"name":"x","type":"int","value":227},{"name":"y","type":"int","value":-16},{"name":"id","type":"int","value":9102001},{"name":"name","type":"string","value":""},{"name":"reactorTime","type":"int","value":3600}],"point":true}],"properties":[]},{"id":8,"name":"foothold","type":"objectgroup","visible":true,"opacity":1,"draworder":"index","offsetx":0,"offsety":0,"parallaxx":1,"parallaxy":1,"objects":[{"id":30,"x":-340,"y":-510,"visible":true,"properties":[{"name":"layer","type":"int","value":0},{"name":"group","type":"int","value":1},{"name":"id","type":"int","value":1},{"name":"fh_layer","type":"int","value":0},{"name":"fh_group","type":"int","value":1},{"name":"fh_id","type":"int","value":1},{"name":"x1","type":"int","value":-340},{"name":"x2","type":"int","value":-340},{"name":"y1","type":"int","value":-510},{"name":"y2","type":"int","value":-259},{"name":"next","type":"int","value":2},{"name":"prev","type":"int","value":0}],"polyline":[{"x":0,"y":0},{"x":0,"y":251}]},{"id":31,"x":-340,"y":-259,"visible":true,"properties":[{"name":"layer","type":"int","value":0},{"name":"group","type":"int","value":1},{"name":"id","type":"int","value":2},{"name":"fh_layer","type":"int","value":0},{"name":"fh_group","type":"int","value":1},{"name":"fh_id","type":"int","value":2},{"name":"x1","type":"int","value":-340},{"name":"x2","type":"int","value":-297},{"name":"y1","type":"int","value":-259},{"name":"y2","type":"int","value":-264},{"name":"next","type":"int","value":3},{"name":"prev","type":"int","value":1}],"polyline":[{"x":0,"y":0},{"x":43,"y":-5}]},{"id":32,"x":-297,"y":-264,"visible":true,"properties":[{"name":"layer","type":"int","value":0},{"name":"group","type":"int","value":1},{"name":"id","type":"int","value":3},{"name":"fh_layer","type":"int","value":0},{"name":"fh_group","type":"int","value":1},{"name":"fh_id","type":"int","value":3},{"name":"x1","type":"int","value":-297},{"name":"x2","type":"int","value":-254},{"name":"y1","type":"int","value":-264},{"name":"y2","type":"int","value":-256},{"name":"next","type":"int","value":4},{"name":"prev","type":"int","value":2}],"polyline":[{"x":0,"y":0},{"x":43,"y":8}]},{"id":33,"x":-254,"y":-256,"visible":true,"properties":[{"name":"layer","type":"int","value":0},{"name":"group","type":"int","value":1},{"name":"id","type":"int","value":4},{"name":"fh_layer","type":"int","value":0},{"name":"fh_group","type":"int","value":1},{"name":"fh_id","type":"int","value":4},{"name":"x1","type":"int","value":-254},{"name":"x2","type":"int","value":-161},{"name":"y1","type":"int","value":-256},{"name":"y2","type":"int","value":-249},{"name":"next","type":"int","value":5},{"name":"prev","type":"int","value":3}],"polyline":[{"x":0,"y":0},{"x":93,"y":7}]},{"id":34,"x":-161,"y":-249,"visible":true,"properties":[{"name":"layer","type":"int","value":0},{"name":"group","type":"int","value":1},{"name":"id","type":"int","value":5},{"name":"fh_layer","type":"int","value":0},{"name":"fh_group","type":"int","value":1},{"name":"fh_id","type":"int","value":5},{"name":"x1","type":"int","value":-161},{"name":"x2","type":"int","value":-66},{"name":"y1","type":"int","value":-249},{"name":"y2","type":"int","value":-245},{"name":"next","type":"int","value":6},{"name":"prev","type":"int","value":4}],"polyline":[{"x":0,"y":0},{"x":95,"y":4}]},{"id":35,"x":-66,"y":-245,"visible":true,"properties":[{"name":"layer","type":"int","value":0},{"name":"group","type":"int","value":1},{"name":"id","type":"int","value":6},{"name":"fh_layer","type":"int","value":0},{"name":"fh_group","type":"int","value":1},{"name":"fh_id","type":"int","value":6},{"name":"x1","type":"int","value":-66},{"name":"x2","type":"int","value":23},{"name":"y1","type":"int","value":-245},{"name":"y2","type":"int","value":-244},{"name":"next","type":"int","value":7},{"name":"prev","type":"int","value":5}],"polyline":[{"x":0,"y":0},{"x":89,"y":1}]},{"id":36,"x":23,"y":-244,"visible":true,"properties":[{"name":"layer","type":"int","value":0},{"name":"group","type":"int","value":1},{"name":"id","type":"int","value":7},{"name":"fh_layer","type":"int","value":0},{"name":"fh_group","type":"int","value":1},{"name":"fh_id","type":"int","value":7},{"name":"x1","type":"int","value":23},{"name":"x2","type":"int","value":119},{"name":"y1","type":"int","value":-244},{"name":"y2","type":"int","value":-247},{"name":"next","type":"int","value":8},{"name":"prev","type":"int","value":6}],"polyline":[{"x":0,"y":0},{"x":96,"y":-3}]},{"id":37,"x":119,"y":-247,"visible":true,"properties":[{"name":"layer","type":"int","value":0},{"name":"group","type":"int","value":1},{"name":"id","type":"int","value":8},{"name":"fh_layer","type":"int","value":0},{"name":"fh_group","type":"int","value":1},{"name":"fh_id","type":"int","value":8},{"name":"x1","type":"int","value":119},{"name":"x2","type":"int","value":232},{"name":"y1","type":"int","value":-247},{"name":"y2","type":"int","value":-253},{"name":"next","type":"int","value":9},{"name":"prev","type":"int","value":7}],"polyline":[{"x":0,"y":0},{"x":113,"y":-6}]},{"id":38,"x":232,"y":-253,"visible":true,"properties":[{"name":"layer","type":"int","value":0},{"name":"group","type":"int","value":1},{"name":"id","type":"int","value":9},{"name":"fh_layer","type":"int","value":0},{"name":"fh_group","type":"int","value":1},{"name":"fh_id","type":"int","value":9},{"name":"x1","type":"int","value":232},{"name":"x2","type":"int","value":289},{"name":"y1","type":"int","value":-253},{"name":"y2","type":"int","value":-260},{"name":"next","type":"int","value":10},{"name":"prev","type":"int","value":8}],"polyline":[{"x":0,"y":0},{"x":57,"y":-7}]},{"id":39,"x":289,"y":-260,"visible":true,"properties":[{"name":"layer","type":"int","value":0},{"name":"group","type":"int","value":1},{"name":"id","type":"int","value":10},{"name":"fh_layer","type":"int","value":0},{"name":"fh_group","type":"int","value":1},{"name":"fh_id","type":"int","value":10},{"name":"x1","type":"int","value":289},{"name":"x2","type":"int","value":340},{"name":"y1","type":"int","value":-260},{"name":"y2","type":"int","value":-257},{"name":"next","type":"int","value":11},{"name":"prev","type":"int","value":9}],"polyline":[{"x":0,"y":0},{"x":51,"y":3}]},{"id":40,"x":340,"y":-257,"visible":true,"properties":[{"name":"layer","type":"int","value":0},{"name":"group","type":"int","value":1},{"name":"id","type":"int","value":11},{"name":"fh_layer","type":"int","value":0},{"name":"fh_group","type":"int","value":1},{"name":"fh_id","type":"int","value":11},{"name":"x1","type":"int","value":340},{"name":"x2","type":"int","value":340},{"name":"y1","type":"int","value":-257},{"name":"y2","type":"int","value":-518},{"name":"next","type":"int","value":0},{"name":"prev","type":"int","value":10}],"polyline":[{"x":0,"y":0},{"x":0,"y":-261}]},{"id":41,"x":266,"y":-300,"visible":true,"properties":[{"name":"layer","type":"int","value":0},{"name":"group","type":"int","value":1},{"name":"id","type":"int","value":12},{"name":"fh_layer","type":"int","value":0},{"name":"fh_group","type":"int","value":1},{"name":"fh_id","type":"int","value":12},{"name":"x1","type":"int","value":266},{"name":"x2","type":"int","value":304},{"name":"y1","type":"int","value":-300},{"name":"y2","type":"int","value":-306},{"name":"next","type":"int","value":13},{"name":"prev","type":"int","value":0}],"polyline":[{"x":0,"y":0},{"x":38,"y":-6}]},{"id":42,"x":304,"y":-306,"visible":true,"properties":[{"name":"layer","type":"int","value":0},{"name":"group","type":"int","value":1},{"name":"id","type":"int","value":13},{"name":"fh_layer","type":"int","value":0},{"name":"fh_group","type":"int","value":1},{"name":"fh_id","type":"int","value":13},{"name":"x1","type":"int","value":304},{"name":"x2","type":"int","value":338},{"name":"y1","type":"int","value":-306},{"name":"y2","type":"int","value":-302},{"name":"next","type":"int","value":0},{"name":"prev","type":"int","value":12}],"polyline":[{"x":0,"y":0},{"x":34,"y":4}]},{"id":43,"x":-340,"y":-254,"visible":true,"properties":[{"name":"layer","type":"int","value":2},{"name":"group","type":"int","value":0},{"name":"id","type":"int","value":14},{"name":"fh_layer","type":"int","value":2},{"name":"fh_group","type":"int","value":0},{"name":"fh_id","type":"int","value":14},{"name":"x1","type":"int","value":-340},{"name":"x2","type":"int","value":-340},{"name":"y1","type":"int","value":-254},{"name":"y2","type":"int","value":184},{"name":"next","type":"int","value":15},{"name":"prev","type":"int","value":0}],"polyline":[{"x":0,"y":0},{"x":0,"y":438}]},{"id":44,"x":-340,"y":184,"visible":true,"properties":[{"name":"layer","type":"int","value":2},{"name":"group","type":"int","value":0},{"name":"id","type":"int","value":15},{"name":"fh_layer","type":"int","value":2},{"name":"fh_group","type":"int","value":0},{"name":"fh_id","type":"int","value":15},{"name":"x1","type":"int","value":-340},{"name":"x2","type":"int","value":339},{"name":"y1","type":"int","value":184},{"name":"y2","type":"int","value":184},{"name":"next","type":"int","value":16},{"name":"prev","type":"int","value":14}],"polyline":[{"x":0,"y":0},{"x":679,"y":0}]},{"id":45,"x":339,"y":184,"visible":true,"properties":[{"name":"layer","type":"int","value":2},{"name":"group","type":"int","value":0},{"name":"id","type":"int","value":16},{"name":"fh_layer","type":"int","value":2},{"name":"fh_group","type":"int","value":0},{"name":"fh_id","type":"int","value":16},{"name":"x1","type":"int","value":339},{"name":"x2","type":"int","value":339},{"name":"y1","type":"int","value":184},{"name":"y2","type":"int","value":-251},{"name":"next","type":"int","value":0},{"name":"prev","type":"int","value":15}],"polyline":[{"x":0,"y":0},{"x":0,"y":-435}]},{"id":46,"x":-51,"y":-77,"visible":true,"properties":[{"name":"layer","type":"int","value":2},{"name":"group","type":"int","value":0},{"name":"id","type":"int","value":17},{"name":"fh_layer","type":"int","value":2},{"name":"fh_group","type":"int","value":0},{"name":"fh_id","type":"int","value":17},{"name":"x1","type":"int","value":-51},{"name":"x2","type":"int","value":52},{"name":"y1","type":"int","value":-77},{"name":"y2","type":"int","value":-77},{"name":"next","type":"int","value":0},{"name":"prev","type":"int","value":0}],"polyline":[{"x":0,"y":0},{"x":103,"y":0}]},{"id":47,"x":201,"y":0,"visible":true,"properties":[{"name":"layer","type":"int","value":2},{"name":"group","type":"int","value":0},{"name":"id","type":"int","value":18},{"name":"fh_layer","type":"int","value":2},{"name":"fh_group","type":"int","value":0},{"name":"fh_id","type":"int","value":18},{"name":"x1","type":"int","value":201},{"name":"x2","type":"int","value":277},{"name":"y1","type":"int","value":0},{"name":"y2","type":"int","value":0},{"name":"next","type":"int","value":19},{"name":"prev","type":"int","value":0}],"polyline":[{"x":0,"y":0},{"x":76,"y":0}]},{"id":48,"x":277,"y":0,"visible":true,"properties":[{"name":"layer","type":"int","value":2},{"name":"group","type":"int","value":0},{"name":"id","type":"int","value":19},{"name":"fh_layer","type":"int","value":2},{"name":"fh_group","type":"int","value":0},{"name":"fh_id","type":"int","value":19},{"name":"x1","type":"int","value":277},{"name":"x2","type":"int","value":294},{"name":"y1","type":"int","value":0},{"name":"y2","type":"int","value":3},{"name":"next","type":"int","value":0},{"name":"prev","type":"int","value":18}],"polyline":[{"x":0,"y":0},{"x":17,"y":3}]},{"id":49,"x":134,"y":115,"visible":true,"properties":[{"name":"layer","type":"int","value":2},{"name":"group","type":"int","value":0},{"name":"id","type":"int","value":20},{"name":"fh_layer","type":"int","value":2},{"name":"fh_group","type":"int","value":0},{"name":"fh_id","type":"int","value":20},{"name":"x1","type":"int","value":134},{"name":"x2","type":"int","value":207},{"name":"y1","type":"int","value":115},{"name":"y2","type":"int","value":115},{"name":"next","type":"int","value":0},{"name":"prev","type":"int","value":0}],"polyline":[{"x":0,"y":0},{"x":73,"y":0}]},{"id":50,"x":150,"y":63,"visible":true,"properties":[{"name":"layer","type":"int","value":2},{"name":"group","type":"int","value":0},{"name":"id","type":"int","value":21},{"name":"fh_layer","type":"int","value":2},{"name":"fh_group","type":"int","value":0},{"name":"fh_id","type":"int","value":21},{"name":"x1","type":"int","value":150},{"name":"x2","type":"int","value":190},{"name":"y1","type":"int","value":63},{"name":"y2","type":"int","value":63},{"name":"next","type":"int","value":0},{"name":"prev","type":"int","value":0}],"polyline":[{"x":0,"y":0},{"x":40,"y":0}]}],"properties":[]},{"id":9,"name":"ladderRope","type":"objectgroup","visible":true,"opacity":1,"draworder":"index","offsetx":0,"offsety":0,"parallaxx":1,"parallaxy":1,"objects":[{"id":51,"x":251,"y":-253,"visible":true,"properties":[{"name":"ladder_id","type":"int","value":1},{"name":"l","type":"int","value":1},{"name":"x","type":"int","value":251},{"name":"uf","type":"int","value":1},{"name":"y1","type":"int","value":-253},{"name":"y2","type":"int","value":-17},{"name":"page","type":"int","value":3}],"polyline":[{"x":0,"y":0},{"x":0,"y":236}]}],"properties":[]},{"id":10,"name":"miniMap","type":"objectgroup","visible":true,"opacity":1,"draworder":"index","offsetx":0,"offsety":0,"parallaxx":1,"parallaxy":1,"objects":[{"id":52,"x":448,"y":669,"visible":true,"properties":[{"name":"mag","type":"int","value":4},{"name":"centerX","type":"int","value":448},{"name":"centerY","type":"int","value":669},{"name":"canvas_path","type":"string","value":"../images/30473.png"},{"name":"canvas_width","type":"int","value":56},{"name":"canvas_height","type":"int","value":63},{"name":"canvas_origin_x","type":"int","value":0},{"name":"canvas_origin_y","type":"int","value":0}],"point":true}],"properties":[]}],"tilesets":[{"firstgid":1,"source":"../tilesets/obj_job_job_magician.tsj"},{"firstgid":15,"source":"../tilesets/obj_guide_miniD_portalEff.tsj"},{"firstgid":16,"source":"../tilesets/obj_signboard_market_arrow.tsj"},{"firstgid":20,"source":"../tilesets/portal_MapHelper.img_portal_game_pv.tsj"}],"properties":[{"name":"bgm","type":"string","value":"Bgm02/WhenTheMorningComes"},{"name":"town","type":"int","value":1},{"name":"VRTop","type":"int","value":-520},{"name":"cloud","type":"int","value":0},{"name":"VRLeft","type":"int","value":-400},{"name":"VRRight","type":"int","value":400},{"name":"mapDesc","type":"string","value":""},{"name":"mapMark","type":"string","value":"Ellinia"},{"name":"mobRate","type":"float","value":1},{"name":"version","type":"int","value":10},{"name":"VRBottom","type":"int","value":300},{"name":"moveLimit","type":"int","value":0},{"name":"returnMap","type":"int","value":101000000},{"name":"fieldLimit","type":"int","value":0},{"name":"hideMinimap","type":"int","value":0},{"name":"forcedReturn","type":"int","value":999999999}]}