{"type":"map","orientation":"orthogonal","renderorder":"right-down","infinite":false,"tilewidth":1,"tileheight":1,"width":800,"height":600,"parallaxoriginx":-400,"parallaxoriginy":80,"nextlayerid":6,"nextobjectid":29,"layers":[{"id":1,"name":"layer_1_obj","type":"objectgroup","visible":true,"opacity":1,"draworder":"index","offsetx":0,"offsety":0,"parallaxx":1,"parallaxy":1,"objects":[{"id":1,"x":-400,"y":299,"visible":true,"properties":[{"name":"layer","type":"int","value":1},{"name":"resource_index","type":"int","value":0},{"name":"oS","type":"string","value":"acc1"},{"name":"l0","type":"string","value":"lv200"},{"name":"l1","type":"string","value":"thief"},{"name":"l2","type":"string","value":"0"},{"name":"z","type":"int","value":1},{"name":"zM","type":"int","value":1},{"name":"f","type":"int","value":0}],"gid":1,"width":800,"height":600},{"id":2,"x":-401,"y":165,"visible":true,"properties":[{"name":"layer","type":"int","value":1},{"name":"resource_index","type":"int","value":1},{"name":"oS","type":"string","value":"acc1"},{"name":"l0","type":"string","value":"lv200"},{"name":"l1","type":"string","value":"thief"},{"name":"l2","type":"string","value":"1"},{"name":"z","type":"int","value":5},{"name":"zM","type":"int","value":1},{"name":"f","type":"int","value":0}],"gid":2,"width":800,"height":377}],"properties":[]},{"id":2,"name":"layer_3_obj","type":"objectgroup","visible":true,"opacity":1,"draworder":"index","offsetx":0,"offsety":0,"parallaxx":1,"parallaxy":1,"objects":[{"id":3,"x":-400,"y":300,"visible":true,"properties":[{"name":"layer","type":"int","value":3},{"name":"resource_index","type":"int","value":0},{"name":"oS","type":"string","value":"acc1"},{"name":"l0","type":"string","value":"lv200"},{"name":"l1","type":"string","value":"thief"},{"name":"l2","type":"string","value":"2"},{"name":"z","type":"int","value":9},{"name":"zM","type":"int","value":0},{"name":"f","type":"int","value":0}],"gid":3,"width":800,"height":146},{"id":4,"x":-336,"y":303,"visible":true,"properties":[{"name":"layer","type":"int","value":3},{"name":"resource_index","type":"int","value":1},{"name":"oS","type":"string","value":"acc1"},{"name":"l0","type":"string","value":"lv200"},{"name":"l1","type":"string","value":"thief"},{"name":"l2","type":"string","value":"3"},{"name":"z","type":"int","value":10},{"name":"zM","type":"int","value":0},{"name":"f","type":"int","value":0}],"gid":4,"width":725,"height":109}],"properties":[]},{"id":3,"name":"portal","type":"objectgroup","visible":true,"opacity":1,"draworder":"index","offsetx":0,"offsety":0,"parallaxx":1,"parallaxy":1,"objects":[{"id":5,"x":-223,"y":145,"visible":true,"properties":[{"name":"x","type":"int","value":-223},{"name":"y","type":"int","value":145},{"name":"pn","type":"string","value":"sp"},{"name":"pt","type":"int","value":0},{"name":"tm","type":"int","value":999999999},{"name":"tn","type":"string","value":""},{"name":"horizontalImpact","type":"int","value":0}],"point":true},{"id":6,"x":266,"y":163,"visible":true,"properties":[{"name":"x","type":"int","value":310},{"name":"y","type":"int","value":154},{"name":"pn","type":"string","value":"out00"},{"name":"pt","type":"int","value":2},{"name":"tm","type":"int","value":103000003},{"name":"tn","type":"string","value":"rank00"},{"name":"horizontalImpact","type":"int","value":0}],"gid":5,"width":89,"height":257}],"properties":[]},{"id":4,"name":"life","type":"objectgroup","visible":true,"opacity":1,"draworder":"index","offsetx":0,"offsety":0,"parallaxx":1,"parallaxy":1,"objects":[{"id":7,"x":4,"y":-14,"visible":true,"properties":[{"name":"f","type":"int","value":0},{"name":"x","type":"int","value":4},{"name":"y","type":"int","value":-14},{"name":"cy","type":"int","value":-6},{"name":"fh","type":"int","value":1},{"name":"id","type":"int","value":9901730},{"name":"rx0","type":"int","value":-46},{"name":"rx1","type":"int","value":54},{"name":"hide","type":"int","value":0},{"name":"type","type":"string","value":"n"},{"name":"mobTime","type":"int","value":0},{"name":"npc_aseprite","type":"file","value":"../../Npc/9901730.img/animation.aseprite"}],"point":true},{"id":8,"x":-69,"y":-134,"visible":true,"properties":[{"name":"f","type":"int","value":0},{"name":"x","type":"int","value":-69},{"name":"y","type":"int","value":-134},{"name":"cy","type":"int","value":-126},{"name":"fh","type":"int","value":9},{"name":"id","type":"int","value":9901731},{"name":"rx0","type":"int","value":-119},{"name":"rx1","type":"int","value":-19},{"name":"hide","type":"int","value":0},{"name":"type","type":"string","value":"n"},{"name":"mobTime","type":"int","value":0},{"name":"npc_aseprite","type":"file","value":"../../Npc/9901731.img/animation.aseprite"}],"point":true},{"id":9,"x":73,"y":-131,"visible":true,"properties":[{"name":"f","type":"int","value":0},{"name":"x","type":"int","value":73},{"name":"y","type":"int","value":-131},{"name":"cy","type":"int","value":-125},{"name":"fh","type":"int","value":10},{"name":"id","type":"int","value":9901732},{"name":"rx0","type":"int","value":23},{"name":"rx1","type":"int","value":123},{"name":"hide","type":"int","value":0},{"name":"type","type":"string","value":"n"},{"name":"mobTime","type":"int","value":0},{"name":"npc_aseprite","type":"file","value":"../../Npc/9901732.img/animation.aseprite"}],"point":true},{"id":10,"x":-117,"y":66,"visible":true,"properties":[{"name":"f","type":"int","value":0},{"name":"x","type":"int","value":-117},{"name":"y","type":"int","value":66},{"name":"cy","type":"int","value":72},{"name":"fh","type":"int","value":2},{"name":"id","type":"int","value":9901733},{"name":"rx0","type":"int","value":-167},{"name":"rx1","type":"int","value":-67},{"name":"hide","type":"int","value":0},{"name":"type","type":"string","value":"n"},{"name":"mobTime","type":"int","value":0},{"name":"npc_aseprite","type":"file","value":"../../Npc/9901733.img/animation.aseprite"}],"point":true},{"id":11,"x":122,"y":67,"visible":true,"properties":[{"name":"f","type":"int","value":0},{"name":"x","type":"int","value":122},{"name":"y","type":"int","value":67},{"name":"cy","type":"int","value":72},{"name":"fh","type":"int","value":3},{"name":"id","type":"int","value":9901734},{"name":"rx0","type":"int","value":72},{"name":"rx1","type":"int","value":172},{"name":"hide","type":"int","value":0},{"name":"type","type":"string","value":"n"},{"name":"mobTime","type":"int","value":0},{"name":"npc_aseprite","type":"file","value":"../../Npc/9901734.img/animation.aseprite"}],"point":true},{"id":12,"x":-207,"y":124,"visible":true,"properties":[{"name":"f","type":"int","value":0},{"name":"x","type":"int","value":-207},{"name":"y","type":"int","value":124},{"name":"cy","type":"int","value":131},{"name":"fh","type":"int","value":6},{"name":"id","type":"int","value":9901735},{"name":"rx0","type":"int","value":-257},{"name":"rx1","type":"int","value":-157},{"name":"hide","type":"int","value":0},{"name":"type","type":"string","value":"n"},{"name":"mobTime","type":"int","value":0},{"name":"npc_aseprite","type":"file","value":"../../Npc/9901735.img/animation.aseprite"}],"point":true},{"id":13,"x":211,"y":125,"visible":true,"properties":[{"name":"f","type":"int","value":0},{"name":"x","type":"int","value":211},{"name":"y","type":"int","value":125},{"name":"cy","type":"int","value":132},{"name":"fh","type":"int","value":7},{"name":"id","type":"int","value":9901736},{"name":"rx0","type":"int","value":161},{"name":"rx1","type":"int","value":261},{"name":"hide","type":"int","value":0},{"name":"type","type":"string","value":"n"},{"name":"mobTime","type":"int","value":0},{"name":"npc_aseprite","type":"file","value":"../../Npc/9901736.img/animation.aseprite"}],"point":true},{"id":14,"x":323,"y":-23,"visible":true,"properties":[{"name":"f","type":"int","value":0},{"name":"x","type":"int","value":323},{"name":"y","type":"int","value":-23},{"name":"cy","type":"int","value":-15},{"name":"fh","type":"int","value":5},{"name":"id","type":"int","value":9901737},{"name":"rx0","type":"int","value":273},{"name":"rx1","type":"int","value":373},{"name":"hide","type":"int","value":0},{"name":"type","type":"string","value":"n"},{"name":"mobTime","type":"int","value":0},{"name":"npc_aseprite","type":"file","value":"../../Npc/9901737.img/animation.aseprite"}],"point":true},{"id":15,"x":-326,"y":-19,"visible":true,"properties":[{"name":"f","type":"int","value":0},{"name":"x","type":"int","value":-326},{"name":"y","type":"int","value":-19},{"name":"cy","type":"int","value":-14},{"name":"fh","type":"int","value":4},{"name":"id","type":"int","value":9901738},{"name":"rx0","type":"int","value":-376},{"name":"rx1","type":"int","value":-276},{"name":"hide","type":"int","value":0},{"name":"type","type":"string","value":"n"},{"name":"mobTime","type":"int","value":0},{"name":"npc_aseprite","type":"file","value":"../../Npc/9901738.img/animation.aseprite"}],"point":true},{"id":16,"x":-325,"y":149,"visible":true,"properties":[{"name":"f","type":"int","value":0},{"name":"x","type":"int","value":-325},{"name":"y","type":"int","value":149},{"name":"cy","type":"int","value":157},{"name":"fh","type":"int","value":11},{"name":"id","type":"int","value":9901739},{"name":"rx0","type":"int","value":-375},{"name":"rx1","type":"int","value":-275},{"name":"hide","type":"int","value":0},{"name":"type","type":"string","value":"n"},{"name":"mobTime","type":"int","value":0},{"name":"npc_aseprite","type":"file","value":"../../Npc/9901739.img/animation.aseprite"}],"point":true},{"id":17,"x":0,"y":136,"visible":true,"properties":[{"name":"f","type":"int","value":1},{"name":"x","type":"int","value":0},{"name":"y","type":"int","value":136},{"name":"cy","type":"int","value":139},{"name":"fh","type":"int","value":8},{"name":"id","type":"int","value":9010021},{"name":"rx0","type":"int","value":-50},{"name":"rx1","type":"int","value":50},{"name":"hide","type":"int","value":0},{"name":"type","type":"string","value":"n"},{"name":"mobTime","type":"int","value":0},{"name":"npc_aseprite","type":"file","value":"../../Npc/9010021.img/animation.aseprite"}],"point":true}],"properties":[]},{"id":5,"name":"foothold","type":"objectgroup","visible":true,"opacity":1,"draworder":"index","offsetx":0,"offsety":0,"parallaxx":1,"parallaxy":1,"objects":[{"id":18,"x":-86,"y":-6,"visible":true,"properties":[{"name":"layer","type":"int","value":1},{"name":"group","type":"int","value":1},{"name":"id","type":"int","value":1},{"name":"fh_layer","type":"int","value":1},{"name":"fh_group","type":"int","value":1},{"name":"fh_id","type":"int","value":1},{"name":"x1","type":"int","value":-86},{"name":"x2","type":"int","value":93},{"name":"y1","type":"int","value":-6},{"name":"y2","type":"int","value":-6},{"name":"next","type":"int","value":0},{"name":"prev","type":"int","value":0}],"polyline":[{"x":0,"y":0},{"x":179,"y":0}]},{"id":19,"x":-162,"y":72,"visible":true,"properties":[{"name":"layer","type":"int","value":1},{"name":"group","type":"int","value":1},{"name":"id","type":"int","value":2},{"name":"fh_layer","type":"int","value":1},{"name":"fh_group","type":"int","value":1},{"name":"fh_id","type":"int","value":2},{"name":"x1","type":"int","value":-162},{"name":"x2","type":"int","value":-67},{"name":"y1","type":"int","value":72},{"name":"y2","type":"int","value":72},{"name":"next","type":"int","value":0},{"name":"prev","type":"int","value":0}],"polyline":[{"x":0,"y":0},{"x":95,"y":0}]},{"id":20,"x":73,"y":72,"visible":true,"properties":[{"name":"layer","type":"int","value":1},{"name":"group","type":"int","value":1},{"name":"id","type":"int","value":3},{"name":"fh_layer","type":"int","value":1},{"name":"fh_group","type":"int","value":1},{"name":"fh_id","type":"int","value":3},{"name":"x1","type":"int","value":73},{"name":"x2","type":"int","value":168},{"name":"y1","type":"int","value":72},{"name":"y2","type":"int","value":72},{"name":"next","type":"int","value":0},{"name":"prev","type":"int","value":0}],"polyline":[{"x":0,"y":0},{"x":95,"y":0}]},{"id":21,"x":-398,"y":-14,"visible":true,"properties":[{"name":"layer","type":"int","value":1},{"name":"group","type":"int","value":1},{"name":"id","type":"int","value":4},{"name":"fh_layer","type":"int","value":1},{"name":"fh_group","type":"int","value":1},{"name":"fh_id","type":"int","value":4},{"name":"x1","type":"int","value":-398},{"name":"x2","type":"int","value":-273},{"name":"y1","type":"int","value":-14},{"name":"y2","type":"int","value":-14},{"name":"next","type":"int","value":0},{"name":"prev","type":"int","value":0}],"polyline":[{"x":0,"y":0},{"x":125,"y":0}]},{"id":22,"x":270,"y":-15,"visible":true,"properties":[{"name":"layer","type":"int","value":1},{"name":"group","type":"int","value":1},{"name":"id","type":"int","value":5},{"name":"fh_layer","type":"int","value":1},{"name":"fh_group","type":"int","value":1},{"name":"fh_id","type":"int","value":5},{"name":"x1","type":"int","value":270},{"name":"x2","type":"int","value":398},{"name":"y1","type":"int","value":-15},{"name":"y2","type":"int","value":-15},{"name":"next","type":"int","value":0},{"name":"prev","type":"int","value":0}],"polyline":[{"x":0,"y":0},{"x":128,"y":0}]},{"id":23,"x":-268,"y":131,"visible":true,"properties":[{"name":"layer","type":"int","value":1},{"name":"group","type":"int","value":1},{"name":"id","type":"int","value":6},{"name":"fh_layer","type":"int","value":1},{"name":"fh_group","type":"int","value":1},{"name":"fh_id","type":"int","value":6},{"name":"x1","type":"int","value":-268},{"name":"x2","type":"int","value":-156},{"name":"y1","type":"int","value":131},{"name":"y2","type":"int","value":131},{"name":"next","type":"int","value":0},{"name":"prev","type":"int","value":0}],"polyline":[{"x":0,"y":0},{"x":112,"y":0}]},{"id":24,"x":153,"y":132,"visible":true,"properties":[{"name":"layer","type":"int","value":1},{"name":"group","type":"int","value":1},{"name":"id","type":"int","value":7},{"name":"fh_layer","type":"int","value":1},{"name":"fh_group","type":"int","value":1},{"name":"fh_id","type":"int","value":7},{"name":"x1","type":"int","value":153},{"name":"x2","type":"int","value":265},{"name":"y1","type":"int","value":132},{"name":"y2","type":"int","value":132},{"name":"next","type":"int","value":0},{"name":"prev","type":"int","value":0}],"polyline":[{"x":0,"y":0},{"x":112,"y":0}]},{"id":25,"x":-48,"y":139,"visible":true,"properties":[{"name":"layer","type":"int","value":1},{"name":"group","type":"int","value":1},{"name":"id","type":"int","value":8},{"name":"fh_layer","type":"int","value":1},{"name":"fh_group","type":"int","value":1},{"name":"fh_id","type":"int","value":8},{"name":"x1","type":"int","value":-48},{"name":"x2","type":"int","value":64},{"name":"y1","type":"int","value":139},{"name":"y2","type":"int","value":139},{"name":"next","type":"int","value":0},{"name":"prev","type":"int","value":0}],"polyline":[{"x":0,"y":0},{"x":112,"y":0}]},{"id":26,"x":-104,"y":-126,"visible":true,"properties":[{"name":"layer","type":"int","value":1},{"name":"group","type":"int","value":1},{"name":"id","type":"int","value":9},{"name":"fh_layer","type":"int","value":1},{"name":"fh_group","type":"int","value":1},{"name":"fh_id","type":"int","value":9},{"name":"x1","type":"int","value":-104},{"name":"x2","type":"int","value":-32},{"name":"y1","type":"int","value":-126},{"name":"y2","type":"int","value":-126},{"name":"next","type":"int","value":0},{"name":"prev","type":"int","value":0}],"polyline":[{"x":0,"y":0},{"x":72,"y":0}]},{"id":27,"x":40,"y":-125,"visible":true,"properties":[{"name":"layer","type":"int","value":1},{"name":"group","type":"int","value":1},{"name":"id","type":"int","value":10},{"name":"fh_layer","type":"int","value":1},{"name":"fh_group","type":"int","value":1},{"name":"fh_id","type":"int","value":10},{"name":"x1","type":"int","value":40},{"name":"x2","type":"int","value":112},{"name":"y1","type":"int","value":-125},{"name":"y2","type":"int","value":-125},{"name":"next","type":"int","value":0},{"name":"prev","type":"int","value":0}],"polyline":[{"x":0,"y":0},{"x":72,"y":0}]},{"id":28,"x":-400,"y":157,"visible":true,"properties":[{"name":"layer","type":"int","value":3},{"name":"group","type":"int","value":0},{"name":"id","type":"int","value":11},{"name":"fh_layer","type":"int","value":3},{"name":"fh_group","type":"int","value":0},{"name":"fh_id","type":"int","value":11},{"name":"x1","type":"int","value":-400},{"name":"x2","type":"int","value":400},{"name":"y1","type":"int","value":157},{"name":"y2","type":"int","value":157},{"name":"next","type":"int","value":0},{"name":"prev","type":"int","value":0}],"polyline":[{"x":0,"y":0},{"x":800,"y":0}]}],"properties":[]}],"tilesets":[{"firstgid":1,"source":"../tilesets/obj_acc1_lv200_thief.tsj"},{"firstgid":5,"source":"../tilesets/portal_MapHelper.img_portal_game_pv.tsj"}],"properties":[{"name":"bgm","type":"string","value":"Bgm01/BadGuys"},{"name":"fly","type":"int","value":0},{"name":"swim","type":"int","value":0},{"name":"town","type":"int","value":1},{"name":"VRTop","type":"int","value":-300},{"name":"cloud","type":"int","value":0},{"name":"VRLeft","type":"int","value":-400},{"name":"VRRight","type":"int","value":400},{"name":"mapMark","type":"string","value":"KerningCity"},{"name":"mobRate","type":"float","value":1},{"name":"version","type":"int","value":10},{"name":"VRBottom","type":"int","value":300},{"name":"noMapCmd","type":"int","value":0},{"name":"returnMap","type":"int","value":103000000},{"name":"fieldLimit","type":"int","value":0},{"name":"hideMinimap","type":"int","value":0},{"name":"onUserEnter","type":"string","value":""},{"name":"forcedReturn","type":"int","value":999999999},{"name":"onFirstUserEnter","type":"string","value":""}]}