{"type":"map","orientation":"orthogonal","renderorder":"right-down","infinite":false,"tilewidth":1,"tileheight":1,"width":2670,"height":813,"parallaxoriginx":-400,"parallaxoriginy":80,"nextlayerid":15,"nextobjectid":240,"layers":[{"id":1,"name":"background_back_0","type":"imagelayer","visible":true,"opacity":1,"image":"../images/27148.png","imagewidth":850,"imageheight":369,"offsetx":-390,"offsety":543,"repeatx":true,"repeaty":false,"parallaxx":0,"parallaxy":0,"properties":[{"name":"a","type":"int","value":255},{"name":"f","type":"int","value":0},{"name":"x","type":"int","value":35},{"name":"y","type":"int","value":647},{"name":"bS","type":"string","value":"department"},{"name":"cx","type":"int","value":0},{"name":"cy","type":"int","value":0},{"name":"no","type":"int","value":0},{"name":"rx","type":"int","value":0},{"name":"ry","type":"int","value":0},{"name":"ani","type":"int","value":0},{"name":"type","type":"int","value":1},{"name":"front","type":"int","value":0}]},{"id":2,"name":"background_back_1","type":"imagelayer","visible":true,"opacity":1,"image":"../images/27148.png","imagewidth":850,"imageheight":369,"offsetx":-413,"offsety":-224,"repeatx":false,"repeaty":false,"parallaxx":0,"parallaxy":0,"properties":[{"name":"a","type":"int","value":255},{"name":"f","type":"int","value":0},{"name":"x","type":"int","value":12},{"name":"y","type":"int","value":-120},{"name":"bS","type":"string","value":"department"},{"name":"cx","type":"int","value":0},{"name":"cy","type":"int","value":0},{"name":"no","type":"int","value":0},{"name":"rx","type":"int","value":0},{"name":"ry","type":"int","value":0},{"name":"ani","type":"int","value":0},{"name":"type","type":"int","value":0},{"name":"front","type":"int","value":0}]},{"id":3,"name":"background_back_2","type":"imagelayer","visible":true,"opacity":1,"image":"../images/27149.png","imagewidth":993,"imageheight":369,"offsetx":-491,"offsety":-223,"repeatx":false,"repeaty":false,"parallaxx":0,"parallaxy":0,"properties":[{"name":"a","type":"int","value":255},{"name":"f","type":"int","value":0},{"name":"x","type":"int","value":3},{"name":"y","type":"int","value":-112},{"name":"bS","type":"string","value":"department"},{"name":"cx","type":"int","value":0},{"name":"cy","type":"int","value":0},{"name":"no","type":"int","value":1},{"name":"rx","type":"int","value":0},{"name":"ry","type":"int","value":0},{"name":"ani","type":"int","value":0},{"name":"type","type":"int","value":0},{"name":"front","type":"int","value":0}]},{"id":4,"name":"background_back_3","type":"imagelayer","visible":true,"opacity":1,"image":"../images/27150.png","imagewidth":993,"imageheight":544,"offsetx":-487,"offsety":-113,"repeatx":false,"repeaty":false,"parallaxx":0,"parallaxy":0,"properties":[{"name":"a","type":"int","value":255},{"name":"f","type":"int","value":0},{"name":"x","type":"int","value":9},{"name":"y","type":"int","value":79},{"name":"bS","type":"string","value":"department"},{"name":"cx","type":"int","value":0},{"name":"cy","type":"int","value":0},{"name":"no","type":"int","value":2},{"name":"rx","type":"int","value":0},{"name":"ry","type":"int","value":0},{"name":"ani","type":"int","value":0},{"name":"type","type":"int","value":0},{"name":"front","type":"int","value":0}]},{"id":5,"name":"layer_1_obj","type":"objectgroup","visible":true,"opacity":1,"draworder":"index","offsetx":0,"offsety":0,"parallaxx":1,"parallaxy":1,"objects":[{"id":1,"x":265,"y":90,"visible":true,"properties":[{"name":"layer","type":"int","value":1},{"name":"resource_index","type":"int","value":0},{"name":"oS","type":"string","value":"Tdungeon3"},{"name":"l0","type":"string","value":"madeShop"},{"name":"l1","type":"string","value":"Loveteen"},{"name":"l2","type":"string","value":"0"},{"name":"z","type":"int","value":6},{"name":"zM","type":"int","value":39},{"name":"f","type":"int","value":0}],"gid":118,"width":583,"height":254},{"id":2,"x":794,"y":91,"visible":true,"properties":[{"name":"layer","type":"int","value":1},{"name":"resource_index","type":"int","value":1},{"name":"oS","type":"string","value":"Tdungeon3"},{"name":"l0","type":"string","value":"shopPart2"},{"name":"l1","type":"string","value":"base"},{"name":"l2","type":"string","value":"1"},{"name":"z","type":"int","value":6},{"name":"zM","type":"int","value":39},{"name":"f","type":"int","value":0}],"gid":88,"width":444,"height":257},{"id":3,"x":954,"y":53,"visible":true,"properties":[{"name":"layer","type":"int","value":1},{"name":"resource_index","type":"int","value":2},{"name":"oS","type":"string","value":"Tdungeon3"},{"name":"l0","type":"string","value":"shopPart2"},{"name":"l1","type":"string","value":"product"},{"name":"l2","type":"string","value":"4"},{"name":"z","type":"int","value":5},{"name":"zM","type":"int","value":39},{"name":"f","type":"int","value":0}],"gid":135,"width":190,"height":151},{"id":4,"x":945,"y":51,"visible":true,"properties":[{"name":"layer","type":"int","value":1},{"name":"resource_index","type":"int","value":3},{"name":"oS","type":"string","value":"Tdungeon3"},{"name":"l0","type":"string","value":"shopPart2"},{"name":"l1","type":"string","value":"innerWall"},{"name":"l2","type":"string","value":"0"},{"name":"z","type":"int","value":4},{"name":"zM","type":"int","value":39},{"name":"f","type":"int","value":0}],"gid":183,"width":269,"height":152},{"id":5,"x":908,"y":-95,"visible":true,"properties":[{"name":"layer","type":"int","value":1},{"name":"resource_index","type":"int","value":4},{"name":"oS","type":"string","value":"Tdungeon3"},{"name":"l0","type":"string","value":"shopPart2"},{"name":"l1","type":"string","value":"mainSign"},{"name":"l2","type":"string","value":"2"},{"name":"z","type":"int","value":8},{"name":"zM","type":"int","value":39},{"name":"f","type":"int","value":0}],"gid":151,"width":221,"height":67},{"id":6,"x":942,"y":-110,"visible":true,"properties":[{"name":"layer","type":"int","value":1},{"name":"resource_index","type":"int","value":5},{"name":"oS","type":"string","value":"Tdungeon3"},{"name":"l0","type":"string","value":"shopPart2"},{"name":"l1","type":"string","value":"logo"},{"name":"l2","type":"string","value":"12"},{"name":"z","type":"int","value":9},{"name":"zM","type":"int","value":39},{"name":"f","type":"int","value":0}],"gid":97,"width":136,"height":47},{"id":7,"x":1150,"y":-93,"visible":true,"properties":[{"name":"layer","type":"int","value":1},{"name":"resource_index","type":"int","value":6},{"name":"oS","type":"string","value":"Tdungeon3"},{"name":"l0","type":"string","value":"shopPart2"},{"name":"l1","type":"string","value":"sideLogo"},{"name":"l2","type":"string","value":"9"},{"name":"z","type":"int","value":13},{"name":"zM","type":"int","value":39},{"name":"f","type":"int","value":0}],"gid":154,"width":85,"height":59},{"id":8,"x":1139,"y":-83,"visible":true,"properties":[{"name":"layer","type":"int","value":1},{"name":"resource_index","type":"int","value":7},{"name":"oS","type":"string","value":"Tdungeon3"},{"name":"l0","type":"string","value":"shopPart2"},{"name":"l1","type":"string","value":"sideSign"},{"name":"l2","type":"string","value":"1"},{"name":"z","type":"int","value":9},{"name":"zM","type":"int","value":39},{"name":"f","type":"int","value":0}],"gid":158,"width":105,"height":75},{"id":9,"x":793,"y":-62,"visible":true,"properties":[{"name":"layer","type":"int","value":1},{"name":"resource_index","type":"int","value":8},{"name":"oS","type":"string","value":"Tdungeon3"},{"name":"l0","type":"string","value":"shopPart2"},{"name":"l1","type":"string","value":"base"},{"name":"l2","type":"string","value":"9"},{"name":"z","type":"int","value":8},{"name":"zM","type":"int","value":39},{"name":"f","type":"int","value":0}],"gid":85,"width":130,"height":97},{"id":10,"x":816,"y":90,"visible":true,"properties":[{"name":"layer","type":"int","value":1},{"name":"resource_index","type":"int","value":9},{"name":"oS","type":"string","value":"Tdungeon3"},{"name":"l0","type":"string","value":"shopPart2"},{"name":"l1","type":"string","value":"door"},{"name":"l2","type":"string","value":"3"},{"name":"z","type":"int","value":10},{"name":"zM","type":"int","value":39},{"name":"f","type":"int","value":0}],"gid":91,"width":115,"height":140},{"id":11,"x":947,"y":84,"visible":true,"properties":[{"name":"layer","type":"int","value":1},{"name":"resource_index","type":"int","value":10},{"name":"oS","type":"string","value":"Tdungeon3"},{"name":"l0","type":"string","value":"shopPart1"},{"name":"l1","type":"string","value":"light"},{"name":"l2","type":"string","value":"6"},{"name":"z","type":"int","value":7},{"name":"zM","type":"int","value":39},{"name":"f","type":"int","value":0}],"gid":110,"width":145,"height":25},{"id":12,"x":784,"y":-43,"visible":true,"properties":[{"name":"layer","type":"int","value":1},{"name":"resource_index","type":"int","value":11},{"name":"oS","type":"string","value":"Tdungeon3"},{"name":"l0","type":"string","value":"shopPart1"},{"name":"l1","type":"string","value":"light"},{"name":"l2","type":"string","value":"1"},{"name":"z","type":"int","value":10},{"name":"zM","type":"int","value":39},{"name":"f","type":"int","value":0}],"gid":109,"width":91,"height":62},{"id":13,"x":841,"y":-42,"visible":true,"properties":[{"name":"layer","type":"int","value":1},{"name":"resource_index","type":"int","value":12},{"name":"oS","type":"string","value":"Tdungeon3"},{"name":"l0","type":"string","value":"shopPart1"},{"name":"l1","type":"string","value":"light"},{"name":"l2","type":"string","value":"1"},{"name":"z","type":"int","value":9},{"name":"zM","type":"int","value":39},{"name":"f","type":"int","value":0}],"gid":109,"width":91,"height":62},{"id":14,"x":-85,"y":94,"visible":true,"properties":[{"name":"layer","type":"int","value":1},{"name":"resource_index","type":"int","value":13},{"name":"oS","type":"string","value":"Tdungeon3"},{"name":"l0","type":"string","value":"shopPart1"},{"name":"l1","type":"string","value":"base"},{"name":"l2","type":"string","value":"0"},{"name":"z","type":"int","value":2},{"name":"zM","type":"int","value":39},{"name":"f","type":"int","value":0}],"gid":63,"width":385,"height":259},{"id":15,"x":-49,"y":44,"visible":true,"properties":[{"name":"layer","type":"int","value":1},{"name":"resource_index","type":"int","value":14},{"name":"oS","type":"string","value":"Tdungeon3"},{"name":"l0","type":"string","value":"shopPart1"},{"name":"l1","type":"string","value":"product"},{"name":"l2","type":"string","value":"5"},{"name":"z","type":"int","value":7},{"name":"zM","type":"int","value":39},{"name":"f","type":"int","value":0}],"gid":128,"width":113,"height":83},{"id":16,"x":-60,"y":45,"visible":true,"properties":[{"name":"layer","type":"int","value":1},{"name":"resource_index","type":"int","value":15},{"name":"oS","type":"string","value":"Tdungeon3"},{"name":"l0","type":"string","value":"shopPart1"},{"name":"l1","type":"string","value":"innerWall"},{"name":"l2","type":"string","value":"7"},{"name":"z","type":"int","value":3},{"name":"zM","type":"int","value":39},{"name":"f","type":"int","value":0}],"gid":175,"width":339,"height":105},{"id":17,"x":-70,"y":44,"visible":true,"properties":[{"name":"layer","type":"int","value":1},{"name":"resource_index","type":"int","value":16},{"name":"oS","type":"string","value":"Tdungeon3"},{"name":"l0","type":"string","value":"shopPart1"},{"name":"l1","type":"string","value":"base"},{"name":"l2","type":"string","value":"9"},{"name":"z","type":"int","value":8},{"name":"zM","type":"int","value":39},{"name":"f","type":"int","value":0}],"gid":58,"width":358,"height":105},{"id":18,"x":-84,"y":94,"visible":true,"properties":[{"name":"layer","type":"int","value":1},{"name":"resource_index","type":"int","value":17},{"name":"oS","type":"string","value":"Tdungeon3"},{"name":"l0","type":"string","value":"shopPart1"},{"name":"l1","type":"string","value":"base"},{"name":"l2","type":"string","value":"8"},{"name":"z","type":"int","value":5},{"name":"zM","type":"int","value":39},{"name":"f","type":"int","value":0}],"gid":59,"width":386,"height":260},{"id":19,"x":-99,"y":-96,"visible":true,"properties":[{"name":"layer","type":"int","value":1},{"name":"resource_index","type":"int","value":18},{"name":"oS","type":"string","value":"Tdungeon3"},{"name":"l0","type":"string","value":"shopPart1"},{"name":"l1","type":"string","value":"mainSign"},{"name":"l2","type":"string","value":"2"},{"name":"z","type":"int","value":9},{"name":"zM","type":"int","value":39},{"name":"f","type":"int","value":0}],"gid":143,"width":288,"height":66},{"id":20,"x":-86,"y":-109,"visible":true,"properties":[{"name":"layer","type":"int","value":1},{"name":"resource_index","type":"int","value":19},{"name":"oS","type":"string","value":"Tdungeon3"},{"name":"l0","type":"string","value":"shopPart1"},{"name":"l1","type":"string","value":"logo"},{"name":"l2","type":"string","value":"5"},{"name":"z","type":"int","value":10},{"name":"zM","type":"int","value":39},{"name":"f","type":"int","value":0}],"gid":75,"width":234,"height":44},{"id":21,"x":-93,"y":-17,"visible":true,"properties":[{"name":"layer","type":"int","value":1},{"name":"resource_index","type":"int","value":20},{"name":"oS","type":"string","value":"Tdungeon3"},{"name":"l0","type":"string","value":"shopPart1"},{"name":"l1","type":"string","value":"light"},{"name":"l2","type":"string","value":"3"},{"name":"z","type":"int","value":11},{"name":"zM","type":"int","value":39},{"name":"f","type":"int","value":0}],"gid":111,"width":182,"height":121},{"id":22,"x":207,"y":-85,"visible":true,"properties":[{"name":"layer","type":"int","value":1},{"name":"resource_index","type":"int","value":21},{"name":"oS","type":"string","value":"Tdungeon3"},{"name":"l0","type":"string","value":"shopPart1"},{"name":"l1","type":"string","value":"fan"},{"name":"l2","type":"string","value":"0"},{"name":"z","type":"int","value":11},{"name":"zM","type":"int","value":39},{"name":"f","type":"int","value":0}],"gid":54,"width":59,"height":58},{"id":23,"x":-65,"y":90,"visible":true,"properties":[{"name":"layer","type":"int","value":1},{"name":"resource_index","type":"int","value":22},{"name":"oS","type":"string","value":"Tdungeon3"},{"name":"l0","type":"string","value":"shopPart1"},{"name":"l1","type":"string","value":"fan"},{"name":"l2","type":"string","value":"1"},{"name":"z","type":"int","value":9},{"name":"zM","type":"int","value":39},{"name":"f","type":"int","value":0}],"gid":56,"width":102,"height":24},{"id":24,"x":104,"y":74,"visible":true,"properties":[{"name":"layer","type":"int","value":1},{"name":"resource_index","type":"int","value":23},{"name":"oS","type":"string","value":"Tdungeon3"},{"name":"l0","type":"string","value":"shopPart1"},{"name":"l1","type":"string","value":"door"},{"name":"l2","type":"string","value":"1"},{"name":"z","type":"int","value":10},{"name":"zM","type":"int","value":39},{"name":"f","type":"int","value":0}],"gid":70,"width":66,"height":120},{"id":25,"x":88,"y":-18,"visible":true,"properties":[{"name":"layer","type":"int","value":1},{"name":"resource_index","type":"int","value":24},{"name":"oS","type":"string","value":"Tdungeon3"},{"name":"l0","type":"string","value":"shopPart1"},{"name":"l1","type":"string","value":"light"},{"name":"l2","type":"string","value":"1"},{"name":"z","type":"int","value":11},{"name":"zM","type":"int","value":39},{"name":"f","type":"int","value":0}],"gid":109,"width":91,"height":62},{"id":26,"x":-524,"y":93,"visible":true,"properties":[{"name":"layer","type":"int","value":1},{"name":"resource_index","type":"int","value":25},{"name":"oS","type":"string","value":"Tdungeon3"},{"name":"l0","type":"string","value":"madeShop"},{"name":"l1","type":"string","value":"AtoZ"},{"name":"l2","type":"string","value":"0"},{"name":"z","type":"int","value":1},{"name":"zM","type":"int","value":39},{"name":"f","type":"int","value":0}],"gid":52,"width":468,"height":259},{"id":27,"x":-1017,"y":90,"visible":true,"properties":[{"name":"layer","type":"int","value":1},{"name":"resource_index","type":"int","value":26},{"name":"oS","type":"string","value":"Tdungeon3"},{"name":"l0","type":"string","value":"madeShop"},{"name":"l1","type":"string","value":"starPotion"},{"name":"l2","type":"string","value":"0"},{"name":"z","type":"int","value":0},{"name":"zM","type":"int","value":39},{"name":"f","type":"int","value":0}],"gid":167,"width":529,"height":258}],"properties":[]},{"id":6,"name":"layer_2_obj","type":"objectgroup","visible":true,"opacity":1,"draworder":"index","offsetx":0,"offsety":0,"parallaxx":1,"parallaxy":1,"objects":[{"id":28,"x":802,"y":414,"visible":true,"properties":[{"name":"layer","type":"int","value":2},{"name":"resource_index","type":"int","value":0},{"name":"oS","type":"string","value":"Tdungeon3"},{"name":"l0","type":"string","value":"ani"},{"name":"l1","type":"string","value":"escalator"},{"name":"l2","type":"string","value":"0"},{"name":"z","type":"int","value":20},{"name":"zM","type":"int","value":13},{"name":"f","type":"int","value":1}],"gid":45,"width":410,"height":327},{"id":29,"x":629,"y":417,"visible":true,"properties":[{"name":"layer","type":"int","value":2},{"name":"resource_index","type":"int","value":1},{"name":"oS","type":"string","value":"Tdungeon3"},{"name":"l0","type":"string","value":"basic"},{"name":"l1","type":"string","value":"stairs"},{"name":"l2","type":"string","value":"1"},{"name":"z","type":"int","value":19},{"name":"zM","type":"int","value":13},{"name":"f","type":"int","value":1}],"gid":36,"width":514,"height":410},{"id":30,"x":-875,"y":418,"visible":true,"properties":[{"name":"layer","type":"int","value":2},{"name":"resource_index","type":"int","value":2},{"name":"oS","type":"string","value":"Tdungeon3"},{"name":"l0","type":"string","value":"basic"},{"name":"l1","type":"string","value":"stairs"},{"name":"l2","type":"string","value":"1"},{"name":"z","type":"int","value":10},{"name":"zM","type":"int","value":12},{"name":"f","type":"int","value":0}],"gid":36,"width":514,"height":410},{"id":31,"x":-905,"y":417,"visible":true,"properties":[{"name":"layer","type":"int","value":2},{"name":"resource_index","type":"int","value":3},{"name":"oS","type":"string","value":"Tdungeon3"},{"name":"l0","type":"string","value":"ani"},{"name":"l1","type":"string","value":"escalator"},{"name":"l2","type":"string","value":"1"},{"name":"z","type":"int","value":11},{"name":"zM","type":"int","value":12},{"name":"f","type":"int","value":0}],"gid":46,"width":402,"height":329},{"id":32,"x":-150,"y":423,"visible":true,"properties":[{"name":"layer","type":"int","value":2},{"name":"resource_index","type":"int","value":4},{"name":"oS","type":"string","value":"Tdungeon3"},{"name":"l0","type":"string","value":"madeShop"},{"name":"l1","type":"string","value":"Oz"},{"name":"l2","type":"string","value":"0"},{"name":"z","type":"int","value":9},{"name":"zM","type":"int","value":14},{"name":"f","type":"int","value":0}],"gid":35,"width":568,"height":255},{"id":33,"x":-624,"y":434,"visible":true,"properties":[{"name":"layer","type":"int","value":2},{"name":"resource_index","type":"int","value":5},{"name":"oS","type":"string","value":"Tdungeon3"},{"name":"l0","type":"string","value":"madeShop"},{"name":"l1","type":"string","value":"fuma"},{"name":"l2","type":"string","value":"0"},{"name":"z","type":"int","value":7},{"name":"zM","type":"int","value":12},{"name":"f","type":"int","value":0}],"gid":53,"width":500,"height":262},{"id":34,"x":393,"y":417,"visible":true,"properties":[{"name":"layer","type":"int","value":2},{"name":"resource_index","type":"int","value":6},{"name":"oS","type":"string","value":"Tdungeon3"},{"name":"l0","type":"string","value":"shopPart1"},{"name":"l1","type":"string","value":"base"},{"name":"l2","type":"string","value":"12"},{"name":"z","type":"int","value":10},{"name":"zM","type":"int","value":13},{"name":"f","type":"int","value":0}],"gid":68,"width":444,"height":258},{"id":35,"x":558,"y":394,"visible":true,"properties":[{"name":"layer","type":"int","value":2},{"name":"resource_index","type":"int","value":7},{"name":"oS","type":"string","value":"Tdungeon3"},{"name":"l0","type":"string","value":"shopPart2"},{"name":"l1","type":"string","value":"innerWall"},{"name":"l2","type":"string","value":"0"},{"name":"z","type":"int","value":8},{"name":"zM","type":"int","value":13},{"name":"f","type":"int","value":0}],"gid":183,"width":269,"height":152},{"id":36,"x":560,"y":389,"visible":true,"properties":[{"name":"layer","type":"int","value":2},{"name":"resource_index","type":"int","value":8},{"name":"oS","type":"string","value":"Tdungeon3"},{"name":"l0","type":"string","value":"shopPart1"},{"name":"l1","type":"string","value":"product"},{"name":"l2","type":"string","value":"2"},{"name":"z","type":"int","value":9},{"name":"zM","type":"int","value":13},{"name":"f","type":"int","value":1}],"gid":130,"width":120,"height":90},{"id":37,"x":673,"y":389,"visible":true,"properties":[{"name":"layer","type":"int","value":2},{"name":"resource_index","type":"int","value":9},{"name":"oS","type":"string","value":"Tdungeon3"},{"name":"l0","type":"string","value":"shopPart1"},{"name":"l1","type":"string","value":"dpBox"},{"name":"l2","type":"string","value":"0"},{"name":"z","type":"int","value":8},{"name":"zM","type":"int","value":13},{"name":"f","type":"int","value":0}],"gid":104,"width":62,"height":30},{"id":38,"x":671,"y":359,"visible":true,"properties":[{"name":"layer","type":"int","value":2},{"name":"resource_index","type":"int","value":10},{"name":"oS","type":"string","value":"Tdungeon3"},{"name":"l0","type":"string","value":"shopPart1"},{"name":"l1","type":"string","value":"dpBox"},{"name":"l2","type":"string","value":"2"},{"name":"z","type":"int","value":8},{"name":"zM","type":"int","value":13},{"name":"f","type":"int","value":0}],"gid":105,"width":62,"height":30},{"id":39,"x":642,"y":330,"visible":true,"properties":[{"name":"layer","type":"int","value":2},{"name":"resource_index","type":"int","value":11},{"name":"oS","type":"string","value":"Tdungeon3"},{"name":"l0","type":"string","value":"shopPart1"},{"name":"l1","type":"string","value":"dpBox"},{"name":"l2","type":"string","value":"3"},{"name":"z","type":"int","value":8},{"name":"zM","type":"int","value":13},{"name":"f","type":"int","value":0}],"gid":106,"width":62,"height":30},{"id":40,"x":614,"y":300,"visible":true,"properties":[{"name":"layer","type":"int","value":2},{"name":"resource_index","type":"int","value":12},{"name":"oS","type":"string","value":"Tdungeon3"},{"name":"l0","type":"string","value":"shopPart1"},{"name":"l1","type":"string","value":"dpBox"},{"name":"l2","type":"string","value":"4"},{"name":"z","type":"int","value":8},{"name":"zM","type":"int","value":13},{"name":"f","type":"int","value":0}],"gid":103,"width":62,"height":30},{"id":41,"x":430,"y":416,"visible":true,"properties":[{"name":"layer","type":"int","value":2},{"name":"resource_index","type":"int","value":13},{"name":"oS","type":"string","value":"Tdungeon3"},{"name":"l0","type":"string","value":"shopPart2"},{"name":"l1","type":"string","value":"innerWall"},{"name":"l2","type":"string","value":"2"},{"name":"z","type":"int","value":1},{"name":"zM","type":"int","value":13},{"name":"f","type":"int","value":0}],"gid":181,"width":269,"height":152},{"id":42,"x":424,"y":244,"visible":true,"properties":[{"name":"layer","type":"int","value":2},{"name":"resource_index","type":"int","value":14},{"name":"oS","type":"string","value":"Tdungeon3"},{"name":"l0","type":"string","value":"shopPart1"},{"name":"l1","type":"string","value":"mainSign"},{"name":"l2","type":"string","value":"3"},{"name":"z","type":"int","value":11},{"name":"zM","type":"int","value":13},{"name":"f","type":"int","value":0}],"gid":145,"width":289,"height":67},{"id":43,"x":457,"y":223,"visible":true,"properties":[{"name":"layer","type":"int","value":2},{"name":"resource_index","type":"int","value":15},{"name":"oS","type":"string","value":"Tdungeon3"},{"name":"l0","type":"string","value":"shopPart1"},{"name":"l1","type":"string","value":"logo"},{"name":"l2","type":"string","value":"3"},{"name":"z","type":"int","value":13},{"name":"zM","type":"int","value":13},{"name":"f","type":"int","value":0}],"gid":77,"width":186,"height":32},{"id":44,"x":385,"y":250,"visible":true,"properties":[{"name":"layer","type":"int","value":2},{"name":"resource_index","type":"int","value":16},{"name":"oS","type":"string","value":"Tdungeon3"},{"name":"l0","type":"string","value":"shopPart2"},{"name":"l1","type":"string","value":"light"},{"name":"l2","type":"string","value":"0"},{"name":"z","type":"int","value":13},{"name":"zM","type":"int","value":13},{"name":"f","type":"int","value":0}],"gid":116,"width":89,"height":73},{"id":45,"x":601,"y":250,"visible":true,"properties":[{"name":"layer","type":"int","value":2},{"name":"resource_index","type":"int","value":17},{"name":"oS","type":"string","value":"Tdungeon3"},{"name":"l0","type":"string","value":"shopPart2"},{"name":"l1","type":"string","value":"light"},{"name":"l2","type":"string","value":"0"},{"name":"z","type":"int","value":13},{"name":"zM","type":"int","value":13},{"name":"f","type":"int","value":0}],"gid":116,"width":89,"height":73},{"id":46,"x":631,"y":416,"visible":true,"properties":[{"name":"layer","type":"int","value":2},{"name":"resource_index","type":"int","value":18},{"name":"oS","type":"string","value":"Tdungeon3"},{"name":"l0","type":"string","value":"shopPart1"},{"name":"l1","type":"string","value":"fan"},{"name":"l2","type":"string","value":"1"},{"name":"z","type":"int","value":12},{"name":"zM","type":"int","value":13},{"name":"f","type":"int","value":0}],"gid":56,"width":102,"height":24},{"id":47,"x":801,"y":416,"visible":true,"properties":[{"name":"layer","type":"int","value":2},{"name":"resource_index","type":"int","value":19},{"name":"oS","type":"string","value":"Tdungeon3"},{"name":"l0","type":"string","value":"shopPart1"},{"name":"l1","type":"string","value":"base"},{"name":"l2","type":"string","value":"10"},{"name":"z","type":"int","value":10},{"name":"zM","type":"int","value":13},{"name":"f","type":"int","value":0}],"gid":62,"width":441,"height":260},{"id":48,"x":778,"y":427,"visible":true,"properties":[{"name":"layer","type":"int","value":2},{"name":"resource_index","type":"int","value":20},{"name":"oS","type":"string","value":"Tdungeon3"},{"name":"l0","type":"string","value":"madeShop"},{"name":"l1","type":"string","value":"skinCare"},{"name":"l2","type":"string","value":"2"},{"name":"z","type":"int","value":9},{"name":"zM","type":"int","value":13},{"name":"f","type":"int","value":0}],"gid":121,"width":435,"height":186},{"id":49,"x":890,"y":241,"visible":true,"properties":[{"name":"layer","type":"int","value":2},{"name":"resource_index","type":"int","value":21},{"name":"oS","type":"string","value":"Tdungeon3"},{"name":"l0","type":"string","value":"shopPart2"},{"name":"l1","type":"string","value":"mainSign"},{"name":"l2","type":"string","value":"4"},{"name":"z","type":"int","value":10},{"name":"zM","type":"int","value":13},{"name":"f","type":"int","value":0}],"gid":148,"width":231,"height":79},{"id":50,"x":-240,"y":419,"visible":true,"properties":[{"name":"layer","type":"int","value":2},{"name":"resource_index","type":"int","value":22},{"name":"oS","type":"string","value":"Tdungeon3"},{"name":"l0","type":"string","value":"basic"},{"name":"l1","type":"string","value":"xBanner"},{"name":"l2","type":"string","value":"0"},{"name":"z","type":"int","value":20},{"name":"zM","type":"int","value":12},{"name":"f","type":"int","value":0}],"gid":51,"width":91,"height":158},{"id":51,"x":-791,"y":418,"visible":true,"properties":[{"name":"layer","type":"int","value":2},{"name":"resource_index","type":"int","value":23},{"name":"oS","type":"string","value":"Tdungeon3"},{"name":"l0","type":"string","value":"basic"},{"name":"l1","type":"string","value":"robby"},{"name":"l2","type":"string","value":"6"},{"name":"z","type":"int","value":9},{"name":"zM","type":"int","value":12},{"name":"f","type":"int","value":0}],"gid":31,"width":45,"height":74},{"id":52,"x":-1092,"y":417,"visible":true,"properties":[{"name":"layer","type":"int","value":2},{"name":"resource_index","type":"int","value":24},{"name":"oS","type":"string","value":"Tdungeon3"},{"name":"l0","type":"string","value":"basic"},{"name":"l1","type":"string","value":"robby"},{"name":"l2","type":"string","value":"10"},{"name":"z","type":"int","value":8},{"name":"zM","type":"int","value":15},{"name":"f","type":"int","value":0}],"gid":33,"width":112,"height":166},{"id":53,"x":-909,"y":417,"visible":true,"properties":[{"name":"layer","type":"int","value":2},{"name":"resource_index","type":"int","value":25},{"name":"oS","type":"string","value":"Tdungeon3"},{"name":"l0","type":"string","value":"basic"},{"name":"l1","type":"string","value":"robby"},{"name":"l2","type":"string","value":"6"},{"name":"z","type":"int","value":12},{"name":"zM","type":"int","value":12},{"name":"f","type":"int","value":0}],"gid":31,"width":45,"height":74},{"id":54,"x":-882,"y":359,"visible":true,"properties":[{"name":"layer","type":"int","value":2},{"name":"resource_index","type":"int","value":26},{"name":"oS","type":"string","value":"Tdungeon3"},{"name":"l0","type":"string","value":"basic"},{"name":"l1","type":"string","value":"robby"},{"name":"l2","type":"string","value":"7"},{"name":"z","type":"int","value":4},{"name":"zM","type":"int","value":12},{"name":"f","type":"int","value":0}],"gid":32,"width":106,"height":10},{"id":55,"x":-604,"y":226,"visible":true,"properties":[{"name":"layer","type":"int","value":2},{"name":"resource_index","type":"int","value":27},{"name":"oS","type":"string","value":"Tdungeon3"},{"name":"l0","type":"string","value":"ani"},{"name":"l1","type":"string","value":"signboard"},{"name":"l2","type":"string","value":"1"},{"name":"z","type":"int","value":9},{"name":"zM","type":"int","value":12},{"name":"f","type":"int","value":0}],"gid":48,"width":222,"height":45}],"properties":[]},{"id":7,"name":"layer_3_obj","type":"objectgroup","visible":true,"opacity":1,"draworder":"index","offsetx":0,"offsety":0,"parallaxx":1,"parallaxy":1,"objects":[{"id":56,"x":428,"y":491,"visible":true,"properties":[{"name":"layer","type":"int","value":3},{"name":"resource_index","type":"int","value":0},{"name":"oS","type":"string","value":"Tdungeon3"},{"name":"l0","type":"string","value":"basic"},{"name":"l1","type":"string","value":"foot"},{"name":"l2","type":"string","value":"1"},{"name":"z","type":"int","value":15},{"name":"zM","type":"int","value":0},{"name":"f","type":"int","value":0}],"gid":5,"width":167,"height":80},{"id":57,"x":262,"y":488,"visible":true,"properties":[{"name":"layer","type":"int","value":3},{"name":"resource_index","type":"int","value":1},{"name":"oS","type":"string","value":"Tdungeon3"},{"name":"l0","type":"string","value":"basic"},{"name":"l1","type":"string","value":"foot"},{"name":"l2","type":"string","value":"2"},{"name":"z","type":"int","value":15},{"name":"zM","type":"int","value":0},{"name":"f","type":"int","value":0}],"gid":6,"width":167,"height":88},{"id":58,"x":95,"y":491,"visible":true,"properties":[{"name":"layer","type":"int","value":3},{"name":"resource_index","type":"int","value":2},{"name":"oS","type":"string","value":"Tdungeon3"},{"name":"l0","type":"string","value":"basic"},{"name":"l1","type":"string","value":"foot"},{"name":"l2","type":"string","value":"1"},{"name":"z","type":"int","value":15},{"name":"zM","type":"int","value":1},{"name":"f","type":"int","value":0}],"gid":5,"width":167,"height":80},{"id":59,"x":-571,"y":491,"visible":true,"properties":[{"name":"layer","type":"int","value":3},{"name":"resource_index","type":"int","value":3},{"name":"oS","type":"string","value":"Tdungeon3"},{"name":"l0","type":"string","value":"basic"},{"name":"l1","type":"string","value":"foot"},{"name":"l2","type":"string","value":"1"},{"name":"z","type":"int","value":15},{"name":"zM","type":"int","value":2},{"name":"f","type":"int","value":0}],"gid":5,"width":167,"height":80},{"id":60,"x":-404,"y":488,"visible":true,"properties":[{"name":"layer","type":"int","value":3},{"name":"resource_index","type":"int","value":4},{"name":"oS","type":"string","value":"Tdungeon3"},{"name":"l0","type":"string","value":"basic"},{"name":"l1","type":"string","value":"foot"},{"name":"l2","type":"string","value":"2"},{"name":"z","type":"int","value":15},{"name":"zM","type":"int","value":3},{"name":"f","type":"int","value":0}],"gid":6,"width":167,"height":88},{"id":61,"x":-238,"y":491,"visible":true,"properties":[{"name":"layer","type":"int","value":3},{"name":"resource_index","type":"int","value":5},{"name":"oS","type":"string","value":"Tdungeon3"},{"name":"l0","type":"string","value":"basic"},{"name":"l1","type":"string","value":"foot"},{"name":"l2","type":"string","value":"1"},{"name":"z","type":"int","value":15},{"name":"zM","type":"int","value":3},{"name":"f","type":"int","value":0}],"gid":5,"width":167,"height":80},{"id":62,"x":-71,"y":488,"visible":true,"properties":[{"name":"layer","type":"int","value":3},{"name":"resource_index","type":"int","value":6},{"name":"oS","type":"string","value":"Tdungeon3"},{"name":"l0","type":"string","value":"basic"},{"name":"l1","type":"string","value":"foot"},{"name":"l2","type":"string","value":"2"},{"name":"z","type":"int","value":15},{"name":"zM","type":"int","value":1},{"name":"f","type":"int","value":0}],"gid":6,"width":167,"height":88},{"id":63,"x":-738,"y":488,"visible":true,"properties":[{"name":"layer","type":"int","value":3},{"name":"resource_index","type":"int","value":7},{"name":"oS","type":"string","value":"Tdungeon3"},{"name":"l0","type":"string","value":"basic"},{"name":"l1","type":"string","value":"foot"},{"name":"l2","type":"string","value":"2"},{"name":"z","type":"int","value":15},{"name":"zM","type":"int","value":7},{"name":"f","type":"int","value":0}],"gid":6,"width":167,"height":88},{"id":64,"x":-905,"y":491,"visible":true,"properties":[{"name":"layer","type":"int","value":3},{"name":"resource_index","type":"int","value":8},{"name":"oS","type":"string","value":"Tdungeon3"},{"name":"l0","type":"string","value":"basic"},{"name":"l1","type":"string","value":"foot"},{"name":"l2","type":"string","value":"1"},{"name":"z","type":"int","value":15},{"name":"zM","type":"int","value":4},{"name":"f","type":"int","value":0}],"gid":5,"width":167,"height":80},{"id":65,"x":595,"y":488,"visible":true,"properties":[{"name":"layer","type":"int","value":3},{"name":"resource_index","type":"int","value":9},{"name":"oS","type":"string","value":"Tdungeon3"},{"name":"l0","type":"string","value":"basic"},{"name":"l1","type":"string","value":"foot"},{"name":"l2","type":"string","value":"2"},{"name":"z","type":"int","value":15},{"name":"zM","type":"int","value":6},{"name":"f","type":"int","value":0}],"gid":6,"width":167,"height":88},{"id":66,"x":762,"y":491,"visible":true,"properties":[{"name":"layer","type":"int","value":3},{"name":"resource_index","type":"int","value":10},{"name":"oS","type":"string","value":"Tdungeon3"},{"name":"l0","type":"string","value":"basic"},{"name":"l1","type":"string","value":"foot"},{"name":"l2","type":"string","value":"1"},{"name":"z","type":"int","value":15},{"name":"zM","type":"int","value":5},{"name":"f","type":"int","value":0}],"gid":5,"width":167,"height":80},{"id":67,"x":929,"y":488,"visible":true,"properties":[{"name":"layer","type":"int","value":3},{"name":"resource_index","type":"int","value":11},{"name":"oS","type":"string","value":"Tdungeon3"},{"name":"l0","type":"string","value":"basic"},{"name":"l1","type":"string","value":"foot"},{"name":"l2","type":"string","value":"0"},{"name":"z","type":"int","value":9},{"name":"zM","type":"int","value":8},{"name":"f","type":"int","value":0}],"gid":7,"width":167,"height":72},{"id":68,"x":1263,"y":488,"visible":true,"properties":[{"name":"layer","type":"int","value":3},{"name":"resource_index","type":"int","value":12},{"name":"oS","type":"string","value":"Tdungeon3"},{"name":"l0","type":"string","value":"basic"},{"name":"l1","type":"string","value":"foot"},{"name":"l2","type":"string","value":"3"},{"name":"z","type":"int","value":15},{"name":"zM","type":"int","value":9},{"name":"f","type":"int","value":0}],"gid":8,"width":167,"height":72},{"id":69,"x":-1072,"y":488,"visible":true,"properties":[{"name":"layer","type":"int","value":3},{"name":"resource_index","type":"int","value":13},{"name":"oS","type":"string","value":"Tdungeon3"},{"name":"l0","type":"string","value":"basic"},{"name":"l1","type":"string","value":"foot"},{"name":"l2","type":"string","value":"0"},{"name":"z","type":"int","value":15},{"name":"zM","type":"int","value":10},{"name":"f","type":"int","value":0}],"gid":7,"width":167,"height":72},{"id":70,"x":-1238,"y":488,"visible":true,"properties":[{"name":"layer","type":"int","value":3},{"name":"resource_index","type":"int","value":14},{"name":"oS","type":"string","value":"Tdungeon3"},{"name":"l0","type":"string","value":"basic"},{"name":"l1","type":"string","value":"foot"},{"name":"l2","type":"string","value":"3"},{"name":"z","type":"int","value":15},{"name":"zM","type":"int","value":10},{"name":"f","type":"int","value":0}],"gid":8,"width":167,"height":72},{"id":71,"x":1096,"y":488,"visible":true,"properties":[{"name":"layer","type":"int","value":3},{"name":"resource_index","type":"int","value":15},{"name":"oS","type":"string","value":"Tdungeon3"},{"name":"l0","type":"string","value":"basic"},{"name":"l1","type":"string","value":"foot"},{"name":"l2","type":"string","value":"0"},{"name":"z","type":"int","value":9},{"name":"zM","type":"int","value":11},{"name":"f","type":"int","value":0}],"gid":7,"width":167,"height":72},{"id":72,"x":-1025,"y":418,"visible":true,"properties":[{"name":"layer","type":"int","value":3},{"name":"resource_index","type":"int","value":16},{"name":"oS","type":"string","value":"Tdungeon3"},{"name":"l0","type":"string","value":"basic"},{"name":"l1","type":"string","value":"stairs"},{"name":"l2","type":"string","value":"0"},{"name":"z","type":"int","value":8},{"name":"zM","type":"int","value":2},{"name":"f","type":"int","value":0}],"gid":37,"width":514,"height":410},{"id":73,"x":738,"y":417,"visible":true,"properties":[{"name":"layer","type":"int","value":3},{"name":"resource_index","type":"int","value":17},{"name":"oS","type":"string","value":"Tdungeon3"},{"name":"l0","type":"string","value":"basic"},{"name":"l1","type":"string","value":"stairs"},{"name":"l2","type":"string","value":"0"},{"name":"z","type":"int","value":7},{"name":"zM","type":"int","value":6},{"name":"f","type":"int","value":1}],"gid":37,"width":514,"height":410}],"properties":[]},{"id":8,"name":"layer_4_obj","type":"objectgroup","visible":true,"opacity":1,"draworder":"index","offsetx":0,"offsety":0,"parallaxx":1,"parallaxy":1,"objects":[{"id":74,"x":-1238,"y":161,"visible":true,"properties":[{"name":"layer","type":"int","value":4},{"name":"resource_index","type":"int","value":0},{"name":"oS","type":"string","value":"Tdungeon3"},{"name":"l0","type":"string","value":"basic"},{"name":"l1","type":"string","value":"foot"},{"name":"l2","type":"string","value":"3"},{"name":"z","type":"int","value":9},{"name":"zM","type":"int","value":38},{"name":"f","type":"int","value":0}],"gid":8,"width":167,"height":72},{"id":75,"x":-1071,"y":161,"visible":true,"properties":[{"name":"layer","type":"int","value":4},{"name":"resource_index","type":"int","value":1},{"name":"oS","type":"string","value":"Tdungeon3"},{"name":"l0","type":"string","value":"basic"},{"name":"l1","type":"string","value":"foot"},{"name":"l2","type":"string","value":"0"},{"name":"z","type":"int","value":9},{"name":"zM","type":"int","value":32},{"name":"f","type":"int","value":0}],"gid":7,"width":167,"height":72},{"id":76,"x":-737,"y":161,"visible":true,"properties":[{"name":"layer","type":"int","value":4},{"name":"resource_index","type":"int","value":2},{"name":"oS","type":"string","value":"Tdungeon3"},{"name":"l0","type":"string","value":"basic"},{"name":"l1","type":"string","value":"foot"},{"name":"l2","type":"string","value":"2"},{"name":"z","type":"int","value":9},{"name":"zM","type":"int","value":36},{"name":"f","type":"int","value":0}],"gid":6,"width":167,"height":88},{"id":77,"x":-1238,"y":227,"visible":true,"properties":[{"name":"layer","type":"int","value":4},{"name":"resource_index","type":"int","value":3},{"name":"oS","type":"string","value":"Tdungeon3"},{"name":"l0","type":"string","value":"basic"},{"name":"l1","type":"string","value":"foot"},{"name":"l2","type":"string","value":"5"},{"name":"z","type":"int","value":9},{"name":"zM","type":"int","value":23},{"name":"f","type":"int","value":0}],"gid":11,"width":167,"height":66},{"id":78,"x":-570,"y":164,"visible":true,"properties":[{"name":"layer","type":"int","value":4},{"name":"resource_index","type":"int","value":4},{"name":"oS","type":"string","value":"Tdungeon3"},{"name":"l0","type":"string","value":"basic"},{"name":"l1","type":"string","value":"foot"},{"name":"l2","type":"string","value":"1"},{"name":"z","type":"int","value":9},{"name":"zM","type":"int","value":27},{"name":"f","type":"int","value":0}],"gid":5,"width":167,"height":80},{"id":79,"x":-404,"y":161,"visible":true,"properties":[{"name":"layer","type":"int","value":4},{"name":"resource_index","type":"int","value":5},{"name":"oS","type":"string","value":"Tdungeon3"},{"name":"l0","type":"string","value":"basic"},{"name":"l1","type":"string","value":"foot"},{"name":"l2","type":"string","value":"2"},{"name":"z","type":"int","value":9},{"name":"zM","type":"int","value":27},{"name":"f","type":"int","value":0}],"gid":6,"width":167,"height":88},{"id":80,"x":-237,"y":164,"visible":true,"properties":[{"name":"layer","type":"int","value":4},{"name":"resource_index","type":"int","value":6},{"name":"oS","type":"string","value":"Tdungeon3"},{"name":"l0","type":"string","value":"basic"},{"name":"l1","type":"string","value":"foot"},{"name":"l2","type":"string","value":"1"},{"name":"z","type":"int","value":9},{"name":"zM","type":"int","value":28},{"name":"f","type":"int","value":0}],"gid":5,"width":167,"height":80},{"id":81,"x":-70,"y":161,"visible":true,"properties":[{"name":"layer","type":"int","value":4},{"name":"resource_index","type":"int","value":7},{"name":"oS","type":"string","value":"Tdungeon3"},{"name":"l0","type":"string","value":"basic"},{"name":"l1","type":"string","value":"foot"},{"name":"l2","type":"string","value":"2"},{"name":"z","type":"int","value":9},{"name":"zM","type":"int","value":37},{"name":"f","type":"int","value":0}],"gid":6,"width":167,"height":88},{"id":82,"x":97,"y":164,"visible":true,"properties":[{"name":"layer","type":"int","value":4},{"name":"resource_index","type":"int","value":8},{"name":"oS","type":"string","value":"Tdungeon3"},{"name":"l0","type":"string","value":"basic"},{"name":"l1","type":"string","value":"foot"},{"name":"l2","type":"string","value":"1"},{"name":"z","type":"int","value":9},{"name":"zM","type":"int","value":19},{"name":"f","type":"int","value":0}],"gid":5,"width":167,"height":80},{"id":83,"x":264,"y":161,"visible":true,"properties":[{"name":"layer","type":"int","value":4},{"name":"resource_index","type":"int","value":9},{"name":"oS","type":"string","value":"Tdungeon3"},{"name":"l0","type":"string","value":"basic"},{"name":"l1","type":"string","value":"foot"},{"name":"l2","type":"string","value":"2"},{"name":"z","type":"int","value":9},{"name":"zM","type":"int","value":31},{"name":"f","type":"int","value":0}],"gid":6,"width":167,"height":88},{"id":84,"x":431,"y":164,"visible":true,"properties":[{"name":"layer","type":"int","value":4},{"name":"resource_index","type":"int","value":10},{"name":"oS","type":"string","value":"Tdungeon3"},{"name":"l0","type":"string","value":"basic"},{"name":"l1","type":"string","value":"foot"},{"name":"l2","type":"string","value":"1"},{"name":"z","type":"int","value":9},{"name":"zM","type":"int","value":20},{"name":"f","type":"int","value":0}],"gid":5,"width":167,"height":80},{"id":85,"x":598,"y":161,"visible":true,"properties":[{"name":"layer","type":"int","value":4},{"name":"resource_index","type":"int","value":11},{"name":"oS","type":"string","value":"Tdungeon3"},{"name":"l0","type":"string","value":"basic"},{"name":"l1","type":"string","value":"foot"},{"name":"l2","type":"string","value":"2"},{"name":"z","type":"int","value":9},{"name":"zM","type":"int","value":33},{"name":"f","type":"int","value":0}],"gid":6,"width":167,"height":88},{"id":86,"x":765,"y":164,"visible":true,"properties":[{"name":"layer","type":"int","value":4},{"name":"resource_index","type":"int","value":12},{"name":"oS","type":"string","value":"Tdungeon3"},{"name":"l0","type":"string","value":"basic"},{"name":"l1","type":"string","value":"foot"},{"name":"l2","type":"string","value":"1"},{"name":"z","type":"int","value":9},{"name":"zM","type":"int","value":21},{"name":"f","type":"int","value":0}],"gid":5,"width":167,"height":80},{"id":87,"x":-904,"y":164,"visible":true,"properties":[{"name":"layer","type":"int","value":4},{"name":"resource_index","type":"int","value":13},{"name":"oS","type":"string","value":"Tdungeon3"},{"name":"l0","type":"string","value":"basic"},{"name":"l1","type":"string","value":"foot"},{"name":"l2","type":"string","value":"11"},{"name":"z","type":"int","value":9},{"name":"zM","type":"int","value":29},{"name":"f","type":"int","value":0}],"gid":9,"width":167,"height":80},{"id":88,"x":1099,"y":174,"visible":true,"properties":[{"name":"layer","type":"int","value":4},{"name":"resource_index","type":"int","value":14},{"name":"oS","type":"string","value":"Tdungeon3"},{"name":"l0","type":"string","value":"basic"},{"name":"l1","type":"string","value":"foot"},{"name":"l2","type":"string","value":"4"},{"name":"z","type":"int","value":9},{"name":"zM","type":"int","value":22},{"name":"f","type":"int","value":0}],"gid":12,"width":167,"height":13},{"id":89,"x":932,"y":161,"visible":true,"properties":[{"name":"layer","type":"int","value":4},{"name":"resource_index","type":"int","value":15},{"name":"oS","type":"string","value":"Tdungeon3"},{"name":"l0","type":"string","value":"basic"},{"name":"l1","type":"string","value":"foot"},{"name":"l2","type":"string","value":"10"},{"name":"z","type":"int","value":9},{"name":"zM","type":"int","value":30},{"name":"f","type":"int","value":0}],"gid":10,"width":167,"height":72},{"id":90,"x":1160,"y":417,"visible":true,"properties":[{"name":"layer","type":"int","value":4},{"name":"resource_index","type":"int","value":16},{"name":"oS","type":"string","value":"Tdungeon3"},{"name":"l0","type":"string","value":"basic"},{"name":"l1","type":"string","value":"robby"},{"name":"l2","type":"string","value":"11"},{"name":"z","type":"int","value":9},{"name":"zM","type":"int","value":16},{"name":"f","type":"int","value":0}],"gid":30,"width":107,"height":88},{"id":91,"x":-1071,"y":227,"visible":true,"properties":[{"name":"layer","type":"int","value":4},{"name":"resource_index","type":"int","value":17},{"name":"oS","type":"string","value":"Tdungeon3"},{"name":"l0","type":"string","value":"basic"},{"name":"l1","type":"string","value":"foot"},{"name":"l2","type":"string","value":"5"},{"name":"z","type":"int","value":9},{"name":"zM","type":"int","value":24},{"name":"f","type":"int","value":0}],"gid":11,"width":167,"height":66},{"id":92,"x":-904,"y":174,"visible":true,"properties":[{"name":"layer","type":"int","value":4},{"name":"resource_index","type":"int","value":18},{"name":"oS","type":"string","value":"Tdungeon3"},{"name":"l0","type":"string","value":"basic"},{"name":"l1","type":"string","value":"foot"},{"name":"l2","type":"string","value":"4"},{"name":"z","type":"int","value":9},{"name":"zM","type":"int","value":29},{"name":"f","type":"int","value":0}],"gid":12,"width":167,"height":13},{"id":93,"x":-737,"y":227,"visible":true,"properties":[{"name":"layer","type":"int","value":4},{"name":"resource_index","type":"int","value":19},{"name":"oS","type":"string","value":"Tdungeon3"},{"name":"l0","type":"string","value":"basic"},{"name":"l1","type":"string","value":"foot"},{"name":"l2","type":"string","value":"5"},{"name":"z","type":"int","value":9},{"name":"zM","type":"int","value":25},{"name":"f","type":"int","value":0}],"gid":11,"width":167,"height":66},{"id":94,"x":-570,"y":227,"visible":true,"properties":[{"name":"layer","type":"int","value":4},{"name":"resource_index","type":"int","value":20},{"name":"oS","type":"string","value":"Tdungeon3"},{"name":"l0","type":"string","value":"basic"},{"name":"l1","type":"string","value":"foot"},{"name":"l2","type":"string","value":"5"},{"name":"z","type":"int","value":9},{"name":"zM","type":"int","value":27},{"name":"f","type":"int","value":0}],"gid":11,"width":167,"height":66},{"id":95,"x":-403,"y":174,"visible":true,"properties":[{"name":"layer","type":"int","value":4},{"name":"resource_index","type":"int","value":21},{"name":"oS","type":"string","value":"Tdungeon3"},{"name":"l0","type":"string","value":"basic"},{"name":"l1","type":"string","value":"foot"},{"name":"l2","type":"string","value":"4"},{"name":"z","type":"int","value":9},{"name":"zM","type":"int","value":27},{"name":"f","type":"int","value":0}],"gid":12,"width":167,"height":13},{"id":96,"x":-236,"y":227,"visible":true,"properties":[{"name":"layer","type":"int","value":4},{"name":"resource_index","type":"int","value":22},{"name":"oS","type":"string","value":"Tdungeon3"},{"name":"l0","type":"string","value":"basic"},{"name":"l1","type":"string","value":"foot"},{"name":"l2","type":"string","value":"5"},{"name":"z","type":"int","value":9},{"name":"zM","type":"int","value":28},{"name":"f","type":"int","value":0}],"gid":11,"width":167,"height":66},{"id":97,"x":-69,"y":227,"visible":true,"properties":[{"name":"layer","type":"int","value":4},{"name":"resource_index","type":"int","value":23},{"name":"oS","type":"string","value":"Tdungeon3"},{"name":"l0","type":"string","value":"basic"},{"name":"l1","type":"string","value":"foot"},{"name":"l2","type":"string","value":"5"},{"name":"z","type":"int","value":9},{"name":"zM","type":"int","value":19},{"name":"f","type":"int","value":0}],"gid":11,"width":167,"height":66},{"id":98,"x":98,"y":174,"visible":true,"properties":[{"name":"layer","type":"int","value":4},{"name":"resource_index","type":"int","value":24},{"name":"oS","type":"string","value":"Tdungeon3"},{"name":"l0","type":"string","value":"basic"},{"name":"l1","type":"string","value":"foot"},{"name":"l2","type":"string","value":"4"},{"name":"z","type":"int","value":9},{"name":"zM","type":"int","value":19},{"name":"f","type":"int","value":0}],"gid":12,"width":167,"height":13},{"id":99,"x":265,"y":227,"visible":true,"properties":[{"name":"layer","type":"int","value":4},{"name":"resource_index","type":"int","value":25},{"name":"oS","type":"string","value":"Tdungeon3"},{"name":"l0","type":"string","value":"basic"},{"name":"l1","type":"string","value":"foot"},{"name":"l2","type":"string","value":"5"},{"name":"z","type":"int","value":9},{"name":"zM","type":"int","value":20},{"name":"f","type":"int","value":0}],"gid":11,"width":167,"height":66},{"id":100,"x":432,"y":227,"visible":true,"properties":[{"name":"layer","type":"int","value":4},{"name":"resource_index","type":"int","value":26},{"name":"oS","type":"string","value":"Tdungeon3"},{"name":"l0","type":"string","value":"basic"},{"name":"l1","type":"string","value":"foot"},{"name":"l2","type":"string","value":"5"},{"name":"z","type":"int","value":9},{"name":"zM","type":"int","value":20},{"name":"f","type":"int","value":0}],"gid":11,"width":167,"height":66},{"id":101,"x":599,"y":174,"visible":true,"properties":[{"name":"layer","type":"int","value":4},{"name":"resource_index","type":"int","value":27},{"name":"oS","type":"string","value":"Tdungeon3"},{"name":"l0","type":"string","value":"basic"},{"name":"l1","type":"string","value":"foot"},{"name":"l2","type":"string","value":"4"},{"name":"z","type":"int","value":9},{"name":"zM","type":"int","value":21},{"name":"f","type":"int","value":0}],"gid":12,"width":167,"height":13},{"id":102,"x":766,"y":227,"visible":true,"properties":[{"name":"layer","type":"int","value":4},{"name":"resource_index","type":"int","value":28},{"name":"oS","type":"string","value":"Tdungeon3"},{"name":"l0","type":"string","value":"basic"},{"name":"l1","type":"string","value":"foot"},{"name":"l2","type":"string","value":"5"},{"name":"z","type":"int","value":9},{"name":"zM","type":"int","value":21},{"name":"f","type":"int","value":0}],"gid":11,"width":167,"height":66},{"id":103,"x":933,"y":227,"visible":true,"properties":[{"name":"layer","type":"int","value":4},{"name":"resource_index","type":"int","value":29},{"name":"oS","type":"string","value":"Tdungeon3"},{"name":"l0","type":"string","value":"basic"},{"name":"l1","type":"string","value":"foot"},{"name":"l2","type":"string","value":"5"},{"name":"z","type":"int","value":9},{"name":"zM","type":"int","value":22},{"name":"f","type":"int","value":0}],"gid":11,"width":167,"height":66},{"id":104,"x":1099,"y":161,"visible":true,"properties":[{"name":"layer","type":"int","value":4},{"name":"resource_index","type":"int","value":30},{"name":"oS","type":"string","value":"Tdungeon3"},{"name":"l0","type":"string","value":"basic"},{"name":"l1","type":"string","value":"foot"},{"name":"l2","type":"string","value":"0"},{"name":"z","type":"int","value":9},{"name":"zM","type":"int","value":34},{"name":"f","type":"int","value":0}],"gid":7,"width":167,"height":72},{"id":105,"x":1266,"y":161,"visible":true,"properties":[{"name":"layer","type":"int","value":4},{"name":"resource_index","type":"int","value":31},{"name":"oS","type":"string","value":"Tdungeon3"},{"name":"l0","type":"string","value":"basic"},{"name":"l1","type":"string","value":"foot"},{"name":"l2","type":"string","value":"3"},{"name":"z","type":"int","value":9},{"name":"zM","type":"int","value":35},{"name":"f","type":"int","value":0}],"gid":8,"width":167,"height":72},{"id":106,"x":1266,"y":227,"visible":true,"properties":[{"name":"layer","type":"int","value":4},{"name":"resource_index","type":"int","value":32},{"name":"oS","type":"string","value":"Tdungeon3"},{"name":"l0","type":"string","value":"basic"},{"name":"l1","type":"string","value":"foot"},{"name":"l2","type":"string","value":"5"},{"name":"z","type":"int","value":9},{"name":"zM","type":"int","value":26},{"name":"f","type":"int","value":0}],"gid":11,"width":167,"height":66}],"properties":[]},{"id":9,"name":"layer_5_obj","type":"objectgroup","visible":true,"opacity":1,"draworder":"index","offsetx":0,"offsety":0,"parallaxx":1,"parallaxy":1,"objects":[{"id":107,"x":-1238,"y":-177,"visible":true,"properties":[{"name":"layer","type":"int","value":5},{"name":"resource_index","type":"int","value":0},{"name":"oS","type":"string","value":"Tdungeon3"},{"name":"l0","type":"string","value":"basic"},{"name":"l1","type":"string","value":"foot"},{"name":"l2","type":"string","value":"9"},{"name":"z","type":"int","value":9},{"name":"zM","type":"int","value":48},{"name":"f","type":"int","value":0}],"gid":13,"width":167,"height":72},{"id":108,"x":-570,"y":-174,"visible":true,"properties":[{"name":"layer","type":"int","value":5},{"name":"resource_index","type":"int","value":1},{"name":"oS","type":"string","value":"Tdungeon3"},{"name":"l0","type":"string","value":"basic"},{"name":"l1","type":"string","value":"foot"},{"name":"l2","type":"string","value":"7"},{"name":"z","type":"int","value":9},{"name":"zM","type":"int","value":49},{"name":"f","type":"int","value":0}],"gid":14,"width":167,"height":80},{"id":109,"x":-570,"y":-112,"visible":true,"properties":[{"name":"layer","type":"int","value":5},{"name":"resource_index","type":"int","value":2},{"name":"oS","type":"string","value":"Tdungeon3"},{"name":"l0","type":"string","value":"basic"},{"name":"l1","type":"string","value":"foot"},{"name":"l2","type":"string","value":"5"},{"name":"z","type":"int","value":9},{"name":"zM","type":"int","value":49},{"name":"f","type":"int","value":0}],"gid":11,"width":167,"height":66},{"id":110,"x":-737,"y":-112,"visible":true,"properties":[{"name":"layer","type":"int","value":5},{"name":"resource_index","type":"int","value":3},{"name":"oS","type":"string","value":"Tdungeon3"},{"name":"l0","type":"string","value":"basic"},{"name":"l1","type":"string","value":"foot"},{"name":"l2","type":"string","value":"5"},{"name":"z","type":"int","value":9},{"name":"zM","type":"int","value":50},{"name":"f","type":"int","value":0}],"gid":11,"width":167,"height":66},{"id":111,"x":-904,"y":-165,"visible":true,"properties":[{"name":"layer","type":"int","value":5},{"name":"resource_index","type":"int","value":4},{"name":"oS","type":"string","value":"Tdungeon3"},{"name":"l0","type":"string","value":"basic"},{"name":"l1","type":"string","value":"foot"},{"name":"l2","type":"string","value":"4"},{"name":"z","type":"int","value":9},{"name":"zM","type":"int","value":56},{"name":"f","type":"int","value":0}],"gid":12,"width":167,"height":13},{"id":112,"x":-737,"y":-177,"visible":true,"properties":[{"name":"layer","type":"int","value":5},{"name":"resource_index","type":"int","value":5},{"name":"oS","type":"string","value":"Tdungeon3"},{"name":"l0","type":"string","value":"basic"},{"name":"l1","type":"string","value":"foot"},{"name":"l2","type":"string","value":"8"},{"name":"z","type":"int","value":9},{"name":"zM","type":"int","value":50},{"name":"f","type":"int","value":0}],"gid":15,"width":167,"height":88},{"id":113,"x":-904,"y":-174,"visible":true,"properties":[{"name":"layer","type":"int","value":5},{"name":"resource_index","type":"int","value":6},{"name":"oS","type":"string","value":"Tdungeon3"},{"name":"l0","type":"string","value":"basic"},{"name":"l1","type":"string","value":"foot"},{"name":"l2","type":"string","value":"7"},{"name":"z","type":"int","value":9},{"name":"zM","type":"int","value":56},{"name":"f","type":"int","value":0}],"gid":14,"width":167,"height":80},{"id":114,"x":-1071,"y":-177,"visible":true,"properties":[{"name":"layer","type":"int","value":5},{"name":"resource_index","type":"int","value":7},{"name":"oS","type":"string","value":"Tdungeon3"},{"name":"l0","type":"string","value":"basic"},{"name":"l1","type":"string","value":"foot"},{"name":"l2","type":"string","value":"6"},{"name":"z","type":"int","value":9},{"name":"zM","type":"int","value":51},{"name":"f","type":"int","value":0}],"gid":16,"width":167,"height":72},{"id":115,"x":-403,"y":-177,"visible":true,"properties":[{"name":"layer","type":"int","value":5},{"name":"resource_index","type":"int","value":8},{"name":"oS","type":"string","value":"Tdungeon3"},{"name":"l0","type":"string","value":"basic"},{"name":"l1","type":"string","value":"foot"},{"name":"l2","type":"string","value":"8"},{"name":"z","type":"int","value":9},{"name":"zM","type":"int","value":57},{"name":"f","type":"int","value":0}],"gid":15,"width":167,"height":88},{"id":116,"x":-236,"y":-174,"visible":true,"properties":[{"name":"layer","type":"int","value":5},{"name":"resource_index","type":"int","value":9},{"name":"oS","type":"string","value":"Tdungeon3"},{"name":"l0","type":"string","value":"basic"},{"name":"l1","type":"string","value":"foot"},{"name":"l2","type":"string","value":"7"},{"name":"z","type":"int","value":9},{"name":"zM","type":"int","value":52},{"name":"f","type":"int","value":0}],"gid":14,"width":167,"height":80},{"id":117,"x":-69,"y":-177,"visible":true,"properties":[{"name":"layer","type":"int","value":5},{"name":"resource_index","type":"int","value":10},{"name":"oS","type":"string","value":"Tdungeon3"},{"name":"l0","type":"string","value":"basic"},{"name":"l1","type":"string","value":"foot"},{"name":"l2","type":"string","value":"8"},{"name":"z","type":"int","value":9},{"name":"zM","type":"int","value":43},{"name":"f","type":"int","value":0}],"gid":15,"width":167,"height":88},{"id":118,"x":98,"y":-174,"visible":true,"properties":[{"name":"layer","type":"int","value":5},{"name":"resource_index","type":"int","value":11},{"name":"oS","type":"string","value":"Tdungeon3"},{"name":"l0","type":"string","value":"basic"},{"name":"l1","type":"string","value":"foot"},{"name":"l2","type":"string","value":"7"},{"name":"z","type":"int","value":9},{"name":"zM","type":"int","value":55},{"name":"f","type":"int","value":0}],"gid":14,"width":167,"height":80},{"id":119,"x":265,"y":-177,"visible":true,"properties":[{"name":"layer","type":"int","value":5},{"name":"resource_index","type":"int","value":12},{"name":"oS","type":"string","value":"Tdungeon3"},{"name":"l0","type":"string","value":"basic"},{"name":"l1","type":"string","value":"foot"},{"name":"l2","type":"string","value":"8"},{"name":"z","type":"int","value":9},{"name":"zM","type":"int","value":44},{"name":"f","type":"int","value":0}],"gid":15,"width":167,"height":88},{"id":120,"x":432,"y":-174,"visible":true,"properties":[{"name":"layer","type":"int","value":5},{"name":"resource_index","type":"int","value":13},{"name":"oS","type":"string","value":"Tdungeon3"},{"name":"l0","type":"string","value":"basic"},{"name":"l1","type":"string","value":"foot"},{"name":"l2","type":"string","value":"7"},{"name":"z","type":"int","value":9},{"name":"zM","type":"int","value":45},{"name":"f","type":"int","value":0}],"gid":14,"width":167,"height":80},{"id":121,"x":599,"y":-177,"visible":true,"properties":[{"name":"layer","type":"int","value":5},{"name":"resource_index","type":"int","value":14},{"name":"oS","type":"string","value":"Tdungeon3"},{"name":"l0","type":"string","value":"basic"},{"name":"l1","type":"string","value":"foot"},{"name":"l2","type":"string","value":"8"},{"name":"z","type":"int","value":9},{"name":"zM","type":"int","value":54},{"name":"f","type":"int","value":0}],"gid":15,"width":167,"height":88},{"id":122,"x":766,"y":-174,"visible":true,"properties":[{"name":"layer","type":"int","value":5},{"name":"resource_index","type":"int","value":15},{"name":"oS","type":"string","value":"Tdungeon3"},{"name":"l0","type":"string","value":"basic"},{"name":"l1","type":"string","value":"foot"},{"name":"l2","type":"string","value":"7"},{"name":"z","type":"int","value":9},{"name":"zM","type":"int","value":46},{"name":"f","type":"int","value":0}],"gid":14,"width":167,"height":80},{"id":123,"x":933,"y":-177,"visible":true,"properties":[{"name":"layer","type":"int","value":5},{"name":"resource_index","type":"int","value":16},{"name":"oS","type":"string","value":"Tdungeon3"},{"name":"l0","type":"string","value":"basic"},{"name":"l1","type":"string","value":"foot"},{"name":"l2","type":"string","value":"6"},{"name":"z","type":"int","value":9},{"name":"zM","type":"int","value":47},{"name":"f","type":"int","value":0}],"gid":16,"width":167,"height":72},{"id":124,"x":1267,"y":-177,"visible":true,"properties":[{"name":"layer","type":"int","value":5},{"name":"resource_index","type":"int","value":17},{"name":"oS","type":"string","value":"Tdungeon3"},{"name":"l0","type":"string","value":"basic"},{"name":"l1","type":"string","value":"foot"},{"name":"l2","type":"string","value":"9"},{"name":"z","type":"int","value":9},{"name":"zM","type":"int","value":42},{"name":"f","type":"int","value":0}],"gid":13,"width":167,"height":72},{"id":125,"x":-1071,"y":-112,"visible":true,"properties":[{"name":"layer","type":"int","value":5},{"name":"resource_index","type":"int","value":18},{"name":"oS","type":"string","value":"Tdungeon3"},{"name":"l0","type":"string","value":"basic"},{"name":"l1","type":"string","value":"foot"},{"name":"l2","type":"string","value":"5"},{"name":"z","type":"int","value":9},{"name":"zM","type":"int","value":51},{"name":"f","type":"int","value":0}],"gid":11,"width":167,"height":66},{"id":126,"x":-1238,"y":-112,"visible":true,"properties":[{"name":"layer","type":"int","value":5},{"name":"resource_index","type":"int","value":19},{"name":"oS","type":"string","value":"Tdungeon3"},{"name":"l0","type":"string","value":"basic"},{"name":"l1","type":"string","value":"foot"},{"name":"l2","type":"string","value":"5"},{"name":"z","type":"int","value":9},{"name":"zM","type":"int","value":48},{"name":"f","type":"int","value":0}],"gid":11,"width":167,"height":66},{"id":127,"x":1100,"y":-248,"visible":true,"properties":[{"name":"layer","type":"int","value":5},{"name":"resource_index","type":"int","value":20},{"name":"oS","type":"string","value":"Tdungeon3"},{"name":"l0","type":"string","value":"basic"},{"name":"l1","type":"string","value":"foot"},{"name":"l2","type":"string","value":"6"},{"name":"z","type":"int","value":9},{"name":"zM","type":"int","value":58},{"name":"f","type":"int","value":0}],"gid":16,"width":167,"height":72},{"id":128,"x":933,"y":-248,"visible":true,"properties":[{"name":"layer","type":"int","value":5},{"name":"resource_index","type":"int","value":21},{"name":"oS","type":"string","value":"Tdungeon3"},{"name":"l0","type":"string","value":"basic"},{"name":"l1","type":"string","value":"foot"},{"name":"l2","type":"string","value":"6"},{"name":"z","type":"int","value":9},{"name":"zM","type":"int","value":47},{"name":"f","type":"int","value":0}],"gid":16,"width":167,"height":72},{"id":129,"x":599,"y":-248,"visible":true,"properties":[{"name":"layer","type":"int","value":5},{"name":"resource_index","type":"int","value":22},{"name":"oS","type":"string","value":"Tdungeon3"},{"name":"l0","type":"string","value":"basic"},{"name":"l1","type":"string","value":"foot"},{"name":"l2","type":"string","value":"6"},{"name":"z","type":"int","value":9},{"name":"zM","type":"int","value":54},{"name":"f","type":"int","value":0}],"gid":16,"width":167,"height":72},{"id":130,"x":766,"y":-248,"visible":true,"properties":[{"name":"layer","type":"int","value":5},{"name":"resource_index","type":"int","value":23},{"name":"oS","type":"string","value":"Tdungeon3"},{"name":"l0","type":"string","value":"basic"},{"name":"l1","type":"string","value":"foot"},{"name":"l2","type":"string","value":"6"},{"name":"z","type":"int","value":9},{"name":"zM","type":"int","value":46},{"name":"f","type":"int","value":0}],"gid":16,"width":167,"height":72},{"id":131,"x":432,"y":-248,"visible":true,"properties":[{"name":"layer","type":"int","value":5},{"name":"resource_index","type":"int","value":24},{"name":"oS","type":"string","value":"Tdungeon3"},{"name":"l0","type":"string","value":"basic"},{"name":"l1","type":"string","value":"foot"},{"name":"l2","type":"string","value":"6"},{"name":"z","type":"int","value":9},{"name":"zM","type":"int","value":45},{"name":"f","type":"int","value":0}],"gid":16,"width":167,"height":72},{"id":132,"x":265,"y":-248,"visible":true,"properties":[{"name":"layer","type":"int","value":5},{"name":"resource_index","type":"int","value":25},{"name":"oS","type":"string","value":"Tdungeon3"},{"name":"l0","type":"string","value":"basic"},{"name":"l1","type":"string","value":"foot"},{"name":"l2","type":"string","value":"6"},{"name":"z","type":"int","value":9},{"name":"zM","type":"int","value":44},{"name":"f","type":"int","value":0}],"gid":16,"width":167,"height":72},{"id":133,"x":98,"y":-248,"visible":true,"properties":[{"name":"layer","type":"int","value":5},{"name":"resource_index","type":"int","value":26},{"name":"oS","type":"string","value":"Tdungeon3"},{"name":"l0","type":"string","value":"basic"},{"name":"l1","type":"string","value":"foot"},{"name":"l2","type":"string","value":"6"},{"name":"z","type":"int","value":9},{"name":"zM","type":"int","value":55},{"name":"f","type":"int","value":0}],"gid":16,"width":167,"height":72},{"id":134,"x":-69,"y":-248,"visible":true,"properties":[{"name":"layer","type":"int","value":5},{"name":"resource_index","type":"int","value":27},{"name":"oS","type":"string","value":"Tdungeon3"},{"name":"l0","type":"string","value":"basic"},{"name":"l1","type":"string","value":"foot"},{"name":"l2","type":"string","value":"6"},{"name":"z","type":"int","value":9},{"name":"zM","type":"int","value":43},{"name":"f","type":"int","value":0}],"gid":16,"width":167,"height":72},{"id":135,"x":-236,"y":-248,"visible":true,"properties":[{"name":"layer","type":"int","value":5},{"name":"resource_index","type":"int","value":28},{"name":"oS","type":"string","value":"Tdungeon3"},{"name":"l0","type":"string","value":"basic"},{"name":"l1","type":"string","value":"foot"},{"name":"l2","type":"string","value":"6"},{"name":"z","type":"int","value":9},{"name":"zM","type":"int","value":52},{"name":"f","type":"int","value":0}],"gid":16,"width":167,"height":72},{"id":136,"x":-403,"y":-248,"visible":true,"properties":[{"name":"layer","type":"int","value":5},{"name":"resource_index","type":"int","value":29},{"name":"oS","type":"string","value":"Tdungeon3"},{"name":"l0","type":"string","value":"basic"},{"name":"l1","type":"string","value":"foot"},{"name":"l2","type":"string","value":"6"},{"name":"z","type":"int","value":9},{"name":"zM","type":"int","value":57},{"name":"f","type":"int","value":0}],"gid":16,"width":167,"height":72},{"id":137,"x":-570,"y":-248,"visible":true,"properties":[{"name":"layer","type":"int","value":5},{"name":"resource_index","type":"int","value":30},{"name":"oS","type":"string","value":"Tdungeon3"},{"name":"l0","type":"string","value":"basic"},{"name":"l1","type":"string","value":"foot"},{"name":"l2","type":"string","value":"6"},{"name":"z","type":"int","value":9},{"name":"zM","type":"int","value":49},{"name":"f","type":"int","value":0}],"gid":16,"width":167,"height":72},{"id":138,"x":-737,"y":-248,"visible":true,"properties":[{"name":"layer","type":"int","value":5},{"name":"resource_index","type":"int","value":31},{"name":"oS","type":"string","value":"Tdungeon3"},{"name":"l0","type":"string","value":"basic"},{"name":"l1","type":"string","value":"foot"},{"name":"l2","type":"string","value":"6"},{"name":"z","type":"int","value":9},{"name":"zM","type":"int","value":50},{"name":"f","type":"int","value":0}],"gid":16,"width":167,"height":72},{"id":139,"x":-1238,"y":-248,"visible":true,"properties":[{"name":"layer","type":"int","value":5},{"name":"resource_index","type":"int","value":32},{"name":"oS","type":"string","value":"Tdungeon3"},{"name":"l0","type":"string","value":"basic"},{"name":"l1","type":"string","value":"foot"},{"name":"l2","type":"string","value":"6"},{"name":"z","type":"int","value":9},{"name":"zM","type":"int","value":48},{"name":"f","type":"int","value":0}],"gid":16,"width":167,"height":72},{"id":140,"x":-904,"y":-248,"visible":true,"properties":[{"name":"layer","type":"int","value":5},{"name":"resource_index","type":"int","value":33},{"name":"oS","type":"string","value":"Tdungeon3"},{"name":"l0","type":"string","value":"basic"},{"name":"l1","type":"string","value":"foot"},{"name":"l2","type":"string","value":"6"},{"name":"z","type":"int","value":9},{"name":"zM","type":"int","value":56},{"name":"f","type":"int","value":0}],"gid":16,"width":167,"height":72},{"id":141,"x":-1071,"y":-248,"visible":true,"properties":[{"name":"layer","type":"int","value":5},{"name":"resource_index","type":"int","value":34},{"name":"oS","type":"string","value":"Tdungeon3"},{"name":"l0","type":"string","value":"basic"},{"name":"l1","type":"string","value":"foot"},{"name":"l2","type":"string","value":"6"},{"name":"z","type":"int","value":9},{"name":"zM","type":"int","value":51},{"name":"f","type":"int","value":0}],"gid":16,"width":167,"height":72},{"id":142,"x":-403,"y":-165,"visible":true,"properties":[{"name":"layer","type":"int","value":5},{"name":"resource_index","type":"int","value":35},{"name":"oS","type":"string","value":"Tdungeon3"},{"name":"l0","type":"string","value":"basic"},{"name":"l1","type":"string","value":"foot"},{"name":"l2","type":"string","value":"4"},{"name":"z","type":"int","value":9},{"name":"zM","type":"int","value":57},{"name":"f","type":"int","value":0}],"gid":12,"width":167,"height":13},{"id":143,"x":-236,"y":-112,"visible":true,"properties":[{"name":"layer","type":"int","value":5},{"name":"resource_index","type":"int","value":36},{"name":"oS","type":"string","value":"Tdungeon3"},{"name":"l0","type":"string","value":"basic"},{"name":"l1","type":"string","value":"foot"},{"name":"l2","type":"string","value":"5"},{"name":"z","type":"int","value":9},{"name":"zM","type":"int","value":52},{"name":"f","type":"int","value":0}],"gid":11,"width":167,"height":66},{"id":144,"x":-69,"y":-112,"visible":true,"properties":[{"name":"layer","type":"int","value":5},{"name":"resource_index","type":"int","value":37},{"name":"oS","type":"string","value":"Tdungeon3"},{"name":"l0","type":"string","value":"basic"},{"name":"l1","type":"string","value":"foot"},{"name":"l2","type":"string","value":"5"},{"name":"z","type":"int","value":9},{"name":"zM","type":"int","value":43},{"name":"f","type":"int","value":0}],"gid":11,"width":167,"height":66},{"id":145,"x":98,"y":-165,"visible":true,"properties":[{"name":"layer","type":"int","value":5},{"name":"resource_index","type":"int","value":38},{"name":"oS","type":"string","value":"Tdungeon3"},{"name":"l0","type":"string","value":"basic"},{"name":"l1","type":"string","value":"foot"},{"name":"l2","type":"string","value":"4"},{"name":"z","type":"int","value":9},{"name":"zM","type":"int","value":55},{"name":"f","type":"int","value":0}],"gid":12,"width":167,"height":13},{"id":146,"x":265,"y":-112,"visible":true,"properties":[{"name":"layer","type":"int","value":5},{"name":"resource_index","type":"int","value":39},{"name":"oS","type":"string","value":"Tdungeon3"},{"name":"l0","type":"string","value":"basic"},{"name":"l1","type":"string","value":"foot"},{"name":"l2","type":"string","value":"5"},{"name":"z","type":"int","value":9},{"name":"zM","type":"int","value":44},{"name":"f","type":"int","value":0}],"gid":11,"width":167,"height":66},{"id":147,"x":432,"y":-112,"visible":true,"properties":[{"name":"layer","type":"int","value":5},{"name":"resource_index","type":"int","value":40},{"name":"oS","type":"string","value":"Tdungeon3"},{"name":"l0","type":"string","value":"basic"},{"name":"l1","type":"string","value":"foot"},{"name":"l2","type":"string","value":"5"},{"name":"z","type":"int","value":9},{"name":"zM","type":"int","value":45},{"name":"f","type":"int","value":0}],"gid":11,"width":167,"height":66},{"id":148,"x":599,"y":-165,"visible":true,"properties":[{"name":"layer","type":"int","value":5},{"name":"resource_index","type":"int","value":41},{"name":"oS","type":"string","value":"Tdungeon3"},{"name":"l0","type":"string","value":"basic"},{"name":"l1","type":"string","value":"foot"},{"name":"l2","type":"string","value":"4"},{"name":"z","type":"int","value":9},{"name":"zM","type":"int","value":54},{"name":"f","type":"int","value":0}],"gid":12,"width":167,"height":13},{"id":149,"x":766,"y":-112,"visible":true,"properties":[{"name":"layer","type":"int","value":5},{"name":"resource_index","type":"int","value":42},{"name":"oS","type":"string","value":"Tdungeon3"},{"name":"l0","type":"string","value":"basic"},{"name":"l1","type":"string","value":"foot"},{"name":"l2","type":"string","value":"5"},{"name":"z","type":"int","value":9},{"name":"zM","type":"int","value":46},{"name":"f","type":"int","value":0}],"gid":11,"width":167,"height":66},{"id":150,"x":933,"y":-112,"visible":true,"properties":[{"name":"layer","type":"int","value":5},{"name":"resource_index","type":"int","value":43},{"name":"oS","type":"string","value":"Tdungeon3"},{"name":"l0","type":"string","value":"basic"},{"name":"l1","type":"string","value":"foot"},{"name":"l2","type":"string","value":"5"},{"name":"z","type":"int","value":9},{"name":"zM","type":"int","value":47},{"name":"f","type":"int","value":0}],"gid":11,"width":167,"height":66},{"id":151,"x":1100,"y":-165,"visible":true,"properties":[{"name":"layer","type":"int","value":5},{"name":"resource_index","type":"int","value":44},{"name":"oS","type":"string","value":"Tdungeon3"},{"name":"l0","type":"string","value":"basic"},{"name":"l1","type":"string","value":"foot"},{"name":"l2","type":"string","value":"4"},{"name":"z","type":"int","value":9},{"name":"zM","type":"int","value":53},{"name":"f","type":"int","value":0}],"gid":12,"width":167,"height":13},{"id":152,"x":1267,"y":-112,"visible":true,"properties":[{"name":"layer","type":"int","value":5},{"name":"resource_index","type":"int","value":45},{"name":"oS","type":"string","value":"Tdungeon3"},{"name":"l0","type":"string","value":"basic"},{"name":"l1","type":"string","value":"foot"},{"name":"l2","type":"string","value":"5"},{"name":"z","type":"int","value":9},{"name":"zM","type":"int","value":42},{"name":"f","type":"int","value":0}],"gid":11,"width":167,"height":66},{"id":153,"x":786,"y":322,"visible":true,"properties":[{"name":"layer","type":"int","value":5},{"name":"resource_index","type":"int","value":46},{"name":"oS","type":"string","value":"signboard"},{"name":"l0","type":"string","value":"market"},{"name":"l1","type":"string","value":"arrow"},{"name":"l2","type":"string","value":"4"},{"name":"z","type":"int","value":9},{"name":"zM","type":"int","value":18},{"name":"f","type":"int","value":0}],"gid":44,"width":45,"height":54},{"id":154,"x":-848,"y":90,"visible":true,"properties":[{"name":"layer","type":"int","value":5},{"name":"resource_index","type":"int","value":47},{"name":"oS","type":"string","value":"signboard"},{"name":"l0","type":"string","value":"market"},{"name":"l1","type":"string","value":"arrow"},{"name":"l2","type":"string","value":"7"},{"name":"z","type":"int","value":9},{"name":"zM","type":"int","value":40},{"name":"f","type":"int","value":0}],"gid":41,"width":45,"height":54},{"id":155,"x":1267,"y":-248,"visible":true,"properties":[{"name":"layer","type":"int","value":5},{"name":"resource_index","type":"int","value":48},{"name":"oS","type":"string","value":"Tdungeon3"},{"name":"l0","type":"string","value":"basic"},{"name":"l1","type":"string","value":"foot"},{"name":"l2","type":"string","value":"6"},{"name":"z","type":"int","value":9},{"name":"zM","type":"int","value":42},{"name":"f","type":"int","value":0}],"gid":16,"width":167,"height":72},{"id":156,"x":1100,"y":-177,"visible":true,"properties":[{"name":"layer","type":"int","value":5},{"name":"resource_index","type":"int","value":49},{"name":"oS","type":"string","value":"Tdungeon3"},{"name":"l0","type":"string","value":"basic"},{"name":"l1","type":"string","value":"foot"},{"name":"l2","type":"string","value":"6"},{"name":"z","type":"int","value":9},{"name":"zM","type":"int","value":58},{"name":"f","type":"int","value":0}],"gid":16,"width":167,"height":72},{"id":157,"x":-993,"y":417,"visible":true,"properties":[{"name":"layer","type":"int","value":5},{"name":"resource_index","type":"int","value":50},{"name":"oS","type":"string","value":"Tdungeon3"},{"name":"l0","type":"string","value":"basic"},{"name":"l1","type":"string","value":"robby"},{"name":"l2","type":"string","value":"9"},{"name":"z","type":"int","value":9},{"name":"zM","type":"int","value":17},{"name":"f","type":"int","value":0}],"gid":34,"width":85,"height":167},{"id":158,"x":1218,"y":4,"visible":true,"properties":[{"name":"layer","type":"int","value":5},{"name":"resource_index","type":"int","value":51},{"name":"oS","type":"string","value":"Tdungeon3"},{"name":"l0","type":"string","value":"basic"},{"name":"l1","type":"string","value":"rope"},{"name":"l2","type":"string","value":"0"},{"name":"z","type":"int","value":9},{"name":"zM","type":"int","value":42},{"name":"f","type":"int","value":0}],"gid":17,"width":98,"height":190},{"id":159,"x":-910,"y":271,"visible":true,"properties":[{"name":"layer","type":"int","value":5},{"name":"resource_index","type":"int","value":52},{"name":"oS","type":"string","value":"Tdungeon3"},{"name":"l0","type":"string","value":"basic"},{"name":"l1","type":"string","value":"rope"},{"name":"l2","type":"string","value":"3"},{"name":"z","type":"int","value":9},{"name":"zM","type":"int","value":17},{"name":"f","type":"int","value":0}],"gid":18,"width":86,"height":114},{"id":160,"x":-873,"y":291,"visible":true,"properties":[{"name":"layer","type":"int","value":5},{"name":"resource_index","type":"int","value":53},{"name":"oS","type":"string","value":"Tdungeon3"},{"name":"l0","type":"string","value":"basic"},{"name":"l1","type":"string","value":"rope"},{"name":"l2","type":"string","value":"4"},{"name":"z","type":"int","value":9},{"name":"zM","type":"int","value":17},{"name":"f","type":"int","value":0}],"gid":19,"width":12,"height":20},{"id":161,"x":-873,"y":311,"visible":true,"properties":[{"name":"layer","type":"int","value":5},{"name":"resource_index","type":"int","value":54},{"name":"oS","type":"string","value":"Tdungeon3"},{"name":"l0","type":"string","value":"basic"},{"name":"l1","type":"string","value":"rope"},{"name":"l2","type":"string","value":"4"},{"name":"z","type":"int","value":9},{"name":"zM","type":"int","value":17},{"name":"f","type":"int","value":0}],"gid":19,"width":12,"height":20},{"id":162,"x":-871,"y":337,"visible":true,"properties":[{"name":"layer","type":"int","value":5},{"name":"resource_index","type":"int","value":55},{"name":"oS","type":"string","value":"Tdungeon3"},{"name":"l0","type":"string","value":"basic"},{"name":"l1","type":"string","value":"rope"},{"name":"l2","type":"string","value":"5"},{"name":"z","type":"int","value":9},{"name":"zM","type":"int","value":17},{"name":"f","type":"int","value":0}],"gid":20,"width":13,"height":26},{"id":163,"x":1259,"y":30,"visible":true,"properties":[{"name":"layer","type":"int","value":5},{"name":"resource_index","type":"int","value":56},{"name":"oS","type":"string","value":"Tdungeon3"},{"name":"l0","type":"string","value":"basic"},{"name":"l1","type":"string","value":"rope"},{"name":"l2","type":"string","value":"5"},{"name":"z","type":"int","value":9},{"name":"zM","type":"int","value":41},{"name":"f","type":"int","value":0}],"gid":20,"width":13,"height":26}],"properties":[]},{"id":10,"name":"portal","type":"objectgroup","visible":true,"opacity":1,"draworder":"index","offsetx":0,"offsety":0,"parallaxx":1,"parallaxy":1,"objects":[{"id":164,"x":7,"y":397,"visible":true,"properties":[{"name":"x","type":"int","value":7},{"name":"y","type":"int","value":397},{"name":"pn","type":"string","value":"sp"},{"name":"pt","type":"int","value":0},{"name":"tm","type":"int","value":999999999},{"name":"tn","type":"string","value":""},{"name":"horizontalImpact","type":"int","value":0}],"point":true},{"id":165,"x":-1188,"y":424,"visible":true,"properties":[{"name":"x","type":"int","value":-1144},{"name":"y","type":"int","value":415},{"name":"pn","type":"string","value":"left00"},{"name":"pt","type":"int","value":2},{"name":"tm","type":"int","value":103040200},{"name":"tn","type":"string","value":"right00"},{"name":"delay","type":"int","value":0},{"name":"script","type":"string","value":""},{"name":"onlyOnce","type":"int","value":0},{"name":"hideTooltip","type":"int","value":0},{"name":"horizontalImpact","type":"int","value":0}],"gid":159,"width":89,"height":257},{"id":166,"x":1308,"y":423,"visible":true,"properties":[{"name":"x","type":"int","value":1352},{"name":"y","type":"int","value":414},{"name":"pn","type":"string","value":"right00"},{"name":"pt","type":"int","value":2},{"name":"tm","type":"int","value":103040202},{"name":"tn","type":"string","value":"left00"},{"name":"delay","type":"int","value":0},{"name":"script","type":"string","value":""},{"name":"onlyOnce","type":"int","value":0},{"name":"hideTooltip","type":"int","value":0},{"name":"horizontalImpact","type":"int","value":0}],"gid":159,"width":89,"height":257},{"id":167,"x":1309,"y":97,"visible":true,"properties":[{"name":"x","type":"int","value":1353},{"name":"y","type":"int","value":88},{"name":"pn","type":"string","value":"right01"},{"name":"pt","type":"int","value":2},{"name":"tm","type":"int","value":103040202},{"name":"tn","type":"string","value":"left01"},{"name":"delay","type":"int","value":0},{"name":"script","type":"string","value":""},{"name":"onlyOnce","type":"int","value":0},{"name":"hideTooltip","type":"int","value":0},{"name":"horizontalImpact","type":"int","value":0}],"gid":159,"width":89,"height":257},{"id":168,"x":-1196,"y":96,"visible":true,"properties":[{"name":"x","type":"int","value":-1152},{"name":"y","type":"int","value":87},{"name":"pn","type":"string","value":"left01"},{"name":"pt","type":"int","value":2},{"name":"tm","type":"int","value":103040200},{"name":"tn","type":"string","value":"right01"},{"name":"delay","type":"int","value":0},{"name":"script","type":"string","value":""},{"name":"onlyOnce","type":"int","value":0},{"name":"hideTooltip","type":"int","value":0},{"name":"horizontalImpact","type":"int","value":0}],"gid":159,"width":89,"height":257}],"properties":[]},{"id":11,"name":"life","type":"objectgroup","visible":true,"opacity":1,"draworder":"index","offsetx":0,"offsety":0,"parallaxx":1,"parallaxy":1,"objects":[{"id":169,"x":-580,"y":412,"visible":true,"properties":[{"name":"f","type":"int","value":0},{"name":"x","type":"int","value":-580},{"name":"y","type":"int","value":412},{"name":"cy","type":"int","value":416},{"name":"fh","type":"int","value":10},{"name":"id","type":"int","value":3400005},{"name":"rx0","type":"int","value":-718},{"name":"rx1","type":"int","value":-580},{"name":"hide","type":"int","value":0},{"name":"type","type":"string","value":"m"},{"name":"mobTime","type":"int","value":0}],"point":true},{"id":170,"x":-288,"y":411,"visible":true,"properties":[{"name":"f","type":"int","value":0},{"name":"x","type":"int","value":-288},{"name":"y","type":"int","value":411},{"name":"cy","type":"int","value":416},{"name":"fh","type":"int","value":8},{"name":"id","type":"int","value":3400005},{"name":"rx0","type":"int","value":-384},{"name":"rx1","type":"int","value":-91},{"name":"hide","type":"int","value":0},{"name":"type","type":"string","value":"m"},{"name":"mobTime","type":"int","value":0}],"point":true},{"id":171,"x":678,"y":84,"visible":true,"properties":[{"name":"f","type":"int","value":0},{"name":"x","type":"int","value":678},{"name":"y","type":"int","value":84},{"name":"cy","type":"int","value":89},{"name":"fh","type":"int","value":29},{"name":"id","type":"int","value":3400005},{"name":"rx0","type":"int","value":618},{"name":"rx1","type":"int","value":745},{"name":"hide","type":"int","value":0},{"name":"type","type":"string","value":"m"},{"name":"mobTime","type":"int","value":0}],"point":true},{"id":172,"x":-91,"y":409,"visible":true,"properties":[{"name":"f","type":"int","value":0},{"name":"x","type":"int","value":-91},{"name":"y","type":"int","value":409},{"name":"cy","type":"int","value":416},{"name":"fh","type":"int","value":9},{"name":"id","type":"int","value":3400005},{"name":"rx0","type":"int","value":-384},{"name":"rx1","type":"int","value":-91},{"name":"hide","type":"int","value":0},{"name":"type","type":"string","value":"m"},{"name":"mobTime","type":"int","value":0}],"point":true},{"id":173,"x":256,"y":408,"visible":true,"properties":[{"name":"f","type":"int","value":0},{"name":"x","type":"int","value":256},{"name":"y","type":"int","value":408},{"name":"cy","type":"int","value":416},{"name":"fh","type":"int","value":5},{"name":"id","type":"int","value":3400005},{"name":"rx0","type":"int","value":-51},{"name":"rx1","type":"int","value":256},{"name":"hide","type":"int","value":0},{"name":"type","type":"string","value":"m"},{"name":"mobTime","type":"int","value":0}],"point":true},{"id":174,"x":1047,"y":87,"visible":true,"properties":[{"name":"f","type":"int","value":0},{"name":"x","type":"int","value":1047},{"name":"y","type":"int","value":87},{"name":"cy","type":"int","value":89},{"name":"fh","type":"int","value":38},{"name":"id","type":"int","value":3400005},{"name":"rx0","type":"int","value":952},{"name":"rx1","type":"int","value":1079},{"name":"hide","type":"int","value":0},{"name":"type","type":"string","value":"m"},{"name":"mobTime","type":"int","value":0}],"point":true},{"id":175,"x":957,"y":412,"visible":true,"properties":[{"name":"f","type":"int","value":0},{"name":"x","type":"int","value":957},{"name":"y","type":"int","value":412},{"name":"cy","type":"int","value":416},{"name":"fh","type":"int","value":14},{"name":"id","type":"int","value":3400005},{"name":"rx0","type":"int","value":949},{"name":"rx1","type":"int","value":1076},{"name":"hide","type":"int","value":0},{"name":"type","type":"string","value":"m"},{"name":"mobTime","type":"int","value":0}],"point":true},{"id":176,"x":67,"y":77,"visible":true,"properties":[{"name":"f","type":"int","value":0},{"name":"x","type":"int","value":67},{"name":"y","type":"int","value":77},{"name":"cy","type":"int","value":89},{"name":"fh","type":"int","value":25},{"name":"id","type":"int","value":3400005},{"name":"rx0","type":"int","value":-50},{"name":"rx1","type":"int","value":77},{"name":"hide","type":"int","value":0},{"name":"type","type":"string","value":"m"},{"name":"mobTime","type":"int","value":0}],"point":true},{"id":177,"x":504,"y":83,"visible":true,"properties":[{"name":"f","type":"int","value":0},{"name":"x","type":"int","value":504},{"name":"y","type":"int","value":83},{"name":"cy","type":"int","value":89},{"name":"fh","type":"int","value":28},{"name":"id","type":"int","value":3400005},{"name":"rx0","type":"int","value":451},{"name":"rx1","type":"int","value":578},{"name":"hide","type":"int","value":0},{"name":"type","type":"string","value":"m"},{"name":"mobTime","type":"int","value":0}],"point":true},{"id":178,"x":-298,"y":72,"visible":true,"properties":[{"name":"f","type":"int","value":0},{"name":"x","type":"int","value":-298},{"name":"y","type":"int","value":72},{"name":"cy","type":"int","value":89},{"name":"fh","type":"int","value":23},{"name":"id","type":"int","value":3400005},{"name":"rx0","type":"int","value":-550},{"name":"rx1","type":"int","value":-257},{"name":"hide","type":"int","value":0},{"name":"type","type":"string","value":"m"},{"name":"mobTime","type":"int","value":0}],"point":true},{"id":179,"x":-707,"y":81,"visible":true,"properties":[{"name":"f","type":"int","value":0},{"name":"x","type":"int","value":-707},{"name":"y","type":"int","value":81},{"name":"cy","type":"int","value":89},{"name":"fh","type":"int","value":21},{"name":"id","type":"int","value":3400005},{"name":"rx0","type":"int","value":-717},{"name":"rx1","type":"int","value":-590},{"name":"hide","type":"int","value":0},{"name":"type","type":"string","value":"m"},{"name":"mobTime","type":"int","value":0}],"point":true},{"id":180,"x":-560,"y":83,"visible":true,"properties":[{"name":"f","type":"int","value":0},{"name":"x","type":"int","value":-560},{"name":"y","type":"int","value":83},{"name":"cy","type":"int","value":89},{"name":"fh","type":"int","value":22},{"name":"id","type":"int","value":3400005},{"name":"rx0","type":"int","value":-560},{"name":"rx1","type":"int","value":-257},{"name":"hide","type":"int","value":0},{"name":"type","type":"string","value":"m"},{"name":"mobTime","type":"int","value":0}],"point":true},{"id":181,"x":-197,"y":76,"visible":true,"properties":[{"name":"f","type":"int","value":0},{"name":"x","type":"int","value":-197},{"name":"y","type":"int","value":76},{"name":"cy","type":"int","value":89},{"name":"fh","type":"int","value":24},{"name":"id","type":"int","value":3400005},{"name":"rx0","type":"int","value":-217},{"name":"rx1","type":"int","value":-90},{"name":"hide","type":"int","value":0},{"name":"type","type":"string","value":"m"},{"name":"mobTime","type":"int","value":0}],"point":true},{"id":182,"x":227,"y":83,"visible":true,"properties":[{"name":"f","type":"int","value":0},{"name":"x","type":"int","value":227},{"name":"y","type":"int","value":83},{"name":"cy","type":"int","value":89},{"name":"fh","type":"int","value":26},{"name":"id","type":"int","value":3400005},{"name":"rx0","type":"int","value":117},{"name":"rx1","type":"int","value":244},{"name":"hide","type":"int","value":0},{"name":"type","type":"string","value":"m"},{"name":"mobTime","type":"int","value":0}],"point":true},{"id":183,"x":-448,"y":90,"visible":true,"properties":[{"name":"f","type":"int","value":0},{"name":"x","type":"int","value":-448},{"name":"y","type":"int","value":90},{"name":"cy","type":"int","value":416},{"name":"fh","type":"int","value":7},{"name":"id","type":"int","value":4300002},{"name":"rx0","type":"int","value":-551},{"name":"rx1","type":"int","value":-424},{"name":"hide","type":"int","value":0},{"name":"type","type":"string","value":"m"},{"name":"mobTime","type":"int","value":0}],"point":true},{"id":184,"x":-110,"y":90,"visible":true,"properties":[{"name":"f","type":"int","value":0},{"name":"x","type":"int","value":-110},{"name":"y","type":"int","value":90},{"name":"cy","type":"int","value":416},{"name":"fh","type":"int","value":9},{"name":"id","type":"int","value":4300002},{"name":"rx0","type":"int","value":-384},{"name":"rx1","type":"int","value":-91},{"name":"hide","type":"int","value":0},{"name":"type","type":"string","value":"m"},{"name":"mobTime","type":"int","value":0}],"point":true},{"id":185,"x":312,"y":86,"visible":true,"properties":[{"name":"f","type":"int","value":0},{"name":"x","type":"int","value":312},{"name":"y","type":"int","value":86},{"name":"cy","type":"int","value":89},{"name":"fh","type":"int","value":27},{"name":"id","type":"int","value":4300002},{"name":"rx0","type":"int","value":284},{"name":"rx1","type":"int","value":411},{"name":"hide","type":"int","value":0},{"name":"type","type":"string","value":"m"},{"name":"mobTime","type":"int","value":0}],"point":true},{"id":186,"x":427,"y":87,"visible":true,"properties":[{"name":"f","type":"int","value":0},{"name":"x","type":"int","value":427},{"name":"y","type":"int","value":87},{"name":"cy","type":"int","value":89},{"name":"fh","type":"int","value":27},{"name":"id","type":"int","value":4300002},{"name":"rx0","type":"int","value":284},{"name":"rx1","type":"int","value":427},{"name":"hide","type":"int","value":0},{"name":"type","type":"string","value":"m"},{"name":"mobTime","type":"int","value":0}],"point":true},{"id":187,"x":844,"y":76,"visible":true,"properties":[{"name":"f","type":"int","value":0},{"name":"x","type":"int","value":844},{"name":"y","type":"int","value":76},{"name":"cy","type":"int","value":89},{"name":"fh","type":"int","value":30},{"name":"id","type":"int","value":4300002},{"name":"rx0","type":"int","value":785},{"name":"rx1","type":"int","value":912},{"name":"hide","type":"int","value":0},{"name":"type","type":"string","value":"m"},{"name":"mobTime","type":"int","value":0}],"point":true},{"id":188,"x":1196,"y":76,"visible":true,"properties":[{"name":"f","type":"int","value":0},{"name":"x","type":"int","value":1196},{"name":"y","type":"int","value":76},{"name":"cy","type":"int","value":89},{"name":"fh","type":"int","value":40},{"name":"id","type":"int","value":4300002},{"name":"rx0","type":"int","value":1119},{"name":"rx1","type":"int","value":1246},{"name":"hide","type":"int","value":0},{"name":"type","type":"string","value":"m"},{"name":"mobTime","type":"int","value":0}],"point":true},{"id":189,"x":436,"y":407,"visible":true,"properties":[{"name":"f","type":"int","value":0},{"name":"x","type":"int","value":436},{"name":"y","type":"int","value":407},{"name":"cy","type":"int","value":416},{"name":"fh","type":"int","value":3},{"name":"id","type":"int","value":4300002},{"name":"rx0","type":"int","value":282},{"name":"rx1","type":"int","value":575},{"name":"hide","type":"int","value":0},{"name":"type","type":"string","value":"m"},{"name":"mobTime","type":"int","value":0}],"point":true},{"id":190,"x":95,"y":410,"visible":true,"properties":[{"name":"f","type":"int","value":0},{"name":"x","type":"int","value":95},{"name":"y","type":"int","value":410},{"name":"cy","type":"int","value":416},{"name":"fh","type":"int","value":6},{"name":"id","type":"int","value":4300002},{"name":"rx0","type":"int","value":-51},{"name":"rx1","type":"int","value":242},{"name":"hide","type":"int","value":0},{"name":"type","type":"string","value":"m"},{"name":"mobTime","type":"int","value":0}],"point":true},{"id":191,"x":-708,"y":406,"visible":true,"properties":[{"name":"f","type":"int","value":0},{"name":"x","type":"int","value":-708},{"name":"y","type":"int","value":406},{"name":"cy","type":"int","value":416},{"name":"fh","type":"int","value":10},{"name":"id","type":"int","value":4300002},{"name":"rx0","type":"int","value":-718},{"name":"rx1","type":"int","value":-591},{"name":"hide","type":"int","value":0},{"name":"type","type":"string","value":"m"},{"name":"mobTime","type":"int","value":0}],"point":true},{"id":192,"x":-949,"y":410,"visible":true,"properties":[{"name":"f","type":"int","value":0},{"name":"x","type":"int","value":-949},{"name":"y","type":"int","value":410},{"name":"cy","type":"int","value":416},{"name":"fh","type":"int","value":16},{"name":"id","type":"int","value":4300002},{"name":"rx0","type":"int","value":-1218},{"name":"rx1","type":"int","value":-925},{"name":"hide","type":"int","value":0},{"name":"type","type":"string","value":"m"},{"name":"mobTime","type":"int","value":0}],"point":true},{"id":193,"x":1097,"y":415,"visible":true,"properties":[{"name":"f","type":"int","value":0},{"name":"x","type":"int","value":1097},{"name":"y","type":"int","value":415},{"name":"cy","type":"int","value":416},{"name":"fh","type":"int","value":18},{"name":"id","type":"int","value":4300002},{"name":"rx0","type":"int","value":1097},{"name":"rx1","type":"int","value":1243},{"name":"hide","type":"int","value":0},{"name":"type","type":"string","value":"m"},{"name":"mobTime","type":"int","value":0}],"point":true},{"id":194,"x":-1065,"y":82,"visible":true,"properties":[{"name":"f","type":"int","value":0},{"name":"x","type":"int","value":-1065},{"name":"y","type":"int","value":82},{"name":"cy","type":"int","value":89},{"name":"fh","type":"int","value":20},{"name":"id","type":"int","value":3400005},{"name":"rx0","type":"int","value":-1065},{"name":"rx1","type":"int","value":-924},{"name":"hide","type":"int","value":0},{"name":"type","type":"string","value":"m"},{"name":"mobTime","type":"int","value":0}],"point":true},{"id":195,"x":-967,"y":84,"visible":true,"properties":[{"name":"f","type":"int","value":0},{"name":"x","type":"int","value":-967},{"name":"y","type":"int","value":84},{"name":"cy","type":"int","value":89},{"name":"fh","type":"int","value":20},{"name":"id","type":"int","value":3400005},{"name":"rx0","type":"int","value":-1051},{"name":"rx1","type":"int","value":-924},{"name":"hide","type":"int","value":0},{"name":"type","type":"string","value":"m"},{"name":"mobTime","type":"int","value":0}],"point":true}],"properties":[]},{"id":12,"name":"foothold","type":"objectgroup","visible":true,"opacity":1,"draworder":"index","offsetx":0,"offsety":0,"parallaxx":1,"parallaxy":1,"objects":[{"id":196,"x":-843,"y":89,"visible":true,"properties":[{"name":"layer","type":"int","value":2},{"name":"group","type":"int","value":12},{"name":"id","type":"int","value":2},{"name":"fh_layer","type":"int","value":2},{"name":"fh_group","type":"int","value":12},{"name":"fh_id","type":"int","value":2},{"name":"x1","type":"int","value":-843},{"name":"x2","type":"int","value":-550},{"name":"y1","type":"int","value":89},{"name":"y2","type":"int","value":416},{"name":"next","type":"int","value":0},{"name":"prev","type":"int","value":0},{"name":"force","type":"int","value":100}],"polyline":[{"x":0,"y":0},{"x":293,"y":327}]},{"id":197,"x":806,"y":414,"visible":true,"properties":[{"name":"layer","type":"int","value":2},{"name":"group","type":"int","value":13},{"name":"id","type":"int","value":1},{"name":"fh_layer","type":"int","value":2},{"name":"fh_group","type":"int","value":13},{"name":"fh_id","type":"int","value":1},{"name":"x1","type":"int","value":806},{"name":"x2","type":"int","value":1093},{"name":"y1","type":"int","value":414},{"name":"y2","type":"int","value":88},{"name":"next","type":"int","value":0},{"name":"prev","type":"int","value":0},{"name":"force","type":"int","value":120}],"polyline":[{"x":0,"y":0},{"x":287,"y":-326}]},{"id":198,"x":428,"y":416,"visible":true,"properties":[{"name":"layer","type":"int","value":3},{"name":"group","type":"int","value":0},{"name":"id","type":"int","value":3},{"name":"fh_layer","type":"int","value":3},{"name":"fh_group","type":"int","value":0},{"name":"fh_id","type":"int","value":3},{"name":"x1","type":"int","value":428},{"name":"x2","type":"int","value":595},{"name":"y1","type":"int","value":416},{"name":"y2","type":"int","value":416},{"name":"next","type":"int","value":12},{"name":"prev","type":"int","value":4}],"polyline":[{"x":0,"y":0},{"x":167,"y":0}]},{"id":199,"x":262,"y":416,"visible":true,"properties":[{"name":"layer","type":"int","value":3},{"name":"group","type":"int","value":0},{"name":"id","type":"int","value":4},{"name":"fh_layer","type":"int","value":3},{"name":"fh_group","type":"int","value":0},{"name":"fh_id","type":"int","value":4},{"name":"x1","type":"int","value":262},{"name":"x2","type":"int","value":428},{"name":"y1","type":"int","value":416},{"name":"y2","type":"int","value":416},{"name":"next","type":"int","value":3},{"name":"prev","type":"int","value":5}],"polyline":[{"x":0,"y":0},{"x":166,"y":0}]},{"id":200,"x":95,"y":416,"visible":true,"properties":[{"name":"layer","type":"int","value":3},{"name":"group","type":"int","value":1},{"name":"id","type":"int","value":5},{"name":"fh_layer","type":"int","value":3},{"name":"fh_group","type":"int","value":1},{"name":"fh_id","type":"int","value":5},{"name":"x1","type":"int","value":95},{"name":"x2","type":"int","value":262},{"name":"y1","type":"int","value":416},{"name":"y2","type":"int","value":416},{"name":"next","type":"int","value":4},{"name":"prev","type":"int","value":6}],"polyline":[{"x":0,"y":0},{"x":167,"y":0}]},{"id":201,"x":-71,"y":416,"visible":true,"properties":[{"name":"layer","type":"int","value":3},{"name":"group","type":"int","value":1},{"name":"id","type":"int","value":6},{"name":"fh_layer","type":"int","value":3},{"name":"fh_group","type":"int","value":1},{"name":"fh_id","type":"int","value":6},{"name":"x1","type":"int","value":-71},{"name":"x2","type":"int","value":95},{"name":"y1","type":"int","value":416},{"name":"y2","type":"int","value":416},{"name":"next","type":"int","value":5},{"name":"prev","type":"int","value":9}],"polyline":[{"x":0,"y":0},{"x":166,"y":0}]},{"id":202,"x":-571,"y":416,"visible":true,"properties":[{"name":"layer","type":"int","value":3},{"name":"group","type":"int","value":2},{"name":"id","type":"int","value":7},{"name":"fh_layer","type":"int","value":3},{"name":"fh_group","type":"int","value":2},{"name":"fh_id","type":"int","value":7},{"name":"x1","type":"int","value":-571},{"name":"x2","type":"int","value":-404},{"name":"y1","type":"int","value":416},{"name":"y2","type":"int","value":416},{"name":"next","type":"int","value":8},{"name":"prev","type":"int","value":10}],"polyline":[{"x":0,"y":0},{"x":167,"y":0}]},{"id":203,"x":-404,"y":416,"visible":true,"properties":[{"name":"layer","type":"int","value":3},{"name":"group","type":"int","value":3},{"name":"id","type":"int","value":8},{"name":"fh_layer","type":"int","value":3},{"name":"fh_group","type":"int","value":3},{"name":"fh_id","type":"int","value":8},{"name":"x1","type":"int","value":-404},{"name":"x2","type":"int","value":-237},{"name":"y1","type":"int","value":416},{"name":"y2","type":"int","value":416},{"name":"next","type":"int","value":9},{"name":"prev","type":"int","value":7}],"polyline":[{"x":0,"y":0},{"x":167,"y":0}]},{"id":204,"x":-237,"y":416,"visible":true,"properties":[{"name":"layer","type":"int","value":3},{"name":"group","type":"int","value":3},{"name":"id","type":"int","value":9},{"name":"fh_layer","type":"int","value":3},{"name":"fh_group","type":"int","value":3},{"name":"fh_id","type":"int","value":9},{"name":"x1","type":"int","value":-237},{"name":"x2","type":"int","value":-71},{"name":"y1","type":"int","value":416},{"name":"y2","type":"int","value":416},{"name":"next","type":"int","value":6},{"name":"prev","type":"int","value":8}],"polyline":[{"x":0,"y":0},{"x":166,"y":0}]},{"id":205,"x":-905,"y":416,"visible":true,"properties":[{"name":"layer","type":"int","value":3},{"name":"group","type":"int","value":4},{"name":"id","type":"int","value":11},{"name":"fh_layer","type":"int","value":3},{"name":"fh_group","type":"int","value":4},{"name":"fh_id","type":"int","value":11},{"name":"x1","type":"int","value":-905},{"name":"x2","type":"int","value":-738},{"name":"y1","type":"int","value":416},{"name":"y2","type":"int","value":416},{"name":"next","type":"int","value":10},{"name":"prev","type":"int","value":16}],"polyline":[{"x":0,"y":0},{"x":167,"y":0}]},{"id":206,"x":762,"y":416,"visible":true,"properties":[{"name":"layer","type":"int","value":3},{"name":"group","type":"int","value":5},{"name":"id","type":"int","value":13},{"name":"fh_layer","type":"int","value":3},{"name":"fh_group","type":"int","value":5},{"name":"fh_id","type":"int","value":13},{"name":"x1","type":"int","value":762},{"name":"x2","type":"int","value":929},{"name":"y1","type":"int","value":416},{"name":"y2","type":"int","value":416},{"name":"next","type":"int","value":14},{"name":"prev","type":"int","value":12}],"polyline":[{"x":0,"y":0},{"x":167,"y":0}]},{"id":207,"x":595,"y":416,"visible":true,"properties":[{"name":"layer","type":"int","value":3},{"name":"group","type":"int","value":6},{"name":"id","type":"int","value":12},{"name":"fh_layer","type":"int","value":3},{"name":"fh_group","type":"int","value":6},{"name":"fh_id","type":"int","value":12},{"name":"x1","type":"int","value":595},{"name":"x2","type":"int","value":762},{"name":"y1","type":"int","value":416},{"name":"y2","type":"int","value":416},{"name":"next","type":"int","value":13},{"name":"prev","type":"int","value":3}],"polyline":[{"x":0,"y":0},{"x":167,"y":0}]},{"id":208,"x":-738,"y":416,"visible":true,"properties":[{"name":"layer","type":"int","value":3},{"name":"group","type":"int","value":7},{"name":"id","type":"int","value":10},{"name":"fh_layer","type":"int","value":3},{"name":"fh_group","type":"int","value":7},{"name":"fh_id","type":"int","value":10},{"name":"x1","type":"int","value":-738},{"name":"x2","type":"int","value":-571},{"name":"y1","type":"int","value":416},{"name":"y2","type":"int","value":416},{"name":"next","type":"int","value":7},{"name":"prev","type":"int","value":11}],"polyline":[{"x":0,"y":0},{"x":167,"y":0}]},{"id":209,"x":929,"y":416,"visible":true,"properties":[{"name":"layer","type":"int","value":3},{"name":"group","type":"int","value":8},{"name":"id","type":"int","value":14},{"name":"fh_layer","type":"int","value":3},{"name":"fh_group","type":"int","value":8},{"name":"fh_id","type":"int","value":14},{"name":"x1","type":"int","value":929},{"name":"x2","type":"int","value":1096},{"name":"y1","type":"int","value":416},{"name":"y2","type":"int","value":416},{"name":"next","type":"int","value":18},{"name":"prev","type":"int","value":13}],"polyline":[{"x":0,"y":0},{"x":167,"y":0}]},{"id":210,"x":1263,"y":416,"visible":true,"properties":[{"name":"layer","type":"int","value":3},{"name":"group","type":"int","value":9},{"name":"id","type":"int","value":15},{"name":"fh_layer","type":"int","value":3},{"name":"fh_group","type":"int","value":9},{"name":"fh_id","type":"int","value":15},{"name":"x1","type":"int","value":1263},{"name":"x2","type":"int","value":1430},{"name":"y1","type":"int","value":416},{"name":"y2","type":"int","value":416},{"name":"next","type":"int","value":0},{"name":"prev","type":"int","value":18}],"polyline":[{"x":0,"y":0},{"x":167,"y":0}]},{"id":211,"x":-1072,"y":416,"visible":true,"properties":[{"name":"layer","type":"int","value":3},{"name":"group","type":"int","value":10},{"name":"id","type":"int","value":16},{"name":"fh_layer","type":"int","value":3},{"name":"fh_group","type":"int","value":10},{"name":"fh_id","type":"int","value":16},{"name":"x1","type":"int","value":-1072},{"name":"x2","type":"int","value":-905},{"name":"y1","type":"int","value":416},{"name":"y2","type":"int","value":416},{"name":"next","type":"int","value":11},{"name":"prev","type":"int","value":17}],"polyline":[{"x":0,"y":0},{"x":167,"y":0}]},{"id":212,"x":-1238,"y":416,"visible":true,"properties":[{"name":"layer","type":"int","value":3},{"name":"group","type":"int","value":10},{"name":"id","type":"int","value":17},{"name":"fh_layer","type":"int","value":3},{"name":"fh_group","type":"int","value":10},{"name":"fh_id","type":"int","value":17},{"name":"x1","type":"int","value":-1238},{"name":"x2","type":"int","value":-1072},{"name":"y1","type":"int","value":416},{"name":"y2","type":"int","value":416},{"name":"next","type":"int","value":16},{"name":"prev","type":"int","value":0}],"polyline":[{"x":0,"y":0},{"x":166,"y":0}]},{"id":213,"x":1096,"y":416,"visible":true,"properties":[{"name":"layer","type":"int","value":3},{"name":"group","type":"int","value":11},{"name":"id","type":"int","value":18},{"name":"fh_layer","type":"int","value":3},{"name":"fh_group","type":"int","value":11},{"name":"fh_id","type":"int","value":18},{"name":"x1","type":"int","value":1096},{"name":"x2","type":"int","value":1263},{"name":"y1","type":"int","value":416},{"name":"y2","type":"int","value":416},{"name":"next","type":"int","value":15},{"name":"prev","type":"int","value":14}],"polyline":[{"x":0,"y":0},{"x":167,"y":0}]},{"id":214,"x":97,"y":89,"visible":true,"properties":[{"name":"layer","type":"int","value":4},{"name":"group","type":"int","value":19},{"name":"id","type":"int","value":26},{"name":"fh_layer","type":"int","value":4},{"name":"fh_group","type":"int","value":19},{"name":"fh_id","type":"int","value":26},{"name":"x1","type":"int","value":97},{"name":"x2","type":"int","value":264},{"name":"y1","type":"int","value":89},{"name":"y2","type":"int","value":89},{"name":"next","type":"int","value":27},{"name":"prev","type":"int","value":25}],"polyline":[{"x":0,"y":0},{"x":167,"y":0}]},{"id":215,"x":431,"y":89,"visible":true,"properties":[{"name":"layer","type":"int","value":4},{"name":"group","type":"int","value":20},{"name":"id","type":"int","value":28},{"name":"fh_layer","type":"int","value":4},{"name":"fh_group","type":"int","value":20},{"name":"fh_id","type":"int","value":28},{"name":"x1","type":"int","value":431},{"name":"x2","type":"int","value":598},{"name":"y1","type":"int","value":89},{"name":"y2","type":"int","value":89},{"name":"next","type":"int","value":29},{"name":"prev","type":"int","value":27}],"polyline":[{"x":0,"y":0},{"x":167,"y":0}]},{"id":216,"x":765,"y":89,"visible":true,"properties":[{"name":"layer","type":"int","value":4},{"name":"group","type":"int","value":21},{"name":"id","type":"int","value":30},{"name":"fh_layer","type":"int","value":4},{"name":"fh_group","type":"int","value":21},{"name":"fh_id","type":"int","value":30},{"name":"x1","type":"int","value":765},{"name":"x2","type":"int","value":932},{"name":"y1","type":"int","value":89},{"name":"y2","type":"int","value":89},{"name":"next","type":"int","value":35},{"name":"prev","type":"int","value":29}],"polyline":[{"x":0,"y":0},{"x":167,"y":0}]},{"id":217,"x":-570,"y":89,"visible":true,"properties":[{"name":"layer","type":"int","value":4},{"name":"group","type":"int","value":27},{"name":"id","type":"int","value":22},{"name":"fh_layer","type":"int","value":4},{"name":"fh_group","type":"int","value":27},{"name":"fh_id","type":"int","value":22},{"name":"x1","type":"int","value":-570},{"name":"x2","type":"int","value":-403},{"name":"y1","type":"int","value":89},{"name":"y2","type":"int","value":89},{"name":"next","type":"int","value":23},{"name":"prev","type":"int","value":21}],"polyline":[{"x":0,"y":0},{"x":167,"y":0}]},{"id":218,"x":-403,"y":89,"visible":true,"properties":[{"name":"layer","type":"int","value":4},{"name":"group","type":"int","value":27},{"name":"id","type":"int","value":23},{"name":"fh_layer","type":"int","value":4},{"name":"fh_group","type":"int","value":27},{"name":"fh_id","type":"int","value":23},{"name":"x1","type":"int","value":-403},{"name":"x2","type":"int","value":-237},{"name":"y1","type":"int","value":89},{"name":"y2","type":"int","value":89},{"name":"next","type":"int","value":24},{"name":"prev","type":"int","value":22}],"polyline":[{"x":0,"y":0},{"x":166,"y":0}]},{"id":219,"x":-237,"y":89,"visible":true,"properties":[{"name":"layer","type":"int","value":4},{"name":"group","type":"int","value":28},{"name":"id","type":"int","value":24},{"name":"fh_layer","type":"int","value":4},{"name":"fh_group","type":"int","value":28},{"name":"fh_id","type":"int","value":24},{"name":"x1","type":"int","value":-237},{"name":"x2","type":"int","value":-70},{"name":"y1","type":"int","value":89},{"name":"y2","type":"int","value":89},{"name":"next","type":"int","value":25},{"name":"prev","type":"int","value":23}],"polyline":[{"x":0,"y":0},{"x":167,"y":0}]},{"id":220,"x":-904,"y":89,"visible":true,"properties":[{"name":"layer","type":"int","value":4},{"name":"group","type":"int","value":29},{"name":"id","type":"int","value":31},{"name":"fh_layer","type":"int","value":4},{"name":"fh_group","type":"int","value":29},{"name":"fh_id","type":"int","value":31},{"name":"x1","type":"int","value":-904},{"name":"x2","type":"int","value":-870},{"name":"y1","type":"int","value":89},{"name":"y2","type":"int","value":89},{"name":"next","type":"int","value":32},{"name":"prev","type":"int","value":20}],"polyline":[{"x":0,"y":0},{"x":34,"y":0}]},{"id":221,"x":-870,"y":89,"visible":true,"properties":[{"name":"layer","type":"int","value":4},{"name":"group","type":"int","value":29},{"name":"id","type":"int","value":32},{"name":"fh_layer","type":"int","value":4},{"name":"fh_group","type":"int","value":29},{"name":"fh_id","type":"int","value":32},{"name":"x1","type":"int","value":-870},{"name":"x2","type":"int","value":-837},{"name":"y1","type":"int","value":89},{"name":"y2","type":"int","value":89},{"name":"next","type":"int","value":0},{"name":"prev","type":"int","value":31}],"polyline":[{"x":0,"y":0},{"x":33,"y":0}]},{"id":222,"x":-803,"y":89,"visible":true,"properties":[{"name":"layer","type":"int","value":4},{"name":"group","type":"int","value":29},{"name":"id","type":"int","value":33},{"name":"fh_layer","type":"int","value":4},{"name":"fh_group","type":"int","value":29},{"name":"fh_id","type":"int","value":33},{"name":"x1","type":"int","value":-803},{"name":"x2","type":"int","value":-769},{"name":"y1","type":"int","value":89},{"name":"y2","type":"int","value":89},{"name":"next","type":"int","value":34},{"name":"prev","type":"int","value":0}],"polyline":[{"x":0,"y":0},{"x":34,"y":0}]},{"id":223,"x":-769,"y":89,"visible":true,"properties":[{"name":"layer","type":"int","value":4},{"name":"group","type":"int","value":29},{"name":"id","type":"int","value":34},{"name":"fh_layer","type":"int","value":4},{"name":"fh_group","type":"int","value":29},{"name":"fh_id","type":"int","value":34},{"name":"x1","type":"int","value":-769},{"name":"x2","type":"int","value":-737},{"name":"y1","type":"int","value":89},{"name":"y2","type":"int","value":89},{"name":"next","type":"int","value":21},{"name":"prev","type":"int","value":33}],"polyline":[{"x":0,"y":0},{"x":32,"y":0}]},{"id":224,"x":932,"y":89,"visible":true,"properties":[{"name":"layer","type":"int","value":4},{"name":"group","type":"int","value":30},{"name":"id","type":"int","value":35},{"name":"fh_layer","type":"int","value":4},{"name":"fh_group","type":"int","value":30},{"name":"fh_id","type":"int","value":35},{"name":"x1","type":"int","value":932},{"name":"x2","type":"int","value":966},{"name":"y1","type":"int","value":89},{"name":"y2","type":"int","value":89},{"name":"next","type":"int","value":36},{"name":"prev","type":"int","value":30}],"polyline":[{"x":0,"y":0},{"x":34,"y":0}]},{"id":225,"x":966,"y":89,"visible":true,"properties":[{"name":"layer","type":"int","value":4},{"name":"group","type":"int","value":30},{"name":"id","type":"int","value":36},{"name":"fh_layer","type":"int","value":4},{"name":"fh_group","type":"int","value":30},{"name":"fh_id","type":"int","value":36},{"name":"x1","type":"int","value":966},{"name":"x2","type":"int","value":999},{"name":"y1","type":"int","value":89},{"name":"y2","type":"int","value":89},{"name":"next","type":"int","value":37},{"name":"prev","type":"int","value":35}],"polyline":[{"x":0,"y":0},{"x":33,"y":0}]},{"id":226,"x":999,"y":89,"visible":true,"properties":[{"name":"layer","type":"int","value":4},{"name":"group","type":"int","value":30},{"name":"id","type":"int","value":37},{"name":"fh_layer","type":"int","value":4},{"name":"fh_group","type":"int","value":30},{"name":"fh_id","type":"int","value":37},{"name":"x1","type":"int","value":999},{"name":"x2","type":"int","value":1033},{"name":"y1","type":"int","value":89},{"name":"y2","type":"int","value":89},{"name":"next","type":"int","value":38},{"name":"prev","type":"int","value":36}],"polyline":[{"x":0,"y":0},{"x":34,"y":0}]},{"id":227,"x":1033,"y":89,"visible":true,"properties":[{"name":"layer","type":"int","value":4},{"name":"group","type":"int","value":30},{"name":"id","type":"int","value":38},{"name":"fh_layer","type":"int","value":4},{"name":"fh_group","type":"int","value":30},{"name":"fh_id","type":"int","value":38},{"name":"x1","type":"int","value":1033},{"name":"x2","type":"int","value":1067},{"name":"y1","type":"int","value":89},{"name":"y2","type":"int","value":89},{"name":"next","type":"int","value":39},{"name":"prev","type":"int","value":37}],"polyline":[{"x":0,"y":0},{"x":34,"y":0}]},{"id":228,"x":1067,"y":89,"visible":true,"properties":[{"name":"layer","type":"int","value":4},{"name":"group","type":"int","value":30},{"name":"id","type":"int","value":39},{"name":"fh_layer","type":"int","value":4},{"name":"fh_group","type":"int","value":30},{"name":"fh_id","type":"int","value":39},{"name":"x1","type":"int","value":1067},{"name":"x2","type":"int","value":1099},{"name":"y1","type":"int","value":89},{"name":"y2","type":"int","value":89},{"name":"next","type":"int","value":40},{"name":"prev","type":"int","value":38}],"polyline":[{"x":0,"y":0},{"x":32,"y":0}]},{"id":229,"x":264,"y":89,"visible":true,"properties":[{"name":"layer","type":"int","value":4},{"name":"group","type":"int","value":31},{"name":"id","type":"int","value":27},{"name":"fh_layer","type":"int","value":4},{"name":"fh_group","type":"int","value":31},{"name":"fh_id","type":"int","value":27},{"name":"x1","type":"int","value":264},{"name":"x2","type":"int","value":431},{"name":"y1","type":"int","value":89},{"name":"y2","type":"int","value":89},{"name":"next","type":"int","value":28},{"name":"prev","type":"int","value":26}],"polyline":[{"x":0,"y":0},{"x":167,"y":0}]},{"id":230,"x":-1071,"y":89,"visible":true,"properties":[{"name":"layer","type":"int","value":4},{"name":"group","type":"int","value":32},{"name":"id","type":"int","value":20},{"name":"fh_layer","type":"int","value":4},{"name":"fh_group","type":"int","value":32},{"name":"fh_id","type":"int","value":20},{"name":"x1","type":"int","value":-1071},{"name":"x2","type":"int","value":-904},{"name":"y1","type":"int","value":89},{"name":"y2","type":"int","value":89},{"name":"next","type":"int","value":31},{"name":"prev","type":"int","value":19}],"polyline":[{"x":0,"y":0},{"x":167,"y":0}]},{"id":231,"x":598,"y":89,"visible":true,"properties":[{"name":"layer","type":"int","value":4},{"name":"group","type":"int","value":33},{"name":"id","type":"int","value":29},{"name":"fh_layer","type":"int","value":4},{"name":"fh_group","type":"int","value":33},{"name":"fh_id","type":"int","value":29},{"name":"x1","type":"int","value":598},{"name":"x2","type":"int","value":765},{"name":"y1","type":"int","value":89},{"name":"y2","type":"int","value":89},{"name":"next","type":"int","value":30},{"name":"prev","type":"int","value":28}],"polyline":[{"x":0,"y":0},{"x":167,"y":0}]},{"id":232,"x":1099,"y":89,"visible":true,"properties":[{"name":"layer","type":"int","value":4},{"name":"group","type":"int","value":34},{"name":"id","type":"int","value":40},{"name":"fh_layer","type":"int","value":4},{"name":"fh_group","type":"int","value":34},{"name":"fh_id","type":"int","value":40},{"name":"x1","type":"int","value":1099},{"name":"x2","type":"int","value":1266},{"name":"y1","type":"int","value":89},{"name":"y2","type":"int","value":89},{"name":"next","type":"int","value":41},{"name":"prev","type":"int","value":39}],"polyline":[{"x":0,"y":0},{"x":167,"y":0}]},{"id":233,"x":1266,"y":89,"visible":true,"properties":[{"name":"layer","type":"int","value":4},{"name":"group","type":"int","value":35},{"name":"id","type":"int","value":41},{"name":"fh_layer","type":"int","value":4},{"name":"fh_group","type":"int","value":35},{"name":"fh_id","type":"int","value":41},{"name":"x1","type":"int","value":1266},{"name":"x2","type":"int","value":1433},{"name":"y1","type":"int","value":89},{"name":"y2","type":"int","value":89},{"name":"next","type":"int","value":0},{"name":"prev","type":"int","value":40}],"polyline":[{"x":0,"y":0},{"x":167,"y":0}]},{"id":234,"x":-737,"y":89,"visible":true,"properties":[{"name":"layer","type":"int","value":4},{"name":"group","type":"int","value":36},{"name":"id","type":"int","value":21},{"name":"fh_layer","type":"int","value":4},{"name":"fh_group","type":"int","value":36},{"name":"fh_id","type":"int","value":21},{"name":"x1","type":"int","value":-737},{"name":"x2","type":"int","value":-570},{"name":"y1","type":"int","value":89},{"name":"y2","type":"int","value":89},{"name":"next","type":"int","value":22},{"name":"prev","type":"int","value":34}],"polyline":[{"x":0,"y":0},{"x":167,"y":0}]},{"id":235,"x":-70,"y":89,"visible":true,"properties":[{"name":"layer","type":"int","value":4},{"name":"group","type":"int","value":37},{"name":"id","type":"int","value":25},{"name":"fh_layer","type":"int","value":4},{"name":"fh_group","type":"int","value":37},{"name":"fh_id","type":"int","value":25},{"name":"x1","type":"int","value":-70},{"name":"x2","type":"int","value":97},{"name":"y1","type":"int","value":89},{"name":"y2","type":"int","value":89},{"name":"next","type":"int","value":26},{"name":"prev","type":"int","value":24}],"polyline":[{"x":0,"y":0},{"x":167,"y":0}]},{"id":236,"x":-1238,"y":89,"visible":true,"properties":[{"name":"layer","type":"int","value":4},{"name":"group","type":"int","value":38},{"name":"id","type":"int","value":19},{"name":"fh_layer","type":"int","value":4},{"name":"fh_group","type":"int","value":38},{"name":"fh_id","type":"int","value":19},{"name":"x1","type":"int","value":-1238},{"name":"x2","type":"int","value":-1071},{"name":"y1","type":"int","value":89},{"name":"y2","type":"int","value":89},{"name":"next","type":"int","value":20},{"name":"prev","type":"int","value":0}],"polyline":[{"x":0,"y":0},{"x":167,"y":0}]}],"properties":[]},{"id":13,"name":"ladderRope","type":"objectgroup","visible":true,"opacity":1,"draworder":"index","offsetx":0,"offsety":0,"parallaxx":1,"parallaxy":1,"objects":[{"id":237,"x":-867,"y":257,"visible":true,"properties":[{"name":"ladder_id","type":"int","value":1},{"name":"l","type":"int","value":0},{"name":"x","type":"int","value":-867},{"name":"uf","type":"int","value":0},{"name":"y1","type":"int","value":257},{"name":"y2","type":"int","value":359},{"name":"page","type":"int","value":5}],"polyline":[{"x":0,"y":0},{"x":0,"y":102}]},{"id":238,"x":1263,"y":-70,"visible":true,"properties":[{"name":"ladder_id","type":"int","value":2},{"name":"l","type":"int","value":0},{"name":"x","type":"int","value":1263},{"name":"uf","type":"int","value":0},{"name":"y1","type":"int","value":-70},{"name":"y2","type":"int","value":52},{"name":"page","type":"int","value":5}],"polyline":[{"x":0,"y":0},{"x":0,"y":122}]}],"properties":[]},{"id":14,"name":"miniMap","type":"objectgroup","visible":true,"opacity":1,"draworder":"index","offsetx":0,"offsety":0,"parallaxx":1,"parallaxy":1,"objects":[{"id":239,"x":1286,"y":470,"visible":true,"properties":[{"name":"mag","type":"int","value":4},{"name":"centerX","type":"int","value":1286},{"name":"centerY","type":"int","value":470},{"name":"canvas_path","type":"string","value":"../images/30798.png"},{"name":"canvas_width","type":"int","value":173},{"name":"canvas_height","type":"int","value":63},{"name":"canvas_origin_x","type":"int","value":0},{"name":"canvas_origin_y","type":"int","value":0}],"point":true}],"properties":[]}],"tilesets":[{"firstgid":1,"source":"../tilesets/bg_department.tsj"},{"firstgid":5,"source":"../tilesets/obj_Tdungeon3_basic_foot.tsj"},{"firstgid":17,"source":"../tilesets/obj_Tdungeon3_basic_rope.tsj"},{"firstgid":24,"source":"../tilesets/obj_Tdungeon3_basic_robby.tsj"},{"firstgid":35,"source":"../tilesets/obj_Tdungeon3_madeShop_Oz.tsj"},{"firstgid":36,"source":"../tilesets/obj_Tdungeon3_basic_stairs.tsj"},{"firstgid":40,"source":"../tilesets/obj_signboard_market_arrow.tsj"},{"firstgid":45,"source":"../tilesets/obj_Tdungeon3_ani_escalator.tsj"},{"firstgid":47,"source":"../tilesets/obj_Tdungeon3_ani_signboard.tsj"},{"firstgid":49,"source":"../tilesets/obj_Tdungeon3_basic_xBanner.tsj"},{"firstgid":52,"source":"../tilesets/obj_Tdungeon3_madeShop_AtoZ.tsj"},{"firstgid":53,"source":"../tilesets/obj_Tdungeon3_madeShop_fuma.tsj"},{"firstgid":54,"source":"../tilesets/obj_Tdungeon3_shopPart1_fan.tsj"},{"firstgid":57,"source":"../tilesets/obj_Tdungeon3_shopPart1_base.tsj"},{"firstgid":69,"source":"../tilesets/obj_Tdungeon3_shopPart1_door.tsj"},{"firstgid":73,"source":"../tilesets/obj_Tdungeon3_shopPart1_logo.tsj"},{"firstgid":82,"source":"../tilesets/obj_Tdungeon3_shopPart2_base.tsj"},{"firstgid":90,"source":"../tilesets/obj_Tdungeon3_shopPart2_door.tsj"},{"firstgid":96,"source":"../tilesets/obj_Tdungeon3_shopPart2_logo.tsj"},{"firstgid":103,"source":"../tilesets/obj_Tdungeon3_shopPart1_dpBox.tsj"},{"firstgid":107,"source":"../tilesets/obj_Tdungeon3_shopPart1_light.tsj"},{"firstgid":115,"source":"../tilesets/obj_Tdungeon3_shopPart2_light.tsj"},{"firstgid":118,"source":"../tilesets/obj_Tdungeon3_madeShop_Loveteen.tsj"},{"firstgid":119,"source":"../tilesets/obj_Tdungeon3_madeShop_skinCare.tsj"},{"firstgid":122,"source":"../tilesets/obj_Tdungeon3_shopPart1_product.tsj"},{"firstgid":135,"source":"../tilesets/obj_Tdungeon3_shopPart2_product.tsj"},{"firstgid":142,"source":"../tilesets/obj_Tdungeon3_shopPart1_mainSign.tsj"},{"firstgid":146,"source":"../tilesets/obj_Tdungeon3_shopPart2_mainSign.tsj"},{"firstgid":152,"source":"../tilesets/obj_Tdungeon3_shopPart2_sideLogo.tsj"},{"firstgid":155,"source":"../tilesets/obj_Tdungeon3_shopPart2_sideSign.tsj"},{"firstgid":159,"source":"../tilesets/portal_MapHelper.img_portal_game_pv.tsj"},{"firstgid":167,"source":"../tilesets/obj_Tdungeon3_madeShop_starPotion.tsj"},{"firstgid":168,"source":"../tilesets/obj_Tdungeon3_shopPart1_innerWall.tsj"},{"firstgid":179,"source":"../tilesets/obj_Tdungeon3_shopPart2_innerWall.tsj"}],"properties":[{"name":"bgm","type":"string","value":"Bgm21/KerningSquareField"},{"name":"fly","type":"int","value":0},{"name":"swim","type":"int","value":0},{"name":"town","type":"int","value":0},{"name":"VRTop","type":"int","value":-258},{"name":"cloud","type":"int","value":0},{"name":"VRLeft","type":"int","value":-1240},{"name":"VRRight","type":"int","value":1430},{"name":"mapMark","type":"string","value":"101Building"},{"name":"mobRate","type":"float","value":2},{"name":"version","type":"int","value":10},{"name":"VRBottom","type":"int","value":555},{"name":"noMapCmd","type":"int","value":0},{"name":"returnMap","type":"int","value":103040000},{"name":"fieldLimit","type":"int","value":0},{"name":"hideMinimap","type":"int","value":0},{"name":"lvForceMove","type":"int","value":51},{"name":"onUserEnter","type":"string","value":""},{"name":"forcedReturn","type":"int","value":999999999},{"name":"onFirstUserEnter","type":"string","value":""}]}