{"type":"map","orientation":"orthogonal","renderorder":"right-down","infinite":false,"tilewidth":1,"tileheight":1,"width":1,"height":1,"parallaxoriginx":-400,"parallaxoriginy":80,"nextlayerid":1,"nextobjectid":1,"layers":[],"tilesets":[],"properties":[{"name":"bgm","type":"string","value":"Bgm21/KerningSquareSubway"},{"name":"fly","type":"int","value":0},{"name":"link","type":"int","value":103000300},{"name":"swim","type":"int","value":0},{"name":"town","type":"int","value":0},{"name":"cloud","type":"int","value":0},{"name":"mapMark","type":"string","value":"101Building"},{"name":"mobRate","type":"float","value":1},{"name":"version","type":"int","value":10},{"name":"noMapCmd","type":"int","value":0},{"name":"returnMap","type":"int","value":103000100},{"name":"fieldLimit","type":"int","value":380},{"name":"hideMinimap","type":"int","value":0},{"name":"onUserEnter","type":"string","value":"Depart_inSubway"},{"name":"forcedReturn","type":"int","value":103000100},{"name":"onFirstUserEnter","type":"string","value":""}]}