{"type":"map","orientation":"orthogonal","renderorder":"right-down","infinite":false,"tilewidth":1,"tileheight":1,"width":1215,"height":656,"parallaxoriginx":-400,"parallaxoriginy":80,"nextlayerid":7,"nextobjectid":15,"layers":[{"id":1,"name":"background_back_0","type":"imagelayer","visible":true,"opacity":1,"image":"../images/27151.png","imagewidth":1200,"imageheight":600,"offsetx":-600,"offsety":-220,"repeatx":true,"repeaty":false,"parallaxx":1,"parallaxy":0,"properties":[{"name":"a","type":"int","value":255},{"name":"f","type":"int","value":0},{"name":"x","type":"int","value":0},{"name":"y","type":"int","value":0},{"name":"bS","type":"string","value":"department"},{"name":"cx","type":"int","value":0},{"name":"cy","type":"int","value":0},{"name":"no","type":"int","value":3},{"name":"rx","type":"int","value":-100},{"name":"ry","type":"int","value":0},{"name":"ani","type":"int","value":0},{"name":"type","type":"int","value":4},{"name":"front","type":"int","value":0}]},{"id":2,"name":"background_back","type":"objectgroup","visible":true,"opacity":1,"draworder":"index","offsetx":0,"offsety":0,"parallaxx":1,"parallaxy":1,"objects":[{"id":1,"x":0,"y":0,"visible":true,"properties":[{"name":"image_layer_name","type":"string","value":"background_back_0"},{"name":"a","type":"int","value":255},{"name":"f","type":"int","value":0},{"name":"x","type":"int","value":0},{"name":"y","type":"int","value":0},{"name":"bS","type":"string","value":"department"},{"name":"cx","type":"int","value":0},{"name":"cy","type":"int","value":0},{"name":"no","type":"int","value":3},{"name":"rx","type":"int","value":-100},{"name":"ry","type":"int","value":0},{"name":"ani","type":"int","value":0},{"name":"type","type":"int","value":4},{"name":"front","type":"int","value":0}],"point":true}],"properties":[]},{"id":3,"name":"layer_3_obj","type":"objectgroup","visible":true,"opacity":1,"draworder":"index","offsetx":0,"offsety":0,"parallaxx":1,"parallaxy":1,"objects":[{"id":2,"x":-583,"y":170,"visible":true,"properties":[{"name":"layer","type":"int","value":3},{"name":"resource_index","type":"int","value":0},{"name":"oS","type":"string","value":"Tdungeon3"},{"name":"l0","type":"string","value":"subway"},{"name":"l1","type":"string","value":"train"},{"name":"l2","type":"string","value":"0"},{"name":"z","type":"int","value":9},{"name":"zM","type":"int","value":0},{"name":"f","type":"int","value":0}],"gid":2,"width":1200,"height":531},{"id":3,"x":-583,"y":93,"visible":true,"properties":[{"name":"layer","type":"int","value":3},{"name":"resource_index","type":"int","value":1},{"name":"oS","type":"string","value":"Tdungeon3"},{"name":"l0","type":"string","value":"subway"},{"name":"l1","type":"string","value":"train"},{"name":"l2","type":"string","value":"1"},{"name":"z","type":"int","value":5},{"name":"zM","type":"int","value":0},{"name":"f","type":"int","value":0}],"gid":3,"width":1131,"height":282},{"id":4,"x":-583,"y":65,"visible":true,"properties":[{"name":"layer","type":"int","value":3},{"name":"resource_index","type":"int","value":2},{"name":"oS","type":"string","value":"Tdungeon3"},{"name":"l0","type":"string","value":"subway"},{"name":"l1","type":"string","value":"train"},{"name":"l2","type":"string","value":"2"},{"name":"z","type":"int","value":10},{"name":"zM","type":"int","value":0},{"name":"f","type":"int","value":0}],"gid":4,"width":180,"height":247},{"id":5,"x":-324,"y":65,"visible":true,"properties":[{"name":"layer","type":"int","value":3},{"name":"resource_index","type":"int","value":3},{"name":"oS","type":"string","value":"Tdungeon3"},{"name":"l0","type":"string","value":"subway"},{"name":"l1","type":"string","value":"train"},{"name":"l2","type":"string","value":"3"},{"name":"z","type":"int","value":10},{"name":"zM","type":"int","value":0},{"name":"f","type":"int","value":0}],"gid":5,"width":380,"height":247},{"id":6,"x":139,"y":65,"visible":true,"properties":[{"name":"layer","type":"int","value":3},{"name":"resource_index","type":"int","value":4},{"name":"oS","type":"string","value":"Tdungeon3"},{"name":"l0","type":"string","value":"subway"},{"name":"l1","type":"string","value":"train"},{"name":"l2","type":"string","value":"4"},{"name":"z","type":"int","value":8},{"name":"zM","type":"int","value":0},{"name":"f","type":"int","value":0}],"gid":6,"width":208,"height":247},{"id":7,"x":-514,"y":-32,"visible":true,"properties":[{"name":"layer","type":"int","value":3},{"name":"resource_index","type":"int","value":5},{"name":"oS","type":"string","value":"Tdungeon3"},{"name":"l0","type":"string","value":"subway"},{"name":"l1","type":"string","value":"train"},{"name":"l2","type":"string","value":"5"},{"name":"z","type":"int","value":9},{"name":"zM","type":"int","value":0},{"name":"f","type":"int","value":0}],"gid":7,"width":63,"height":28},{"id":8,"x":132,"y":65,"visible":true,"properties":[{"name":"layer","type":"int","value":3},{"name":"resource_index","type":"int","value":6},{"name":"oS","type":"string","value":"Tdungeon3"},{"name":"l0","type":"string","value":"subway"},{"name":"l1","type":"string","value":"train"},{"name":"l2","type":"string","value":"6"},{"name":"z","type":"int","value":11},{"name":"zM","type":"int","value":0},{"name":"f","type":"int","value":0}],"gid":8,"width":45,"height":160},{"id":9,"x":-584,"y":-104,"visible":true,"properties":[{"name":"layer","type":"int","value":3},{"name":"resource_index","type":"int","value":7},{"name":"oS","type":"string","value":"Tdungeon3"},{"name":"l0","type":"string","value":"subway"},{"name":"l1","type":"string","value":"train"},{"name":"l2","type":"string","value":"7"},{"name":"z","type":"int","value":6},{"name":"zM","type":"int","value":0},{"name":"f","type":"int","value":0}],"gid":9,"width":877,"height":81},{"id":10,"x":296,"y":0,"visible":true,"properties":[{"name":"layer","type":"int","value":3},{"name":"resource_index","type":"int","value":8},{"name":"oS","type":"string","value":"Tdungeon3"},{"name":"l0","type":"string","value":"subway"},{"name":"l1","type":"string","value":"train"},{"name":"l2","type":"string","value":"8"},{"name":"z","type":"int","value":10},{"name":"zM","type":"int","value":0},{"name":"f","type":"int","value":0}],"gid":10,"width":52,"height":66},{"id":11,"x":481,"y":0,"visible":true,"properties":[{"name":"layer","type":"int","value":3},{"name":"resource_index","type":"int","value":9},{"name":"oS","type":"string","value":"Tdungeon3"},{"name":"l0","type":"string","value":"subway"},{"name":"l1","type":"string","value":"train"},{"name":"l2","type":"string","value":"8"},{"name":"z","type":"int","value":10},{"name":"zM","type":"int","value":0},{"name":"f","type":"int","value":0}],"gid":10,"width":52,"height":66}],"properties":[]},{"id":4,"name":"portal","type":"objectgroup","visible":true,"opacity":1,"draworder":"index","offsetx":0,"offsety":0,"parallaxx":1,"parallaxy":1,"objects":[{"id":12,"x":47,"y":61,"visible":true,"properties":[{"name":"x","type":"int","value":47},{"name":"y","type":"int","value":61},{"name":"pn","type":"string","value":"sp"},{"name":"pt","type":"int","value":0},{"name":"tm","type":"int","value":999999999},{"name":"tn","type":"string","value":""},{"name":"horizontalImpact","type":"int","value":0}],"point":true}],"properties":[]},{"id":5,"name":"foothold","type":"objectgroup","visible":true,"opacity":1,"draworder":"index","offsetx":0,"offsety":0,"parallaxx":1,"parallaxy":1,"objects":[{"id":13,"x":-583,"y":64,"visible":true,"properties":[{"name":"layer","type":"int","value":3},{"name":"group","type":"int","value":0},{"name":"id","type":"int","value":1},{"name":"fh_layer","type":"int","value":3},{"name":"fh_group","type":"int","value":0},{"name":"fh_id","type":"int","value":1},{"name":"x1","type":"int","value":-583},{"name":"x2","type":"int","value":531},{"name":"y1","type":"int","value":64},{"name":"y2","type":"int","value":64},{"name":"next","type":"int","value":0},{"name":"prev","type":"int","value":0}],"polyline":[{"x":0,"y":0},{"x":1114,"y":0}]}],"properties":[]},{"id":6,"name":"miniMap","type":"objectgroup","visible":true,"opacity":1,"draworder":"index","offsetx":0,"offsety":0,"parallaxx":1,"parallaxy":1,"objects":[{"id":14,"x":632,"y":511,"visible":true,"properties":[{"name":"mag","type":"int","value":4},{"name":"centerX","type":"int","value":632},{"name":"centerY","type":"int","value":511},{"name":"canvas_path","type":"string","value":"../images/30680.png"},{"name":"canvas_width","type":"int","value":81},{"name":"canvas_height","type":"int","value":45},{"name":"canvas_origin_x","type":"int","value":0},{"name":"canvas_origin_y","type":"int","value":0}],"point":true}],"properties":[]}],"tilesets":[{"firstgid":1,"source":"../tilesets/bg_department.tsj"},{"firstgid":2,"source":"../tilesets/obj_Tdungeon3_subway_train.tsj"}],"properties":[{"name":"bgm","type":"string","value":"Bgm21/KerningSquareSubway"},{"name":"fly","type":"int","value":0},{"name":"swim","type":"int","value":0},{"name":"town","type":"int","value":0},{"name":"cloud","type":"int","value":0},{"name":"mapMark","type":"string","value":"101Building"},{"name":"mobRate","type":"float","value":1},{"name":"version","type":"int","value":10},{"name":"noMapCmd","type":"int","value":0},{"name":"returnMap","type":"int","value":103000100},{"name":"fieldLimit","type":"int","value":380},{"name":"hideMinimap","type":"int","value":0},{"name":"onUserEnter","type":"string","value":"Depart_inSubway"},{"name":"forcedReturn","type":"int","value":103000100},{"name":"onFirstUserEnter","type":"string","value":""}]}