{"type":"map","orientation":"orthogonal","renderorder":"right-down","infinite":false,"tilewidth":1,"tileheight":1,"width":798,"height":598,"parallaxoriginx":-400,"parallaxoriginy":80,"nextlayerid":4,"nextobjectid":6,"layers":[{"id":1,"name":"layer_1_obj","type":"objectgroup","visible":true,"opacity":1,"draworder":"index","offsetx":0,"offsety":0,"parallaxx":1,"parallaxy":1,"objects":[{"id":1,"x":-400,"y":205,"visible":true,"properties":[{"name":"layer","type":"int","value":1},{"name":"resource_index","type":"int","value":0},{"name":"oS","type":"string","value":"acc1"},{"name":"l0","type":"string","value":"darkWood"},{"name":"l1","type":"string","value":"artificiality"},{"name":"l2","type":"string","value":"15"},{"name":"z","type":"int","value":9},{"name":"zM","type":"int","value":0},{"name":"f","type":"int","value":0}],"gid":15,"width":800,"height":600}],"properties":[]},{"id":2,"name":"portal","type":"objectgroup","visible":true,"opacity":1,"draworder":"index","offsetx":0,"offsety":0,"parallaxx":1,"parallaxy":1,"objects":[{"id":2,"x":0,"y":0,"visible":true,"properties":[{"name":"x","type":"int","value":0},{"name":"y","type":"int","value":0},{"name":"pn","type":"string","value":"sp"},{"name":"pt","type":"int","value":0},{"name":"tm","type":"int","value":999999999},{"name":"tn","type":"string","value":""},{"name":"horizontalImpact","type":"int","value":0}],"point":true},{"id":3,"x":-261,"y":61,"visible":true,"properties":[{"name":"x","type":"int","value":-261},{"name":"y","type":"int","value":61},{"name":"pn","type":"string","value":"out00"},{"name":"pt","type":"int","value":1},{"name":"tm","type":"int","value":105040200},{"name":"tn","type":"string","value":"in00"},{"name":"horizontalImpact","type":"int","value":0}],"point":true},{"id":4,"x":277,"y":60,"visible":true,"properties":[{"name":"x","type":"int","value":277},{"name":"y","type":"int","value":60},{"name":"pn","type":"string","value":"in00"},{"name":"pt","type":"int","value":7},{"name":"tm","type":"int","value":999999999},{"name":"tn","type":"string","value":""},{"name":"delay","type":"int","value":0},{"name":"script","type":"string","value":"enterDollWay"},{"name":"onlyOnce","type":"int","value":0},{"name":"hideTooltip","type":"int","value":0},{"name":"horizontalImpact","type":"int","value":0}],"point":true}],"properties":[]},{"id":3,"name":"foothold","type":"objectgroup","visible":true,"opacity":1,"draworder":"index","offsetx":0,"offsety":0,"parallaxx":1,"parallaxy":1,"objects":[{"id":5,"x":-318,"y":62,"visible":true,"properties":[{"name":"layer","type":"int","value":1},{"name":"group","type":"int","value":0},{"name":"id","type":"int","value":1},{"name":"fh_layer","type":"int","value":1},{"name":"fh_group","type":"int","value":0},{"name":"fh_id","type":"int","value":1},{"name":"x1","type":"int","value":-318},{"name":"x2","type":"int","value":317},{"name":"y1","type":"int","value":62},{"name":"y2","type":"int","value":62},{"name":"next","type":"int","value":0},{"name":"prev","type":"int","value":0}],"polyline":[{"x":0,"y":0},{"x":635,"y":0}]}],"properties":[]}],"tilesets":[{"firstgid":1,"source":"../tilesets/obj_acc1_darkWood_artificiality.tsj"}],"properties":[{"name":"bgm","type":"string","value":"Bgm00/SleepyWood"},{"name":"fly","type":"int","value":0},{"name":"swim","type":"int","value":0},{"name":"town","type":"int","value":0},{"name":"VRTop","type":"int","value":-398},{"name":"cloud","type":"int","value":0},{"name":"VRLeft","type":"int","value":-399},{"name":"VRRight","type":"int","value":399},{"name":"mapMark","type":"string","value":"Dungeon"},{"name":"mobRate","type":"float","value":1},{"name":"version","type":"int","value":10},{"name":"VRBottom","type":"int","value":200},{"name":"noMapCmd","type":"int","value":0},{"name":"returnMap","type":"int","value":105040200},{"name":"fieldLimit","type":"int","value":0},{"name":"hideMinimap","type":"int","value":0},{"name":"onUserEnter","type":"string","value":""},{"name":"forcedReturn","type":"int","value":999999999},{"name":"onFirstUserEnter","type":"string","value":""}]}