{"type":"map","orientation":"orthogonal","renderorder":"right-down","infinite":false,"tilewidth":1,"tileheight":1,"width":1085,"height":1579,"parallaxoriginx":-400,"parallaxoriginy":80,"nextlayerid":1,"nextobjectid":1,"layers":[],"tilesets":[],"properties":[{"name":"bgm","type":"string","value":"Bgm01/AncientMove"},{"name":"link","type":"int","value":105050101},{"name":"swim","type":"int","value":0},{"name":"town","type":"int","value":0},{"name":"VRTop","type":"int","value":-1154},{"name":"cloud","type":"int","value":0},{"name":"VRLeft","type":"int","value":-500},{"name":"VRRight","type":"int","value":585},{"name":"mapDesc","type":"string","value":""},{"name":"mapMark","type":"string","value":"Dungeon"},{"name":"mobRate","type":"float","value":1.9999979734420776},{"name":"version","type":"int","value":10},{"name":"VRBottom","type":"int","value":425},{"name":"fieldType","type":"int","value":6},{"name":"returnMap","type":"int","value":105040300},{"name":"timeLimit","type":"int","value":7200},{"name":"fieldLimit","type":"int","value":262216},{"name":"hideMinimap","type":"int","value":0},{"name":"forcedReturn","type":"int","value":105050100},{"name":"miniMapOnOff","type":"int","value":1},{"name":"autoLieDetector","type":"string","value":""},{"name":"onFirstUserEnter","type":"string","value":""}]}