{"type":"map","orientation":"orthogonal","renderorder":"right-down","infinite":false,"tilewidth":1,"tileheight":1,"width":800,"height":620,"parallaxoriginx":-400,"parallaxoriginy":80,"nextlayerid":9,"nextobjectid":109,"layers":[{"id":1,"name":"layer_0_obj","type":"objectgroup","visible":true,"opacity":1,"draworder":"index","offsetx":0,"offsety":0,"parallaxx":1,"parallaxy":1,"objects":[{"id":1,"x":-363,"y":299,"visible":true,"properties":[{"name":"layer","type":"int","value":0},{"name":"resource_index","type":"int","value":0},{"name":"oS","type":"string","value":"hotel"},{"name":"l0","type":"string","value":"hotel"},{"name":"l1","type":"string","value":"hotelSW1"},{"name":"l2","type":"string","value":"0"},{"name":"z","type":"int","value":3},{"name":"zM","type":"int","value":2},{"name":"f","type":"int","value":0}],"gid":8,"width":732,"height":600}],"properties":[]},{"id":2,"name":"layer_1_obj","type":"objectgroup","visible":true,"opacity":1,"draworder":"index","offsetx":0,"offsety":0,"parallaxx":1,"parallaxy":1,"objects":[{"id":2,"x":-400,"y":299,"visible":true,"properties":[{"name":"layer","type":"int","value":1},{"name":"resource_index","type":"int","value":0},{"name":"oS","type":"string","value":"hotel"},{"name":"l0","type":"string","value":"hotel"},{"name":"l1","type":"string","value":"hotelSW1"},{"name":"l2","type":"string","value":"1"},{"name":"z","type":"int","value":6},{"name":"zM","type":"int","value":1},{"name":"f","type":"int","value":0}],"gid":9,"width":800,"height":143},{"id":3,"x":-273,"y":170,"visible":true,"properties":[{"name":"layer","type":"int","value":1},{"name":"resource_index","type":"int","value":1},{"name":"oS","type":"string","value":"hotel"},{"name":"l0","type":"string","value":"hotel"},{"name":"l1","type":"string","value":"hotelSW1"},{"name":"l2","type":"string","value":"3"},{"name":"z","type":"int","value":0},{"name":"zM","type":"int","value":1},{"name":"f","type":"int","value":0}],"gid":10,"width":545,"height":471},{"id":4,"x":-334,"y":166,"visible":true,"properties":[{"name":"layer","type":"int","value":1},{"name":"resource_index","type":"int","value":2},{"name":"oS","type":"string","value":"hotel"},{"name":"l0","type":"string","value":"hotel"},{"name":"l1","type":"string","value":"hotelSW1"},{"name":"l2","type":"string","value":"6"},{"name":"z","type":"int","value":4},{"name":"zM","type":"int","value":1},{"name":"f","type":"int","value":0}],"gid":11,"width":261,"height":183},{"id":5,"x":-409,"y":16,"visible":true,"properties":[{"name":"layer","type":"int","value":1},{"name":"resource_index","type":"int","value":3},{"name":"oS","type":"string","value":"hotel"},{"name":"l0","type":"string","value":"hotel"},{"name":"l1","type":"string","value":"hotelSW1"},{"name":"l2","type":"string","value":"7"},{"name":"z","type":"int","value":3},{"name":"zM","type":"int","value":1},{"name":"f","type":"int","value":0}],"gid":12,"width":219,"height":169},{"id":6,"x":154,"y":50,"visible":true,"properties":[{"name":"layer","type":"int","value":1},{"name":"resource_index","type":"int","value":4},{"name":"oS","type":"string","value":"hotel"},{"name":"l0","type":"string","value":"hotel"},{"name":"l1","type":"string","value":"hotelSW1"},{"name":"l2","type":"string","value":"8"},{"name":"z","type":"int","value":4},{"name":"zM","type":"int","value":1},{"name":"f","type":"int","value":0}],"gid":13,"width":214,"height":151},{"id":7,"x":136,"y":56,"visible":true,"properties":[{"name":"layer","type":"int","value":1},{"name":"resource_index","type":"int","value":5},{"name":"oS","type":"string","value":"hotel"},{"name":"l0","type":"string","value":"hotel"},{"name":"l1","type":"string","value":"hotelSW1"},{"name":"l2","type":"string","value":"9"},{"name":"z","type":"int","value":3},{"name":"zM","type":"int","value":1},{"name":"f","type":"int","value":0}],"gid":14,"width":96,"height":129},{"id":8,"x":-68,"y":53,"visible":true,"properties":[{"name":"layer","type":"int","value":1},{"name":"resource_index","type":"int","value":6},{"name":"oS","type":"string","value":"hotel"},{"name":"l0","type":"string","value":"hotel"},{"name":"l1","type":"string","value":"hotelSW1"},{"name":"l2","type":"string","value":"15"},{"name":"z","type":"int","value":2},{"name":"zM","type":"int","value":1},{"name":"f","type":"int","value":0}],"gid":15,"width":26,"height":45},{"id":9,"x":-28,"y":53,"visible":true,"properties":[{"name":"layer","type":"int","value":1},{"name":"resource_index","type":"int","value":7},{"name":"oS","type":"string","value":"hotel"},{"name":"l0","type":"string","value":"hotel"},{"name":"l1","type":"string","value":"hotelSW1"},{"name":"l2","type":"string","value":"16"},{"name":"z","type":"int","value":3},{"name":"zM","type":"int","value":1},{"name":"f","type":"int","value":1}],"gid":16,"width":26,"height":45},{"id":10,"x":-2,"y":63,"visible":true,"properties":[{"name":"layer","type":"int","value":1},{"name":"resource_index","type":"int","value":8},{"name":"oS","type":"string","value":"hotel"},{"name":"l0","type":"string","value":"hotel"},{"name":"l1","type":"string","value":"hotelSW1"},{"name":"l2","type":"string","value":"18"},{"name":"z","type":"int","value":3},{"name":"zM","type":"int","value":1},{"name":"f","type":"int","value":0}],"gid":17,"width":19,"height":32},{"id":11,"x":-76,"y":62,"visible":true,"properties":[{"name":"layer","type":"int","value":1},{"name":"resource_index","type":"int","value":9},{"name":"oS","type":"string","value":"hotel"},{"name":"l0","type":"string","value":"hotel"},{"name":"l1","type":"string","value":"hotelSW1"},{"name":"l2","type":"string","value":"17"},{"name":"z","type":"int","value":3},{"name":"zM","type":"int","value":1},{"name":"f","type":"int","value":0}],"gid":18,"width":19,"height":32},{"id":12,"x":-1,"y":50,"visible":true,"properties":[{"name":"layer","type":"int","value":1},{"name":"resource_index","type":"int","value":10},{"name":"oS","type":"string","value":"hotel"},{"name":"l0","type":"string","value":"hotel"},{"name":"l1","type":"string","value":"hotelSW1"},{"name":"l2","type":"string","value":"16"},{"name":"z","type":"int","value":2},{"name":"zM","type":"int","value":1},{"name":"f","type":"int","value":0}],"gid":16,"width":26,"height":45},{"id":13,"x":53,"y":54,"visible":true,"properties":[{"name":"layer","type":"int","value":1},{"name":"resource_index","type":"int","value":11},{"name":"oS","type":"string","value":"hotel"},{"name":"l0","type":"string","value":"hotel"},{"name":"l1","type":"string","value":"hotelSW1"},{"name":"l2","type":"string","value":"15"},{"name":"z","type":"int","value":3},{"name":"zM","type":"int","value":1},{"name":"f","type":"int","value":1}],"gid":15,"width":26,"height":45},{"id":14,"x":100,"y":53,"visible":true,"properties":[{"name":"layer","type":"int","value":1},{"name":"resource_index","type":"int","value":12},{"name":"oS","type":"string","value":"hotel"},{"name":"l0","type":"string","value":"hotel"},{"name":"l1","type":"string","value":"hotelSW1"},{"name":"l2","type":"string","value":"16"},{"name":"z","type":"int","value":3},{"name":"zM","type":"int","value":1},{"name":"f","type":"int","value":1}],"gid":16,"width":26,"height":45},{"id":15,"x":85,"y":69,"visible":true,"properties":[{"name":"layer","type":"int","value":1},{"name":"resource_index","type":"int","value":13},{"name":"oS","type":"string","value":"hotel"},{"name":"l0","type":"string","value":"hotel"},{"name":"l1","type":"string","value":"hotelSW1"},{"name":"l2","type":"string","value":"17"},{"name":"z","type":"int","value":3},{"name":"zM","type":"int","value":1},{"name":"f","type":"int","value":0}],"gid":18,"width":19,"height":32},{"id":16,"x":51,"y":70,"visible":true,"properties":[{"name":"layer","type":"int","value":1},{"name":"resource_index","type":"int","value":14},{"name":"oS","type":"string","value":"hotel"},{"name":"l0","type":"string","value":"hotel"},{"name":"l1","type":"string","value":"hotelSW1"},{"name":"l2","type":"string","value":"18"},{"name":"z","type":"int","value":4},{"name":"zM","type":"int","value":1},{"name":"f","type":"int","value":1}],"gid":17,"width":19,"height":32},{"id":17,"x":-93,"y":71,"visible":true,"properties":[{"name":"layer","type":"int","value":1},{"name":"resource_index","type":"int","value":15},{"name":"oS","type":"string","value":"hotel"},{"name":"l0","type":"string","value":"hotel"},{"name":"l1","type":"string","value":"hotelSW1"},{"name":"l2","type":"string","value":"19"},{"name":"z","type":"int","value":3},{"name":"zM","type":"int","value":1},{"name":"f","type":"int","value":0}],"gid":19,"width":18,"height":23},{"id":18,"x":-47,"y":74,"visible":true,"properties":[{"name":"layer","type":"int","value":1},{"name":"resource_index","type":"int","value":16},{"name":"oS","type":"string","value":"hotel"},{"name":"l0","type":"string","value":"hotel"},{"name":"l1","type":"string","value":"hotelSW1"},{"name":"l2","type":"string","value":"20"},{"name":"z","type":"int","value":3},{"name":"zM","type":"int","value":1},{"name":"f","type":"int","value":0}],"gid":20,"width":18,"height":23},{"id":19,"x":-26,"y":72,"visible":true,"properties":[{"name":"layer","type":"int","value":1},{"name":"resource_index","type":"int","value":17},{"name":"oS","type":"string","value":"hotel"},{"name":"l0","type":"string","value":"hotel"},{"name":"l1","type":"string","value":"hotelSW1"},{"name":"l2","type":"string","value":"19"},{"name":"z","type":"int","value":3},{"name":"zM","type":"int","value":1},{"name":"f","type":"int","value":1}],"gid":19,"width":18,"height":23},{"id":20,"x":33,"y":72,"visible":true,"properties":[{"name":"layer","type":"int","value":1},{"name":"resource_index","type":"int","value":18},{"name":"oS","type":"string","value":"hotel"},{"name":"l0","type":"string","value":"hotel"},{"name":"l1","type":"string","value":"hotelSW1"},{"name":"l2","type":"string","value":"20"},{"name":"z","type":"int","value":3},{"name":"zM","type":"int","value":1},{"name":"f","type":"int","value":0}],"gid":20,"width":18,"height":23},{"id":21,"x":99,"y":72,"visible":true,"properties":[{"name":"layer","type":"int","value":1},{"name":"resource_index","type":"int","value":19},{"name":"oS","type":"string","value":"hotel"},{"name":"l0","type":"string","value":"hotel"},{"name":"l1","type":"string","value":"hotelSW1"},{"name":"l2","type":"string","value":"19"},{"name":"z","type":"int","value":3},{"name":"zM","type":"int","value":1},{"name":"f","type":"int","value":1}],"gid":19,"width":18,"height":23},{"id":22,"x":-273,"y":170,"visible":true,"properties":[{"name":"layer","type":"int","value":1},{"name":"resource_index","type":"int","value":20},{"name":"oS","type":"string","value":"hotel"},{"name":"l0","type":"string","value":"hotel"},{"name":"l1","type":"string","value":"hotelSW1"},{"name":"l2","type":"string","value":"26"},{"name":"z","type":"int","value":1},{"name":"zM","type":"int","value":0},{"name":"f","type":"int","value":0}],"gid":21,"width":545,"height":471}],"properties":[]},{"id":3,"name":"layer_2_obj","type":"objectgroup","visible":true,"opacity":1,"draworder":"index","offsetx":0,"offsety":0,"parallaxx":1,"parallaxy":1,"objects":[{"id":23,"x":-34,"y":-58,"visible":true,"properties":[{"name":"layer","type":"int","value":2},{"name":"resource_index","type":"int","value":0},{"name":"oS","type":"string","value":"connect"},{"name":"l0","type":"string","value":"rope"},{"name":"l1","type":"string","value":"3"},{"name":"l2","type":"string","value":"0"},{"name":"z","type":"int","value":3},{"name":"zM","type":"int","value":8},{"name":"f","type":"int","value":0}],"gid":1,"width":18,"height":41},{"id":24,"x":-33,"y":-28,"visible":true,"properties":[{"name":"layer","type":"int","value":2},{"name":"resource_index","type":"int","value":1},{"name":"oS","type":"string","value":"connect"},{"name":"l0","type":"string","value":"rope"},{"name":"l1","type":"string","value":"3"},{"name":"l2","type":"string","value":"1"},{"name":"z","type":"int","value":3},{"name":"zM","type":"int","value":6},{"name":"f","type":"int","value":0}],"gid":3,"width":17,"height":30},{"id":25,"x":-33,"y":2,"visible":true,"properties":[{"name":"layer","type":"int","value":2},{"name":"resource_index","type":"int","value":2},{"name":"oS","type":"string","value":"connect"},{"name":"l0","type":"string","value":"rope"},{"name":"l1","type":"string","value":"3"},{"name":"l2","type":"string","value":"1"},{"name":"z","type":"int","value":3},{"name":"zM","type":"int","value":5},{"name":"f","type":"int","value":0}],"gid":3,"width":17,"height":30},{"id":26,"x":-33,"y":41,"visible":true,"properties":[{"name":"layer","type":"int","value":2},{"name":"resource_index","type":"int","value":3},{"name":"oS","type":"string","value":"connect"},{"name":"l0","type":"string","value":"rope"},{"name":"l1","type":"string","value":"3"},{"name":"l2","type":"string","value":"2"},{"name":"z","type":"int","value":3},{"name":"zM","type":"int","value":3},{"name":"f","type":"int","value":0}],"gid":4,"width":17,"height":39},{"id":27,"x":-95,"y":-60,"visible":true,"properties":[{"name":"layer","type":"int","value":2},{"name":"resource_index","type":"int","value":4},{"name":"oS","type":"string","value":"connect"},{"name":"l0","type":"string","value":"rope"},{"name":"l1","type":"string","value":"3"},{"name":"l2","type":"string","value":"0"},{"name":"z","type":"int","value":3},{"name":"zM","type":"int","value":9},{"name":"f","type":"int","value":0}],"gid":1,"width":18,"height":41},{"id":28,"x":-94,"y":-30,"visible":true,"properties":[{"name":"layer","type":"int","value":2},{"name":"resource_index","type":"int","value":5},{"name":"oS","type":"string","value":"connect"},{"name":"l0","type":"string","value":"rope"},{"name":"l1","type":"string","value":"3"},{"name":"l2","type":"string","value":"1"},{"name":"z","type":"int","value":3},{"name":"zM","type":"int","value":7},{"name":"f","type":"int","value":0}],"gid":3,"width":17,"height":30},{"id":29,"x":-94,"y":9,"visible":true,"properties":[{"name":"layer","type":"int","value":2},{"name":"resource_index","type":"int","value":6},{"name":"oS","type":"string","value":"connect"},{"name":"l0","type":"string","value":"rope"},{"name":"l1","type":"string","value":"3"},{"name":"l2","type":"string","value":"2"},{"name":"z","type":"int","value":3},{"name":"zM","type":"int","value":4},{"name":"f","type":"int","value":0}],"gid":4,"width":17,"height":39}],"properties":[]},{"id":4,"name":"layer_3_obj","type":"objectgroup","visible":true,"opacity":1,"draworder":"index","offsetx":0,"offsety":0,"parallaxx":1,"parallaxy":1,"objects":[{"id":30,"x":-400,"y":300,"visible":true,"properties":[{"name":"layer","type":"int","value":3},{"name":"resource_index","type":"int","value":0},{"name":"oS","type":"string","value":"hotel"},{"name":"l0","type":"string","value":"hotel"},{"name":"l1","type":"string","value":"hotelSW1"},{"name":"l2","type":"string","value":"2"},{"name":"z","type":"int","value":6},{"name":"zM","type":"int","value":0},{"name":"f","type":"int","value":0}],"gid":22,"width":800,"height":600},{"id":31,"x":-400,"y":-190,"visible":true,"properties":[{"name":"layer","type":"int","value":3},{"name":"resource_index","type":"int","value":1},{"name":"oS","type":"string","value":"hotel"},{"name":"l0","type":"string","value":"hotel"},{"name":"l1","type":"string","value":"hotelSW1"},{"name":"l2","type":"string","value":"10"},{"name":"z","type":"int","value":3},{"name":"zM","type":"int","value":0},{"name":"f","type":"int","value":0}],"gid":23,"width":800,"height":110},{"id":32,"x":-354,"y":152,"visible":true,"properties":[{"name":"layer","type":"int","value":3},{"name":"resource_index","type":"int","value":2},{"name":"oS","type":"string","value":"hotel"},{"name":"l0","type":"string","value":"hotel"},{"name":"l1","type":"string","value":"hotelSW1"},{"name":"l2","type":"string","value":"11"},{"name":"z","type":"int","value":3},{"name":"zM","type":"int","value":0},{"name":"f","type":"int","value":0}],"gid":6,"width":298,"height":111},{"id":33,"x":-356,"y":-59,"visible":true,"properties":[{"name":"layer","type":"int","value":3},{"name":"resource_index","type":"int","value":3},{"name":"oS","type":"string","value":"hotel"},{"name":"l0","type":"string","value":"hotel"},{"name":"l1","type":"string","value":"hotelSW1"},{"name":"l2","type":"string","value":"12"},{"name":"z","type":"int","value":3},{"name":"zM","type":"int","value":0},{"name":"f","type":"int","value":0}],"gid":5,"width":358,"height":98},{"id":34,"x":-3,"y":167,"visible":true,"properties":[{"name":"layer","type":"int","value":3},{"name":"resource_index","type":"int","value":4},{"name":"oS","type":"string","value":"hotel"},{"name":"l0","type":"string","value":"hotel"},{"name":"l1","type":"string","value":"hotelSW1"},{"name":"l2","type":"string","value":"13"},{"name":"z","type":"int","value":3},{"name":"zM","type":"int","value":0},{"name":"f","type":"int","value":0}],"gid":24,"width":349,"height":95},{"id":35,"x":116,"y":-71,"visible":true,"properties":[{"name":"layer","type":"int","value":3},{"name":"resource_index","type":"int","value":5},{"name":"oS","type":"string","value":"hotel"},{"name":"l0","type":"string","value":"hotel"},{"name":"l1","type":"string","value":"hotelSW1"},{"name":"l2","type":"string","value":"14"},{"name":"z","type":"int","value":3},{"name":"zM","type":"int","value":0},{"name":"f","type":"int","value":0}],"gid":7,"width":232,"height":101},{"id":36,"x":-400,"y":-191,"visible":true,"properties":[{"name":"layer","type":"int","value":3},{"name":"resource_index","type":"int","value":6},{"name":"oS","type":"string","value":"hotel"},{"name":"l0","type":"string","value":"hotel"},{"name":"l1","type":"string","value":"hotelSW1"},{"name":"l2","type":"string","value":"25"},{"name":"z","type":"int","value":4},{"name":"zM","type":"int","value":0},{"name":"f","type":"int","value":0}],"gid":25,"width":800,"height":109}],"properties":[]},{"id":5,"name":"portal","type":"objectgroup","visible":true,"opacity":1,"draworder":"index","offsetx":0,"offsety":0,"parallaxx":1,"parallaxy":1,"objects":[{"id":37,"x":-289,"y":39,"visible":true,"properties":[{"name":"x","type":"int","value":-289},{"name":"y","type":"int","value":39},{"name":"pn","type":"string","value":"sp"},{"name":"pt","type":"int","value":0},{"name":"tm","type":"int","value":999999999},{"name":"tn","type":"string","value":""}],"point":true},{"id":38,"x":-238,"y":38,"visible":true,"properties":[{"name":"x","type":"int","value":-238},{"name":"y","type":"int","value":38},{"name":"pn","type":"string","value":"sp"},{"name":"pt","type":"int","value":0},{"name":"tm","type":"int","value":999999999},{"name":"tn","type":"string","value":""}],"point":true},{"id":39,"x":-184,"y":38,"visible":true,"properties":[{"name":"x","type":"int","value":-184},{"name":"y","type":"int","value":38},{"name":"pn","type":"string","value":"sp"},{"name":"pt","type":"int","value":0},{"name":"tm","type":"int","value":999999999},{"name":"tn","type":"string","value":""}],"point":true},{"id":40,"x":198,"y":166,"visible":true,"properties":[{"name":"x","type":"int","value":242},{"name":"y","type":"int","value":157},{"name":"pn","type":"string","value":"out00"},{"name":"pt","type":"int","value":2},{"name":"tm","type":"int","value":105040400},{"name":"tn","type":"string","value":"st00"}],"gid":26,"width":89,"height":257}],"properties":[]},{"id":6,"name":"life","type":"objectgroup","visible":true,"opacity":1,"draworder":"index","offsetx":0,"offsety":0,"parallaxx":1,"parallaxy":1,"objects":[{"id":41,"x":137,"y":105,"visible":true,"properties":[{"name":"f","type":"int","value":0},{"name":"x","type":"int","value":137},{"name":"y","type":"int","value":105},{"name":"cy","type":"int","value":107},{"name":"fh","type":"int","value":46},{"name":"id","type":"int","value":1061002},{"name":"rx0","type":"int","value":87},{"name":"rx1","type":"int","value":187},{"name":"type","type":"string","value":"n"},{"name":"mobTime","type":"int","value":0},{"name":"npc_aseprite","type":"file","value":"../../Npc/1061002.img/animation.aseprite"}],"point":true}],"properties":[]},{"id":7,"name":"foothold","type":"objectgroup","visible":true,"opacity":1,"draworder":"index","offsetx":0,"offsety":0,"parallaxx":1,"parallaxy":1,"objects":[{"id":42,"x":-333,"y":162,"visible":true,"properties":[{"name":"layer","type":"int","value":1},{"name":"group","type":"int","value":1},{"name":"id","type":"int","value":1},{"name":"fh_layer","type":"int","value":1},{"name":"fh_group","type":"int","value":1},{"name":"fh_id","type":"int","value":1},{"name":"x1","type":"int","value":-333},{"name":"x2","type":"int","value":-247},{"name":"y1","type":"int","value":162},{"name":"y2","type":"int","value":162},{"name":"next","type":"int","value":2},{"name":"prev","type":"int","value":57}],"polyline":[{"x":0,"y":0},{"x":86,"y":0}]},{"id":43,"x":-247,"y":162,"visible":true,"properties":[{"name":"layer","type":"int","value":1},{"name":"group","type":"int","value":1},{"name":"id","type":"int","value":2},{"name":"fh_layer","type":"int","value":1},{"name":"fh_group","type":"int","value":1},{"name":"fh_id","type":"int","value":2},{"name":"x1","type":"int","value":-247},{"name":"x2","type":"int","value":-223},{"name":"y1","type":"int","value":162},{"name":"y2","type":"int","value":163},{"name":"next","type":"int","value":3},{"name":"prev","type":"int","value":1}],"polyline":[{"x":0,"y":0},{"x":24,"y":1}]},{"id":44,"x":-223,"y":163,"visible":true,"properties":[{"name":"layer","type":"int","value":1},{"name":"group","type":"int","value":1},{"name":"id","type":"int","value":3},{"name":"fh_layer","type":"int","value":1},{"name":"fh_group","type":"int","value":1},{"name":"fh_id","type":"int","value":3},{"name":"x1","type":"int","value":-223},{"name":"x2","type":"int","value":-170},{"name":"y1","type":"int","value":163},{"name":"y2","type":"int","value":159},{"name":"next","type":"int","value":4},{"name":"prev","type":"int","value":2}],"polyline":[{"x":0,"y":0},{"x":53,"y":-4}]},{"id":45,"x":-170,"y":159,"visible":true,"properties":[{"name":"layer","type":"int","value":1},{"name":"group","type":"int","value":1},{"name":"id","type":"int","value":4},{"name":"fh_layer","type":"int","value":1},{"name":"fh_group","type":"int","value":1},{"name":"fh_id","type":"int","value":4},{"name":"x1","type":"int","value":-170},{"name":"x2","type":"int","value":-140},{"name":"y1","type":"int","value":159},{"name":"y2","type":"int","value":160},{"name":"next","type":"int","value":5},{"name":"prev","type":"int","value":3}],"polyline":[{"x":0,"y":0},{"x":30,"y":1}]},{"id":46,"x":-140,"y":160,"visible":true,"properties":[{"name":"layer","type":"int","value":1},{"name":"group","type":"int","value":1},{"name":"id","type":"int","value":5},{"name":"fh_layer","type":"int","value":1},{"name":"fh_group","type":"int","value":1},{"name":"fh_id","type":"int","value":5},{"name":"x1","type":"int","value":-140},{"name":"x2","type":"int","value":-90},{"name":"y1","type":"int","value":160},{"name":"y2","type":"int","value":160},{"name":"next","type":"int","value":6},{"name":"prev","type":"int","value":4}],"polyline":[{"x":0,"y":0},{"x":50,"y":0}]},{"id":47,"x":-90,"y":160,"visible":true,"properties":[{"name":"layer","type":"int","value":1},{"name":"group","type":"int","value":1},{"name":"id","type":"int","value":6},{"name":"fh_layer","type":"int","value":1},{"name":"fh_group","type":"int","value":1},{"name":"fh_id","type":"int","value":6},{"name":"x1","type":"int","value":-90},{"name":"x2","type":"int","value":-38},{"name":"y1","type":"int","value":160},{"name":"y2","type":"int","value":158},{"name":"next","type":"int","value":7},{"name":"prev","type":"int","value":5}],"polyline":[{"x":0,"y":0},{"x":52,"y":-2}]},{"id":48,"x":-38,"y":158,"visible":true,"properties":[{"name":"layer","type":"int","value":1},{"name":"group","type":"int","value":1},{"name":"id","type":"int","value":7},{"name":"fh_layer","type":"int","value":1},{"name":"fh_group","type":"int","value":1},{"name":"fh_id","type":"int","value":7},{"name":"x1","type":"int","value":-38},{"name":"x2","type":"int","value":-29},{"name":"y1","type":"int","value":158},{"name":"y2","type":"int","value":161},{"name":"next","type":"int","value":8},{"name":"prev","type":"int","value":6}],"polyline":[{"x":0,"y":0},{"x":9,"y":3}]},{"id":49,"x":-29,"y":161,"visible":true,"properties":[{"name":"layer","type":"int","value":1},{"name":"group","type":"int","value":1},{"name":"id","type":"int","value":8},{"name":"fh_layer","type":"int","value":1},{"name":"fh_group","type":"int","value":1},{"name":"fh_id","type":"int","value":8},{"name":"x1","type":"int","value":-29},{"name":"x2","type":"int","value":19},{"name":"y1","type":"int","value":161},{"name":"y2","type":"int","value":162},{"name":"next","type":"int","value":9},{"name":"prev","type":"int","value":7}],"polyline":[{"x":0,"y":0},{"x":48,"y":1}]},{"id":50,"x":19,"y":162,"visible":true,"properties":[{"name":"layer","type":"int","value":1},{"name":"group","type":"int","value":1},{"name":"id","type":"int","value":9},{"name":"fh_layer","type":"int","value":1},{"name":"fh_group","type":"int","value":1},{"name":"fh_id","type":"int","value":9},{"name":"x1","type":"int","value":19},{"name":"x2","type":"int","value":64},{"name":"y1","type":"int","value":162},{"name":"y2","type":"int","value":157},{"name":"next","type":"int","value":10},{"name":"prev","type":"int","value":8}],"polyline":[{"x":0,"y":0},{"x":45,"y":-5}]},{"id":51,"x":64,"y":157,"visible":true,"properties":[{"name":"layer","type":"int","value":1},{"name":"group","type":"int","value":1},{"name":"id","type":"int","value":10},{"name":"fh_layer","type":"int","value":1},{"name":"fh_group","type":"int","value":1},{"name":"fh_id","type":"int","value":10},{"name":"x1","type":"int","value":64},{"name":"x2","type":"int","value":74},{"name":"y1","type":"int","value":157},{"name":"y2","type":"int","value":161},{"name":"next","type":"int","value":11},{"name":"prev","type":"int","value":9}],"polyline":[{"x":0,"y":0},{"x":10,"y":4}]},{"id":52,"x":74,"y":161,"visible":true,"properties":[{"name":"layer","type":"int","value":1},{"name":"group","type":"int","value":1},{"name":"id","type":"int","value":11},{"name":"fh_layer","type":"int","value":1},{"name":"fh_group","type":"int","value":1},{"name":"fh_id","type":"int","value":11},{"name":"x1","type":"int","value":74},{"name":"x2","type":"int","value":114},{"name":"y1","type":"int","value":161},{"name":"y2","type":"int","value":161},{"name":"next","type":"int","value":12},{"name":"prev","type":"int","value":10}],"polyline":[{"x":0,"y":0},{"x":40,"y":0}]},{"id":53,"x":114,"y":161,"visible":true,"properties":[{"name":"layer","type":"int","value":1},{"name":"group","type":"int","value":1},{"name":"id","type":"int","value":12},{"name":"fh_layer","type":"int","value":1},{"name":"fh_group","type":"int","value":1},{"name":"fh_id","type":"int","value":12},{"name":"x1","type":"int","value":114},{"name":"x2","type":"int","value":120},{"name":"y1","type":"int","value":161},{"name":"y2","type":"int","value":159},{"name":"next","type":"int","value":13},{"name":"prev","type":"int","value":11}],"polyline":[{"x":0,"y":0},{"x":6,"y":-2}]},{"id":54,"x":120,"y":159,"visible":true,"properties":[{"name":"layer","type":"int","value":1},{"name":"group","type":"int","value":1},{"name":"id","type":"int","value":13},{"name":"fh_layer","type":"int","value":1},{"name":"fh_group","type":"int","value":1},{"name":"fh_id","type":"int","value":13},{"name":"x1","type":"int","value":120},{"name":"x2","type":"int","value":155},{"name":"y1","type":"int","value":159},{"name":"y2","type":"int","value":163},{"name":"next","type":"int","value":14},{"name":"prev","type":"int","value":12}],"polyline":[{"x":0,"y":0},{"x":35,"y":4}]},{"id":55,"x":155,"y":163,"visible":true,"properties":[{"name":"layer","type":"int","value":1},{"name":"group","type":"int","value":1},{"name":"id","type":"int","value":14},{"name":"fh_layer","type":"int","value":1},{"name":"fh_group","type":"int","value":1},{"name":"fh_id","type":"int","value":14},{"name":"x1","type":"int","value":155},{"name":"x2","type":"int","value":202},{"name":"y1","type":"int","value":163},{"name":"y2","type":"int","value":159},{"name":"next","type":"int","value":15},{"name":"prev","type":"int","value":13}],"polyline":[{"x":0,"y":0},{"x":47,"y":-4}]},{"id":56,"x":202,"y":159,"visible":true,"properties":[{"name":"layer","type":"int","value":1},{"name":"group","type":"int","value":1},{"name":"id","type":"int","value":15},{"name":"fh_layer","type":"int","value":1},{"name":"fh_group","type":"int","value":1},{"name":"fh_id","type":"int","value":15},{"name":"x1","type":"int","value":202},{"name":"x2","type":"int","value":258},{"name":"y1","type":"int","value":159},{"name":"y2","type":"int","value":158},{"name":"next","type":"int","value":16},{"name":"prev","type":"int","value":14}],"polyline":[{"x":0,"y":0},{"x":56,"y":-1}]},{"id":57,"x":258,"y":158,"visible":true,"properties":[{"name":"layer","type":"int","value":1},{"name":"group","type":"int","value":1},{"name":"id","type":"int","value":16},{"name":"fh_layer","type":"int","value":1},{"name":"fh_group","type":"int","value":1},{"name":"fh_id","type":"int","value":16},{"name":"x1","type":"int","value":258},{"name":"x2","type":"int","value":306},{"name":"y1","type":"int","value":158},{"name":"y2","type":"int","value":159},{"name":"next","type":"int","value":17},{"name":"prev","type":"int","value":15}],"polyline":[{"x":0,"y":0},{"x":48,"y":1}]},{"id":58,"x":306,"y":159,"visible":true,"properties":[{"name":"layer","type":"int","value":1},{"name":"group","type":"int","value":1},{"name":"id","type":"int","value":17},{"name":"fh_layer","type":"int","value":1},{"name":"fh_group","type":"int","value":1},{"name":"fh_id","type":"int","value":17},{"name":"x1","type":"int","value":306},{"name":"x2","type":"int","value":311},{"name":"y1","type":"int","value":159},{"name":"y2","type":"int","value":162},{"name":"next","type":"int","value":18},{"name":"prev","type":"int","value":16}],"polyline":[{"x":0,"y":0},{"x":5,"y":3}]},{"id":59,"x":311,"y":162,"visible":true,"properties":[{"name":"layer","type":"int","value":1},{"name":"group","type":"int","value":1},{"name":"id","type":"int","value":18},{"name":"fh_layer","type":"int","value":1},{"name":"fh_group","type":"int","value":1},{"name":"fh_id","type":"int","value":18},{"name":"x1","type":"int","value":311},{"name":"x2","type":"int","value":331},{"name":"y1","type":"int","value":162},{"name":"y2","type":"int","value":162},{"name":"next","type":"int","value":19},{"name":"prev","type":"int","value":17}],"polyline":[{"x":0,"y":0},{"x":20,"y":0}]},{"id":60,"x":331,"y":162,"visible":true,"properties":[{"name":"layer","type":"int","value":1},{"name":"group","type":"int","value":1},{"name":"id","type":"int","value":19},{"name":"fh_layer","type":"int","value":1},{"name":"fh_group","type":"int","value":1},{"name":"fh_id","type":"int","value":19},{"name":"x1","type":"int","value":331},{"name":"x2","type":"int","value":331},{"name":"y1","type":"int","value":162},{"name":"y2","type":"int","value":-300},{"name":"next","type":"int","value":0},{"name":"prev","type":"int","value":18}],"polyline":[{"x":0,"y":0},{"x":0,"y":-462}]},{"id":61,"x":-246,"y":-15,"visible":true,"properties":[{"name":"layer","type":"int","value":1},{"name":"group","type":"int","value":1},{"name":"id","type":"int","value":20},{"name":"fh_layer","type":"int","value":1},{"name":"fh_group","type":"int","value":1},{"name":"fh_id","type":"int","value":20},{"name":"x1","type":"int","value":-246},{"name":"x2","type":"int","value":-235},{"name":"y1","type":"int","value":-15},{"name":"y2","type":"int","value":-9},{"name":"next","type":"int","value":21},{"name":"prev","type":"int","value":0}],"polyline":[{"x":0,"y":0},{"x":11,"y":6}]},{"id":62,"x":-235,"y":-9,"visible":true,"properties":[{"name":"layer","type":"int","value":1},{"name":"group","type":"int","value":1},{"name":"id","type":"int","value":21},{"name":"fh_layer","type":"int","value":1},{"name":"fh_group","type":"int","value":1},{"name":"fh_id","type":"int","value":21},{"name":"x1","type":"int","value":-235},{"name":"x2","type":"int","value":-211},{"name":"y1","type":"int","value":-9},{"name":"y2","type":"int","value":-5},{"name":"next","type":"int","value":22},{"name":"prev","type":"int","value":20}],"polyline":[{"x":0,"y":0},{"x":24,"y":4}]},{"id":63,"x":-211,"y":-5,"visible":true,"properties":[{"name":"layer","type":"int","value":1},{"name":"group","type":"int","value":1},{"name":"id","type":"int","value":22},{"name":"fh_layer","type":"int","value":1},{"name":"fh_group","type":"int","value":1},{"name":"fh_id","type":"int","value":22},{"name":"x1","type":"int","value":-211},{"name":"x2","type":"int","value":-197},{"name":"y1","type":"int","value":-5},{"name":"y2","type":"int","value":-7},{"name":"next","type":"int","value":23},{"name":"prev","type":"int","value":21}],"polyline":[{"x":0,"y":0},{"x":14,"y":-2}]},{"id":64,"x":-197,"y":-7,"visible":true,"properties":[{"name":"layer","type":"int","value":1},{"name":"group","type":"int","value":1},{"name":"id","type":"int","value":23},{"name":"fh_layer","type":"int","value":1},{"name":"fh_group","type":"int","value":1},{"name":"fh_id","type":"int","value":23},{"name":"x1","type":"int","value":-197},{"name":"x2","type":"int","value":-185},{"name":"y1","type":"int","value":-7},{"name":"y2","type":"int","value":-2},{"name":"next","type":"int","value":0},{"name":"prev","type":"int","value":22}],"polyline":[{"x":0,"y":0},{"x":12,"y":5}]},{"id":65,"x":-219,"y":-49,"visible":true,"properties":[{"name":"layer","type":"int","value":1},{"name":"group","type":"int","value":1},{"name":"id","type":"int","value":24},{"name":"fh_layer","type":"int","value":1},{"name":"fh_group","type":"int","value":1},{"name":"fh_id","type":"int","value":24},{"name":"x1","type":"int","value":-219},{"name":"x2","type":"int","value":-209},{"name":"y1","type":"int","value":-49},{"name":"y2","type":"int","value":-46},{"name":"next","type":"int","value":25},{"name":"prev","type":"int","value":0}],"polyline":[{"x":0,"y":0},{"x":10,"y":3}]},{"id":66,"x":-209,"y":-46,"visible":true,"properties":[{"name":"layer","type":"int","value":1},{"name":"group","type":"int","value":1},{"name":"id","type":"int","value":25},{"name":"fh_layer","type":"int","value":1},{"name":"fh_group","type":"int","value":1},{"name":"fh_id","type":"int","value":25},{"name":"x1","type":"int","value":-209},{"name":"x2","type":"int","value":-206},{"name":"y1","type":"int","value":-46},{"name":"y2","type":"int","value":-44},{"name":"next","type":"int","value":26},{"name":"prev","type":"int","value":24}],"polyline":[{"x":0,"y":0},{"x":3,"y":2}]},{"id":67,"x":-206,"y":-44,"visible":true,"properties":[{"name":"layer","type":"int","value":1},{"name":"group","type":"int","value":1},{"name":"id","type":"int","value":26},{"name":"fh_layer","type":"int","value":1},{"name":"fh_group","type":"int","value":1},{"name":"fh_id","type":"int","value":26},{"name":"x1","type":"int","value":-206},{"name":"x2","type":"int","value":-165},{"name":"y1","type":"int","value":-44},{"name":"y2","type":"int","value":-45},{"name":"next","type":"int","value":27},{"name":"prev","type":"int","value":25}],"polyline":[{"x":0,"y":0},{"x":41,"y":-1}]},{"id":68,"x":-165,"y":-45,"visible":true,"properties":[{"name":"layer","type":"int","value":1},{"name":"group","type":"int","value":1},{"name":"id","type":"int","value":27},{"name":"fh_layer","type":"int","value":1},{"name":"fh_group","type":"int","value":1},{"name":"fh_id","type":"int","value":27},{"name":"x1","type":"int","value":-165},{"name":"x2","type":"int","value":-158},{"name":"y1","type":"int","value":-45},{"name":"y2","type":"int","value":-47},{"name":"next","type":"int","value":28},{"name":"prev","type":"int","value":26}],"polyline":[{"x":0,"y":0},{"x":7,"y":-2}]},{"id":69,"x":-158,"y":-47,"visible":true,"properties":[{"name":"layer","type":"int","value":1},{"name":"group","type":"int","value":1},{"name":"id","type":"int","value":28},{"name":"fh_layer","type":"int","value":1},{"name":"fh_group","type":"int","value":1},{"name":"fh_id","type":"int","value":28},{"name":"x1","type":"int","value":-158},{"name":"x2","type":"int","value":-151},{"name":"y1","type":"int","value":-47},{"name":"y2","type":"int","value":-42},{"name":"next","type":"int","value":0},{"name":"prev","type":"int","value":27}],"polyline":[{"x":0,"y":0},{"x":7,"y":5}]},{"id":70,"x":-206,"y":-96,"visible":true,"properties":[{"name":"layer","type":"int","value":1},{"name":"group","type":"int","value":1},{"name":"id","type":"int","value":29},{"name":"fh_layer","type":"int","value":1},{"name":"fh_group","type":"int","value":1},{"name":"fh_id","type":"int","value":29},{"name":"x1","type":"int","value":-206},{"name":"x2","type":"int","value":1},{"name":"y1","type":"int","value":-96},{"name":"y2","type":"int","value":-92},{"name":"next","type":"int","value":0},{"name":"prev","type":"int","value":0}],"polyline":[{"x":0,"y":0},{"x":207,"y":4}]},{"id":71,"x":-211,"y":-166,"visible":true,"properties":[{"name":"layer","type":"int","value":1},{"name":"group","type":"int","value":1},{"name":"id","type":"int","value":30},{"name":"fh_layer","type":"int","value":1},{"name":"fh_group","type":"int","value":1},{"name":"fh_id","type":"int","value":30},{"name":"x1","type":"int","value":-211},{"name":"x2","type":"int","value":-182},{"name":"y1","type":"int","value":-166},{"name":"y2","type":"int","value":-166},{"name":"next","type":"int","value":31},{"name":"prev","type":"int","value":0}],"polyline":[{"x":0,"y":0},{"x":29,"y":0}]},{"id":72,"x":-182,"y":-166,"visible":true,"properties":[{"name":"layer","type":"int","value":1},{"name":"group","type":"int","value":1},{"name":"id","type":"int","value":31},{"name":"fh_layer","type":"int","value":1},{"name":"fh_group","type":"int","value":1},{"name":"fh_id","type":"int","value":31},{"name":"x1","type":"int","value":-182},{"name":"x2","type":"int","value":-172},{"name":"y1","type":"int","value":-166},{"name":"y2","type":"int","value":-169},{"name":"next","type":"int","value":32},{"name":"prev","type":"int","value":30}],"polyline":[{"x":0,"y":0},{"x":10,"y":-3}]},{"id":73,"x":-172,"y":-169,"visible":true,"properties":[{"name":"layer","type":"int","value":1},{"name":"group","type":"int","value":1},{"name":"id","type":"int","value":32},{"name":"fh_layer","type":"int","value":1},{"name":"fh_group","type":"int","value":1},{"name":"fh_id","type":"int","value":32},{"name":"x1","type":"int","value":-172},{"name":"x2","type":"int","value":-148},{"name":"y1","type":"int","value":-169},{"name":"y2","type":"int","value":-165},{"name":"next","type":"int","value":33},{"name":"prev","type":"int","value":31}],"polyline":[{"x":0,"y":0},{"x":24,"y":4}]},{"id":74,"x":-148,"y":-165,"visible":true,"properties":[{"name":"layer","type":"int","value":1},{"name":"group","type":"int","value":1},{"name":"id","type":"int","value":33},{"name":"fh_layer","type":"int","value":1},{"name":"fh_group","type":"int","value":1},{"name":"fh_id","type":"int","value":33},{"name":"x1","type":"int","value":-148},{"name":"x2","type":"int","value":-122},{"name":"y1","type":"int","value":-165},{"name":"y2","type":"int","value":-166},{"name":"next","type":"int","value":34},{"name":"prev","type":"int","value":32}],"polyline":[{"x":0,"y":0},{"x":26,"y":-1}]},{"id":75,"x":-122,"y":-166,"visible":true,"properties":[{"name":"layer","type":"int","value":1},{"name":"group","type":"int","value":1},{"name":"id","type":"int","value":34},{"name":"fh_layer","type":"int","value":1},{"name":"fh_group","type":"int","value":1},{"name":"fh_id","type":"int","value":34},{"name":"x1","type":"int","value":-122},{"name":"x2","type":"int","value":-114},{"name":"y1","type":"int","value":-166},{"name":"y2","type":"int","value":-168},{"name":"next","type":"int","value":35},{"name":"prev","type":"int","value":33}],"polyline":[{"x":0,"y":0},{"x":8,"y":-2}]},{"id":76,"x":-114,"y":-168,"visible":true,"properties":[{"name":"layer","type":"int","value":1},{"name":"group","type":"int","value":1},{"name":"id","type":"int","value":35},{"name":"fh_layer","type":"int","value":1},{"name":"fh_group","type":"int","value":1},{"name":"fh_id","type":"int","value":35},{"name":"x1","type":"int","value":-114},{"name":"x2","type":"int","value":-85},{"name":"y1","type":"int","value":-168},{"name":"y2","type":"int","value":-166},{"name":"next","type":"int","value":36},{"name":"prev","type":"int","value":34}],"polyline":[{"x":0,"y":0},{"x":29,"y":2}]},{"id":77,"x":-85,"y":-166,"visible":true,"properties":[{"name":"layer","type":"int","value":1},{"name":"group","type":"int","value":1},{"name":"id","type":"int","value":36},{"name":"fh_layer","type":"int","value":1},{"name":"fh_group","type":"int","value":1},{"name":"fh_id","type":"int","value":36},{"name":"x1","type":"int","value":-85},{"name":"x2","type":"int","value":5},{"name":"y1","type":"int","value":-166},{"name":"y2","type":"int","value":-165},{"name":"next","type":"int","value":0},{"name":"prev","type":"int","value":35}],"polyline":[{"x":0,"y":0},{"x":90,"y":1}]},{"id":78,"x":53,"y":-126,"visible":true,"properties":[{"name":"layer","type":"int","value":1},{"name":"group","type":"int","value":1},{"name":"id","type":"int","value":37},{"name":"fh_layer","type":"int","value":1},{"name":"fh_group","type":"int","value":1},{"name":"fh_id","type":"int","value":37},{"name":"x1","type":"int","value":53},{"name":"x2","type":"int","value":117},{"name":"y1","type":"int","value":-126},{"name":"y2","type":"int","value":-126},{"name":"next","type":"int","value":38},{"name":"prev","type":"int","value":0}],"polyline":[{"x":0,"y":0},{"x":64,"y":0}]},{"id":79,"x":117,"y":-126,"visible":true,"properties":[{"name":"layer","type":"int","value":1},{"name":"group","type":"int","value":1},{"name":"id","type":"int","value":38},{"name":"fh_layer","type":"int","value":1},{"name":"fh_group","type":"int","value":1},{"name":"fh_id","type":"int","value":38},{"name":"x1","type":"int","value":117},{"name":"x2","type":"int","value":183},{"name":"y1","type":"int","value":-126},{"name":"y2","type":"int","value":-129},{"name":"next","type":"int","value":39},{"name":"prev","type":"int","value":37}],"polyline":[{"x":0,"y":0},{"x":66,"y":-3}]},{"id":80,"x":183,"y":-129,"visible":true,"properties":[{"name":"layer","type":"int","value":1},{"name":"group","type":"int","value":1},{"name":"id","type":"int","value":39},{"name":"fh_layer","type":"int","value":1},{"name":"fh_group","type":"int","value":1},{"name":"fh_id","type":"int","value":39},{"name":"x1","type":"int","value":183},{"name":"x2","type":"int","value":272},{"name":"y1","type":"int","value":-129},{"name":"y2","type":"int","value":-128},{"name":"next","type":"int","value":0},{"name":"prev","type":"int","value":38}],"polyline":[{"x":0,"y":0},{"x":89,"y":1}]},{"id":81,"x":48,"y":-200,"visible":true,"properties":[{"name":"layer","type":"int","value":1},{"name":"group","type":"int","value":1},{"name":"id","type":"int","value":40},{"name":"fh_layer","type":"int","value":1},{"name":"fh_group","type":"int","value":1},{"name":"fh_id","type":"int","value":40},{"name":"x1","type":"int","value":48},{"name":"x2","type":"int","value":158},{"name":"y1","type":"int","value":-200},{"name":"y2","type":"int","value":-202},{"name":"next","type":"int","value":41},{"name":"prev","type":"int","value":0}],"polyline":[{"x":0,"y":0},{"x":110,"y":-2}]},{"id":82,"x":158,"y":-202,"visible":true,"properties":[{"name":"layer","type":"int","value":1},{"name":"group","type":"int","value":1},{"name":"id","type":"int","value":41},{"name":"fh_layer","type":"int","value":1},{"name":"fh_group","type":"int","value":1},{"name":"fh_id","type":"int","value":41},{"name":"x1","type":"int","value":158},{"name":"x2","type":"int","value":166},{"name":"y1","type":"int","value":-202},{"name":"y2","type":"int","value":-203},{"name":"next","type":"int","value":42},{"name":"prev","type":"int","value":40}],"polyline":[{"x":0,"y":0},{"x":8,"y":-1}]},{"id":83,"x":166,"y":-203,"visible":true,"properties":[{"name":"layer","type":"int","value":1},{"name":"group","type":"int","value":1},{"name":"id","type":"int","value":42},{"name":"fh_layer","type":"int","value":1},{"name":"fh_group","type":"int","value":1},{"name":"fh_id","type":"int","value":42},{"name":"x1","type":"int","value":166},{"name":"x2","type":"int","value":188},{"name":"y1","type":"int","value":-203},{"name":"y2","type":"int","value":-201},{"name":"next","type":"int","value":43},{"name":"prev","type":"int","value":41}],"polyline":[{"x":0,"y":0},{"x":22,"y":2}]},{"id":84,"x":188,"y":-201,"visible":true,"properties":[{"name":"layer","type":"int","value":1},{"name":"group","type":"int","value":1},{"name":"id","type":"int","value":43},{"name":"fh_layer","type":"int","value":1},{"name":"fh_group","type":"int","value":1},{"name":"fh_id","type":"int","value":43},{"name":"x1","type":"int","value":188},{"name":"x2","type":"int","value":247},{"name":"y1","type":"int","value":-201},{"name":"y2","type":"int","value":-201},{"name":"next","type":"int","value":0},{"name":"prev","type":"int","value":42}],"polyline":[{"x":0,"y":0},{"x":59,"y":0}]},{"id":85,"x":-95,"y":77,"visible":true,"properties":[{"name":"layer","type":"int","value":1},{"name":"group","type":"int","value":1},{"name":"id","type":"int","value":44},{"name":"fh_layer","type":"int","value":1},{"name":"fh_group","type":"int","value":1},{"name":"fh_id","type":"int","value":44},{"name":"x1","type":"int","value":-95},{"name":"x2","type":"int","value":53},{"name":"y1","type":"int","value":77},{"name":"y2","type":"int","value":80},{"name":"next","type":"int","value":45},{"name":"prev","type":"int","value":0}],"polyline":[{"x":0,"y":0},{"x":148,"y":3}]},{"id":86,"x":53,"y":80,"visible":true,"properties":[{"name":"layer","type":"int","value":1},{"name":"group","type":"int","value":1},{"name":"id","type":"int","value":45},{"name":"fh_layer","type":"int","value":1},{"name":"fh_group","type":"int","value":1},{"name":"fh_id","type":"int","value":45},{"name":"x1","type":"int","value":53},{"name":"x2","type":"int","value":139},{"name":"y1","type":"int","value":80},{"name":"y2","type":"int","value":78},{"name":"next","type":"int","value":0},{"name":"prev","type":"int","value":44}],"polyline":[{"x":0,"y":0},{"x":86,"y":-2}]},{"id":87,"x":96,"y":107,"visible":true,"properties":[{"name":"layer","type":"int","value":1},{"name":"group","type":"int","value":1},{"name":"id","type":"int","value":46},{"name":"fh_layer","type":"int","value":1},{"name":"fh_group","type":"int","value":1},{"name":"fh_id","type":"int","value":46},{"name":"x1","type":"int","value":96},{"name":"x2","type":"int","value":173},{"name":"y1","type":"int","value":107},{"name":"y2","type":"int","value":107},{"name":"next","type":"int","value":0},{"name":"prev","type":"int","value":0}],"polyline":[{"x":0,"y":0},{"x":77,"y":0}]},{"id":88,"x":-331,"y":11,"visible":true,"properties":[{"name":"layer","type":"int","value":1},{"name":"group","type":"int","value":1},{"name":"id","type":"int","value":47},{"name":"fh_layer","type":"int","value":1},{"name":"fh_group","type":"int","value":1},{"name":"fh_id","type":"int","value":47},{"name":"x1","type":"int","value":-331},{"name":"x2","type":"int","value":-166},{"name":"y1","type":"int","value":11},{"name":"y2","type":"int","value":14},{"name":"next","type":"int","value":48},{"name":"prev","type":"int","value":0}],"polyline":[{"x":0,"y":0},{"x":165,"y":3}]},{"id":89,"x":-166,"y":14,"visible":true,"properties":[{"name":"layer","type":"int","value":1},{"name":"group","type":"int","value":1},{"name":"id","type":"int","value":48},{"name":"fh_layer","type":"int","value":1},{"name":"fh_group","type":"int","value":1},{"name":"fh_id","type":"int","value":48},{"name":"x1","type":"int","value":-166},{"name":"x2","type":"int","value":-152},{"name":"y1","type":"int","value":14},{"name":"y2","type":"int","value":18},{"name":"next","type":"int","value":0},{"name":"prev","type":"int","value":47}],"polyline":[{"x":0,"y":0},{"x":14,"y":4}]},{"id":90,"x":-331,"y":60,"visible":true,"properties":[{"name":"layer","type":"int","value":1},{"name":"group","type":"int","value":1},{"name":"id","type":"int","value":49},{"name":"fh_layer","type":"int","value":1},{"name":"fh_group","type":"int","value":1},{"name":"fh_id","type":"int","value":49},{"name":"x1","type":"int","value":-331},{"name":"x2","type":"int","value":-264},{"name":"y1","type":"int","value":60},{"name":"y2","type":"int","value":59},{"name":"next","type":"int","value":50},{"name":"prev","type":"int","value":0}],"polyline":[{"x":0,"y":0},{"x":67,"y":-1}]},{"id":91,"x":-264,"y":59,"visible":true,"properties":[{"name":"layer","type":"int","value":1},{"name":"group","type":"int","value":1},{"name":"id","type":"int","value":50},{"name":"fh_layer","type":"int","value":1},{"name":"fh_group","type":"int","value":1},{"name":"fh_id","type":"int","value":50},{"name":"x1","type":"int","value":-264},{"name":"x2","type":"int","value":-233},{"name":"y1","type":"int","value":59},{"name":"y2","type":"int","value":64},{"name":"next","type":"int","value":51},{"name":"prev","type":"int","value":49}],"polyline":[{"x":0,"y":0},{"x":31,"y":5}]},{"id":92,"x":-233,"y":64,"visible":true,"properties":[{"name":"layer","type":"int","value":1},{"name":"group","type":"int","value":1},{"name":"id","type":"int","value":51},{"name":"fh_layer","type":"int","value":1},{"name":"fh_group","type":"int","value":1},{"name":"fh_id","type":"int","value":51},{"name":"x1","type":"int","value":-233},{"name":"x2","type":"int","value":-196},{"name":"y1","type":"int","value":64},{"name":"y2","type":"int","value":61},{"name":"next","type":"int","value":52},{"name":"prev","type":"int","value":50}],"polyline":[{"x":0,"y":0},{"x":37,"y":-3}]},{"id":93,"x":-196,"y":61,"visible":true,"properties":[{"name":"layer","type":"int","value":1},{"name":"group","type":"int","value":1},{"name":"id","type":"int","value":52},{"name":"fh_layer","type":"int","value":1},{"name":"fh_group","type":"int","value":1},{"name":"fh_id","type":"int","value":52},{"name":"x1","type":"int","value":-196},{"name":"x2","type":"int","value":-164},{"name":"y1","type":"int","value":61},{"name":"y2","type":"int","value":66},{"name":"next","type":"int","value":53},{"name":"prev","type":"int","value":51}],"polyline":[{"x":0,"y":0},{"x":32,"y":5}]},{"id":94,"x":-164,"y":66,"visible":true,"properties":[{"name":"layer","type":"int","value":1},{"name":"group","type":"int","value":1},{"name":"id","type":"int","value":53},{"name":"fh_layer","type":"int","value":1},{"name":"fh_group","type":"int","value":1},{"name":"fh_id","type":"int","value":53},{"name":"x1","type":"int","value":-164},{"name":"x2","type":"int","value":-126},{"name":"y1","type":"int","value":66},{"name":"y2","type":"int","value":63},{"name":"next","type":"int","value":0},{"name":"prev","type":"int","value":52}],"polyline":[{"x":0,"y":0},{"x":38,"y":-3}]},{"id":95,"x":-331,"y":116,"visible":true,"properties":[{"name":"layer","type":"int","value":1},{"name":"group","type":"int","value":1},{"name":"id","type":"int","value":54},{"name":"fh_layer","type":"int","value":1},{"name":"fh_group","type":"int","value":1},{"name":"fh_id","type":"int","value":54},{"name":"x1","type":"int","value":-331},{"name":"x2","type":"int","value":-72},{"name":"y1","type":"int","value":116},{"name":"y2","type":"int","value":114},{"name":"next","type":"int","value":0},{"name":"prev","type":"int","value":0}],"polyline":[{"x":0,"y":0},{"x":259,"y":-2}]},{"id":96,"x":-341,"y":-321,"visible":true,"properties":[{"name":"layer","type":"int","value":1},{"name":"group","type":"int","value":1},{"name":"id","type":"int","value":55},{"name":"fh_layer","type":"int","value":1},{"name":"fh_group","type":"int","value":1},{"name":"fh_id","type":"int","value":55},{"name":"x1","type":"int","value":-341},{"name":"x2","type":"int","value":-341},{"name":"y1","type":"int","value":-321},{"name":"y2","type":"int","value":-136},{"name":"next","type":"int","value":56},{"name":"prev","type":"int","value":0}],"polyline":[{"x":0,"y":0},{"x":0,"y":185}]},{"id":97,"x":-341,"y":-136,"visible":true,"properties":[{"name":"layer","type":"int","value":1},{"name":"group","type":"int","value":1},{"name":"id","type":"int","value":56},{"name":"fh_layer","type":"int","value":1},{"name":"fh_group","type":"int","value":1},{"name":"fh_id","type":"int","value":56},{"name":"x1","type":"int","value":-341},{"name":"x2","type":"int","value":-333},{"name":"y1","type":"int","value":-136},{"name":"y2","type":"int","value":-136},{"name":"next","type":"int","value":58},{"name":"prev","type":"int","value":55}],"polyline":[{"x":0,"y":0},{"x":8,"y":0}]},{"id":98,"x":-333,"y":-136,"visible":true,"properties":[{"name":"layer","type":"int","value":1},{"name":"group","type":"int","value":1},{"name":"id","type":"int","value":57},{"name":"fh_layer","type":"int","value":1},{"name":"fh_group","type":"int","value":1},{"name":"fh_id","type":"int","value":57},{"name":"x1","type":"int","value":-333},{"name":"x2","type":"int","value":-333},{"name":"y1","type":"int","value":-136},{"name":"y2","type":"int","value":162},{"name":"next","type":"int","value":1},{"name":"prev","type":"int","value":56}],"polyline":[{"x":0,"y":0},{"x":0,"y":298}]},{"id":99,"x":-333,"y":-136,"visible":true,"properties":[{"name":"layer","type":"int","value":1},{"name":"group","type":"int","value":1},{"name":"id","type":"int","value":58},{"name":"fh_layer","type":"int","value":1},{"name":"fh_group","type":"int","value":1},{"name":"fh_id","type":"int","value":58},{"name":"x1","type":"int","value":-333},{"name":"x2","type":"int","value":-279},{"name":"y1","type":"int","value":-136},{"name":"y2","type":"int","value":-136},{"name":"next","type":"int","value":59},{"name":"prev","type":"int","value":56}],"polyline":[{"x":0,"y":0},{"x":54,"y":0}]},{"id":100,"x":-279,"y":-136,"visible":true,"properties":[{"name":"layer","type":"int","value":1},{"name":"group","type":"int","value":1},{"name":"id","type":"int","value":59},{"name":"fh_layer","type":"int","value":1},{"name":"fh_group","type":"int","value":1},{"name":"fh_id","type":"int","value":59},{"name":"x1","type":"int","value":-279},{"name":"x2","type":"int","value":-272},{"name":"y1","type":"int","value":-136},{"name":"y2","type":"int","value":-138},{"name":"next","type":"int","value":60},{"name":"prev","type":"int","value":58}],"polyline":[{"x":0,"y":0},{"x":7,"y":-2}]},{"id":101,"x":-272,"y":-138,"visible":true,"properties":[{"name":"layer","type":"int","value":1},{"name":"group","type":"int","value":1},{"name":"id","type":"int","value":60},{"name":"fh_layer","type":"int","value":1},{"name":"fh_group","type":"int","value":1},{"name":"fh_id","type":"int","value":60},{"name":"x1","type":"int","value":-272},{"name":"x2","type":"int","value":-251},{"name":"y1","type":"int","value":-138},{"name":"y2","type":"int","value":-136},{"name":"next","type":"int","value":61},{"name":"prev","type":"int","value":59}],"polyline":[{"x":0,"y":0},{"x":21,"y":2}]},{"id":102,"x":-251,"y":-136,"visible":true,"properties":[{"name":"layer","type":"int","value":1},{"name":"group","type":"int","value":1},{"name":"id","type":"int","value":61},{"name":"fh_layer","type":"int","value":1},{"name":"fh_group","type":"int","value":1},{"name":"fh_id","type":"int","value":61},{"name":"x1","type":"int","value":-251},{"name":"x2","type":"int","value":-194},{"name":"y1","type":"int","value":-136},{"name":"y2","type":"int","value":-136},{"name":"next","type":"int","value":0},{"name":"prev","type":"int","value":60}],"polyline":[{"x":0,"y":0},{"x":57,"y":0}]},{"id":103,"x":154,"y":-83,"visible":true,"properties":[{"name":"layer","type":"int","value":1},{"name":"group","type":"int","value":1},{"name":"id","type":"int","value":62},{"name":"fh_layer","type":"int","value":1},{"name":"fh_group","type":"int","value":1},{"name":"fh_id","type":"int","value":62},{"name":"x1","type":"int","value":154},{"name":"x2","type":"int","value":230},{"name":"y1","type":"int","value":-83},{"name":"y2","type":"int","value":-82},{"name":"next","type":"int","value":63},{"name":"prev","type":"int","value":0}],"polyline":[{"x":0,"y":0},{"x":76,"y":1}]},{"id":104,"x":230,"y":-82,"visible":true,"properties":[{"name":"layer","type":"int","value":1},{"name":"group","type":"int","value":1},{"name":"id","type":"int","value":63},{"name":"fh_layer","type":"int","value":1},{"name":"fh_group","type":"int","value":1},{"name":"fh_id","type":"int","value":63},{"name":"x1","type":"int","value":230},{"name":"x2","type":"int","value":282},{"name":"y1","type":"int","value":-82},{"name":"y2","type":"int","value":-84},{"name":"next","type":"int","value":64},{"name":"prev","type":"int","value":62}],"polyline":[{"x":0,"y":0},{"x":52,"y":-2}]},{"id":105,"x":282,"y":-84,"visible":true,"properties":[{"name":"layer","type":"int","value":1},{"name":"group","type":"int","value":1},{"name":"id","type":"int","value":64},{"name":"fh_layer","type":"int","value":1},{"name":"fh_group","type":"int","value":1},{"name":"fh_id","type":"int","value":64},{"name":"x1","type":"int","value":282},{"name":"x2","type":"int","value":330},{"name":"y1","type":"int","value":-84},{"name":"y2","type":"int","value":-84},{"name":"next","type":"int","value":65},{"name":"prev","type":"int","value":63}],"polyline":[{"x":0,"y":0},{"x":48,"y":0}]},{"id":106,"x":330,"y":-84,"visible":true,"properties":[{"name":"layer","type":"int","value":1},{"name":"group","type":"int","value":1},{"name":"id","type":"int","value":65},{"name":"fh_layer","type":"int","value":1},{"name":"fh_group","type":"int","value":1},{"name":"fh_id","type":"int","value":65},{"name":"x1","type":"int","value":330},{"name":"x2","type":"int","value":330},{"name":"y1","type":"int","value":-84},{"name":"y2","type":"int","value":-344},{"name":"next","type":"int","value":0},{"name":"prev","type":"int","value":64}],"polyline":[{"x":0,"y":0},{"x":0,"y":-260}]}],"properties":[]},{"id":8,"name":"ladderRope","type":"objectgroup","visible":true,"opacity":1,"draworder":"index","offsetx":0,"offsety":0,"parallaxx":1,"parallaxy":1,"objects":[{"id":107,"x":-23,"y":-90,"visible":true,"properties":[{"name":"ladder_id","type":"int","value":1},{"name":"l","type":"int","value":0},{"name":"x","type":"int","value":-23},{"name":"uf","type":"int","value":1},{"name":"y1","type":"int","value":-90},{"name":"y2","type":"int","value":64},{"name":"page","type":"int","value":2}],"polyline":[{"x":0,"y":0},{"x":0,"y":154}]},{"id":108,"x":-84,"y":-91,"visible":true,"properties":[{"name":"ladder_id","type":"int","value":2},{"name":"l","type":"int","value":0},{"name":"x","type":"int","value":-84},{"name":"uf","type":"int","value":1},{"name":"y1","type":"int","value":-91},{"name":"y2","type":"int","value":32},{"name":"page","type":"int","value":2}],"polyline":[{"x":0,"y":0},{"x":0,"y":123}]}],"properties":[]}],"tilesets":[{"firstgid":1,"source":"../tilesets/obj_connect_rope_3.tsj"},{"firstgid":5,"source":"../tilesets/obj_hotel_hotel_hotelSW1.tsj"},{"firstgid":26,"source":"../tilesets/portal_MapHelper.img_portal_game_pv.tsj"}],"properties":[{"name":"bgm","type":"string","value":"Bgm00/SleepyWood"},{"name":"town","type":"int","value":0},{"name":"VRTop","type":"int","value":-300},{"name":"cloud","type":"int","value":0},{"name":"VRLeft","type":"int","value":-400},{"name":"VRRight","type":"int","value":400},{"name":"mapDesc","type":"string","value":""},{"name":"mapMark","type":"string","value":"Dungeon"},{"name":"mobRate","type":"float","value":1},{"name":"version","type":"int","value":10},{"name":"VRBottom","type":"int","value":320},{"name":"recovery","type":"float","value":2},{"name":"returnMap","type":"int","value":105040300},{"name":"fieldLimit","type":"int","value":76},{"name":"hideMinimap","type":"int","value":0},{"name":"forcedReturn","type":"int","value":999999999}]}