{"type":"map","orientation":"orthogonal","renderorder":"right-down","infinite":false,"tilewidth":1,"tileheight":1,"width":813,"height":600,"parallaxoriginx":-400,"parallaxoriginy":80,"nextlayerid":7,"nextobjectid":15,"layers":[{"id":1,"name":"background_back_0","type":"imagelayer","visible":true,"opacity":1,"image":"../images/26893.png","imagewidth":800,"imageheight":600,"offsetx":-400,"offsety":-220,"repeatx":true,"repeaty":true,"parallaxx":0.3,"parallaxy":0.8,"properties":[{"name":"a","type":"int","value":255},{"name":"f","type":"int","value":0},{"name":"x","type":"int","value":0},{"name":"y","type":"int","value":0},{"name":"bS","type":"string","value":"blueCave2"},{"name":"cx","type":"int","value":0},{"name":"cy","type":"int","value":0},{"name":"no","type":"int","value":0},{"name":"rx","type":"int","value":-30},{"name":"ry","type":"int","value":-80},{"name":"ani","type":"int","value":0},{"name":"type","type":"int","value":3},{"name":"front","type":"int","value":0}]},{"id":2,"name":"layer_2_obj","type":"objectgroup","visible":true,"opacity":1,"draworder":"index","offsetx":0,"offsety":0,"parallaxx":1,"parallaxy":1,"objects":[{"id":1,"x":-400,"y":330,"visible":true,"properties":[{"name":"layer","type":"int","value":2},{"name":"resource_index","type":"int","value":0},{"name":"oS","type":"string","value":"dungeon"},{"name":"l0","type":"string","value":"blueCave"},{"name":"l1","type":"string","value":"quest"},{"name":"l2","type":"string","value":"0"},{"name":"z","type":"int","value":9},{"name":"zM","type":"int","value":0},{"name":"f","type":"int","value":0}],"gid":10,"width":800,"height":600}],"properties":[]},{"id":3,"name":"layer_7_obj","type":"objectgroup","visible":true,"opacity":1,"draworder":"index","offsetx":0,"offsety":0,"parallaxx":1,"parallaxy":1,"objects":[{"id":2,"x":-72,"y":147,"visible":true,"properties":[{"name":"layer","type":"int","value":7},{"name":"resource_index","type":"int","value":0},{"name":"oS","type":"string","value":"dungeon"},{"name":"l0","type":"string","value":"blueCave"},{"name":"l1","type":"string","value":"quest"},{"name":"l2","type":"string","value":"1"},{"name":"z","type":"int","value":9},{"name":"zM","type":"int","value":1},{"name":"f","type":"int","value":0}],"gid":11,"width":137,"height":447}],"properties":[]},{"id":4,"name":"portal","type":"objectgroup","visible":true,"opacity":1,"draworder":"index","offsetx":0,"offsety":0,"parallaxx":1,"parallaxy":1,"objects":[{"id":3,"x":234,"y":149,"visible":true,"properties":[{"name":"x","type":"int","value":234},{"name":"y","type":"int","value":149},{"name":"pn","type":"string","value":"sp"},{"name":"pt","type":"int","value":0},{"name":"tm","type":"int","value":999999999},{"name":"tn","type":"string","value":""}],"point":true},{"id":4,"x":284,"y":198,"visible":true,"properties":[{"name":"x","type":"int","value":328},{"name":"y","type":"int","value":189},{"name":"pn","type":"string","value":"in00"},{"name":"pt","type":"int","value":2},{"name":"tm","type":"int","value":105100100},{"name":"tn","type":"string","value":"st01"},{"name":"delay","type":"int","value":0},{"name":"script","type":"string","value":""},{"name":"onlyOnce","type":"int","value":0},{"name":"hideTooltip","type":"int","value":0}],"gid":12,"width":89,"height":257}],"properties":[]},{"id":5,"name":"life","type":"objectgroup","visible":true,"opacity":1,"draworder":"index","offsetx":0,"offsety":0,"parallaxx":1,"parallaxy":1,"objects":[{"id":5,"x":-10,"y":180,"visible":true,"properties":[{"name":"f","type":"int","value":1},{"name":"x","type":"int","value":-10},{"name":"y","type":"int","value":180},{"name":"cy","type":"int","value":190},{"name":"fh","type":"int","value":3},{"name":"id","type":"int","value":1061017},{"name":"rx0","type":"int","value":-60},{"name":"rx1","type":"int","value":40},{"name":"hide","type":"int","value":0},{"name":"type","type":"string","value":"n"},{"name":"mobTime","type":"int","value":0},{"name":"npc_aseprite","type":"file","value":"../../Npc/1061017.img/animation.aseprite"}],"point":true}],"properties":[]},{"id":6,"name":"foothold","type":"objectgroup","visible":true,"opacity":1,"draworder":"index","offsetx":0,"offsety":0,"parallaxx":1,"parallaxy":1,"objects":[{"id":6,"x":-226,"y":190,"visible":true,"properties":[{"name":"layer","type":"int","value":4},{"name":"group","type":"int","value":0},{"name":"id","type":"int","value":1},{"name":"fh_layer","type":"int","value":4},{"name":"fh_group","type":"int","value":0},{"name":"fh_id","type":"int","value":1},{"name":"x1","type":"int","value":-226},{"name":"x2","type":"int","value":-134},{"name":"y1","type":"int","value":190},{"name":"y2","type":"int","value":190},{"name":"next","type":"int","value":4},{"name":"prev","type":"int","value":2}],"polyline":[{"x":0,"y":0},{"x":92,"y":0}]},{"id":7,"x":-316,"y":190,"visible":true,"properties":[{"name":"layer","type":"int","value":4},{"name":"group","type":"int","value":0},{"name":"id","type":"int","value":2},{"name":"fh_layer","type":"int","value":4},{"name":"fh_group","type":"int","value":0},{"name":"fh_id","type":"int","value":2},{"name":"x1","type":"int","value":-316},{"name":"x2","type":"int","value":-226},{"name":"y1","type":"int","value":190},{"name":"y2","type":"int","value":190},{"name":"next","type":"int","value":1},{"name":"prev","type":"int","value":5}],"polyline":[{"x":0,"y":0},{"x":90,"y":0}]},{"id":8,"x":-46,"y":190,"visible":true,"properties":[{"name":"layer","type":"int","value":4},{"name":"group","type":"int","value":0},{"name":"id","type":"int","value":3},{"name":"fh_layer","type":"int","value":4},{"name":"fh_group","type":"int","value":0},{"name":"fh_id","type":"int","value":3},{"name":"x1","type":"int","value":-46},{"name":"x2","type":"int","value":46},{"name":"y1","type":"int","value":190},{"name":"y2","type":"int","value":190},{"name":"next","type":"int","value":7},{"name":"prev","type":"int","value":4}],"polyline":[{"x":0,"y":0},{"x":92,"y":0}]},{"id":9,"x":-134,"y":190,"visible":true,"properties":[{"name":"layer","type":"int","value":4},{"name":"group","type":"int","value":0},{"name":"id","type":"int","value":4},{"name":"fh_layer","type":"int","value":4},{"name":"fh_group","type":"int","value":0},{"name":"fh_id","type":"int","value":4},{"name":"x1","type":"int","value":-134},{"name":"x2","type":"int","value":-46},{"name":"y1","type":"int","value":190},{"name":"y2","type":"int","value":190},{"name":"next","type":"int","value":3},{"name":"prev","type":"int","value":1}],"polyline":[{"x":0,"y":0},{"x":88,"y":0}]},{"id":10,"x":-406,"y":190,"visible":true,"properties":[{"name":"layer","type":"int","value":4},{"name":"group","type":"int","value":0},{"name":"id","type":"int","value":5},{"name":"fh_layer","type":"int","value":4},{"name":"fh_group","type":"int","value":0},{"name":"fh_id","type":"int","value":5},{"name":"x1","type":"int","value":-406},{"name":"x2","type":"int","value":-316},{"name":"y1","type":"int","value":190},{"name":"y2","type":"int","value":190},{"name":"next","type":"int","value":2},{"name":"prev","type":"int","value":0}],"polyline":[{"x":0,"y":0},{"x":90,"y":0}]},{"id":11,"x":314,"y":190,"visible":true,"properties":[{"name":"layer","type":"int","value":4},{"name":"group","type":"int","value":0},{"name":"id","type":"int","value":6},{"name":"fh_layer","type":"int","value":4},{"name":"fh_group","type":"int","value":0},{"name":"fh_id","type":"int","value":6},{"name":"x1","type":"int","value":314},{"name":"x2","type":"int","value":406},{"name":"y1","type":"int","value":190},{"name":"y2","type":"int","value":190},{"name":"next","type":"int","value":0},{"name":"prev","type":"int","value":8}],"polyline":[{"x":0,"y":0},{"x":92,"y":0}]},{"id":12,"x":46,"y":190,"visible":true,"properties":[{"name":"layer","type":"int","value":4},{"name":"group","type":"int","value":0},{"name":"id","type":"int","value":7},{"name":"fh_layer","type":"int","value":4},{"name":"fh_group","type":"int","value":0},{"name":"fh_id","type":"int","value":7},{"name":"x1","type":"int","value":46},{"name":"x2","type":"int","value":136},{"name":"y1","type":"int","value":190},{"name":"y2","type":"int","value":190},{"name":"next","type":"int","value":9},{"name":"prev","type":"int","value":3}],"polyline":[{"x":0,"y":0},{"x":90,"y":0}]},{"id":13,"x":224,"y":190,"visible":true,"properties":[{"name":"layer","type":"int","value":4},{"name":"group","type":"int","value":0},{"name":"id","type":"int","value":8},{"name":"fh_layer","type":"int","value":4},{"name":"fh_group","type":"int","value":0},{"name":"fh_id","type":"int","value":8},{"name":"x1","type":"int","value":224},{"name":"x2","type":"int","value":314},{"name":"y1","type":"int","value":190},{"name":"y2","type":"int","value":190},{"name":"next","type":"int","value":6},{"name":"prev","type":"int","value":9}],"polyline":[{"x":0,"y":0},{"x":90,"y":0}]},{"id":14,"x":136,"y":190,"visible":true,"properties":[{"name":"layer","type":"int","value":4},{"name":"group","type":"int","value":0},{"name":"id","type":"int","value":9},{"name":"fh_layer","type":"int","value":4},{"name":"fh_group","type":"int","value":0},{"name":"fh_id","type":"int","value":9},{"name":"x1","type":"int","value":136},{"name":"x2","type":"int","value":224},{"name":"y1","type":"int","value":190},{"name":"y2","type":"int","value":190},{"name":"next","type":"int","value":8},{"name":"prev","type":"int","value":7}],"polyline":[{"x":0,"y":0},{"x":88,"y":0}]}],"properties":[]}],"tilesets":[{"firstgid":1,"source":"../tilesets/bg_blueCave2.tsj"},{"firstgid":10,"source":"../tilesets/obj_dungeon_blueCave_quest.tsj"},{"firstgid":12,"source":"../tilesets/portal_MapHelper.img_portal_game_pv.tsj"}],"properties":[{"name":"bgm","type":"string","value":"Bgm02/EvilEyes"},{"name":"fly","type":"int","value":0},{"name":"swim","type":"int","value":0},{"name":"town","type":"int","value":0},{"name":"VRTop","type":"int","value":-300},{"name":"cloud","type":"int","value":0},{"name":"VRLeft","type":"int","value":-407},{"name":"VRRight","type":"int","value":406},{"name":"lvLimit","type":"int","value":50},{"name":"mapMark","type":"string","value":"Dungeon"},{"name":"mobRate","type":"float","value":1},{"name":"version","type":"int","value":10},{"name":"VRBottom","type":"int","value":300},{"name":"noMapCmd","type":"int","value":1},{"name":"returnMap","type":"int","value":105040300},{"name":"fieldLimit","type":"int","value":8},{"name":"hideMinimap","type":"int","value":0},{"name":"onUserEnter","type":"string","value":""},{"name":"forcedReturn","type":"int","value":999999999},{"name":"onFirstUserEnter","type":"string","value":""}]}