{"type":"map","orientation":"orthogonal","renderorder":"right-down","infinite":false,"tilewidth":1,"tileheight":1,"width":2082,"height":818,"parallaxoriginx":-400,"parallaxoriginy":80,"nextlayerid":19,"nextobjectid":318,"layers":[{"id":1,"name":"background_back_0","type":"imagelayer","visible":true,"opacity":1,"image":"../images/29098.png","imagewidth":256,"imageheight":256,"offsetx":-128,"offsety":-48,"repeatx":true,"repeaty":true,"parallaxx":0,"parallaxy":0,"properties":[{"name":"a","type":"int","value":255},{"name":"f","type":"int","value":0},{"name":"x","type":"int","value":0},{"name":"y","type":"int","value":0},{"name":"bS","type":"string","value":"grassySoil"},{"name":"cx","type":"int","value":0},{"name":"cy","type":"int","value":0},{"name":"no","type":"int","value":0},{"name":"rx","type":"int","value":0},{"name":"ry","type":"int","value":0},{"name":"ani","type":"int","value":0},{"name":"type","type":"int","value":3},{"name":"front","type":"int","value":0}]},{"id":2,"name":"background_back_1","type":"imagelayer","visible":true,"opacity":1,"image":"../images/29099.png","imagewidth":1024,"imageheight":579,"offsetx":-526,"offsety":-297,"repeatx":true,"repeaty":false,"parallaxx":0.05,"parallaxy":0.05,"properties":[{"name":"a","type":"int","value":255},{"name":"f","type":"int","value":0},{"name":"x","type":"int","value":-14},{"name":"y","type":"int","value":-88},{"name":"bS","type":"string","value":"grassySoil"},{"name":"cx","type":"int","value":0},{"name":"cy","type":"int","value":0},{"name":"no","type":"int","value":1},{"name":"rx","type":"int","value":-5},{"name":"ry","type":"int","value":-5},{"name":"ani","type":"int","value":0},{"name":"type","type":"int","value":4},{"name":"front","type":"int","value":0}]},{"id":3,"name":"background_back_2","type":"imagelayer","visible":true,"opacity":1,"image":"../images/29100.png","imagewidth":2493,"imageheight":340,"offsetx":-938,"offsety":20,"repeatx":false,"repeaty":false,"parallaxx":0.08,"parallaxy":0.08,"properties":[{"name":"a","type":"int","value":255},{"name":"f","type":"int","value":0},{"name":"x","type":"int","value":308},{"name":"y","type":"int","value":110},{"name":"bS","type":"string","value":"grassySoil"},{"name":"cx","type":"int","value":0},{"name":"cy","type":"int","value":0},{"name":"no","type":"int","value":2},{"name":"rx","type":"int","value":-8},{"name":"ry","type":"int","value":-8},{"name":"ani","type":"int","value":0},{"name":"type","type":"int","value":0},{"name":"front","type":"int","value":0}]},{"id":4,"name":"background_back_3","type":"imagelayer","visible":true,"opacity":1,"image":"../images/29101.png","imagewidth":315,"imageheight":268,"offsetx":30,"offsety":-248,"repeatx":false,"repeaty":false,"parallaxx":0.08,"parallaxy":0.08,"properties":[{"name":"a","type":"int","value":255},{"name":"f","type":"int","value":0},{"name":"x","type":"int","value":187},{"name":"y","type":"int","value":-194},{"name":"bS","type":"string","value":"grassySoil"},{"name":"cx","type":"int","value":0},{"name":"cy","type":"int","value":0},{"name":"no","type":"int","value":3},{"name":"rx","type":"int","value":-8},{"name":"ry","type":"int","value":-8},{"name":"ani","type":"int","value":0},{"name":"type","type":"int","value":0},{"name":"front","type":"int","value":0}]},{"id":5,"name":"background_back_4","type":"imagelayer","visible":true,"opacity":1,"image":"../images/29103.png","imagewidth":1024,"imageheight":257,"offsetx":-800,"offsety":152,"repeatx":false,"repeaty":false,"parallaxx":0.25,"parallaxy":0.1,"properties":[{"name":"a","type":"int","value":255},{"name":"f","type":"int","value":0},{"name":"x","type":"int","value":-288},{"name":"y","type":"int","value":200},{"name":"bS","type":"string","value":"grassySoil"},{"name":"cx","type":"int","value":0},{"name":"cy","type":"int","value":0},{"name":"no","type":"int","value":5},{"name":"rx","type":"int","value":-25},{"name":"ry","type":"int","value":-10},{"name":"ani","type":"int","value":0},{"name":"type","type":"int","value":0},{"name":"front","type":"int","value":0}]},{"id":6,"name":"background_back_5","type":"imagelayer","visible":true,"opacity":1,"image":"../images/29104.png","imagewidth":1024,"imageheight":294,"offsetx":224,"offsety":115,"repeatx":false,"repeaty":false,"parallaxx":0.25,"parallaxy":0.1,"properties":[{"name":"a","type":"int","value":255},{"name":"f","type":"int","value":0},{"name":"x","type":"int","value":736},{"name":"y","type":"int","value":182},{"name":"bS","type":"string","value":"grassySoil"},{"name":"cx","type":"int","value":0},{"name":"cy","type":"int","value":0},{"name":"no","type":"int","value":6},{"name":"rx","type":"int","value":-25},{"name":"ry","type":"int","value":-10},{"name":"ani","type":"int","value":0},{"name":"type","type":"int","value":0},{"name":"front","type":"int","value":0}]},{"id":7,"name":"background_back","type":"objectgroup","visible":true,"opacity":1,"draworder":"index","offsetx":0,"offsety":0,"parallaxx":1,"parallaxy":1,"objects":[{"id":1,"x":-14,"y":-88,"visible":true,"properties":[{"name":"image_layer_name","type":"string","value":"background_back_1"},{"name":"a","type":"int","value":255},{"name":"f","type":"int","value":0},{"name":"x","type":"int","value":-14},{"name":"y","type":"int","value":-88},{"name":"bS","type":"string","value":"grassySoil"},{"name":"cx","type":"int","value":0},{"name":"cy","type":"int","value":0},{"name":"no","type":"int","value":1},{"name":"rx","type":"int","value":-5},{"name":"ry","type":"int","value":-5},{"name":"ani","type":"int","value":0},{"name":"type","type":"int","value":4},{"name":"front","type":"int","value":0}],"point":true}],"properties":[]},{"id":8,"name":"layer_1_obj","type":"objectgroup","visible":true,"opacity":1,"draworder":"index","offsetx":0,"offsety":0,"parallaxx":1,"parallaxy":1,"objects":[{"id":2,"x":433,"y":40,"visible":true,"properties":[{"name":"layer","type":"int","value":1},{"name":"resource_index","type":"int","value":0},{"name":"oS","type":"string","value":"acc1"},{"name":"l0","type":"string","value":"grassySoil"},{"name":"l1","type":"string","value":"nature"},{"name":"l2","type":"string","value":"13"},{"name":"z","type":"int","value":2},{"name":"zM","type":"int","value":12},{"name":"f","type":"int","value":0}],"gid":80,"width":223,"height":128},{"id":3,"x":308,"y":-220,"visible":true,"properties":[{"name":"layer","type":"int","value":1},{"name":"resource_index","type":"int","value":1},{"name":"oS","type":"string","value":"acc1"},{"name":"l0","type":"string","value":"grassySoil"},{"name":"l1","type":"string","value":"golem"},{"name":"l2","type":"string","value":"17"},{"name":"z","type":"int","value":3},{"name":"zM","type":"int","value":19},{"name":"f","type":"int","value":0}],"gid":66,"width":224,"height":152},{"id":4,"x":245,"y":-200,"visible":true,"properties":[{"name":"layer","type":"int","value":1},{"name":"resource_index","type":"int","value":2},{"name":"oS","type":"string","value":"acc1"},{"name":"l0","type":"string","value":"grassySoil"},{"name":"l1","type":"string","value":"nature"},{"name":"l2","type":"string","value":"13"},{"name":"z","type":"int","value":2},{"name":"zM","type":"int","value":19},{"name":"f","type":"int","value":0}],"gid":80,"width":223,"height":128},{"id":5,"x":367,"y":-225,"visible":true,"properties":[{"name":"layer","type":"int","value":1},{"name":"resource_index","type":"int","value":3},{"name":"oS","type":"string","value":"acc1"},{"name":"l0","type":"string","value":"grassySoil"},{"name":"l1","type":"string","value":"nature"},{"name":"l2","type":"string","value":"13"},{"name":"z","type":"int","value":1},{"name":"zM","type":"int","value":19},{"name":"f","type":"int","value":0}],"gid":80,"width":223,"height":128},{"id":6,"x":495,"y":-215,"visible":true,"properties":[{"name":"layer","type":"int","value":1},{"name":"resource_index","type":"int","value":4},{"name":"oS","type":"string","value":"acc1"},{"name":"l0","type":"string","value":"darkWood"},{"name":"l1","type":"string","value":"nature"},{"name":"l2","type":"string","value":"20"},{"name":"z","type":"int","value":4},{"name":"zM","type":"int","value":19},{"name":"f","type":"int","value":0}],"gid":33,"width":149,"height":67},{"id":7,"x":-146,"y":200,"visible":true,"properties":[{"name":"layer","type":"int","value":1},{"name":"resource_index","type":"int","value":5},{"name":"oS","type":"string","value":"acc1"},{"name":"l0","type":"string","value":"grassySoil"},{"name":"l1","type":"string","value":"nature"},{"name":"l2","type":"string","value":"13"},{"name":"z","type":"int","value":3},{"name":"zM","type":"int","value":4},{"name":"f","type":"int","value":0}],"gid":80,"width":223,"height":128},{"id":8,"x":3,"y":167,"visible":true,"properties":[{"name":"layer","type":"int","value":1},{"name":"resource_index","type":"int","value":6},{"name":"oS","type":"string","value":"acc1"},{"name":"l0","type":"string","value":"grassySoil"},{"name":"l1","type":"string","value":"nature"},{"name":"l2","type":"string","value":"13"},{"name":"z","type":"int","value":2},{"name":"zM","type":"int","value":4},{"name":"f","type":"int","value":0}],"gid":80,"width":223,"height":128}],"properties":[]},{"id":9,"name":"layer_2_obj","type":"objectgroup","visible":true,"opacity":1,"draworder":"index","offsetx":0,"offsety":0,"parallaxx":1,"parallaxy":1,"objects":[{"id":9,"x":210,"y":-86,"visible":true,"properties":[{"name":"layer","type":"int","value":2},{"name":"resource_index","type":"int","value":0},{"name":"oS","type":"string","value":"acc1"},{"name":"l0","type":"string","value":"grassySoil"},{"name":"l1","type":"string","value":"golem"},{"name":"l2","type":"string","value":"2"},{"name":"z","type":"int","value":3},{"name":"zM","type":"int","value":14},{"name":"f","type":"int","value":0}],"gid":64,"width":435,"height":146},{"id":10,"x":432,"y":-84,"visible":true,"properties":[{"name":"layer","type":"int","value":2},{"name":"resource_index","type":"int","value":1},{"name":"oS","type":"string","value":"acc1"},{"name":"l0","type":"string","value":"grassySoil"},{"name":"l1","type":"string","value":"golem"},{"name":"l2","type":"string","value":"10"},{"name":"z","type":"int","value":4},{"name":"zM","type":"int","value":14},{"name":"f","type":"int","value":0}],"gid":70,"width":392,"height":146},{"id":11,"x":285,"y":-72,"visible":true,"properties":[{"name":"layer","type":"int","value":2},{"name":"resource_index","type":"int","value":2},{"name":"oS","type":"string","value":"acc1"},{"name":"l0","type":"string","value":"grassySoil"},{"name":"l1","type":"string","value":"golem"},{"name":"l2","type":"string","value":"4"},{"name":"z","type":"int","value":4},{"name":"zM","type":"int","value":14},{"name":"f","type":"int","value":0}],"gid":67,"width":126,"height":154},{"id":12,"x":358,"y":-88,"visible":true,"properties":[{"name":"layer","type":"int","value":2},{"name":"resource_index","type":"int","value":3},{"name":"oS","type":"string","value":"acc1"},{"name":"l0","type":"string","value":"grassySoil"},{"name":"l1","type":"string","value":"golem"},{"name":"l2","type":"string","value":"15"},{"name":"z","type":"int","value":6},{"name":"zM","type":"int","value":14},{"name":"f","type":"int","value":0}],"gid":77,"width":286,"height":105}],"properties":[]},{"id":10,"name":"layer_3_obj","type":"objectgroup","visible":true,"opacity":1,"draworder":"index","offsetx":0,"offsety":0,"parallaxx":1,"parallaxy":1,"objects":[{"id":13,"x":838,"y":202,"visible":true,"properties":[{"name":"layer","type":"int","value":3},{"name":"resource_index","type":"int","value":0},{"name":"oS","type":"string","value":"acc1"},{"name":"l0","type":"string","value":"grassySoil"},{"name":"l1","type":"string","value":"nature"},{"name":"l2","type":"string","value":"13"},{"name":"z","type":"int","value":3},{"name":"zM","type":"int","value":2},{"name":"f","type":"int","value":0}],"gid":80,"width":223,"height":128},{"id":14,"x":140,"y":47,"visible":true,"properties":[{"name":"layer","type":"int","value":3},{"name":"resource_index","type":"int","value":1},{"name":"oS","type":"string","value":"acc1"},{"name":"l0","type":"string","value":"grassySoil"},{"name":"l1","type":"string","value":"golem"},{"name":"l2","type":"string","value":"2"},{"name":"z","type":"int","value":3},{"name":"zM","type":"int","value":11},{"name":"f","type":"int","value":0}],"gid":64,"width":435,"height":146},{"id":15,"x":150,"y":50,"visible":true,"properties":[{"name":"layer","type":"int","value":3},{"name":"resource_index","type":"int","value":2},{"name":"oS","type":"string","value":"acc1"},{"name":"l0","type":"string","value":"grassySoil"},{"name":"l1","type":"string","value":"golem"},{"name":"l2","type":"string","value":"16"},{"name":"z","type":"int","value":4},{"name":"zM","type":"int","value":11},{"name":"f","type":"int","value":0}],"gid":76,"width":270,"height":74},{"id":16,"x":279,"y":-195,"visible":true,"properties":[{"name":"layer","type":"int","value":3},{"name":"resource_index","type":"int","value":3},{"name":"oS","type":"string","value":"connect"},{"name":"l0","type":"string","value":"rope"},{"name":"l1","type":"string","value":"3"},{"name":"l2","type":"string","value":"0"},{"name":"z","type":"int","value":3},{"name":"zM","type":"int","value":18},{"name":"f","type":"int","value":0}],"gid":29,"width":18,"height":41},{"id":17,"x":280,"y":-156,"visible":true,"properties":[{"name":"layer","type":"int","value":3},{"name":"resource_index","type":"int","value":4},{"name":"oS","type":"string","value":"connect"},{"name":"l0","type":"string","value":"rope"},{"name":"l1","type":"string","value":"3"},{"name":"l2","type":"string","value":"2"},{"name":"z","type":"int","value":3},{"name":"zM","type":"int","value":17},{"name":"f","type":"int","value":0}],"gid":32,"width":17,"height":39},{"id":18,"x":1103,"y":-81,"visible":true,"properties":[{"name":"layer","type":"int","value":3},{"name":"resource_index","type":"int","value":5},{"name":"oS","type":"string","value":"acc1"},{"name":"l0","type":"string","value":"grassySoil"},{"name":"l1","type":"string","value":"nature"},{"name":"l2","type":"string","value":"13"},{"name":"z","type":"int","value":9},{"name":"zM","type":"int","value":15},{"name":"f","type":"int","value":0}],"gid":80,"width":223,"height":128},{"id":19,"x":1216,"y":-112,"visible":true,"properties":[{"name":"layer","type":"int","value":3},{"name":"resource_index","type":"int","value":6},{"name":"oS","type":"string","value":"acc1"},{"name":"l0","type":"string","value":"grassySoil"},{"name":"l1","type":"string","value":"golem"},{"name":"l2","type":"string","value":"16"},{"name":"z","type":"int","value":9},{"name":"zM","type":"int","value":15},{"name":"f","type":"int","value":0}],"gid":76,"width":270,"height":74},{"id":20,"x":412,"y":88,"visible":true,"properties":[{"name":"layer","type":"int","value":3},{"name":"resource_index","type":"int","value":7},{"name":"oS","type":"string","value":"acc1"},{"name":"l0","type":"string","value":"grassySoil"},{"name":"l1","type":"string","value":"golem"},{"name":"l2","type":"string","value":"0"},{"name":"z","type":"int","value":9},{"name":"zM","type":"int","value":2},{"name":"f","type":"int","value":0}],"gid":74,"width":479,"height":188}],"properties":[]},{"id":11,"name":"layer_4_obj","type":"objectgroup","visible":true,"opacity":1,"draworder":"index","offsetx":0,"offsety":0,"parallaxx":1,"parallaxy":1,"objects":[{"id":21,"x":1050,"y":67,"visible":true,"properties":[{"name":"layer","type":"int","value":4},{"name":"resource_index","type":"int","value":0},{"name":"oS","type":"string","value":"acc1"},{"name":"l0","type":"string","value":"grassySoil"},{"name":"l1","type":"string","value":"golem"},{"name":"l2","type":"string","value":"3"},{"name":"z","type":"int","value":8},{"name":"zM","type":"int","value":10},{"name":"f","type":"int","value":0}],"gid":71,"width":476,"height":186},{"id":22,"x":68,"y":186,"visible":true,"properties":[{"name":"layer","type":"int","value":4},{"name":"resource_index","type":"int","value":1},{"name":"oS","type":"string","value":"acc1"},{"name":"l0","type":"string","value":"grassySoil"},{"name":"l1","type":"string","value":"golem"},{"name":"l2","type":"string","value":"2"},{"name":"z","type":"int","value":3},{"name":"zM","type":"int","value":5},{"name":"f","type":"int","value":0}],"gid":64,"width":435,"height":146},{"id":23,"x":502,"y":86,"visible":true,"properties":[{"name":"layer","type":"int","value":4},{"name":"resource_index","type":"int","value":2},{"name":"oS","type":"string","value":"acc1"},{"name":"l0","type":"string","value":"grassySoil"},{"name":"l1","type":"string","value":"golem"},{"name":"l2","type":"string","value":"6"},{"name":"z","type":"int","value":0},{"name":"zM","type":"int","value":5},{"name":"f","type":"int","value":0}],"gid":65,"width":152,"height":151},{"id":24,"x":-130,"y":185,"visible":true,"properties":[{"name":"layer","type":"int","value":4},{"name":"resource_index","type":"int","value":3},{"name":"oS","type":"string","value":"acc1"},{"name":"l0","type":"string","value":"grassySoil"},{"name":"l1","type":"string","value":"golem"},{"name":"l2","type":"string","value":"17"},{"name":"z","type":"int","value":2},{"name":"zM","type":"int","value":5},{"name":"f","type":"int","value":0}],"gid":66,"width":224,"height":152},{"id":25,"x":193,"y":194,"visible":true,"properties":[{"name":"layer","type":"int","value":4},{"name":"resource_index","type":"int","value":4},{"name":"oS","type":"string","value":"acc1"},{"name":"l0","type":"string","value":"grassySoil"},{"name":"l1","type":"string","value":"golem"},{"name":"l2","type":"string","value":"5"},{"name":"z","type":"int","value":4},{"name":"zM","type":"int","value":5},{"name":"f","type":"int","value":0}],"gid":79,"width":154,"height":151},{"id":26,"x":215,"y":-62,"visible":true,"properties":[{"name":"layer","type":"int","value":4},{"name":"resource_index","type":"int","value":5},{"name":"oS","type":"string","value":"connect"},{"name":"l0","type":"string","value":"rope"},{"name":"l1","type":"string","value":"3"},{"name":"l2","type":"string","value":"0"},{"name":"z","type":"int","value":3},{"name":"zM","type":"int","value":5},{"name":"f","type":"int","value":0}],"gid":29,"width":18,"height":41},{"id":27,"x":216,"y":-32,"visible":true,"properties":[{"name":"layer","type":"int","value":4},{"name":"resource_index","type":"int","value":6},{"name":"oS","type":"string","value":"connect"},{"name":"l0","type":"string","value":"rope"},{"name":"l1","type":"string","value":"3"},{"name":"l2","type":"string","value":"1"},{"name":"z","type":"int","value":3},{"name":"zM","type":"int","value":5},{"name":"f","type":"int","value":0}],"gid":31,"width":17,"height":30},{"id":28,"x":216,"y":7,"visible":true,"properties":[{"name":"layer","type":"int","value":4},{"name":"resource_index","type":"int","value":7},{"name":"oS","type":"string","value":"connect"},{"name":"l0","type":"string","value":"rope"},{"name":"l1","type":"string","value":"3"},{"name":"l2","type":"string","value":"2"},{"name":"z","type":"int","value":3},{"name":"zM","type":"int","value":5},{"name":"f","type":"int","value":0}],"gid":32,"width":17,"height":39},{"id":29,"x":728,"y":96,"visible":true,"properties":[{"name":"layer","type":"int","value":4},{"name":"resource_index","type":"int","value":8},{"name":"oS","type":"string","value":"acc1"},{"name":"l0","type":"string","value":"darkWood"},{"name":"l1","type":"string","value":"nature"},{"name":"l2","type":"string","value":"20"},{"name":"z","type":"int","value":4},{"name":"zM","type":"int","value":9},{"name":"f","type":"int","value":0}],"gid":33,"width":149,"height":67},{"id":30,"x":710,"y":86,"visible":true,"properties":[{"name":"layer","type":"int","value":4},{"name":"resource_index","type":"int","value":9},{"name":"oS","type":"string","value":"acc1"},{"name":"l0","type":"string","value":"grassySoil"},{"name":"l1","type":"string","value":"nature"},{"name":"l2","type":"string","value":"5"},{"name":"z","type":"int","value":3},{"name":"zM","type":"int","value":9},{"name":"f","type":"int","value":0}],"gid":93,"width":47,"height":66},{"id":31,"x":740,"y":87,"visible":true,"properties":[{"name":"layer","type":"int","value":4},{"name":"resource_index","type":"int","value":10},{"name":"oS","type":"string","value":"acc1"},{"name":"l0","type":"string","value":"grassySoil"},{"name":"l1","type":"string","value":"nature"},{"name":"l2","type":"string","value":"6"},{"name":"z","type":"int","value":5},{"name":"zM","type":"int","value":9},{"name":"f","type":"int","value":0}],"gid":92,"width":56,"height":52},{"id":32,"x":758,"y":42,"visible":true,"properties":[{"name":"layer","type":"int","value":4},{"name":"resource_index","type":"int","value":11},{"name":"oS","type":"string","value":"acc1"},{"name":"l0","type":"string","value":"grassySoil"},{"name":"l1","type":"string","value":"nature"},{"name":"l2","type":"string","value":"20"},{"name":"z","type":"int","value":6},{"name":"zM","type":"int","value":9},{"name":"f","type":"int","value":0}],"gid":94,"width":38,"height":16}],"properties":[]},{"id":12,"name":"layer_5_obj","type":"objectgroup","visible":true,"opacity":1,"draworder":"index","offsetx":0,"offsety":0,"parallaxx":1,"parallaxy":1,"objects":[{"id":33,"x":425,"y":183,"visible":true,"properties":[{"name":"layer","type":"int","value":5},{"name":"resource_index","type":"int","value":0},{"name":"oS","type":"string","value":"acc1"},{"name":"l0","type":"string","value":"grassySoil"},{"name":"l1","type":"string","value":"golem"},{"name":"l2","type":"string","value":"16"},{"name":"z","type":"int","value":4},{"name":"zM","type":"int","value":3},{"name":"f","type":"int","value":0}],"gid":76,"width":270,"height":74},{"id":34,"x":405,"y":183,"visible":true,"properties":[{"name":"layer","type":"int","value":5},{"name":"resource_index","type":"int","value":1},{"name":"oS","type":"string","value":"acc1"},{"name":"l0","type":"string","value":"grassySoil"},{"name":"l1","type":"string","value":"golem"},{"name":"l2","type":"string","value":"18"},{"name":"z","type":"int","value":3},{"name":"zM","type":"int","value":3},{"name":"f","type":"int","value":0}],"gid":73,"width":490,"height":103},{"id":35,"x":1552,"y":189,"visible":true,"properties":[{"name":"layer","type":"int","value":5},{"name":"resource_index","type":"int","value":2},{"name":"oS","type":"string","value":"acc1"},{"name":"l0","type":"string","value":"grassySoil"},{"name":"l1","type":"string","value":"golem"},{"name":"l2","type":"string","value":"9"},{"name":"z","type":"int","value":1},{"name":"zM","type":"int","value":1},{"name":"f","type":"int","value":0}],"gid":69,"width":178,"height":146},{"id":36,"x":1443,"y":220,"visible":true,"properties":[{"name":"layer","type":"int","value":5},{"name":"resource_index","type":"int","value":3},{"name":"oS","type":"string","value":"acc1"},{"name":"l0","type":"string","value":"grassySoil"},{"name":"l1","type":"string","value":"nature"},{"name":"l2","type":"string","value":"13"},{"name":"z","type":"int","value":12},{"name":"zM","type":"int","value":1},{"name":"f","type":"int","value":0}],"gid":80,"width":223,"height":128},{"id":37,"x":858,"y":183,"visible":true,"properties":[{"name":"layer","type":"int","value":5},{"name":"resource_index","type":"int","value":4},{"name":"oS","type":"string","value":"acc1"},{"name":"l0","type":"string","value":"grassySoil"},{"name":"l1","type":"string","value":"nature"},{"name":"l2","type":"string","value":"5"},{"name":"z","type":"int","value":5},{"name":"zM","type":"int","value":3},{"name":"f","type":"int","value":0}],"gid":93,"width":47,"height":66},{"id":38,"x":883,"y":183,"visible":true,"properties":[{"name":"layer","type":"int","value":5},{"name":"resource_index","type":"int","value":5},{"name":"oS","type":"string","value":"acc1"},{"name":"l0","type":"string","value":"grassySoil"},{"name":"l1","type":"string","value":"nature"},{"name":"l2","type":"string","value":"6"},{"name":"z","type":"int","value":6},{"name":"zM","type":"int","value":3},{"name":"f","type":"int","value":0}],"gid":92,"width":56,"height":52},{"id":39,"x":909,"y":183,"visible":true,"properties":[{"name":"layer","type":"int","value":5},{"name":"resource_index","type":"int","value":6},{"name":"oS","type":"string","value":"acc1"},{"name":"l0","type":"string","value":"grassySoil"},{"name":"l1","type":"string","value":"nature"},{"name":"l2","type":"string","value":"5"},{"name":"z","type":"int","value":3},{"name":"zM","type":"int","value":3},{"name":"f","type":"int","value":0}],"gid":93,"width":47,"height":66},{"id":40,"x":933,"y":183,"visible":true,"properties":[{"name":"layer","type":"int","value":5},{"name":"resource_index","type":"int","value":7},{"name":"oS","type":"string","value":"acc1"},{"name":"l0","type":"string","value":"grassySoil"},{"name":"l1","type":"string","value":"nature"},{"name":"l2","type":"string","value":"6"},{"name":"z","type":"int","value":2},{"name":"zM","type":"int","value":3},{"name":"f","type":"int","value":1}],"gid":92,"width":56,"height":52},{"id":41,"x":938,"y":182,"visible":true,"properties":[{"name":"layer","type":"int","value":5},{"name":"resource_index","type":"int","value":8},{"name":"oS","type":"string","value":"acc1"},{"name":"l0","type":"string","value":"grassySoil"},{"name":"l1","type":"string","value":"nature"},{"name":"l2","type":"string","value":"6"},{"name":"z","type":"int","value":5},{"name":"zM","type":"int","value":3},{"name":"f","type":"int","value":0}],"gid":92,"width":56,"height":52},{"id":42,"x":966,"y":179,"visible":true,"properties":[{"name":"layer","type":"int","value":5},{"name":"resource_index","type":"int","value":9},{"name":"oS","type":"string","value":"acc1"},{"name":"l0","type":"string","value":"grassySoil"},{"name":"l1","type":"string","value":"nature"},{"name":"l2","type":"string","value":"5"},{"name":"z","type":"int","value":3},{"name":"zM","type":"int","value":3},{"name":"f","type":"int","value":0}],"gid":93,"width":47,"height":66},{"id":43,"x":963,"y":96,"visible":true,"properties":[{"name":"layer","type":"int","value":5},{"name":"resource_index","type":"int","value":10},{"name":"oS","type":"string","value":"acc1"},{"name":"l0","type":"string","value":"grassySoil"},{"name":"l1","type":"string","value":"nature"},{"name":"l2","type":"string","value":"19"},{"name":"z","type":"int","value":7},{"name":"zM","type":"int","value":3},{"name":"f","type":"int","value":0}],"gid":85,"width":33,"height":16},{"id":44,"x":29,"y":193,"visible":true,"properties":[{"name":"layer","type":"int","value":5},{"name":"resource_index","type":"int","value":11},{"name":"oS","type":"string","value":"acc1"},{"name":"l0","type":"string","value":"darkWood"},{"name":"l1","type":"string","value":"nature"},{"name":"l2","type":"string","value":"20"},{"name":"z","type":"int","value":4},{"name":"zM","type":"int","value":6},{"name":"f","type":"int","value":0}],"gid":33,"width":149,"height":67},{"id":45,"x":898,"y":191,"visible":true,"properties":[{"name":"layer","type":"int","value":5},{"name":"resource_index","type":"int","value":12},{"name":"oS","type":"string","value":"acc1"},{"name":"l0","type":"string","value":"grassySoil"},{"name":"l1","type":"string","value":"golem"},{"name":"l2","type":"string","value":"0"},{"name":"z","type":"int","value":9},{"name":"zM","type":"int","value":3},{"name":"f","type":"int","value":0}],"gid":74,"width":479,"height":188},{"id":46,"x":1181,"y":200,"visible":true,"properties":[{"name":"layer","type":"int","value":5},{"name":"resource_index","type":"int","value":13},{"name":"oS","type":"string","value":"acc1"},{"name":"l0","type":"string","value":"grassySoil"},{"name":"l1","type":"string","value":"golem"},{"name":"l2","type":"string","value":"2"},{"name":"z","type":"int","value":9},{"name":"zM","type":"int","value":3},{"name":"f","type":"int","value":0}],"gid":64,"width":435,"height":146},{"id":47,"x":1183,"y":-83,"visible":true,"properties":[{"name":"layer","type":"int","value":5},{"name":"resource_index","type":"int","value":14},{"name":"oS","type":"string","value":"connect"},{"name":"l0","type":"string","value":"rope"},{"name":"l1","type":"string","value":"3"},{"name":"l2","type":"string","value":"0"},{"name":"z","type":"int","value":9},{"name":"zM","type":"int","value":16},{"name":"f","type":"int","value":0}],"gid":29,"width":18,"height":41},{"id":48,"x":1184,"y":-44,"visible":true,"properties":[{"name":"layer","type":"int","value":5},{"name":"resource_index","type":"int","value":15},{"name":"oS","type":"string","value":"connect"},{"name":"l0","type":"string","value":"rope"},{"name":"l1","type":"string","value":"3"},{"name":"l2","type":"string","value":"2"},{"name":"z","type":"int","value":9},{"name":"zM","type":"int","value":13},{"name":"f","type":"int","value":0}],"gid":32,"width":17,"height":39}],"properties":[]},{"id":13,"name":"layer_6_tile","type":"objectgroup","visible":true,"opacity":1,"draworder":"index","offsetx":0,"offsety":0,"parallaxx":1,"parallaxy":1,"objects":[{"id":49,"x":1125,"y":270,"visible":true,"properties":[{"name":"layer","type":"int","value":6},{"name":"resource_index","type":"int","value":0},{"name":"u","type":"string","value":"bsc"},{"name":"no","type":"int","value":1},{"name":"zM","type":"int","value":0}],"gid":18,"width":90,"height":60},{"id":50,"x":1125,"y":330,"visible":true,"properties":[{"name":"layer","type":"int","value":6},{"name":"resource_index","type":"int","value":1},{"name":"u","type":"string","value":"bsc"},{"name":"no","type":"int","value":4},{"name":"zM","type":"int","value":0}],"gid":17,"width":90,"height":60},{"id":51,"x":1035,"y":270,"visible":true,"properties":[{"name":"layer","type":"int","value":6},{"name":"resource_index","type":"int","value":2},{"name":"u","type":"string","value":"bsc"},{"name":"no","type":"int","value":0},{"name":"zM","type":"int","value":0}],"gid":19,"width":90,"height":60},{"id":52,"x":1035,"y":210,"visible":true,"properties":[{"name":"layer","type":"int","value":6},{"name":"resource_index","type":"int","value":3},{"name":"u","type":"string","value":"enH0"},{"name":"no","type":"int","value":1},{"name":"zM","type":"int","value":0}],"gid":12,"width":90,"height":39},{"id":53,"x":945,"y":270,"visible":true,"properties":[{"name":"layer","type":"int","value":6},{"name":"resource_index","type":"int","value":4},{"name":"u","type":"string","value":"bsc"},{"name":"no","type":"int","value":4},{"name":"zM","type":"int","value":0}],"gid":17,"width":90,"height":60},{"id":54,"x":945,"y":210,"visible":true,"properties":[{"name":"layer","type":"int","value":6},{"name":"resource_index","type":"int","value":5},{"name":"u","type":"string","value":"enH0"},{"name":"no","type":"int","value":1},{"name":"zM","type":"int","value":0}],"gid":12,"width":90,"height":39},{"id":55,"x":855,"y":270,"visible":true,"properties":[{"name":"layer","type":"int","value":6},{"name":"resource_index","type":"int","value":6},{"name":"u","type":"string","value":"bsc"},{"name":"no","type":"int","value":4},{"name":"zM","type":"int","value":0}],"gid":17,"width":90,"height":60},{"id":56,"x":855,"y":210,"visible":true,"properties":[{"name":"layer","type":"int","value":6},{"name":"resource_index","type":"int","value":7},{"name":"u","type":"string","value":"enH0"},{"name":"no","type":"int","value":0},{"name":"zM","type":"int","value":0}],"gid":11,"width":90,"height":38},{"id":57,"x":315,"y":270,"visible":true,"properties":[{"name":"layer","type":"int","value":6},{"name":"resource_index","type":"int","value":8},{"name":"u","type":"string","value":"bsc"},{"name":"no","type":"int","value":2},{"name":"zM","type":"int","value":0}],"gid":16,"width":90,"height":60},{"id":58,"x":315,"y":210,"visible":true,"properties":[{"name":"layer","type":"int","value":6},{"name":"resource_index","type":"int","value":9},{"name":"u","type":"string","value":"enH0"},{"name":"no","type":"int","value":1},{"name":"zM","type":"int","value":0}],"gid":12,"width":90,"height":39},{"id":59,"x":765,"y":210,"visible":true,"properties":[{"name":"layer","type":"int","value":6},{"name":"resource_index","type":"int","value":10},{"name":"u","type":"string","value":"enH0"},{"name":"no","type":"int","value":1},{"name":"zM","type":"int","value":0}],"gid":12,"width":90,"height":39},{"id":60,"x":765,"y":270,"visible":true,"properties":[{"name":"layer","type":"int","value":6},{"name":"resource_index","type":"int","value":11},{"name":"u","type":"string","value":"bsc"},{"name":"no","type":"int","value":0},{"name":"zM","type":"int","value":0}],"gid":19,"width":90,"height":60},{"id":61,"x":1035,"y":330,"visible":true,"properties":[{"name":"layer","type":"int","value":6},{"name":"resource_index","type":"int","value":12},{"name":"u","type":"string","value":"bsc"},{"name":"no","type":"int","value":3},{"name":"zM","type":"int","value":0}],"gid":15,"width":90,"height":60},{"id":62,"x":1125,"y":390,"visible":true,"properties":[{"name":"layer","type":"int","value":6},{"name":"resource_index","type":"int","value":13},{"name":"u","type":"string","value":"bsc"},{"name":"no","type":"int","value":3},{"name":"zM","type":"int","value":0}],"gid":15,"width":90,"height":60},{"id":63,"x":585,"y":416,"visible":true,"properties":[{"name":"layer","type":"int","value":6},{"name":"resource_index","type":"int","value":14},{"name":"u","type":"string","value":"enH1"},{"name":"no","type":"int","value":1},{"name":"zM","type":"int","value":0}],"gid":13,"width":90,"height":26},{"id":64,"x":1125,"y":416,"visible":true,"properties":[{"name":"layer","type":"int","value":6},{"name":"resource_index","type":"int","value":15},{"name":"u","type":"string","value":"enH1"},{"name":"no","type":"int","value":1},{"name":"zM","type":"int","value":0}],"gid":13,"width":90,"height":26},{"id":65,"x":1035,"y":416,"visible":true,"properties":[{"name":"layer","type":"int","value":6},{"name":"resource_index","type":"int","value":16},{"name":"u","type":"string","value":"enH1"},{"name":"no","type":"int","value":1},{"name":"zM","type":"int","value":0}],"gid":13,"width":90,"height":26},{"id":66,"x":1035,"y":390,"visible":true,"properties":[{"name":"layer","type":"int","value":6},{"name":"resource_index","type":"int","value":17},{"name":"u","type":"string","value":"bsc"},{"name":"no","type":"int","value":3},{"name":"zM","type":"int","value":0}],"gid":15,"width":90,"height":60},{"id":67,"x":945,"y":416,"visible":true,"properties":[{"name":"layer","type":"int","value":6},{"name":"resource_index","type":"int","value":18},{"name":"u","type":"string","value":"enH1"},{"name":"no","type":"int","value":1},{"name":"zM","type":"int","value":0}],"gid":13,"width":90,"height":26},{"id":68,"x":945,"y":390,"visible":true,"properties":[{"name":"layer","type":"int","value":6},{"name":"resource_index","type":"int","value":19},{"name":"u","type":"string","value":"bsc"},{"name":"no","type":"int","value":0},{"name":"zM","type":"int","value":0}],"gid":19,"width":90,"height":60},{"id":69,"x":855,"y":415,"visible":true,"properties":[{"name":"layer","type":"int","value":6},{"name":"resource_index","type":"int","value":20},{"name":"u","type":"string","value":"enH1"},{"name":"no","type":"int","value":0},{"name":"zM","type":"int","value":0}],"gid":10,"width":90,"height":25},{"id":70,"x":855,"y":390,"visible":true,"properties":[{"name":"layer","type":"int","value":6},{"name":"resource_index","type":"int","value":21},{"name":"u","type":"string","value":"bsc"},{"name":"no","type":"int","value":0},{"name":"zM","type":"int","value":0}],"gid":19,"width":90,"height":60},{"id":71,"x":675,"y":415,"visible":true,"properties":[{"name":"layer","type":"int","value":6},{"name":"resource_index","type":"int","value":22},{"name":"u","type":"string","value":"enH1"},{"name":"no","type":"int","value":0},{"name":"zM","type":"int","value":0}],"gid":10,"width":90,"height":25},{"id":72,"x":495,"y":416,"visible":true,"properties":[{"name":"layer","type":"int","value":6},{"name":"resource_index","type":"int","value":23},{"name":"u","type":"string","value":"enH1"},{"name":"no","type":"int","value":1},{"name":"zM","type":"int","value":0}],"gid":13,"width":90,"height":26},{"id":73,"x":405,"y":416,"visible":true,"properties":[{"name":"layer","type":"int","value":6},{"name":"resource_index","type":"int","value":24},{"name":"u","type":"string","value":"enH1"},{"name":"no","type":"int","value":1},{"name":"zM","type":"int","value":0}],"gid":13,"width":90,"height":26},{"id":74,"x":765,"y":416,"visible":true,"properties":[{"name":"layer","type":"int","value":6},{"name":"resource_index","type":"int","value":25},{"name":"u","type":"string","value":"enH1"},{"name":"no","type":"int","value":1},{"name":"zM","type":"int","value":0}],"gid":13,"width":90,"height":26},{"id":75,"x":585,"y":390,"visible":true,"properties":[{"name":"layer","type":"int","value":6},{"name":"resource_index","type":"int","value":26},{"name":"u","type":"string","value":"bsc"},{"name":"no","type":"int","value":3},{"name":"zM","type":"int","value":0}],"gid":15,"width":90,"height":60},{"id":76,"x":1215,"y":330,"visible":true,"properties":[{"name":"layer","type":"int","value":6},{"name":"resource_index","type":"int","value":27},{"name":"u","type":"string","value":"bsc"},{"name":"no","type":"int","value":1},{"name":"zM","type":"int","value":0}],"gid":18,"width":90,"height":60},{"id":77,"x":855,"y":330,"visible":true,"properties":[{"name":"layer","type":"int","value":6},{"name":"resource_index","type":"int","value":28},{"name":"u","type":"string","value":"bsc"},{"name":"no","type":"int","value":1},{"name":"zM","type":"int","value":0}],"gid":18,"width":90,"height":60},{"id":78,"x":945,"y":330,"visible":true,"properties":[{"name":"layer","type":"int","value":6},{"name":"resource_index","type":"int","value":29},{"name":"u","type":"string","value":"bsc"},{"name":"no","type":"int","value":1},{"name":"zM","type":"int","value":0}],"gid":18,"width":90,"height":60},{"id":79,"x":765,"y":330,"visible":true,"properties":[{"name":"layer","type":"int","value":6},{"name":"resource_index","type":"int","value":30},{"name":"u","type":"string","value":"bsc"},{"name":"no","type":"int","value":1},{"name":"zM","type":"int","value":0}],"gid":18,"width":90,"height":60},{"id":80,"x":135,"y":390,"visible":true,"properties":[{"name":"layer","type":"int","value":6},{"name":"resource_index","type":"int","value":31},{"name":"u","type":"string","value":"bsc"},{"name":"no","type":"int","value":1},{"name":"zM","type":"int","value":0}],"gid":18,"width":90,"height":60},{"id":81,"x":-45,"y":390,"visible":true,"properties":[{"name":"layer","type":"int","value":6},{"name":"resource_index","type":"int","value":32},{"name":"u","type":"string","value":"bsc"},{"name":"no","type":"int","value":3},{"name":"zM","type":"int","value":0}],"gid":15,"width":90,"height":60},{"id":82,"x":-45,"y":415,"visible":true,"properties":[{"name":"layer","type":"int","value":6},{"name":"resource_index","type":"int","value":33},{"name":"u","type":"string","value":"enH1"},{"name":"no","type":"int","value":0},{"name":"zM","type":"int","value":0}],"gid":10,"width":90,"height":25},{"id":83,"x":135,"y":416,"visible":true,"properties":[{"name":"layer","type":"int","value":6},{"name":"resource_index","type":"int","value":34},{"name":"u","type":"string","value":"enH1"},{"name":"no","type":"int","value":1},{"name":"zM","type":"int","value":0}],"gid":13,"width":90,"height":26},{"id":84,"x":45,"y":415,"visible":true,"properties":[{"name":"layer","type":"int","value":6},{"name":"resource_index","type":"int","value":35},{"name":"u","type":"string","value":"enH1"},{"name":"no","type":"int","value":0},{"name":"zM","type":"int","value":0}],"gid":10,"width":90,"height":25},{"id":85,"x":-45,"y":330,"visible":true,"properties":[{"name":"layer","type":"int","value":6},{"name":"resource_index","type":"int","value":36},{"name":"u","type":"string","value":"bsc"},{"name":"no","type":"int","value":2},{"name":"zM","type":"int","value":0}],"gid":16,"width":90,"height":60},{"id":86,"x":405,"y":270,"visible":true,"properties":[{"name":"layer","type":"int","value":6},{"name":"resource_index","type":"int","value":37},{"name":"u","type":"string","value":"bsc"},{"name":"no","type":"int","value":1},{"name":"zM","type":"int","value":0}],"gid":18,"width":90,"height":60},{"id":87,"x":405,"y":210,"visible":true,"properties":[{"name":"layer","type":"int","value":6},{"name":"resource_index","type":"int","value":38},{"name":"u","type":"string","value":"enH0"},{"name":"no","type":"int","value":0},{"name":"zM","type":"int","value":0}],"gid":11,"width":90,"height":38},{"id":88,"x":-135,"y":270,"visible":true,"properties":[{"name":"layer","type":"int","value":6},{"name":"resource_index","type":"int","value":39},{"name":"u","type":"string","value":"bsc"},{"name":"no","type":"int","value":2},{"name":"zM","type":"int","value":0}],"gid":16,"width":90,"height":60},{"id":89,"x":315,"y":330,"visible":true,"properties":[{"name":"layer","type":"int","value":6},{"name":"resource_index","type":"int","value":40},{"name":"u","type":"string","value":"bsc"},{"name":"no","type":"int","value":1},{"name":"zM","type":"int","value":0}],"gid":18,"width":90,"height":60},{"id":90,"x":135,"y":330,"visible":true,"properties":[{"name":"layer","type":"int","value":6},{"name":"resource_index","type":"int","value":41},{"name":"u","type":"string","value":"bsc"},{"name":"no","type":"int","value":4},{"name":"zM","type":"int","value":0}],"gid":17,"width":90,"height":60},{"id":91,"x":495,"y":390,"visible":true,"properties":[{"name":"layer","type":"int","value":6},{"name":"resource_index","type":"int","value":42},{"name":"u","type":"string","value":"bsc"},{"name":"no","type":"int","value":1},{"name":"zM","type":"int","value":0}],"gid":18,"width":90,"height":60},{"id":92,"x":405,"y":330,"visible":true,"properties":[{"name":"layer","type":"int","value":6},{"name":"resource_index","type":"int","value":43},{"name":"u","type":"string","value":"bsc"},{"name":"no","type":"int","value":3},{"name":"zM","type":"int","value":0}],"gid":15,"width":90,"height":60},{"id":93,"x":585,"y":330,"visible":true,"properties":[{"name":"layer","type":"int","value":6},{"name":"resource_index","type":"int","value":44},{"name":"u","type":"string","value":"bsc"},{"name":"no","type":"int","value":1},{"name":"zM","type":"int","value":0}],"gid":18,"width":90,"height":60},{"id":94,"x":495,"y":330,"visible":true,"properties":[{"name":"layer","type":"int","value":6},{"name":"resource_index","type":"int","value":45},{"name":"u","type":"string","value":"bsc"},{"name":"no","type":"int","value":3},{"name":"zM","type":"int","value":0}],"gid":15,"width":90,"height":60},{"id":95,"x":675,"y":330,"visible":true,"properties":[{"name":"layer","type":"int","value":6},{"name":"resource_index","type":"int","value":46},{"name":"u","type":"string","value":"bsc"},{"name":"no","type":"int","value":4},{"name":"zM","type":"int","value":0}],"gid":17,"width":90,"height":60},{"id":96,"x":225,"y":330,"visible":true,"properties":[{"name":"layer","type":"int","value":6},{"name":"resource_index","type":"int","value":47},{"name":"u","type":"string","value":"bsc"},{"name":"no","type":"int","value":1},{"name":"zM","type":"int","value":0}],"gid":18,"width":90,"height":60},{"id":97,"x":315,"y":416,"visible":true,"properties":[{"name":"layer","type":"int","value":6},{"name":"resource_index","type":"int","value":48},{"name":"u","type":"string","value":"enH1"},{"name":"no","type":"int","value":1},{"name":"zM","type":"int","value":0}],"gid":13,"width":90,"height":26},{"id":98,"x":765,"y":390,"visible":true,"properties":[{"name":"layer","type":"int","value":6},{"name":"resource_index","type":"int","value":49},{"name":"u","type":"string","value":"bsc"},{"name":"no","type":"int","value":3},{"name":"zM","type":"int","value":0}],"gid":15,"width":90,"height":60},{"id":99,"x":405,"y":390,"visible":true,"properties":[{"name":"layer","type":"int","value":6},{"name":"resource_index","type":"int","value":50},{"name":"u","type":"string","value":"bsc"},{"name":"no","type":"int","value":3},{"name":"zM","type":"int","value":0}],"gid":15,"width":90,"height":60},{"id":100,"x":675,"y":390,"visible":true,"properties":[{"name":"layer","type":"int","value":6},{"name":"resource_index","type":"int","value":51},{"name":"u","type":"string","value":"bsc"},{"name":"no","type":"int","value":4},{"name":"zM","type":"int","value":0}],"gid":17,"width":90,"height":60},{"id":101,"x":315,"y":390,"visible":true,"properties":[{"name":"layer","type":"int","value":6},{"name":"resource_index","type":"int","value":52},{"name":"u","type":"string","value":"bsc"},{"name":"no","type":"int","value":1},{"name":"zM","type":"int","value":0}],"gid":18,"width":90,"height":60},{"id":102,"x":45,"y":390,"visible":true,"properties":[{"name":"layer","type":"int","value":6},{"name":"resource_index","type":"int","value":53},{"name":"u","type":"string","value":"bsc"},{"name":"no","type":"int","value":1},{"name":"zM","type":"int","value":0}],"gid":18,"width":90,"height":60},{"id":103,"x":225,"y":415,"visible":true,"properties":[{"name":"layer","type":"int","value":6},{"name":"resource_index","type":"int","value":54},{"name":"u","type":"string","value":"enH1"},{"name":"no","type":"int","value":0},{"name":"zM","type":"int","value":0}],"gid":10,"width":90,"height":25},{"id":104,"x":225,"y":270,"visible":true,"properties":[{"name":"layer","type":"int","value":6},{"name":"resource_index","type":"int","value":55},{"name":"u","type":"string","value":"bsc"},{"name":"no","type":"int","value":3},{"name":"zM","type":"int","value":0}],"gid":15,"width":90,"height":60},{"id":105,"x":225,"y":210,"visible":true,"properties":[{"name":"layer","type":"int","value":6},{"name":"resource_index","type":"int","value":56},{"name":"u","type":"string","value":"enH0"},{"name":"no","type":"int","value":0},{"name":"zM","type":"int","value":0}],"gid":11,"width":90,"height":38},{"id":106,"x":135,"y":270,"visible":true,"properties":[{"name":"layer","type":"int","value":6},{"name":"resource_index","type":"int","value":57},{"name":"u","type":"string","value":"bsc"},{"name":"no","type":"int","value":4},{"name":"zM","type":"int","value":0}],"gid":17,"width":90,"height":60},{"id":107,"x":135,"y":210,"visible":true,"properties":[{"name":"layer","type":"int","value":6},{"name":"resource_index","type":"int","value":58},{"name":"u","type":"string","value":"enH0"},{"name":"no","type":"int","value":0},{"name":"zM","type":"int","value":0}],"gid":11,"width":90,"height":38},{"id":108,"x":45,"y":270,"visible":true,"properties":[{"name":"layer","type":"int","value":6},{"name":"resource_index","type":"int","value":59},{"name":"u","type":"string","value":"bsc"},{"name":"no","type":"int","value":4},{"name":"zM","type":"int","value":0}],"gid":17,"width":90,"height":60},{"id":109,"x":45,"y":210,"visible":true,"properties":[{"name":"layer","type":"int","value":6},{"name":"resource_index","type":"int","value":60},{"name":"u","type":"string","value":"enH0"},{"name":"no","type":"int","value":1},{"name":"zM","type":"int","value":0}],"gid":12,"width":90,"height":39},{"id":110,"x":-45,"y":270,"visible":true,"properties":[{"name":"layer","type":"int","value":6},{"name":"resource_index","type":"int","value":61},{"name":"u","type":"string","value":"bsc"},{"name":"no","type":"int","value":3},{"name":"zM","type":"int","value":0}],"gid":15,"width":90,"height":60},{"id":111,"x":-45,"y":210,"visible":true,"properties":[{"name":"layer","type":"int","value":6},{"name":"resource_index","type":"int","value":62},{"name":"u","type":"string","value":"enH0"},{"name":"no","type":"int","value":1},{"name":"zM","type":"int","value":0}],"gid":12,"width":90,"height":39},{"id":112,"x":-164,"y":211,"visible":true,"properties":[{"name":"layer","type":"int","value":6},{"name":"resource_index","type":"int","value":63},{"name":"u","type":"string","value":"edU"},{"name":"no","type":"int","value":1},{"name":"zM","type":"int","value":0}],"gid":14,"width":55,"height":38},{"id":113,"x":45,"y":330,"visible":true,"properties":[{"name":"layer","type":"int","value":6},{"name":"resource_index","type":"int","value":64},{"name":"u","type":"string","value":"bsc"},{"name":"no","type":"int","value":4},{"name":"zM","type":"int","value":0}],"gid":17,"width":90,"height":60},{"id":114,"x":-135,"y":210,"visible":true,"properties":[{"name":"layer","type":"int","value":6},{"name":"resource_index","type":"int","value":65},{"name":"u","type":"string","value":"enH0"},{"name":"no","type":"int","value":1},{"name":"zM","type":"int","value":0}],"gid":12,"width":90,"height":39},{"id":115,"x":-167,"y":270,"visible":true,"properties":[{"name":"layer","type":"int","value":6},{"name":"resource_index","type":"int","value":66},{"name":"u","type":"string","value":"enV0"},{"name":"no","type":"int","value":0},{"name":"zM","type":"int","value":0}],"gid":24,"width":32,"height":60},{"id":116,"x":-135,"y":330,"visible":true,"properties":[{"name":"layer","type":"int","value":6},{"name":"resource_index","type":"int","value":67},{"name":"u","type":"string","value":"bsc"},{"name":"no","type":"int","value":1},{"name":"zM","type":"int","value":0}],"gid":18,"width":90,"height":60},{"id":117,"x":-164,"y":330,"visible":true,"properties":[{"name":"layer","type":"int","value":6},{"name":"resource_index","type":"int","value":68},{"name":"u","type":"string","value":"enV0"},{"name":"no","type":"int","value":1},{"name":"zM","type":"int","value":0}],"gid":20,"width":29,"height":60},{"id":118,"x":-135,"y":390,"visible":true,"properties":[{"name":"layer","type":"int","value":6},{"name":"resource_index","type":"int","value":69},{"name":"u","type":"string","value":"bsc"},{"name":"no","type":"int","value":0},{"name":"zM","type":"int","value":0}],"gid":19,"width":90,"height":60},{"id":119,"x":-164,"y":390,"visible":true,"properties":[{"name":"layer","type":"int","value":6},{"name":"resource_index","type":"int","value":70},{"name":"u","type":"string","value":"enV0"},{"name":"no","type":"int","value":1},{"name":"zM","type":"int","value":0}],"gid":20,"width":29,"height":60},{"id":120,"x":-159,"y":407,"visible":true,"properties":[{"name":"layer","type":"int","value":6},{"name":"resource_index","type":"int","value":71},{"name":"u","type":"string","value":"edD"},{"name":"no","type":"int","value":0},{"name":"zM","type":"int","value":0}],"gid":9,"width":48,"height":17},{"id":121,"x":-135,"y":415,"visible":true,"properties":[{"name":"layer","type":"int","value":6},{"name":"resource_index","type":"int","value":72},{"name":"u","type":"string","value":"enH1"},{"name":"no","type":"int","value":0},{"name":"zM","type":"int","value":0}],"gid":10,"width":90,"height":25},{"id":122,"x":225,"y":390,"visible":true,"properties":[{"name":"layer","type":"int","value":6},{"name":"resource_index","type":"int","value":73},{"name":"u","type":"string","value":"bsc"},{"name":"no","type":"int","value":3},{"name":"zM","type":"int","value":0}],"gid":15,"width":90,"height":60},{"id":123,"x":675,"y":270,"visible":true,"properties":[{"name":"layer","type":"int","value":6},{"name":"resource_index","type":"int","value":74},{"name":"u","type":"string","value":"bsc"},{"name":"no","type":"int","value":1},{"name":"zM","type":"int","value":0}],"gid":18,"width":90,"height":60},{"id":124,"x":675,"y":210,"visible":true,"properties":[{"name":"layer","type":"int","value":6},{"name":"resource_index","type":"int","value":75},{"name":"u","type":"string","value":"enH0"},{"name":"no","type":"int","value":1},{"name":"zM","type":"int","value":0}],"gid":12,"width":90,"height":39},{"id":125,"x":495,"y":210,"visible":true,"properties":[{"name":"layer","type":"int","value":6},{"name":"resource_index","type":"int","value":76},{"name":"u","type":"string","value":"enH0"},{"name":"no","type":"int","value":1},{"name":"zM","type":"int","value":0}],"gid":12,"width":90,"height":39},{"id":126,"x":495,"y":270,"visible":true,"properties":[{"name":"layer","type":"int","value":6},{"name":"resource_index","type":"int","value":77},{"name":"u","type":"string","value":"bsc"},{"name":"no","type":"int","value":3},{"name":"zM","type":"int","value":0}],"gid":15,"width":90,"height":60},{"id":127,"x":585,"y":270,"visible":true,"properties":[{"name":"layer","type":"int","value":6},{"name":"resource_index","type":"int","value":78},{"name":"u","type":"string","value":"bsc"},{"name":"no","type":"int","value":1},{"name":"zM","type":"int","value":0}],"gid":18,"width":90,"height":60},{"id":128,"x":585,"y":210,"visible":true,"properties":[{"name":"layer","type":"int","value":6},{"name":"resource_index","type":"int","value":79},{"name":"u","type":"string","value":"enH0"},{"name":"no","type":"int","value":1},{"name":"zM","type":"int","value":0}],"gid":12,"width":90,"height":39},{"id":129,"x":736,"y":150,"visible":true,"properties":[{"name":"layer","type":"int","value":6},{"name":"resource_index","type":"int","value":80},{"name":"u","type":"string","value":"edU"},{"name":"no","type":"int","value":0},{"name":"zM","type":"int","value":7}],"gid":8,"width":54,"height":37},{"id":130,"x":741,"y":167,"visible":true,"properties":[{"name":"layer","type":"int","value":6},{"name":"resource_index","type":"int","value":81},{"name":"u","type":"string","value":"edD"},{"name":"no","type":"int","value":0},{"name":"zM","type":"int","value":7}],"gid":9,"width":48,"height":17},{"id":131,"x":1125,"y":210,"visible":true,"properties":[{"name":"layer","type":"int","value":6},{"name":"resource_index","type":"int","value":82},{"name":"u","type":"string","value":"enH0"},{"name":"no","type":"int","value":0},{"name":"zM","type":"int","value":0}],"gid":11,"width":90,"height":38},{"id":132,"x":1215,"y":270,"visible":true,"properties":[{"name":"layer","type":"int","value":6},{"name":"resource_index","type":"int","value":83},{"name":"u","type":"string","value":"bsc"},{"name":"no","type":"int","value":2},{"name":"zM","type":"int","value":0}],"gid":16,"width":90,"height":60},{"id":133,"x":1305,"y":270,"visible":true,"properties":[{"name":"layer","type":"int","value":6},{"name":"resource_index","type":"int","value":84},{"name":"u","type":"string","value":"bsc"},{"name":"no","type":"int","value":0},{"name":"zM","type":"int","value":0}],"gid":19,"width":90,"height":60},{"id":134,"x":1305,"y":210,"visible":true,"properties":[{"name":"layer","type":"int","value":6},{"name":"resource_index","type":"int","value":85},{"name":"u","type":"string","value":"enH0"},{"name":"no","type":"int","value":1},{"name":"zM","type":"int","value":0}],"gid":12,"width":90,"height":39},{"id":135,"x":1215,"y":210,"visible":true,"properties":[{"name":"layer","type":"int","value":6},{"name":"resource_index","type":"int","value":86},{"name":"u","type":"string","value":"enH0"},{"name":"no","type":"int","value":1},{"name":"zM","type":"int","value":0}],"gid":12,"width":90,"height":39},{"id":136,"x":1395,"y":270,"visible":true,"properties":[{"name":"layer","type":"int","value":6},{"name":"resource_index","type":"int","value":87},{"name":"u","type":"string","value":"bsc"},{"name":"no","type":"int","value":1},{"name":"zM","type":"int","value":0}],"gid":18,"width":90,"height":60},{"id":137,"x":1395,"y":210,"visible":true,"properties":[{"name":"layer","type":"int","value":6},{"name":"resource_index","type":"int","value":88},{"name":"u","type":"string","value":"enH0"},{"name":"no","type":"int","value":1},{"name":"zM","type":"int","value":0}],"gid":12,"width":90,"height":39},{"id":138,"x":1665,"y":270,"visible":true,"properties":[{"name":"layer","type":"int","value":6},{"name":"resource_index","type":"int","value":89},{"name":"u","type":"string","value":"bsc"},{"name":"no","type":"int","value":3},{"name":"zM","type":"int","value":0}],"gid":15,"width":90,"height":60},{"id":139,"x":1665,"y":210,"visible":true,"properties":[{"name":"layer","type":"int","value":6},{"name":"resource_index","type":"int","value":90},{"name":"u","type":"string","value":"enH0"},{"name":"no","type":"int","value":1},{"name":"zM","type":"int","value":0}],"gid":12,"width":90,"height":39},{"id":140,"x":1485,"y":270,"visible":true,"properties":[{"name":"layer","type":"int","value":6},{"name":"resource_index","type":"int","value":91},{"name":"u","type":"string","value":"bsc"},{"name":"no","type":"int","value":3},{"name":"zM","type":"int","value":0}],"gid":15,"width":90,"height":60},{"id":141,"x":1485,"y":210,"visible":true,"properties":[{"name":"layer","type":"int","value":6},{"name":"resource_index","type":"int","value":92},{"name":"u","type":"string","value":"enH0"},{"name":"no","type":"int","value":0},{"name":"zM","type":"int","value":0}],"gid":11,"width":90,"height":38},{"id":142,"x":1575,"y":270,"visible":true,"properties":[{"name":"layer","type":"int","value":6},{"name":"resource_index","type":"int","value":93},{"name":"u","type":"string","value":"bsc"},{"name":"no","type":"int","value":0},{"name":"zM","type":"int","value":0}],"gid":19,"width":90,"height":60},{"id":143,"x":1575,"y":210,"visible":true,"properties":[{"name":"layer","type":"int","value":6},{"name":"resource_index","type":"int","value":94},{"name":"u","type":"string","value":"enH0"},{"name":"no","type":"int","value":0},{"name":"zM","type":"int","value":0}],"gid":11,"width":90,"height":38},{"id":144,"x":1726,"y":211,"visible":true,"properties":[{"name":"layer","type":"int","value":6},{"name":"resource_index","type":"int","value":95},{"name":"u","type":"string","value":"edU"},{"name":"no","type":"int","value":1},{"name":"zM","type":"int","value":0}],"gid":14,"width":55,"height":38},{"id":145,"x":1755,"y":270,"visible":true,"properties":[{"name":"layer","type":"int","value":6},{"name":"resource_index","type":"int","value":96},{"name":"u","type":"string","value":"enV1"},{"name":"no","type":"int","value":0},{"name":"zM","type":"int","value":0}],"gid":25,"width":29,"height":60},{"id":146,"x":1215,"y":415,"visible":true,"properties":[{"name":"layer","type":"int","value":6},{"name":"resource_index","type":"int","value":97},{"name":"u","type":"string","value":"enH1"},{"name":"no","type":"int","value":0},{"name":"zM","type":"int","value":0}],"gid":10,"width":90,"height":25},{"id":147,"x":1755,"y":330,"visible":true,"properties":[{"name":"layer","type":"int","value":6},{"name":"resource_index","type":"int","value":98},{"name":"u","type":"string","value":"enV1"},{"name":"no","type":"int","value":0},{"name":"zM","type":"int","value":0}],"gid":25,"width":29,"height":60},{"id":148,"x":1665,"y":330,"visible":true,"properties":[{"name":"layer","type":"int","value":6},{"name":"resource_index","type":"int","value":99},{"name":"u","type":"string","value":"bsc"},{"name":"no","type":"int","value":1},{"name":"zM","type":"int","value":0}],"gid":18,"width":90,"height":60},{"id":149,"x":1755,"y":390,"visible":true,"properties":[{"name":"layer","type":"int","value":6},{"name":"resource_index","type":"int","value":100},{"name":"u","type":"string","value":"enV1"},{"name":"no","type":"int","value":0},{"name":"zM","type":"int","value":0}],"gid":25,"width":29,"height":60},{"id":150,"x":1665,"y":390,"visible":true,"properties":[{"name":"layer","type":"int","value":6},{"name":"resource_index","type":"int","value":101},{"name":"u","type":"string","value":"bsc"},{"name":"no","type":"int","value":1},{"name":"zM","type":"int","value":0}],"gid":18,"width":90,"height":60},{"id":151,"x":1731,"y":407,"visible":true,"properties":[{"name":"layer","type":"int","value":6},{"name":"resource_index","type":"int","value":102},{"name":"u","type":"string","value":"edD"},{"name":"no","type":"int","value":0},{"name":"zM","type":"int","value":0}],"gid":9,"width":48,"height":17},{"id":152,"x":1575,"y":330,"visible":true,"properties":[{"name":"layer","type":"int","value":6},{"name":"resource_index","type":"int","value":103},{"name":"u","type":"string","value":"bsc"},{"name":"no","type":"int","value":2},{"name":"zM","type":"int","value":0}],"gid":16,"width":90,"height":60},{"id":153,"x":1215,"y":390,"visible":true,"properties":[{"name":"layer","type":"int","value":6},{"name":"resource_index","type":"int","value":104},{"name":"u","type":"string","value":"bsc"},{"name":"no","type":"int","value":3},{"name":"zM","type":"int","value":0}],"gid":15,"width":90,"height":60},{"id":154,"x":1305,"y":390,"visible":true,"properties":[{"name":"layer","type":"int","value":6},{"name":"resource_index","type":"int","value":105},{"name":"u","type":"string","value":"bsc"},{"name":"no","type":"int","value":2},{"name":"zM","type":"int","value":0}],"gid":16,"width":90,"height":60},{"id":155,"x":1485,"y":390,"visible":true,"properties":[{"name":"layer","type":"int","value":6},{"name":"resource_index","type":"int","value":106},{"name":"u","type":"string","value":"bsc"},{"name":"no","type":"int","value":0},{"name":"zM","type":"int","value":0}],"gid":19,"width":90,"height":60},{"id":156,"x":1485,"y":416,"visible":true,"properties":[{"name":"layer","type":"int","value":6},{"name":"resource_index","type":"int","value":107},{"name":"u","type":"string","value":"enH1"},{"name":"no","type":"int","value":1},{"name":"zM","type":"int","value":0}],"gid":13,"width":90,"height":26},{"id":157,"x":1575,"y":390,"visible":true,"properties":[{"name":"layer","type":"int","value":6},{"name":"resource_index","type":"int","value":108},{"name":"u","type":"string","value":"bsc"},{"name":"no","type":"int","value":3},{"name":"zM","type":"int","value":0}],"gid":15,"width":90,"height":60},{"id":158,"x":1395,"y":390,"visible":true,"properties":[{"name":"layer","type":"int","value":6},{"name":"resource_index","type":"int","value":109},{"name":"u","type":"string","value":"bsc"},{"name":"no","type":"int","value":3},{"name":"zM","type":"int","value":0}],"gid":15,"width":90,"height":60},{"id":159,"x":1665,"y":416,"visible":true,"properties":[{"name":"layer","type":"int","value":6},{"name":"resource_index","type":"int","value":110},{"name":"u","type":"string","value":"enH1"},{"name":"no","type":"int","value":1},{"name":"zM","type":"int","value":0}],"gid":13,"width":90,"height":26},{"id":160,"x":1575,"y":416,"visible":true,"properties":[{"name":"layer","type":"int","value":6},{"name":"resource_index","type":"int","value":111},{"name":"u","type":"string","value":"enH1"},{"name":"no","type":"int","value":1},{"name":"zM","type":"int","value":0}],"gid":13,"width":90,"height":26},{"id":161,"x":1485,"y":330,"visible":true,"properties":[{"name":"layer","type":"int","value":6},{"name":"resource_index","type":"int","value":112},{"name":"u","type":"string","value":"bsc"},{"name":"no","type":"int","value":3},{"name":"zM","type":"int","value":0}],"gid":15,"width":90,"height":60},{"id":162,"x":1395,"y":330,"visible":true,"properties":[{"name":"layer","type":"int","value":6},{"name":"resource_index","type":"int","value":113},{"name":"u","type":"string","value":"bsc"},{"name":"no","type":"int","value":4},{"name":"zM","type":"int","value":0}],"gid":17,"width":90,"height":60},{"id":163,"x":1305,"y":330,"visible":true,"properties":[{"name":"layer","type":"int","value":6},{"name":"resource_index","type":"int","value":114},{"name":"u","type":"string","value":"bsc"},{"name":"no","type":"int","value":3},{"name":"zM","type":"int","value":0}],"gid":15,"width":90,"height":60},{"id":164,"x":1395,"y":415,"visible":true,"properties":[{"name":"layer","type":"int","value":6},{"name":"resource_index","type":"int","value":115},{"name":"u","type":"string","value":"enH1"},{"name":"no","type":"int","value":0},{"name":"zM","type":"int","value":0}],"gid":10,"width":90,"height":25},{"id":165,"x":1305,"y":416,"visible":true,"properties":[{"name":"layer","type":"int","value":6},{"name":"resource_index","type":"int","value":116},{"name":"u","type":"string","value":"enH1"},{"name":"no","type":"int","value":1},{"name":"zM","type":"int","value":0}],"gid":13,"width":90,"height":26},{"id":166,"x":1546,"y":150,"visible":true,"properties":[{"name":"layer","type":"int","value":6},{"name":"resource_index","type":"int","value":117},{"name":"u","type":"string","value":"edU"},{"name":"no","type":"int","value":0},{"name":"zM","type":"int","value":8}],"gid":8,"width":54,"height":37},{"id":167,"x":1551,"y":167,"visible":true,"properties":[{"name":"layer","type":"int","value":6},{"name":"resource_index","type":"int","value":118},{"name":"u","type":"string","value":"edD"},{"name":"no","type":"int","value":0},{"name":"zM","type":"int","value":8}],"gid":9,"width":48,"height":17}],"properties":[]},{"id":14,"name":"portal","type":"objectgroup","visible":true,"opacity":1,"draworder":"index","offsetx":0,"offsety":0,"parallaxx":1,"parallaxy":1,"objects":[{"id":168,"x":88,"y":67,"visible":true,"properties":[{"name":"x","type":"int","value":88},{"name":"y","type":"int","value":67},{"name":"pn","type":"string","value":"sp"},{"name":"pt","type":"int","value":0},{"name":"tm","type":"int","value":999999999},{"name":"tn","type":"string","value":""}],"point":true},{"id":169,"x":130,"y":70,"visible":true,"properties":[{"name":"x","type":"int","value":130},{"name":"y","type":"int","value":70},{"name":"pn","type":"string","value":"sp"},{"name":"pt","type":"int","value":0},{"name":"tm","type":"int","value":999999999},{"name":"tn","type":"string","value":""}],"point":true},{"id":170,"x":189,"y":70,"visible":true,"properties":[{"name":"x","type":"int","value":189},{"name":"y","type":"int","value":70},{"name":"pn","type":"string","value":"sp"},{"name":"pt","type":"int","value":0},{"name":"tm","type":"int","value":999999999},{"name":"tn","type":"string","value":""}],"point":true},{"id":171,"x":212,"y":193,"visible":true,"properties":[{"name":"x","type":"int","value":256},{"name":"y","type":"int","value":184},{"name":"pn","type":"string","value":"out00"},{"name":"pt","type":"int","value":2},{"name":"tm","type":"int","value":106010102},{"name":"tn","type":"string","value":"in06"}],"gid":107,"width":89,"height":257}],"properties":[]},{"id":15,"name":"life","type":"objectgroup","visible":true,"opacity":1,"draworder":"index","offsetx":0,"offsety":0,"parallaxx":1,"parallaxy":1,"objects":[{"id":172,"x":1508,"y":43,"visible":true,"properties":[{"name":"f","type":"int","value":0},{"name":"x","type":"int","value":1508},{"name":"y","type":"int","value":43},{"name":"cy","type":"int","value":61},{"name":"fh","type":"int","value":123},{"name":"id","type":"int","value":5150000},{"name":"rx0","type":"int","value":430},{"name":"rx1","type":"int","value":1593},{"name":"hide","type":"int","value":0},{"name":"type","type":"string","value":"m"},{"name":"mobTime","type":"int","value":0}],"point":true},{"id":173,"x":1394,"y":162,"visible":true,"properties":[{"name":"f","type":"int","value":0},{"name":"x","type":"int","value":1394},{"name":"y","type":"int","value":162},{"name":"cy","type":"int","value":185},{"name":"fh","type":"int","value":21},{"name":"id","type":"int","value":5150000},{"name":"rx0","type":"int","value":-154},{"name":"rx1","type":"int","value":1774},{"name":"hide","type":"int","value":0},{"name":"type","type":"string","value":"m"},{"name":"mobTime","type":"int","value":0}],"point":true},{"id":174,"x":1491,"y":50,"visible":true,"properties":[{"name":"f","type":"int","value":0},{"name":"x","type":"int","value":1491},{"name":"y","type":"int","value":50},{"name":"cy","type":"int","value":59},{"name":"fh","type":"int","value":122},{"name":"id","type":"int","value":3000004},{"name":"rx0","type":"int","value":430},{"name":"rx1","type":"int","value":1593},{"name":"hide","type":"int","value":0},{"name":"type","type":"string","value":"m"},{"name":"mobTime","type":"int","value":0}],"point":true},{"id":175,"x":1192,"y":-137,"visible":true,"properties":[{"name":"f","type":"int","value":0},{"name":"x","type":"int","value":1192},{"name":"y","type":"int","value":-137},{"name":"cy","type":"int","value":-114},{"name":"fh","type":"int","value":76},{"name":"id","type":"int","value":5150000},{"name":"rx0","type":"int","value":1076},{"name":"rx1","type":"int","value":1502},{"name":"hide","type":"int","value":0},{"name":"type","type":"string","value":"m"},{"name":"mobTime","type":"int","value":0}],"point":true},{"id":176,"x":1429,"y":-138,"visible":true,"properties":[{"name":"f","type":"int","value":0},{"name":"x","type":"int","value":1429},{"name":"y","type":"int","value":-138},{"name":"cy","type":"int","value":-114},{"name":"fh","type":"int","value":80},{"name":"id","type":"int","value":5150000},{"name":"rx0","type":"int","value":1076},{"name":"rx1","type":"int","value":1502},{"name":"hide","type":"int","value":0},{"name":"type","type":"string","value":"m"},{"name":"mobTime","type":"int","value":0}],"point":true},{"id":177,"x":1015,"y":-10,"visible":true,"properties":[{"name":"f","type":"int","value":0},{"name":"x","type":"int","value":1015},{"name":"y","type":"int","value":-10},{"name":"cy","type":"int","value":9},{"name":"fh","type":"int","value":108},{"name":"id","type":"int","value":5150000},{"name":"rx0","type":"int","value":430},{"name":"rx1","type":"int","value":1593},{"name":"hide","type":"int","value":0},{"name":"type","type":"string","value":"m"},{"name":"mobTime","type":"int","value":0}],"point":true},{"id":178,"x":1222,"y":-18,"visible":true,"properties":[{"name":"f","type":"int","value":0},{"name":"x","type":"int","value":1222},{"name":"y","type":"int","value":-18},{"name":"cy","type":"int","value":6},{"name":"fh","type":"int","value":110},{"name":"id","type":"int","value":5150000},{"name":"rx0","type":"int","value":430},{"name":"rx1","type":"int","value":1593},{"name":"hide","type":"int","value":0},{"name":"type","type":"string","value":"m"},{"name":"mobTime","type":"int","value":0}],"point":true},{"id":179,"x":545,"y":23,"visible":true,"properties":[{"name":"f","type":"int","value":0},{"name":"x","type":"int","value":545},{"name":"y","type":"int","value":23},{"name":"cy","type":"int","value":87},{"name":"fh","type":"int","value":97},{"name":"id","type":"int","value":3000004},{"name":"rx0","type":"int","value":430},{"name":"rx1","type":"int","value":1593},{"name":"type","type":"string","value":"m"},{"name":"mobTime","type":"int","value":180}],"point":true},{"id":180,"x":74,"y":164,"visible":true,"properties":[{"name":"f","type":"int","value":0},{"name":"x","type":"int","value":74},{"name":"y","type":"int","value":164},{"name":"cy","type":"int","value":185},{"name":"fh","type":"int","value":9},{"name":"id","type":"int","value":5150000},{"name":"rx0","type":"int","value":-154},{"name":"rx1","type":"int","value":1774},{"name":"hide","type":"int","value":0},{"name":"type","type":"string","value":"m"},{"name":"mobTime","type":"int","value":0}],"point":true},{"id":181,"x":502,"y":-241,"visible":true,"properties":[{"name":"f","type":"int","value":0},{"name":"x","type":"int","value":502},{"name":"y","type":"int","value":-241},{"name":"cy","type":"int","value":-229},{"name":"fh","type":"int","value":44},{"name":"id","type":"int","value":5150000},{"name":"rx0","type":"int","value":235},{"name":"rx1","type":"int","value":622},{"name":"hide","type":"int","value":0},{"name":"type","type":"string","value":"m"},{"name":"mobTime","type":"int","value":0}],"point":true},{"id":182,"x":696,"y":-121,"visible":true,"properties":[{"name":"f","type":"int","value":0},{"name":"x","type":"int","value":696},{"name":"y","type":"int","value":-121},{"name":"cy","type":"int","value":-97},{"name":"fh","type":"int","value":68},{"name":"id","type":"int","value":5150000},{"name":"rx0","type":"int","value":461},{"name":"rx1","type":"int","value":869},{"name":"hide","type":"int","value":0},{"name":"type","type":"string","value":"m"},{"name":"mobTime","type":"int","value":0}],"point":true},{"id":183,"x":380,"y":-115,"visible":true,"properties":[{"name":"f","type":"int","value":0},{"name":"x","type":"int","value":380},{"name":"y","type":"int","value":-115},{"name":"cy","type":"int","value":-96},{"name":"fh","type":"int","value":55},{"name":"id","type":"int","value":5150000},{"name":"rx0","type":"int","value":165},{"name":"rx1","type":"int","value":546},{"name":"hide","type":"int","value":0},{"name":"type","type":"string","value":"m"},{"name":"mobTime","type":"int","value":0}],"point":true},{"id":184,"x":273,"y":33,"visible":true,"properties":[{"name":"f","type":"int","value":0},{"name":"x","type":"int","value":273},{"name":"y","type":"int","value":33},{"name":"cy","type":"int","value":47},{"name":"fh","type":"int","value":87},{"name":"id","type":"int","value":5150000},{"name":"rx0","type":"int","value":93},{"name":"rx1","type":"int","value":480},{"name":"hide","type":"int","value":0},{"name":"type","type":"string","value":"m"},{"name":"mobTime","type":"int","value":0}],"point":true},{"id":185,"x":700,"y":69,"visible":true,"properties":[{"name":"f","type":"int","value":0},{"name":"x","type":"int","value":700},{"name":"y","type":"int","value":69},{"name":"cy","type":"int","value":83},{"name":"fh","type":"int","value":99},{"name":"id","type":"int","value":5150000},{"name":"rx0","type":"int","value":430},{"name":"rx1","type":"int","value":1593},{"name":"hide","type":"int","value":0},{"name":"type","type":"string","value":"m"},{"name":"mobTime","type":"int","value":0}],"point":true},{"id":186,"x":978,"y":163,"visible":true,"properties":[{"name":"f","type":"int","value":0},{"name":"x","type":"int","value":978},{"name":"y","type":"int","value":163},{"name":"cy","type":"int","value":185},{"name":"fh","type":"int","value":2},{"name":"id","type":"int","value":5150000},{"name":"rx0","type":"int","value":-154},{"name":"rx1","type":"int","value":1774},{"name":"hide","type":"int","value":0},{"name":"type","type":"string","value":"m"},{"name":"mobTime","type":"int","value":0}],"point":true},{"id":187,"x":581,"y":168,"visible":true,"properties":[{"name":"f","type":"int","value":0},{"name":"x","type":"int","value":581},{"name":"y","type":"int","value":168},{"name":"cy","type":"int","value":185},{"name":"fh","type":"int","value":18},{"name":"id","type":"int","value":5150000},{"name":"rx0","type":"int","value":-154},{"name":"rx1","type":"int","value":1774},{"name":"hide","type":"int","value":0},{"name":"type","type":"string","value":"m"},{"name":"mobTime","type":"int","value":0}],"point":true}],"properties":[]},{"id":16,"name":"foothold","type":"objectgroup","visible":true,"opacity":1,"draworder":"index","offsetx":0,"offsety":0,"parallaxx":1,"parallaxy":1,"objects":[{"id":188,"x":215,"y":-220,"visible":true,"properties":[{"name":"layer","type":"int","value":2},{"name":"group","type":"int","value":14},{"name":"id","type":"int","value":39},{"name":"fh_layer","type":"int","value":2},{"name":"fh_group","type":"int","value":14},{"name":"fh_id","type":"int","value":39},{"name":"x1","type":"int","value":215},{"name":"x2","type":"int","value":229},{"name":"y1","type":"int","value":-220},{"name":"y2","type":"int","value":-228},{"name":"next","type":"int","value":40},{"name":"prev","type":"int","value":0}],"polyline":[{"x":0,"y":0},{"x":14,"y":-8}]},{"id":189,"x":229,"y":-228,"visible":true,"properties":[{"name":"layer","type":"int","value":2},{"name":"group","type":"int","value":14},{"name":"id","type":"int","value":40},{"name":"fh_layer","type":"int","value":2},{"name":"fh_group","type":"int","value":14},{"name":"fh_id","type":"int","value":40},{"name":"x1","type":"int","value":229},{"name":"x2","type":"int","value":282},{"name":"y1","type":"int","value":-228},{"name":"y2","type":"int","value":-228},{"name":"next","type":"int","value":41},{"name":"prev","type":"int","value":39}],"polyline":[{"x":0,"y":0},{"x":53,"y":0}]},{"id":190,"x":282,"y":-228,"visible":true,"properties":[{"name":"layer","type":"int","value":2},{"name":"group","type":"int","value":14},{"name":"id","type":"int","value":41},{"name":"fh_layer","type":"int","value":2},{"name":"fh_group","type":"int","value":14},{"name":"fh_id","type":"int","value":41},{"name":"x1","type":"int","value":282},{"name":"x2","type":"int","value":292},{"name":"y1","type":"int","value":-228},{"name":"y2","type":"int","value":-225},{"name":"next","type":"int","value":42},{"name":"prev","type":"int","value":40}],"polyline":[{"x":0,"y":0},{"x":10,"y":3}]},{"id":191,"x":292,"y":-225,"visible":true,"properties":[{"name":"layer","type":"int","value":2},{"name":"group","type":"int","value":14},{"name":"id","type":"int","value":42},{"name":"fh_layer","type":"int","value":2},{"name":"fh_group","type":"int","value":14},{"name":"fh_id","type":"int","value":42},{"name":"x1","type":"int","value":292},{"name":"x2","type":"int","value":430},{"name":"y1","type":"int","value":-225},{"name":"y2","type":"int","value":-226},{"name":"next","type":"int","value":43},{"name":"prev","type":"int","value":41}],"polyline":[{"x":0,"y":0},{"x":138,"y":-1}]},{"id":192,"x":430,"y":-226,"visible":true,"properties":[{"name":"layer","type":"int","value":2},{"name":"group","type":"int","value":14},{"name":"id","type":"int","value":43},{"name":"fh_layer","type":"int","value":2},{"name":"fh_group","type":"int","value":14},{"name":"fh_id","type":"int","value":43},{"name":"x1","type":"int","value":430},{"name":"x2","type":"int","value":449},{"name":"y1","type":"int","value":-226},{"name":"y2","type":"int","value":-229},{"name":"next","type":"int","value":44},{"name":"prev","type":"int","value":42}],"polyline":[{"x":0,"y":0},{"x":19,"y":-3}]},{"id":193,"x":449,"y":-229,"visible":true,"properties":[{"name":"layer","type":"int","value":2},{"name":"group","type":"int","value":14},{"name":"id","type":"int","value":44},{"name":"fh_layer","type":"int","value":2},{"name":"fh_group","type":"int","value":14},{"name":"fh_id","type":"int","value":44},{"name":"x1","type":"int","value":449},{"name":"x2","type":"int","value":508},{"name":"y1","type":"int","value":-229},{"name":"y2","type":"int","value":-230},{"name":"next","type":"int","value":45},{"name":"prev","type":"int","value":43}],"polyline":[{"x":0,"y":0},{"x":59,"y":-1}]},{"id":194,"x":508,"y":-230,"visible":true,"properties":[{"name":"layer","type":"int","value":2},{"name":"group","type":"int","value":14},{"name":"id","type":"int","value":45},{"name":"fh_layer","type":"int","value":2},{"name":"fh_group","type":"int","value":14},{"name":"fh_id","type":"int","value":45},{"name":"x1","type":"int","value":508},{"name":"x2","type":"int","value":526},{"name":"y1","type":"int","value":-230},{"name":"y2","type":"int","value":-225},{"name":"next","type":"int","value":46},{"name":"prev","type":"int","value":44}],"polyline":[{"x":0,"y":0},{"x":18,"y":5}]},{"id":195,"x":526,"y":-225,"visible":true,"properties":[{"name":"layer","type":"int","value":2},{"name":"group","type":"int","value":14},{"name":"id","type":"int","value":46},{"name":"fh_layer","type":"int","value":2},{"name":"fh_group","type":"int","value":14},{"name":"fh_id","type":"int","value":46},{"name":"x1","type":"int","value":526},{"name":"x2","type":"int","value":581},{"name":"y1","type":"int","value":-225},{"name":"y2","type":"int","value":-224},{"name":"next","type":"int","value":47},{"name":"prev","type":"int","value":45}],"polyline":[{"x":0,"y":0},{"x":55,"y":1}]},{"id":196,"x":581,"y":-224,"visible":true,"properties":[{"name":"layer","type":"int","value":2},{"name":"group","type":"int","value":14},{"name":"id","type":"int","value":47},{"name":"fh_layer","type":"int","value":2},{"name":"fh_group","type":"int","value":14},{"name":"fh_id","type":"int","value":47},{"name":"x1","type":"int","value":581},{"name":"x2","type":"int","value":595},{"name":"y1","type":"int","value":-224},{"name":"y2","type":"int","value":-228},{"name":"next","type":"int","value":48},{"name":"prev","type":"int","value":46}],"polyline":[{"x":0,"y":0},{"x":14,"y":-4}]},{"id":197,"x":595,"y":-228,"visible":true,"properties":[{"name":"layer","type":"int","value":2},{"name":"group","type":"int","value":14},{"name":"id","type":"int","value":48},{"name":"fh_layer","type":"int","value":2},{"name":"fh_group","type":"int","value":14},{"name":"fh_id","type":"int","value":48},{"name":"x1","type":"int","value":595},{"name":"x2","type":"int","value":630},{"name":"y1","type":"int","value":-228},{"name":"y2","type":"int","value":-229},{"name":"next","type":"int","value":49},{"name":"prev","type":"int","value":47}],"polyline":[{"x":0,"y":0},{"x":35,"y":-1}]},{"id":198,"x":630,"y":-229,"visible":true,"properties":[{"name":"layer","type":"int","value":2},{"name":"group","type":"int","value":14},{"name":"id","type":"int","value":49},{"name":"fh_layer","type":"int","value":2},{"name":"fh_group","type":"int","value":14},{"name":"fh_id","type":"int","value":49},{"name":"x1","type":"int","value":630},{"name":"x2","type":"int","value":642},{"name":"y1","type":"int","value":-229},{"name":"y2","type":"int","value":-225},{"name":"next","type":"int","value":0},{"name":"prev","type":"int","value":48}],"polyline":[{"x":0,"y":0},{"x":12,"y":4}]},{"id":199,"x":441,"y":-97,"visible":true,"properties":[{"name":"layer","type":"int","value":3},{"name":"group","type":"int","value":2},{"name":"id","type":"int","value":63},{"name":"fh_layer","type":"int","value":3},{"name":"fh_group","type":"int","value":2},{"name":"fh_id","type":"int","value":63},{"name":"x1","type":"int","value":441},{"name":"x2","type":"int","value":488},{"name":"y1","type":"int","value":-97},{"name":"y2","type":"int","value":-96},{"name":"next","type":"int","value":64},{"name":"prev","type":"int","value":56}],"polyline":[{"x":0,"y":0},{"x":47,"y":1}]},{"id":200,"x":488,"y":-96,"visible":true,"properties":[{"name":"layer","type":"int","value":3},{"name":"group","type":"int","value":2},{"name":"id","type":"int","value":64},{"name":"fh_layer","type":"int","value":3},{"name":"fh_group","type":"int","value":2},{"name":"fh_id","type":"int","value":64},{"name":"x1","type":"int","value":488},{"name":"x2","type":"int","value":499},{"name":"y1","type":"int","value":-96},{"name":"y2","type":"int","value":-94},{"name":"next","type":"int","value":65},{"name":"prev","type":"int","value":63}],"polyline":[{"x":0,"y":0},{"x":11,"y":2}]},{"id":201,"x":499,"y":-94,"visible":true,"properties":[{"name":"layer","type":"int","value":3},{"name":"group","type":"int","value":2},{"name":"id","type":"int","value":65},{"name":"fh_layer","type":"int","value":3},{"name":"fh_group","type":"int","value":2},{"name":"fh_id","type":"int","value":65},{"name":"x1","type":"int","value":499},{"name":"x2","type":"int","value":521},{"name":"y1","type":"int","value":-94},{"name":"y2","type":"int","value":-93},{"name":"next","type":"int","value":62},{"name":"prev","type":"int","value":64}],"polyline":[{"x":0,"y":0},{"x":22,"y":1}]},{"id":202,"x":566,"y":-94,"visible":true,"properties":[{"name":"layer","type":"int","value":3},{"name":"group","type":"int","value":2},{"name":"id","type":"int","value":66},{"name":"fh_layer","type":"int","value":3},{"name":"fh_group","type":"int","value":2},{"name":"fh_id","type":"int","value":66},{"name":"x1","type":"int","value":566},{"name":"x2","type":"int","value":680},{"name":"y1","type":"int","value":-94},{"name":"y2","type":"int","value":-94},{"name":"next","type":"int","value":67},{"name":"prev","type":"int","value":60}],"polyline":[{"x":0,"y":0},{"x":114,"y":0}]},{"id":203,"x":680,"y":-94,"visible":true,"properties":[{"name":"layer","type":"int","value":3},{"name":"group","type":"int","value":2},{"name":"id","type":"int","value":67},{"name":"fh_layer","type":"int","value":3},{"name":"fh_group","type":"int","value":2},{"name":"fh_id","type":"int","value":67},{"name":"x1","type":"int","value":680},{"name":"x2","type":"int","value":694},{"name":"y1","type":"int","value":-94},{"name":"y2","type":"int","value":-97},{"name":"next","type":"int","value":68},{"name":"prev","type":"int","value":66}],"polyline":[{"x":0,"y":0},{"x":14,"y":-3}]},{"id":204,"x":694,"y":-97,"visible":true,"properties":[{"name":"layer","type":"int","value":3},{"name":"group","type":"int","value":2},{"name":"id","type":"int","value":68},{"name":"fh_layer","type":"int","value":3},{"name":"fh_group","type":"int","value":2},{"name":"fh_id","type":"int","value":68},{"name":"x1","type":"int","value":694},{"name":"x2","type":"int","value":760},{"name":"y1","type":"int","value":-97},{"name":"y2","type":"int","value":-97},{"name":"next","type":"int","value":69},{"name":"prev","type":"int","value":67}],"polyline":[{"x":0,"y":0},{"x":66,"y":0}]},{"id":205,"x":760,"y":-97,"visible":true,"properties":[{"name":"layer","type":"int","value":3},{"name":"group","type":"int","value":2},{"name":"id","type":"int","value":69},{"name":"fh_layer","type":"int","value":3},{"name":"fh_group","type":"int","value":2},{"name":"fh_id","type":"int","value":69},{"name":"x1","type":"int","value":760},{"name":"x2","type":"int","value":776},{"name":"y1","type":"int","value":-97},{"name":"y2","type":"int","value":-93},{"name":"next","type":"int","value":70},{"name":"prev","type":"int","value":68}],"polyline":[{"x":0,"y":0},{"x":16,"y":4}]},{"id":206,"x":776,"y":-93,"visible":true,"properties":[{"name":"layer","type":"int","value":3},{"name":"group","type":"int","value":2},{"name":"id","type":"int","value":70},{"name":"fh_layer","type":"int","value":3},{"name":"fh_group","type":"int","value":2},{"name":"fh_id","type":"int","value":70},{"name":"x1","type":"int","value":776},{"name":"x2","type":"int","value":825},{"name":"y1","type":"int","value":-93},{"name":"y2","type":"int","value":-93},{"name":"next","type":"int","value":71},{"name":"prev","type":"int","value":69}],"polyline":[{"x":0,"y":0},{"x":49,"y":0}]},{"id":207,"x":825,"y":-93,"visible":true,"properties":[{"name":"layer","type":"int","value":3},{"name":"group","type":"int","value":2},{"name":"id","type":"int","value":71},{"name":"fh_layer","type":"int","value":3},{"name":"fh_group","type":"int","value":2},{"name":"fh_id","type":"int","value":71},{"name":"x1","type":"int","value":825},{"name":"x2","type":"int","value":837},{"name":"y1","type":"int","value":-93},{"name":"y2","type":"int","value":-96},{"name":"next","type":"int","value":72},{"name":"prev","type":"int","value":70}],"polyline":[{"x":0,"y":0},{"x":12,"y":-3}]},{"id":208,"x":837,"y":-96,"visible":true,"properties":[{"name":"layer","type":"int","value":3},{"name":"group","type":"int","value":2},{"name":"id","type":"int","value":72},{"name":"fh_layer","type":"int","value":3},{"name":"fh_group","type":"int","value":2},{"name":"fh_id","type":"int","value":72},{"name":"x1","type":"int","value":837},{"name":"x2","type":"int","value":880},{"name":"y1","type":"int","value":-96},{"name":"y2","type":"int","value":-96},{"name":"next","type":"int","value":73},{"name":"prev","type":"int","value":71}],"polyline":[{"x":0,"y":0},{"x":43,"y":0}]},{"id":209,"x":880,"y":-96,"visible":true,"properties":[{"name":"layer","type":"int","value":3},{"name":"group","type":"int","value":2},{"name":"id","type":"int","value":73},{"name":"fh_layer","type":"int","value":3},{"name":"fh_group","type":"int","value":2},{"name":"fh_id","type":"int","value":73},{"name":"x1","type":"int","value":880},{"name":"x2","type":"int","value":889},{"name":"y1","type":"int","value":-96},{"name":"y2","type":"int","value":-93},{"name":"next","type":"int","value":0},{"name":"prev","type":"int","value":72}],"polyline":[{"x":0,"y":0},{"x":9,"y":3}]},{"id":210,"x":145,"y":-87,"visible":true,"properties":[{"name":"layer","type":"int","value":3},{"name":"group","type":"int","value":11},{"name":"id","type":"int","value":50},{"name":"fh_layer","type":"int","value":3},{"name":"fh_group","type":"int","value":11},{"name":"fh_id","type":"int","value":50},{"name":"x1","type":"int","value":145},{"name":"x2","type":"int","value":159},{"name":"y1","type":"int","value":-87},{"name":"y2","type":"int","value":-95},{"name":"next","type":"int","value":51},{"name":"prev","type":"int","value":0}],"polyline":[{"x":0,"y":0},{"x":14,"y":-8}]},{"id":211,"x":159,"y":-95,"visible":true,"properties":[{"name":"layer","type":"int","value":3},{"name":"group","type":"int","value":11},{"name":"id","type":"int","value":51},{"name":"fh_layer","type":"int","value":3},{"name":"fh_group","type":"int","value":11},{"name":"fh_id","type":"int","value":51},{"name":"x1","type":"int","value":159},{"name":"x2","type":"int","value":212},{"name":"y1","type":"int","value":-95},{"name":"y2","type":"int","value":-95},{"name":"next","type":"int","value":52},{"name":"prev","type":"int","value":50}],"polyline":[{"x":0,"y":0},{"x":53,"y":0}]},{"id":212,"x":212,"y":-95,"visible":true,"properties":[{"name":"layer","type":"int","value":3},{"name":"group","type":"int","value":11},{"name":"id","type":"int","value":52},{"name":"fh_layer","type":"int","value":3},{"name":"fh_group","type":"int","value":11},{"name":"fh_id","type":"int","value":52},{"name":"x1","type":"int","value":212},{"name":"x2","type":"int","value":222},{"name":"y1","type":"int","value":-95},{"name":"y2","type":"int","value":-92},{"name":"next","type":"int","value":53},{"name":"prev","type":"int","value":51}],"polyline":[{"x":0,"y":0},{"x":10,"y":3}]},{"id":213,"x":222,"y":-92,"visible":true,"properties":[{"name":"layer","type":"int","value":3},{"name":"group","type":"int","value":11},{"name":"id","type":"int","value":53},{"name":"fh_layer","type":"int","value":3},{"name":"fh_group","type":"int","value":11},{"name":"fh_id","type":"int","value":53},{"name":"x1","type":"int","value":222},{"name":"x2","type":"int","value":360},{"name":"y1","type":"int","value":-92},{"name":"y2","type":"int","value":-93},{"name":"next","type":"int","value":54},{"name":"prev","type":"int","value":52}],"polyline":[{"x":0,"y":0},{"x":138,"y":-1}]},{"id":214,"x":360,"y":-93,"visible":true,"properties":[{"name":"layer","type":"int","value":3},{"name":"group","type":"int","value":11},{"name":"id","type":"int","value":54},{"name":"fh_layer","type":"int","value":3},{"name":"fh_group","type":"int","value":11},{"name":"fh_id","type":"int","value":54},{"name":"x1","type":"int","value":360},{"name":"x2","type":"int","value":379},{"name":"y1","type":"int","value":-93},{"name":"y2","type":"int","value":-96},{"name":"next","type":"int","value":55},{"name":"prev","type":"int","value":53}],"polyline":[{"x":0,"y":0},{"x":19,"y":-3}]},{"id":215,"x":379,"y":-96,"visible":true,"properties":[{"name":"layer","type":"int","value":3},{"name":"group","type":"int","value":11},{"name":"id","type":"int","value":55},{"name":"fh_layer","type":"int","value":3},{"name":"fh_group","type":"int","value":11},{"name":"fh_id","type":"int","value":55},{"name":"x1","type":"int","value":379},{"name":"x2","type":"int","value":438},{"name":"y1","type":"int","value":-96},{"name":"y2","type":"int","value":-97},{"name":"next","type":"int","value":56},{"name":"prev","type":"int","value":54}],"polyline":[{"x":0,"y":0},{"x":59,"y":-1}]},{"id":216,"x":438,"y":-97,"visible":true,"properties":[{"name":"layer","type":"int","value":3},{"name":"group","type":"int","value":11},{"name":"id","type":"int","value":56},{"name":"fh_layer","type":"int","value":3},{"name":"fh_group","type":"int","value":11},{"name":"fh_id","type":"int","value":56},{"name":"x1","type":"int","value":438},{"name":"x2","type":"int","value":441},{"name":"y1","type":"int","value":-97},{"name":"y2","type":"int","value":-97},{"name":"next","type":"int","value":63},{"name":"prev","type":"int","value":55}],"polyline":[{"x":0,"y":0},{"x":3,"y":0}]},{"id":217,"x":456,"y":-92,"visible":true,"properties":[{"name":"layer","type":"int","value":3},{"name":"group","type":"int","value":11},{"name":"id","type":"int","value":57},{"name":"fh_layer","type":"int","value":3},{"name":"fh_group","type":"int","value":11},{"name":"fh_id","type":"int","value":57},{"name":"x1","type":"int","value":456},{"name":"x2","type":"int","value":511},{"name":"y1","type":"int","value":-92},{"name":"y2","type":"int","value":-91},{"name":"next","type":"int","value":58},{"name":"prev","type":"int","value":61}],"polyline":[{"x":0,"y":0},{"x":55,"y":1}]},{"id":218,"x":511,"y":-91,"visible":true,"properties":[{"name":"layer","type":"int","value":3},{"name":"group","type":"int","value":11},{"name":"id","type":"int","value":58},{"name":"fh_layer","type":"int","value":3},{"name":"fh_group","type":"int","value":11},{"name":"fh_id","type":"int","value":58},{"name":"x1","type":"int","value":511},{"name":"x2","type":"int","value":521},{"name":"y1","type":"int","value":-91},{"name":"y2","type":"int","value":-93},{"name":"next","type":"int","value":62},{"name":"prev","type":"int","value":57}],"polyline":[{"x":0,"y":0},{"x":10,"y":-2}]},{"id":219,"x":525,"y":-95,"visible":true,"properties":[{"name":"layer","type":"int","value":3},{"name":"group","type":"int","value":11},{"name":"id","type":"int","value":59},{"name":"fh_layer","type":"int","value":3},{"name":"fh_group","type":"int","value":11},{"name":"fh_id","type":"int","value":59},{"name":"x1","type":"int","value":525},{"name":"x2","type":"int","value":560},{"name":"y1","type":"int","value":-95},{"name":"y2","type":"int","value":-96},{"name":"next","type":"int","value":60},{"name":"prev","type":"int","value":62}],"polyline":[{"x":0,"y":0},{"x":35,"y":-1}]},{"id":220,"x":560,"y":-96,"visible":true,"properties":[{"name":"layer","type":"int","value":3},{"name":"group","type":"int","value":11},{"name":"id","type":"int","value":60},{"name":"fh_layer","type":"int","value":3},{"name":"fh_group","type":"int","value":11},{"name":"fh_id","type":"int","value":60},{"name":"x1","type":"int","value":560},{"name":"x2","type":"int","value":566},{"name":"y1","type":"int","value":-96},{"name":"y2","type":"int","value":-94},{"name":"next","type":"int","value":66},{"name":"prev","type":"int","value":59}],"polyline":[{"x":0,"y":0},{"x":6,"y":2}]},{"id":221,"x":441,"y":-97,"visible":true,"properties":[{"name":"layer","type":"int","value":3},{"name":"group","type":"int","value":11},{"name":"id","type":"int","value":61},{"name":"fh_layer","type":"int","value":3},{"name":"fh_group","type":"int","value":11},{"name":"fh_id","type":"int","value":61},{"name":"x1","type":"int","value":441},{"name":"x2","type":"int","value":456},{"name":"y1","type":"int","value":-97},{"name":"y2","type":"int","value":-92},{"name":"next","type":"int","value":57},{"name":"prev","type":"int","value":56}],"polyline":[{"x":0,"y":0},{"x":15,"y":5}]},{"id":222,"x":521,"y":-93,"visible":true,"properties":[{"name":"layer","type":"int","value":3},{"name":"group","type":"int","value":11},{"name":"id","type":"int","value":62},{"name":"fh_layer","type":"int","value":3},{"name":"fh_group","type":"int","value":11},{"name":"fh_id","type":"int","value":62},{"name":"x1","type":"int","value":521},{"name":"x2","type":"int","value":525},{"name":"y1","type":"int","value":-93},{"name":"y2","type":"int","value":-95},{"name":"next","type":"int","value":59},{"name":"prev","type":"int","value":65}],"polyline":[{"x":0,"y":0},{"x":4,"y":-2}]},{"id":223,"x":73,"y":52,"visible":true,"properties":[{"name":"layer","type":"int","value":4},{"name":"group","type":"int","value":5},{"name":"id","type":"int","value":84},{"name":"fh_layer","type":"int","value":4},{"name":"fh_group","type":"int","value":5},{"name":"fh_id","type":"int","value":84},{"name":"x1","type":"int","value":73},{"name":"x2","type":"int","value":87},{"name":"y1","type":"int","value":52},{"name":"y2","type":"int","value":44},{"name":"next","type":"int","value":85},{"name":"prev","type":"int","value":0}],"polyline":[{"x":0,"y":0},{"x":14,"y":-8}]},{"id":224,"x":87,"y":44,"visible":true,"properties":[{"name":"layer","type":"int","value":4},{"name":"group","type":"int","value":5},{"name":"id","type":"int","value":85},{"name":"fh_layer","type":"int","value":4},{"name":"fh_group","type":"int","value":5},{"name":"fh_id","type":"int","value":85},{"name":"x1","type":"int","value":87},{"name":"x2","type":"int","value":140},{"name":"y1","type":"int","value":44},{"name":"y2","type":"int","value":44},{"name":"next","type":"int","value":86},{"name":"prev","type":"int","value":84}],"polyline":[{"x":0,"y":0},{"x":53,"y":0}]},{"id":225,"x":140,"y":44,"visible":true,"properties":[{"name":"layer","type":"int","value":4},{"name":"group","type":"int","value":5},{"name":"id","type":"int","value":86},{"name":"fh_layer","type":"int","value":4},{"name":"fh_group","type":"int","value":5},{"name":"fh_id","type":"int","value":86},{"name":"x1","type":"int","value":140},{"name":"x2","type":"int","value":150},{"name":"y1","type":"int","value":44},{"name":"y2","type":"int","value":47},{"name":"next","type":"int","value":87},{"name":"prev","type":"int","value":85}],"polyline":[{"x":0,"y":0},{"x":10,"y":3}]},{"id":226,"x":150,"y":47,"visible":true,"properties":[{"name":"layer","type":"int","value":4},{"name":"group","type":"int","value":5},{"name":"id","type":"int","value":87},{"name":"fh_layer","type":"int","value":4},{"name":"fh_group","type":"int","value":5},{"name":"fh_id","type":"int","value":87},{"name":"x1","type":"int","value":150},{"name":"x2","type":"int","value":288},{"name":"y1","type":"int","value":47},{"name":"y2","type":"int","value":46},{"name":"next","type":"int","value":88},{"name":"prev","type":"int","value":86}],"polyline":[{"x":0,"y":0},{"x":138,"y":-1}]},{"id":227,"x":288,"y":46,"visible":true,"properties":[{"name":"layer","type":"int","value":4},{"name":"group","type":"int","value":5},{"name":"id","type":"int","value":88},{"name":"fh_layer","type":"int","value":4},{"name":"fh_group","type":"int","value":5},{"name":"fh_id","type":"int","value":88},{"name":"x1","type":"int","value":288},{"name":"x2","type":"int","value":307},{"name":"y1","type":"int","value":46},{"name":"y2","type":"int","value":43},{"name":"next","type":"int","value":89},{"name":"prev","type":"int","value":87}],"polyline":[{"x":0,"y":0},{"x":19,"y":-3}]},{"id":228,"x":307,"y":43,"visible":true,"properties":[{"name":"layer","type":"int","value":4},{"name":"group","type":"int","value":5},{"name":"id","type":"int","value":89},{"name":"fh_layer","type":"int","value":4},{"name":"fh_group","type":"int","value":5},{"name":"fh_id","type":"int","value":89},{"name":"x1","type":"int","value":307},{"name":"x2","type":"int","value":366},{"name":"y1","type":"int","value":43},{"name":"y2","type":"int","value":42},{"name":"next","type":"int","value":90},{"name":"prev","type":"int","value":88}],"polyline":[{"x":0,"y":0},{"x":59,"y":-1}]},{"id":229,"x":366,"y":42,"visible":true,"properties":[{"name":"layer","type":"int","value":4},{"name":"group","type":"int","value":5},{"name":"id","type":"int","value":90},{"name":"fh_layer","type":"int","value":4},{"name":"fh_group","type":"int","value":5},{"name":"fh_id","type":"int","value":90},{"name":"x1","type":"int","value":366},{"name":"x2","type":"int","value":384},{"name":"y1","type":"int","value":42},{"name":"y2","type":"int","value":47},{"name":"next","type":"int","value":91},{"name":"prev","type":"int","value":89}],"polyline":[{"x":0,"y":0},{"x":18,"y":5}]},{"id":230,"x":384,"y":47,"visible":true,"properties":[{"name":"layer","type":"int","value":4},{"name":"group","type":"int","value":5},{"name":"id","type":"int","value":91},{"name":"fh_layer","type":"int","value":4},{"name":"fh_group","type":"int","value":5},{"name":"fh_id","type":"int","value":91},{"name":"x1","type":"int","value":384},{"name":"x2","type":"int","value":439},{"name":"y1","type":"int","value":47},{"name":"y2","type":"int","value":48},{"name":"next","type":"int","value":92},{"name":"prev","type":"int","value":90}],"polyline":[{"x":0,"y":0},{"x":55,"y":1}]},{"id":231,"x":439,"y":48,"visible":true,"properties":[{"name":"layer","type":"int","value":4},{"name":"group","type":"int","value":5},{"name":"id","type":"int","value":92},{"name":"fh_layer","type":"int","value":4},{"name":"fh_group","type":"int","value":5},{"name":"fh_id","type":"int","value":92},{"name":"x1","type":"int","value":439},{"name":"x2","type":"int","value":453},{"name":"y1","type":"int","value":48},{"name":"y2","type":"int","value":44},{"name":"next","type":"int","value":93},{"name":"prev","type":"int","value":91}],"polyline":[{"x":0,"y":0},{"x":14,"y":-4}]},{"id":232,"x":453,"y":44,"visible":true,"properties":[{"name":"layer","type":"int","value":4},{"name":"group","type":"int","value":5},{"name":"id","type":"int","value":93},{"name":"fh_layer","type":"int","value":4},{"name":"fh_group","type":"int","value":5},{"name":"fh_id","type":"int","value":93},{"name":"x1","type":"int","value":453},{"name":"x2","type":"int","value":488},{"name":"y1","type":"int","value":44},{"name":"y2","type":"int","value":43},{"name":"next","type":"int","value":94},{"name":"prev","type":"int","value":92}],"polyline":[{"x":0,"y":0},{"x":35,"y":-1}]},{"id":233,"x":488,"y":43,"visible":true,"properties":[{"name":"layer","type":"int","value":4},{"name":"group","type":"int","value":5},{"name":"id","type":"int","value":94},{"name":"fh_layer","type":"int","value":4},{"name":"fh_group","type":"int","value":5},{"name":"fh_id","type":"int","value":94},{"name":"x1","type":"int","value":488},{"name":"x2","type":"int","value":500},{"name":"y1","type":"int","value":43},{"name":"y2","type":"int","value":47},{"name":"next","type":"int","value":0},{"name":"prev","type":"int","value":93}],"polyline":[{"x":0,"y":0},{"x":12,"y":4}]},{"id":234,"x":1056,"y":-116,"visible":true,"properties":[{"name":"layer","type":"int","value":4},{"name":"group","type":"int","value":10},{"name":"id","type":"int","value":74},{"name":"fh_layer","type":"int","value":4},{"name":"fh_group","type":"int","value":10},{"name":"fh_id","type":"int","value":74},{"name":"x1","type":"int","value":1056},{"name":"x2","type":"int","value":1139},{"name":"y1","type":"int","value":-116},{"name":"y2","type":"int","value":-116},{"name":"next","type":"int","value":75},{"name":"prev","type":"int","value":0}],"polyline":[{"x":0,"y":0},{"x":83,"y":0}]},{"id":235,"x":1139,"y":-116,"visible":true,"properties":[{"name":"layer","type":"int","value":4},{"name":"group","type":"int","value":10},{"name":"id","type":"int","value":75},{"name":"fh_layer","type":"int","value":4},{"name":"fh_group","type":"int","value":10},{"name":"fh_id","type":"int","value":75},{"name":"x1","type":"int","value":1139},{"name":"x2","type":"int","value":1150},{"name":"y1","type":"int","value":-116},{"name":"y2","type":"int","value":-114},{"name":"next","type":"int","value":76},{"name":"prev","type":"int","value":74}],"polyline":[{"x":0,"y":0},{"x":11,"y":2}]},{"id":236,"x":1150,"y":-114,"visible":true,"properties":[{"name":"layer","type":"int","value":4},{"name":"group","type":"int","value":10},{"name":"id","type":"int","value":76},{"name":"fh_layer","type":"int","value":4},{"name":"fh_group","type":"int","value":10},{"name":"fh_id","type":"int","value":76},{"name":"x1","type":"int","value":1150},{"name":"x2","type":"int","value":1307},{"name":"y1","type":"int","value":-114},{"name":"y2","type":"int","value":-114},{"name":"next","type":"int","value":77},{"name":"prev","type":"int","value":75}],"polyline":[{"x":0,"y":0},{"x":157,"y":0}]},{"id":237,"x":1307,"y":-114,"visible":true,"properties":[{"name":"layer","type":"int","value":4},{"name":"group","type":"int","value":10},{"name":"id","type":"int","value":77},{"name":"fh_layer","type":"int","value":4},{"name":"fh_group","type":"int","value":10},{"name":"fh_id","type":"int","value":77},{"name":"x1","type":"int","value":1307},{"name":"x2","type":"int","value":1325},{"name":"y1","type":"int","value":-114},{"name":"y2","type":"int","value":-117},{"name":"next","type":"int","value":78},{"name":"prev","type":"int","value":76}],"polyline":[{"x":0,"y":0},{"x":18,"y":-3}]},{"id":238,"x":1325,"y":-117,"visible":true,"properties":[{"name":"layer","type":"int","value":4},{"name":"group","type":"int","value":10},{"name":"id","type":"int","value":78},{"name":"fh_layer","type":"int","value":4},{"name":"fh_group","type":"int","value":10},{"name":"fh_id","type":"int","value":78},{"name":"x1","type":"int","value":1325},{"name":"x2","type":"int","value":1392},{"name":"y1","type":"int","value":-117},{"name":"y2","type":"int","value":-117},{"name":"next","type":"int","value":79},{"name":"prev","type":"int","value":77}],"polyline":[{"x":0,"y":0},{"x":67,"y":0}]},{"id":239,"x":1392,"y":-117,"visible":true,"properties":[{"name":"layer","type":"int","value":4},{"name":"group","type":"int","value":10},{"name":"id","type":"int","value":79},{"name":"fh_layer","type":"int","value":4},{"name":"fh_group","type":"int","value":10},{"name":"fh_id","type":"int","value":79},{"name":"x1","type":"int","value":1392},{"name":"x2","type":"int","value":1407},{"name":"y1","type":"int","value":-117},{"name":"y2","type":"int","value":-114},{"name":"next","type":"int","value":80},{"name":"prev","type":"int","value":78}],"polyline":[{"x":0,"y":0},{"x":15,"y":3}]},{"id":240,"x":1407,"y":-114,"visible":true,"properties":[{"name":"layer","type":"int","value":4},{"name":"group","type":"int","value":10},{"name":"id","type":"int","value":80},{"name":"fh_layer","type":"int","value":4},{"name":"fh_group","type":"int","value":10},{"name":"fh_id","type":"int","value":80},{"name":"x1","type":"int","value":1407},{"name":"x2","type":"int","value":1464},{"name":"y1","type":"int","value":-114},{"name":"y2","type":"int","value":-114},{"name":"next","type":"int","value":81},{"name":"prev","type":"int","value":79}],"polyline":[{"x":0,"y":0},{"x":57,"y":0}]},{"id":241,"x":1464,"y":-114,"visible":true,"properties":[{"name":"layer","type":"int","value":4},{"name":"group","type":"int","value":10},{"name":"id","type":"int","value":81},{"name":"fh_layer","type":"int","value":4},{"name":"fh_group","type":"int","value":10},{"name":"fh_id","type":"int","value":81},{"name":"x1","type":"int","value":1464},{"name":"x2","type":"int","value":1478},{"name":"y1","type":"int","value":-114},{"name":"y2","type":"int","value":-116},{"name":"next","type":"int","value":82},{"name":"prev","type":"int","value":80}],"polyline":[{"x":0,"y":0},{"x":14,"y":-2}]},{"id":242,"x":1478,"y":-116,"visible":true,"properties":[{"name":"layer","type":"int","value":4},{"name":"group","type":"int","value":10},{"name":"id","type":"int","value":82},{"name":"fh_layer","type":"int","value":4},{"name":"fh_group","type":"int","value":10},{"name":"fh_id","type":"int","value":82},{"name":"x1","type":"int","value":1478},{"name":"x2","type":"int","value":1511},{"name":"y1","type":"int","value":-116},{"name":"y2","type":"int","value":-117},{"name":"next","type":"int","value":83},{"name":"prev","type":"int","value":81}],"polyline":[{"x":0,"y":0},{"x":33,"y":-1}]},{"id":243,"x":1511,"y":-117,"visible":true,"properties":[{"name":"layer","type":"int","value":4},{"name":"group","type":"int","value":10},{"name":"id","type":"int","value":83},{"name":"fh_layer","type":"int","value":4},{"name":"fh_group","type":"int","value":10},{"name":"fh_id","type":"int","value":83},{"name":"x1","type":"int","value":1511},{"name":"x2","type":"int","value":1522},{"name":"y1","type":"int","value":-117},{"name":"y2","type":"int","value":-112},{"name":"next","type":"int","value":0},{"name":"prev","type":"int","value":82}],"polyline":[{"x":0,"y":0},{"x":11,"y":5}]},{"id":244,"x":410,"y":84,"visible":true,"properties":[{"name":"layer","type":"int","value":5},{"name":"group","type":"int","value":3},{"name":"id","type":"int","value":95},{"name":"fh_layer","type":"int","value":5},{"name":"fh_group","type":"int","value":3},{"name":"fh_id","type":"int","value":95},{"name":"x1","type":"int","value":410},{"name":"x2","type":"int","value":483},{"name":"y1","type":"int","value":84},{"name":"y2","type":"int","value":84},{"name":"next","type":"int","value":96},{"name":"prev","type":"int","value":0}],"polyline":[{"x":0,"y":0},{"x":73,"y":0}]},{"id":245,"x":483,"y":84,"visible":true,"properties":[{"name":"layer","type":"int","value":5},{"name":"group","type":"int","value":3},{"name":"id","type":"int","value":96},{"name":"fh_layer","type":"int","value":5},{"name":"fh_group","type":"int","value":3},{"name":"fh_id","type":"int","value":96},{"name":"x1","type":"int","value":483},{"name":"x2","type":"int","value":505},{"name":"y1","type":"int","value":84},{"name":"y2","type":"int","value":87},{"name":"next","type":"int","value":97},{"name":"prev","type":"int","value":95}],"polyline":[{"x":0,"y":0},{"x":22,"y":3}]},{"id":246,"x":505,"y":87,"visible":true,"properties":[{"name":"layer","type":"int","value":5},{"name":"group","type":"int","value":3},{"name":"id","type":"int","value":97},{"name":"fh_layer","type":"int","value":5},{"name":"fh_group","type":"int","value":3},{"name":"fh_id","type":"int","value":97},{"name":"x1","type":"int","value":505},{"name":"x2","type":"int","value":684},{"name":"y1","type":"int","value":87},{"name":"y2","type":"int","value":86},{"name":"next","type":"int","value":98},{"name":"prev","type":"int","value":96}],"polyline":[{"x":0,"y":0},{"x":179,"y":-1}]},{"id":247,"x":684,"y":86,"visible":true,"properties":[{"name":"layer","type":"int","value":5},{"name":"group","type":"int","value":3},{"name":"id","type":"int","value":98},{"name":"fh_layer","type":"int","value":5},{"name":"fh_group","type":"int","value":3},{"name":"fh_id","type":"int","value":98},{"name":"x1","type":"int","value":684},{"name":"x2","type":"int","value":697},{"name":"y1","type":"int","value":86},{"name":"y2","type":"int","value":83},{"name":"next","type":"int","value":99},{"name":"prev","type":"int","value":97}],"polyline":[{"x":0,"y":0},{"x":13,"y":-3}]},{"id":248,"x":697,"y":83,"visible":true,"properties":[{"name":"layer","type":"int","value":5},{"name":"group","type":"int","value":3},{"name":"id","type":"int","value":99},{"name":"fh_layer","type":"int","value":5},{"name":"fh_group","type":"int","value":3},{"name":"fh_id","type":"int","value":99},{"name":"x1","type":"int","value":697},{"name":"x2","type":"int","value":754},{"name":"y1","type":"int","value":83},{"name":"y2","type":"int","value":83},{"name":"next","type":"int","value":100},{"name":"prev","type":"int","value":98}],"polyline":[{"x":0,"y":0},{"x":57,"y":0}]},{"id":249,"x":754,"y":83,"visible":true,"properties":[{"name":"layer","type":"int","value":5},{"name":"group","type":"int","value":3},{"name":"id","type":"int","value":100},{"name":"fh_layer","type":"int","value":5},{"name":"fh_group","type":"int","value":3},{"name":"fh_id","type":"int","value":100},{"name":"x1","type":"int","value":754},{"name":"x2","type":"int","value":766},{"name":"y1","type":"int","value":83},{"name":"y2","type":"int","value":85},{"name":"next","type":"int","value":101},{"name":"prev","type":"int","value":99}],"polyline":[{"x":0,"y":0},{"x":12,"y":2}]},{"id":250,"x":766,"y":85,"visible":true,"properties":[{"name":"layer","type":"int","value":5},{"name":"group","type":"int","value":3},{"name":"id","type":"int","value":101},{"name":"fh_layer","type":"int","value":5},{"name":"fh_group","type":"int","value":3},{"name":"fh_id","type":"int","value":101},{"name":"x1","type":"int","value":766},{"name":"x2","type":"int","value":819},{"name":"y1","type":"int","value":85},{"name":"y2","type":"int","value":85},{"name":"next","type":"int","value":102},{"name":"prev","type":"int","value":100}],"polyline":[{"x":0,"y":0},{"x":53,"y":0}]},{"id":251,"x":819,"y":85,"visible":true,"properties":[{"name":"layer","type":"int","value":5},{"name":"group","type":"int","value":3},{"name":"id","type":"int","value":102},{"name":"fh_layer","type":"int","value":5},{"name":"fh_group","type":"int","value":3},{"name":"fh_id","type":"int","value":102},{"name":"x1","type":"int","value":819},{"name":"x2","type":"int","value":829},{"name":"y1","type":"int","value":85},{"name":"y2","type":"int","value":82},{"name":"next","type":"int","value":103},{"name":"prev","type":"int","value":101}],"polyline":[{"x":0,"y":0},{"x":10,"y":-3}]},{"id":252,"x":829,"y":82,"visible":true,"properties":[{"name":"layer","type":"int","value":5},{"name":"group","type":"int","value":3},{"name":"id","type":"int","value":103},{"name":"fh_layer","type":"int","value":5},{"name":"fh_group","type":"int","value":3},{"name":"fh_id","type":"int","value":103},{"name":"x1","type":"int","value":829},{"name":"x2","type":"int","value":874},{"name":"y1","type":"int","value":82},{"name":"y2","type":"int","value":82},{"name":"next","type":"int","value":104},{"name":"prev","type":"int","value":102}],"polyline":[{"x":0,"y":0},{"x":45,"y":0}]},{"id":253,"x":874,"y":82,"visible":true,"properties":[{"name":"layer","type":"int","value":5},{"name":"group","type":"int","value":3},{"name":"id","type":"int","value":104},{"name":"fh_layer","type":"int","value":5},{"name":"fh_group","type":"int","value":3},{"name":"fh_id","type":"int","value":104},{"name":"x1","type":"int","value":874},{"name":"x2","type":"int","value":887},{"name":"y1","type":"int","value":82},{"name":"y2","type":"int","value":84},{"name":"next","type":"int","value":0},{"name":"prev","type":"int","value":103}],"polyline":[{"x":0,"y":0},{"x":13,"y":2}]},{"id":254,"x":907,"y":15,"visible":true,"properties":[{"name":"layer","type":"int","value":5},{"name":"group","type":"int","value":3},{"name":"id","type":"int","value":105},{"name":"fh_layer","type":"int","value":5},{"name":"fh_group","type":"int","value":3},{"name":"fh_id","type":"int","value":105},{"name":"x1","type":"int","value":907},{"name":"x2","type":"int","value":919},{"name":"y1","type":"int","value":15},{"name":"y2","type":"int","value":7},{"name":"next","type":"int","value":106},{"name":"prev","type":"int","value":0}],"polyline":[{"x":0,"y":0},{"x":12,"y":-8}]},{"id":255,"x":919,"y":7,"visible":true,"properties":[{"name":"layer","type":"int","value":5},{"name":"group","type":"int","value":3},{"name":"id","type":"int","value":106},{"name":"fh_layer","type":"int","value":5},{"name":"fh_group","type":"int","value":3},{"name":"fh_id","type":"int","value":106},{"name":"x1","type":"int","value":919},{"name":"x2","type":"int","value":974},{"name":"y1","type":"int","value":7},{"name":"y2","type":"int","value":7},{"name":"next","type":"int","value":107},{"name":"prev","type":"int","value":105}],"polyline":[{"x":0,"y":0},{"x":55,"y":0}]},{"id":256,"x":974,"y":7,"visible":true,"properties":[{"name":"layer","type":"int","value":5},{"name":"group","type":"int","value":3},{"name":"id","type":"int","value":107},{"name":"fh_layer","type":"int","value":5},{"name":"fh_group","type":"int","value":3},{"name":"fh_id","type":"int","value":107},{"name":"x1","type":"int","value":974},{"name":"x2","type":"int","value":985},{"name":"y1","type":"int","value":7},{"name":"y2","type":"int","value":9},{"name":"next","type":"int","value":108},{"name":"prev","type":"int","value":106}],"polyline":[{"x":0,"y":0},{"x":11,"y":2}]},{"id":257,"x":985,"y":9,"visible":true,"properties":[{"name":"layer","type":"int","value":5},{"name":"group","type":"int","value":3},{"name":"id","type":"int","value":108},{"name":"fh_layer","type":"int","value":5},{"name":"fh_group","type":"int","value":3},{"name":"fh_id","type":"int","value":108},{"name":"x1","type":"int","value":985},{"name":"x2","type":"int","value":1166},{"name":"y1","type":"int","value":9},{"name":"y2","type":"int","value":9},{"name":"next","type":"int","value":109},{"name":"prev","type":"int","value":107}],"polyline":[{"x":0,"y":0},{"x":181,"y":0}]},{"id":258,"x":1166,"y":9,"visible":true,"properties":[{"name":"layer","type":"int","value":5},{"name":"group","type":"int","value":3},{"name":"id","type":"int","value":109},{"name":"fh_layer","type":"int","value":5},{"name":"fh_group","type":"int","value":3},{"name":"fh_id","type":"int","value":109},{"name":"x1","type":"int","value":1166},{"name":"x2","type":"int","value":1180},{"name":"y1","type":"int","value":9},{"name":"y2","type":"int","value":6},{"name":"next","type":"int","value":110},{"name":"prev","type":"int","value":108}],"polyline":[{"x":0,"y":0},{"x":14,"y":-3}]},{"id":259,"x":1180,"y":6,"visible":true,"properties":[{"name":"layer","type":"int","value":5},{"name":"group","type":"int","value":3},{"name":"id","type":"int","value":110},{"name":"fh_layer","type":"int","value":5},{"name":"fh_group","type":"int","value":3},{"name":"fh_id","type":"int","value":110},{"name":"x1","type":"int","value":1180},{"name":"x2","type":"int","value":1246},{"name":"y1","type":"int","value":6},{"name":"y2","type":"int","value":6},{"name":"next","type":"int","value":111},{"name":"prev","type":"int","value":109}],"polyline":[{"x":0,"y":0},{"x":66,"y":0}]},{"id":260,"x":1246,"y":6,"visible":true,"properties":[{"name":"layer","type":"int","value":5},{"name":"group","type":"int","value":3},{"name":"id","type":"int","value":111},{"name":"fh_layer","type":"int","value":5},{"name":"fh_group","type":"int","value":3},{"name":"fh_id","type":"int","value":111},{"name":"x1","type":"int","value":1246},{"name":"x2","type":"int","value":1262},{"name":"y1","type":"int","value":6},{"name":"y2","type":"int","value":10},{"name":"next","type":"int","value":112},{"name":"prev","type":"int","value":110}],"polyline":[{"x":0,"y":0},{"x":16,"y":4}]},{"id":261,"x":1262,"y":10,"visible":true,"properties":[{"name":"layer","type":"int","value":5},{"name":"group","type":"int","value":3},{"name":"id","type":"int","value":112},{"name":"fh_layer","type":"int","value":5},{"name":"fh_group","type":"int","value":3},{"name":"fh_id","type":"int","value":112},{"name":"x1","type":"int","value":1262},{"name":"x2","type":"int","value":1311},{"name":"y1","type":"int","value":10},{"name":"y2","type":"int","value":10},{"name":"next","type":"int","value":113},{"name":"prev","type":"int","value":111}],"polyline":[{"x":0,"y":0},{"x":49,"y":0}]},{"id":262,"x":1311,"y":10,"visible":true,"properties":[{"name":"layer","type":"int","value":5},{"name":"group","type":"int","value":3},{"name":"id","type":"int","value":113},{"name":"fh_layer","type":"int","value":5},{"name":"fh_group","type":"int","value":3},{"name":"fh_id","type":"int","value":113},{"name":"x1","type":"int","value":1311},{"name":"x2","type":"int","value":1323},{"name":"y1","type":"int","value":10},{"name":"y2","type":"int","value":7},{"name":"next","type":"int","value":114},{"name":"prev","type":"int","value":112}],"polyline":[{"x":0,"y":0},{"x":12,"y":-3}]},{"id":263,"x":1323,"y":7,"visible":true,"properties":[{"name":"layer","type":"int","value":5},{"name":"group","type":"int","value":3},{"name":"id","type":"int","value":114},{"name":"fh_layer","type":"int","value":5},{"name":"fh_group","type":"int","value":3},{"name":"fh_id","type":"int","value":114},{"name":"x1","type":"int","value":1323},{"name":"x2","type":"int","value":1366},{"name":"y1","type":"int","value":7},{"name":"y2","type":"int","value":7},{"name":"next","type":"int","value":115},{"name":"prev","type":"int","value":113}],"polyline":[{"x":0,"y":0},{"x":43,"y":0}]},{"id":264,"x":1366,"y":7,"visible":true,"properties":[{"name":"layer","type":"int","value":5},{"name":"group","type":"int","value":3},{"name":"id","type":"int","value":115},{"name":"fh_layer","type":"int","value":5},{"name":"fh_group","type":"int","value":3},{"name":"fh_id","type":"int","value":115},{"name":"x1","type":"int","value":1366},{"name":"x2","type":"int","value":1375},{"name":"y1","type":"int","value":7},{"name":"y2","type":"int","value":10},{"name":"next","type":"int","value":0},{"name":"prev","type":"int","value":114}],"polyline":[{"x":0,"y":0},{"x":9,"y":3}]},{"id":265,"x":1186,"y":66,"visible":true,"properties":[{"name":"layer","type":"int","value":5},{"name":"group","type":"int","value":3},{"name":"id","type":"int","value":116},{"name":"fh_layer","type":"int","value":5},{"name":"fh_group","type":"int","value":3},{"name":"fh_id","type":"int","value":116},{"name":"x1","type":"int","value":1186},{"name":"x2","type":"int","value":1200},{"name":"y1","type":"int","value":66},{"name":"y2","type":"int","value":58},{"name":"next","type":"int","value":117},{"name":"prev","type":"int","value":0}],"polyline":[{"x":0,"y":0},{"x":14,"y":-8}]},{"id":266,"x":1200,"y":58,"visible":true,"properties":[{"name":"layer","type":"int","value":5},{"name":"group","type":"int","value":3},{"name":"id","type":"int","value":117},{"name":"fh_layer","type":"int","value":5},{"name":"fh_group","type":"int","value":3},{"name":"fh_id","type":"int","value":117},{"name":"x1","type":"int","value":1200},{"name":"x2","type":"int","value":1253},{"name":"y1","type":"int","value":58},{"name":"y2","type":"int","value":58},{"name":"next","type":"int","value":118},{"name":"prev","type":"int","value":116}],"polyline":[{"x":0,"y":0},{"x":53,"y":0}]},{"id":267,"x":1253,"y":58,"visible":true,"properties":[{"name":"layer","type":"int","value":5},{"name":"group","type":"int","value":3},{"name":"id","type":"int","value":118},{"name":"fh_layer","type":"int","value":5},{"name":"fh_group","type":"int","value":3},{"name":"fh_id","type":"int","value":118},{"name":"x1","type":"int","value":1253},{"name":"x2","type":"int","value":1263},{"name":"y1","type":"int","value":58},{"name":"y2","type":"int","value":61},{"name":"next","type":"int","value":119},{"name":"prev","type":"int","value":117}],"polyline":[{"x":0,"y":0},{"x":10,"y":3}]},{"id":268,"x":1263,"y":61,"visible":true,"properties":[{"name":"layer","type":"int","value":5},{"name":"group","type":"int","value":3},{"name":"id","type":"int","value":119},{"name":"fh_layer","type":"int","value":5},{"name":"fh_group","type":"int","value":3},{"name":"fh_id","type":"int","value":119},{"name":"x1","type":"int","value":1263},{"name":"x2","type":"int","value":1401},{"name":"y1","type":"int","value":61},{"name":"y2","type":"int","value":60},{"name":"next","type":"int","value":120},{"name":"prev","type":"int","value":118}],"polyline":[{"x":0,"y":0},{"x":138,"y":-1}]},{"id":269,"x":1401,"y":60,"visible":true,"properties":[{"name":"layer","type":"int","value":5},{"name":"group","type":"int","value":3},{"name":"id","type":"int","value":120},{"name":"fh_layer","type":"int","value":5},{"name":"fh_group","type":"int","value":3},{"name":"fh_id","type":"int","value":120},{"name":"x1","type":"int","value":1401},{"name":"x2","type":"int","value":1420},{"name":"y1","type":"int","value":60},{"name":"y2","type":"int","value":57},{"name":"next","type":"int","value":121},{"name":"prev","type":"int","value":119}],"polyline":[{"x":0,"y":0},{"x":19,"y":-3}]},{"id":270,"x":1420,"y":57,"visible":true,"properties":[{"name":"layer","type":"int","value":5},{"name":"group","type":"int","value":3},{"name":"id","type":"int","value":121},{"name":"fh_layer","type":"int","value":5},{"name":"fh_group","type":"int","value":3},{"name":"fh_id","type":"int","value":121},{"name":"x1","type":"int","value":1420},{"name":"x2","type":"int","value":1479},{"name":"y1","type":"int","value":57},{"name":"y2","type":"int","value":56},{"name":"next","type":"int","value":122},{"name":"prev","type":"int","value":120}],"polyline":[{"x":0,"y":0},{"x":59,"y":-1}]},{"id":271,"x":1479,"y":56,"visible":true,"properties":[{"name":"layer","type":"int","value":5},{"name":"group","type":"int","value":3},{"name":"id","type":"int","value":122},{"name":"fh_layer","type":"int","value":5},{"name":"fh_group","type":"int","value":3},{"name":"fh_id","type":"int","value":122},{"name":"x1","type":"int","value":1479},{"name":"x2","type":"int","value":1497},{"name":"y1","type":"int","value":56},{"name":"y2","type":"int","value":61},{"name":"next","type":"int","value":123},{"name":"prev","type":"int","value":121}],"polyline":[{"x":0,"y":0},{"x":18,"y":5}]},{"id":272,"x":1497,"y":61,"visible":true,"properties":[{"name":"layer","type":"int","value":5},{"name":"group","type":"int","value":3},{"name":"id","type":"int","value":123},{"name":"fh_layer","type":"int","value":5},{"name":"fh_group","type":"int","value":3},{"name":"fh_id","type":"int","value":123},{"name":"x1","type":"int","value":1497},{"name":"x2","type":"int","value":1552},{"name":"y1","type":"int","value":61},{"name":"y2","type":"int","value":62},{"name":"next","type":"int","value":124},{"name":"prev","type":"int","value":122}],"polyline":[{"x":0,"y":0},{"x":55,"y":1}]},{"id":273,"x":1552,"y":62,"visible":true,"properties":[{"name":"layer","type":"int","value":5},{"name":"group","type":"int","value":3},{"name":"id","type":"int","value":124},{"name":"fh_layer","type":"int","value":5},{"name":"fh_group","type":"int","value":3},{"name":"fh_id","type":"int","value":124},{"name":"x1","type":"int","value":1552},{"name":"x2","type":"int","value":1566},{"name":"y1","type":"int","value":62},{"name":"y2","type":"int","value":58},{"name":"next","type":"int","value":125},{"name":"prev","type":"int","value":123}],"polyline":[{"x":0,"y":0},{"x":14,"y":-4}]},{"id":274,"x":1566,"y":58,"visible":true,"properties":[{"name":"layer","type":"int","value":5},{"name":"group","type":"int","value":3},{"name":"id","type":"int","value":125},{"name":"fh_layer","type":"int","value":5},{"name":"fh_group","type":"int","value":3},{"name":"fh_id","type":"int","value":125},{"name":"x1","type":"int","value":1566},{"name":"x2","type":"int","value":1601},{"name":"y1","type":"int","value":58},{"name":"y2","type":"int","value":57},{"name":"next","type":"int","value":126},{"name":"prev","type":"int","value":124}],"polyline":[{"x":0,"y":0},{"x":35,"y":-1}]},{"id":275,"x":1601,"y":57,"visible":true,"properties":[{"name":"layer","type":"int","value":5},{"name":"group","type":"int","value":3},{"name":"id","type":"int","value":126},{"name":"fh_layer","type":"int","value":5},{"name":"fh_group","type":"int","value":3},{"name":"fh_id","type":"int","value":126},{"name":"x1","type":"int","value":1601},{"name":"x2","type":"int","value":1613},{"name":"y1","type":"int","value":57},{"name":"y2","type":"int","value":61},{"name":"next","type":"int","value":0},{"name":"prev","type":"int","value":125}],"polyline":[{"x":0,"y":0},{"x":12,"y":4}]},{"id":276,"x":1035,"y":185,"visible":true,"properties":[{"name":"layer","type":"int","value":6},{"name":"group","type":"int","value":0},{"name":"id","type":"int","value":1},{"name":"fh_layer","type":"int","value":6},{"name":"fh_group","type":"int","value":0},{"name":"fh_id","type":"int","value":1},{"name":"x1","type":"int","value":1035},{"name":"x2","type":"int","value":1125},{"name":"y1","type":"int","value":185},{"name":"y2","type":"int","value":185},{"name":"next","type":"int","value":20},{"name":"prev","type":"int","value":2}],"polyline":[{"x":0,"y":0},{"x":90,"y":0}]},{"id":277,"x":945,"y":185,"visible":true,"properties":[{"name":"layer","type":"int","value":6},{"name":"group","type":"int","value":0},{"name":"id","type":"int","value":2},{"name":"fh_layer","type":"int","value":6},{"name":"fh_group","type":"int","value":0},{"name":"fh_id","type":"int","value":2},{"name":"x1","type":"int","value":945},{"name":"x2","type":"int","value":1035},{"name":"y1","type":"int","value":185},{"name":"y2","type":"int","value":185},{"name":"next","type":"int","value":1},{"name":"prev","type":"int","value":3}],"polyline":[{"x":0,"y":0},{"x":90,"y":0}]},{"id":278,"x":855,"y":185,"visible":true,"properties":[{"name":"layer","type":"int","value":6},{"name":"group","type":"int","value":0},{"name":"id","type":"int","value":3},{"name":"fh_layer","type":"int","value":6},{"name":"fh_group","type":"int","value":0},{"name":"fh_id","type":"int","value":3},{"name":"x1","type":"int","value":855},{"name":"x2","type":"int","value":945},{"name":"y1","type":"int","value":185},{"name":"y2","type":"int","value":185},{"name":"next","type":"int","value":2},{"name":"prev","type":"int","value":5}],"polyline":[{"x":0,"y":0},{"x":90,"y":0}]},{"id":279,"x":315,"y":185,"visible":true,"properties":[{"name":"layer","type":"int","value":6},{"name":"group","type":"int","value":0},{"name":"id","type":"int","value":4},{"name":"fh_layer","type":"int","value":6},{"name":"fh_group","type":"int","value":0},{"name":"fh_id","type":"int","value":4},{"name":"x1","type":"int","value":315},{"name":"x2","type":"int","value":405},{"name":"y1","type":"int","value":185},{"name":"y2","type":"int","value":185},{"name":"next","type":"int","value":6},{"name":"prev","type":"int","value":7}],"polyline":[{"x":0,"y":0},{"x":90,"y":0}]},{"id":280,"x":765,"y":185,"visible":true,"properties":[{"name":"layer","type":"int","value":6},{"name":"group","type":"int","value":0},{"name":"id","type":"int","value":5},{"name":"fh_layer","type":"int","value":6},{"name":"fh_group","type":"int","value":0},{"name":"fh_id","type":"int","value":5},{"name":"x1","type":"int","value":765},{"name":"x2","type":"int","value":855},{"name":"y1","type":"int","value":185},{"name":"y2","type":"int","value":185},{"name":"next","type":"int","value":3},{"name":"prev","type":"int","value":17}],"polyline":[{"x":0,"y":0},{"x":90,"y":0}]},{"id":281,"x":405,"y":185,"visible":true,"properties":[{"name":"layer","type":"int","value":6},{"name":"group","type":"int","value":0},{"name":"id","type":"int","value":6},{"name":"fh_layer","type":"int","value":6},{"name":"fh_group","type":"int","value":0},{"name":"fh_id","type":"int","value":6},{"name":"x1","type":"int","value":405},{"name":"x2","type":"int","value":495},{"name":"y1","type":"int","value":185},{"name":"y2","type":"int","value":185},{"name":"next","type":"int","value":18},{"name":"prev","type":"int","value":4}],"polyline":[{"x":0,"y":0},{"x":90,"y":0}]},{"id":282,"x":225,"y":185,"visible":true,"properties":[{"name":"layer","type":"int","value":6},{"name":"group","type":"int","value":0},{"name":"id","type":"int","value":7},{"name":"fh_layer","type":"int","value":6},{"name":"fh_group","type":"int","value":0},{"name":"fh_id","type":"int","value":7},{"name":"x1","type":"int","value":225},{"name":"x2","type":"int","value":315},{"name":"y1","type":"int","value":185},{"name":"y2","type":"int","value":185},{"name":"next","type":"int","value":4},{"name":"prev","type":"int","value":8}],"polyline":[{"x":0,"y":0},{"x":90,"y":0}]},{"id":283,"x":135,"y":185,"visible":true,"properties":[{"name":"layer","type":"int","value":6},{"name":"group","type":"int","value":0},{"name":"id","type":"int","value":8},{"name":"fh_layer","type":"int","value":6},{"name":"fh_group","type":"int","value":0},{"name":"fh_id","type":"int","value":8},{"name":"x1","type":"int","value":135},{"name":"x2","type":"int","value":225},{"name":"y1","type":"int","value":185},{"name":"y2","type":"int","value":185},{"name":"next","type":"int","value":7},{"name":"prev","type":"int","value":9}],"polyline":[{"x":0,"y":0},{"x":90,"y":0}]},{"id":284,"x":45,"y":185,"visible":true,"properties":[{"name":"layer","type":"int","value":6},{"name":"group","type":"int","value":0},{"name":"id","type":"int","value":9},{"name":"fh_layer","type":"int","value":6},{"name":"fh_group","type":"int","value":0},{"name":"fh_id","type":"int","value":9},{"name":"x1","type":"int","value":45},{"name":"x2","type":"int","value":135},{"name":"y1","type":"int","value":185},{"name":"y2","type":"int","value":185},{"name":"next","type":"int","value":8},{"name":"prev","type":"int","value":10}],"polyline":[{"x":0,"y":0},{"x":90,"y":0}]},{"id":285,"x":-45,"y":185,"visible":true,"properties":[{"name":"layer","type":"int","value":6},{"name":"group","type":"int","value":0},{"name":"id","type":"int","value":10},{"name":"fh_layer","type":"int","value":6},{"name":"fh_group","type":"int","value":0},{"name":"fh_id","type":"int","value":10},{"name":"x1","type":"int","value":-45},{"name":"x2","type":"int","value":45},{"name":"y1","type":"int","value":185},{"name":"y2","type":"int","value":185},{"name":"next","type":"int","value":9},{"name":"prev","type":"int","value":13}],"polyline":[{"x":0,"y":0},{"x":90,"y":0}]},{"id":286,"x":-174,"y":210,"visible":true,"properties":[{"name":"layer","type":"int","value":6},{"name":"group","type":"int","value":0},{"name":"id","type":"int","value":11},{"name":"fh_layer","type":"int","value":6},{"name":"fh_group","type":"int","value":0},{"name":"fh_id","type":"int","value":11},{"name":"x1","type":"int","value":-174},{"name":"x2","type":"int","value":-174},{"name":"y1","type":"int","value":210},{"name":"y2","type":"int","value":185},{"name":"next","type":"int","value":12},{"name":"prev","type":"int","value":14}],"polyline":[{"x":0,"y":0},{"x":0,"y":-25}]},{"id":287,"x":-174,"y":185,"visible":true,"properties":[{"name":"layer","type":"int","value":6},{"name":"group","type":"int","value":0},{"name":"id","type":"int","value":12},{"name":"fh_layer","type":"int","value":6},{"name":"fh_group","type":"int","value":0},{"name":"fh_id","type":"int","value":12},{"name":"x1","type":"int","value":-174},{"name":"x2","type":"int","value":-96},{"name":"y1","type":"int","value":185},{"name":"y2","type":"int","value":185},{"name":"next","type":"int","value":13},{"name":"prev","type":"int","value":11}],"polyline":[{"x":0,"y":0},{"x":78,"y":0}]},{"id":288,"x":-96,"y":185,"visible":true,"properties":[{"name":"layer","type":"int","value":6},{"name":"group","type":"int","value":0},{"name":"id","type":"int","value":13},{"name":"fh_layer","type":"int","value":6},{"name":"fh_group","type":"int","value":0},{"name":"fh_id","type":"int","value":13},{"name":"x1","type":"int","value":-96},{"name":"x2","type":"int","value":-45},{"name":"y1","type":"int","value":185},{"name":"y2","type":"int","value":185},{"name":"next","type":"int","value":10},{"name":"prev","type":"int","value":12}],"polyline":[{"x":0,"y":0},{"x":51,"y":0}]},{"id":289,"x":-174,"y":270,"visible":true,"properties":[{"name":"layer","type":"int","value":6},{"name":"group","type":"int","value":0},{"name":"id","type":"int","value":14},{"name":"fh_layer","type":"int","value":6},{"name":"fh_group","type":"int","value":0},{"name":"fh_id","type":"int","value":14},{"name":"x1","type":"int","value":-174},{"name":"x2","type":"int","value":-174},{"name":"y1","type":"int","value":270},{"name":"y2","type":"int","value":210},{"name":"next","type":"int","value":11},{"name":"prev","type":"int","value":15}],"polyline":[{"x":0,"y":0},{"x":0,"y":-60}]},{"id":290,"x":-174,"y":330,"visible":true,"properties":[{"name":"layer","type":"int","value":6},{"name":"group","type":"int","value":0},{"name":"id","type":"int","value":15},{"name":"fh_layer","type":"int","value":6},{"name":"fh_group","type":"int","value":0},{"name":"fh_id","type":"int","value":15},{"name":"x1","type":"int","value":-174},{"name":"x2","type":"int","value":-174},{"name":"y1","type":"int","value":330},{"name":"y2","type":"int","value":270},{"name":"next","type":"int","value":14},{"name":"prev","type":"int","value":16}],"polyline":[{"x":0,"y":0},{"x":0,"y":-60}]},{"id":291,"x":-174,"y":390,"visible":true,"properties":[{"name":"layer","type":"int","value":6},{"name":"group","type":"int","value":0},{"name":"id","type":"int","value":16},{"name":"fh_layer","type":"int","value":6},{"name":"fh_group","type":"int","value":0},{"name":"fh_id","type":"int","value":16},{"name":"x1","type":"int","value":-174},{"name":"x2","type":"int","value":-174},{"name":"y1","type":"int","value":390},{"name":"y2","type":"int","value":330},{"name":"next","type":"int","value":15},{"name":"prev","type":"int","value":0}],"polyline":[{"x":0,"y":0},{"x":0,"y":-60}]},{"id":292,"x":675,"y":185,"visible":true,"properties":[{"name":"layer","type":"int","value":6},{"name":"group","type":"int","value":0},{"name":"id","type":"int","value":17},{"name":"fh_layer","type":"int","value":6},{"name":"fh_group","type":"int","value":0},{"name":"fh_id","type":"int","value":17},{"name":"x1","type":"int","value":675},{"name":"x2","type":"int","value":765},{"name":"y1","type":"int","value":185},{"name":"y2","type":"int","value":185},{"name":"next","type":"int","value":5},{"name":"prev","type":"int","value":19}],"polyline":[{"x":0,"y":0},{"x":90,"y":0}]},{"id":293,"x":495,"y":185,"visible":true,"properties":[{"name":"layer","type":"int","value":6},{"name":"group","type":"int","value":0},{"name":"id","type":"int","value":18},{"name":"fh_layer","type":"int","value":6},{"name":"fh_group","type":"int","value":0},{"name":"fh_id","type":"int","value":18},{"name":"x1","type":"int","value":495},{"name":"x2","type":"int","value":585},{"name":"y1","type":"int","value":185},{"name":"y2","type":"int","value":185},{"name":"next","type":"int","value":19},{"name":"prev","type":"int","value":6}],"polyline":[{"x":0,"y":0},{"x":90,"y":0}]},{"id":294,"x":585,"y":185,"visible":true,"properties":[{"name":"layer","type":"int","value":6},{"name":"group","type":"int","value":0},{"name":"id","type":"int","value":19},{"name":"fh_layer","type":"int","value":6},{"name":"fh_group","type":"int","value":0},{"name":"fh_id","type":"int","value":19},{"name":"x1","type":"int","value":585},{"name":"x2","type":"int","value":675},{"name":"y1","type":"int","value":185},{"name":"y2","type":"int","value":185},{"name":"next","type":"int","value":17},{"name":"prev","type":"int","value":18}],"polyline":[{"x":0,"y":0},{"x":90,"y":0}]},{"id":295,"x":1125,"y":185,"visible":true,"properties":[{"name":"layer","type":"int","value":6},{"name":"group","type":"int","value":0},{"name":"id","type":"int","value":20},{"name":"fh_layer","type":"int","value":6},{"name":"fh_group","type":"int","value":0},{"name":"fh_id","type":"int","value":20},{"name":"x1","type":"int","value":1125},{"name":"x2","type":"int","value":1215},{"name":"y1","type":"int","value":185},{"name":"y2","type":"int","value":185},{"name":"next","type":"int","value":22},{"name":"prev","type":"int","value":1}],"polyline":[{"x":0,"y":0},{"x":90,"y":0}]},{"id":296,"x":1305,"y":185,"visible":true,"properties":[{"name":"layer","type":"int","value":6},{"name":"group","type":"int","value":0},{"name":"id","type":"int","value":21},{"name":"fh_layer","type":"int","value":6},{"name":"fh_group","type":"int","value":0},{"name":"fh_id","type":"int","value":21},{"name":"x1","type":"int","value":1305},{"name":"x2","type":"int","value":1395},{"name":"y1","type":"int","value":185},{"name":"y2","type":"int","value":185},{"name":"next","type":"int","value":23},{"name":"prev","type":"int","value":22}],"polyline":[{"x":0,"y":0},{"x":90,"y":0}]},{"id":297,"x":1215,"y":185,"visible":true,"properties":[{"name":"layer","type":"int","value":6},{"name":"group","type":"int","value":0},{"name":"id","type":"int","value":22},{"name":"fh_layer","type":"int","value":6},{"name":"fh_group","type":"int","value":0},{"name":"fh_id","type":"int","value":22},{"name":"x1","type":"int","value":1215},{"name":"x2","type":"int","value":1305},{"name":"y1","type":"int","value":185},{"name":"y2","type":"int","value":185},{"name":"next","type":"int","value":21},{"name":"prev","type":"int","value":20}],"polyline":[{"x":0,"y":0},{"x":90,"y":0}]},{"id":298,"x":1395,"y":185,"visible":true,"properties":[{"name":"layer","type":"int","value":6},{"name":"group","type":"int","value":0},{"name":"id","type":"int","value":23},{"name":"fh_layer","type":"int","value":6},{"name":"fh_group","type":"int","value":0},{"name":"fh_id","type":"int","value":23},{"name":"x1","type":"int","value":1395},{"name":"x2","type":"int","value":1485},{"name":"y1","type":"int","value":185},{"name":"y2","type":"int","value":185},{"name":"next","type":"int","value":25},{"name":"prev","type":"int","value":21}],"polyline":[{"x":0,"y":0},{"x":90,"y":0}]},{"id":299,"x":1665,"y":185,"visible":true,"properties":[{"name":"layer","type":"int","value":6},{"name":"group","type":"int","value":0},{"name":"id","type":"int","value":24},{"name":"fh_layer","type":"int","value":6},{"name":"fh_group","type":"int","value":0},{"name":"fh_id","type":"int","value":24},{"name":"x1","type":"int","value":1665},{"name":"x2","type":"int","value":1716},{"name":"y1","type":"int","value":185},{"name":"y2","type":"int","value":185},{"name":"next","type":"int","value":27},{"name":"prev","type":"int","value":26}],"polyline":[{"x":0,"y":0},{"x":51,"y":0}]},{"id":300,"x":1485,"y":185,"visible":true,"properties":[{"name":"layer","type":"int","value":6},{"name":"group","type":"int","value":0},{"name":"id","type":"int","value":25},{"name":"fh_layer","type":"int","value":6},{"name":"fh_group","type":"int","value":0},{"name":"fh_id","type":"int","value":25},{"name":"x1","type":"int","value":1485},{"name":"x2","type":"int","value":1575},{"name":"y1","type":"int","value":185},{"name":"y2","type":"int","value":185},{"name":"next","type":"int","value":26},{"name":"prev","type":"int","value":23}],"polyline":[{"x":0,"y":0},{"x":90,"y":0}]},{"id":301,"x":1575,"y":185,"visible":true,"properties":[{"name":"layer","type":"int","value":6},{"name":"group","type":"int","value":0},{"name":"id","type":"int","value":26},{"name":"fh_layer","type":"int","value":6},{"name":"fh_group","type":"int","value":0},{"name":"fh_id","type":"int","value":26},{"name":"x1","type":"int","value":1575},{"name":"x2","type":"int","value":1665},{"name":"y1","type":"int","value":185},{"name":"y2","type":"int","value":185},{"name":"next","type":"int","value":24},{"name":"prev","type":"int","value":25}],"polyline":[{"x":0,"y":0},{"x":90,"y":0}]},{"id":302,"x":1716,"y":185,"visible":true,"properties":[{"name":"layer","type":"int","value":6},{"name":"group","type":"int","value":0},{"name":"id","type":"int","value":27},{"name":"fh_layer","type":"int","value":6},{"name":"fh_group","type":"int","value":0},{"name":"fh_id","type":"int","value":27},{"name":"x1","type":"int","value":1716},{"name":"x2","type":"int","value":1755},{"name":"y1","type":"int","value":185},{"name":"y2","type":"int","value":185},{"name":"next","type":"int","value":28},{"name":"prev","type":"int","value":24}],"polyline":[{"x":0,"y":0},{"x":39,"y":0}]},{"id":303,"x":1755,"y":185,"visible":true,"properties":[{"name":"layer","type":"int","value":6},{"name":"group","type":"int","value":0},{"name":"id","type":"int","value":28},{"name":"fh_layer","type":"int","value":6},{"name":"fh_group","type":"int","value":0},{"name":"fh_id","type":"int","value":28},{"name":"x1","type":"int","value":1755},{"name":"x2","type":"int","value":1794},{"name":"y1","type":"int","value":185},{"name":"y2","type":"int","value":185},{"name":"next","type":"int","value":29},{"name":"prev","type":"int","value":27}],"polyline":[{"x":0,"y":0},{"x":39,"y":0}]},{"id":304,"x":1794,"y":185,"visible":true,"properties":[{"name":"layer","type":"int","value":6},{"name":"group","type":"int","value":0},{"name":"id","type":"int","value":29},{"name":"fh_layer","type":"int","value":6},{"name":"fh_group","type":"int","value":0},{"name":"fh_id","type":"int","value":29},{"name":"x1","type":"int","value":1794},{"name":"x2","type":"int","value":1794},{"name":"y1","type":"int","value":185},{"name":"y2","type":"int","value":210},{"name":"next","type":"int","value":30},{"name":"prev","type":"int","value":28}],"polyline":[{"x":0,"y":0},{"x":0,"y":25}]},{"id":305,"x":1794,"y":210,"visible":true,"properties":[{"name":"layer","type":"int","value":6},{"name":"group","type":"int","value":0},{"name":"id","type":"int","value":30},{"name":"fh_layer","type":"int","value":6},{"name":"fh_group","type":"int","value":0},{"name":"fh_id","type":"int","value":30},{"name":"x1","type":"int","value":1794},{"name":"x2","type":"int","value":1794},{"name":"y1","type":"int","value":210},{"name":"y2","type":"int","value":270},{"name":"next","type":"int","value":31},{"name":"prev","type":"int","value":29}],"polyline":[{"x":0,"y":0},{"x":0,"y":60}]},{"id":306,"x":1794,"y":270,"visible":true,"properties":[{"name":"layer","type":"int","value":6},{"name":"group","type":"int","value":0},{"name":"id","type":"int","value":31},{"name":"fh_layer","type":"int","value":6},{"name":"fh_group","type":"int","value":0},{"name":"fh_id","type":"int","value":31},{"name":"x1","type":"int","value":1794},{"name":"x2","type":"int","value":1794},{"name":"y1","type":"int","value":270},{"name":"y2","type":"int","value":330},{"name":"next","type":"int","value":32},{"name":"prev","type":"int","value":30}],"polyline":[{"x":0,"y":0},{"x":0,"y":60}]},{"id":307,"x":1794,"y":330,"visible":true,"properties":[{"name":"layer","type":"int","value":6},{"name":"group","type":"int","value":0},{"name":"id","type":"int","value":32},{"name":"fh_layer","type":"int","value":6},{"name":"fh_group","type":"int","value":0},{"name":"fh_id","type":"int","value":32},{"name":"x1","type":"int","value":1794},{"name":"x2","type":"int","value":1794},{"name":"y1","type":"int","value":330},{"name":"y2","type":"int","value":390},{"name":"next","type":"int","value":0},{"name":"prev","type":"int","value":31}],"polyline":[{"x":0,"y":0},{"x":0,"y":60}]},{"id":308,"x":726,"y":150,"visible":true,"properties":[{"name":"layer","type":"int","value":6},{"name":"group","type":"int","value":7},{"name":"id","type":"int","value":33},{"name":"fh_layer","type":"int","value":6},{"name":"fh_group","type":"int","value":7},{"name":"fh_id","type":"int","value":33},{"name":"x1","type":"int","value":726},{"name":"x2","type":"int","value":726},{"name":"y1","type":"int","value":150},{"name":"y2","type":"int","value":125},{"name":"next","type":"int","value":34},{"name":"prev","type":"int","value":0}],"polyline":[{"x":0,"y":0},{"x":0,"y":-25}]},{"id":309,"x":726,"y":125,"visible":true,"properties":[{"name":"layer","type":"int","value":6},{"name":"group","type":"int","value":7},{"name":"id","type":"int","value":34},{"name":"fh_layer","type":"int","value":6},{"name":"fh_group","type":"int","value":7},{"name":"fh_id","type":"int","value":34},{"name":"x1","type":"int","value":726},{"name":"x2","type":"int","value":804},{"name":"y1","type":"int","value":125},{"name":"y2","type":"int","value":125},{"name":"next","type":"int","value":35},{"name":"prev","type":"int","value":33}],"polyline":[{"x":0,"y":0},{"x":78,"y":0}]},{"id":310,"x":804,"y":125,"visible":true,"properties":[{"name":"layer","type":"int","value":6},{"name":"group","type":"int","value":7},{"name":"id","type":"int","value":35},{"name":"fh_layer","type":"int","value":6},{"name":"fh_group","type":"int","value":7},{"name":"fh_id","type":"int","value":35},{"name":"x1","type":"int","value":804},{"name":"x2","type":"int","value":804},{"name":"y1","type":"int","value":125},{"name":"y2","type":"int","value":150},{"name":"next","type":"int","value":0},{"name":"prev","type":"int","value":34}],"polyline":[{"x":0,"y":0},{"x":0,"y":25}]},{"id":311,"x":1536,"y":150,"visible":true,"properties":[{"name":"layer","type":"int","value":6},{"name":"group","type":"int","value":8},{"name":"id","type":"int","value":36},{"name":"fh_layer","type":"int","value":6},{"name":"fh_group","type":"int","value":8},{"name":"fh_id","type":"int","value":36},{"name":"x1","type":"int","value":1536},{"name":"x2","type":"int","value":1536},{"name":"y1","type":"int","value":150},{"name":"y2","type":"int","value":125},{"name":"next","type":"int","value":37},{"name":"prev","type":"int","value":0}],"polyline":[{"x":0,"y":0},{"x":0,"y":-25}]},{"id":312,"x":1536,"y":125,"visible":true,"properties":[{"name":"layer","type":"int","value":6},{"name":"group","type":"int","value":8},{"name":"id","type":"int","value":37},{"name":"fh_layer","type":"int","value":6},{"name":"fh_group","type":"int","value":8},{"name":"fh_id","type":"int","value":37},{"name":"x1","type":"int","value":1536},{"name":"x2","type":"int","value":1614},{"name":"y1","type":"int","value":125},{"name":"y2","type":"int","value":125},{"name":"next","type":"int","value":38},{"name":"prev","type":"int","value":36}],"polyline":[{"x":0,"y":0},{"x":78,"y":0}]},{"id":313,"x":1614,"y":125,"visible":true,"properties":[{"name":"layer","type":"int","value":6},{"name":"group","type":"int","value":8},{"name":"id","type":"int","value":38},{"name":"fh_layer","type":"int","value":6},{"name":"fh_group","type":"int","value":8},{"name":"fh_id","type":"int","value":38},{"name":"x1","type":"int","value":1614},{"name":"x2","type":"int","value":1614},{"name":"y1","type":"int","value":125},{"name":"y2","type":"int","value":150},{"name":"next","type":"int","value":0},{"name":"prev","type":"int","value":37}],"polyline":[{"x":0,"y":0},{"x":0,"y":25}]}],"properties":[]},{"id":17,"name":"ladderRope","type":"objectgroup","visible":true,"opacity":1,"draworder":"index","offsetx":0,"offsety":0,"parallaxx":1,"parallaxy":1,"objects":[{"id":314,"x":290,"y":-223,"visible":true,"properties":[{"name":"ladder_id","type":"int","value":1},{"name":"l","type":"int","value":0},{"name":"x","type":"int","value":290},{"name":"uf","type":"int","value":1},{"name":"y1","type":"int","value":-223},{"name":"y2","type":"int","value":-133},{"name":"page","type":"int","value":3}],"polyline":[{"x":0,"y":0},{"x":0,"y":90}]},{"id":315,"x":226,"y":-90,"visible":true,"properties":[{"name":"ladder_id","type":"int","value":2},{"name":"l","type":"int","value":0},{"name":"x","type":"int","value":226},{"name":"uf","type":"int","value":1},{"name":"y1","type":"int","value":-90},{"name":"y2","type":"int","value":30},{"name":"page","type":"int","value":4}],"polyline":[{"x":0,"y":0},{"x":0,"y":120}]},{"id":316,"x":1194,"y":-112,"visible":true,"properties":[{"name":"ladder_id","type":"int","value":3},{"name":"l","type":"int","value":0},{"name":"x","type":"int","value":1194},{"name":"uf","type":"int","value":1},{"name":"y1","type":"int","value":-112},{"name":"y2","type":"int","value":-21},{"name":"page","type":"int","value":5}],"polyline":[{"x":0,"y":0},{"x":0,"y":91}]}],"properties":[]},{"id":18,"name":"miniMap","type":"objectgroup","visible":true,"opacity":1,"draworder":"index","offsetx":0,"offsety":0,"parallaxx":1,"parallaxy":1,"objects":[{"id":317,"x":215,"y":522,"visible":true,"properties":[{"name":"mag","type":"int","value":4},{"name":"centerX","type":"int","value":215},{"name":"centerY","type":"int","value":522},{"name":"canvas_path","type":"string","value":"../images/30516.png"},{"name":"canvas_width","type":"int","value":127},{"name":"canvas_height","type":"int","value":61},{"name":"canvas_origin_x","type":"int","value":0},{"name":"canvas_origin_y","type":"int","value":0}],"point":true}],"properties":[]}],"tilesets":[{"firstgid":1,"source":"../tilesets/bg_grassySoil.tsj"},{"firstgid":8,"source":"../tilesets/tile_grassySoil.tsj"},{"firstgid":29,"source":"../tilesets/obj_connect_rope_3.tsj"},{"firstgid":33,"source":"../tilesets/obj_acc1_darkWood_nature.tsj"},{"firstgid":64,"source":"../tilesets/obj_acc1_grassySoil_golem.tsj"},{"firstgid":80,"source":"../tilesets/obj_acc1_grassySoil_nature.tsj"},{"firstgid":107,"source":"../tilesets/portal_MapHelper.img_portal_game_pv.tsj"}],"properties":[{"name":"bgm","type":"string","value":"Bgm00/RestNPeace"},{"name":"swim","type":"int","value":0},{"name":"town","type":"int","value":0},{"name":"cloud","type":"int","value":0},{"name":"mapDesc","type":"string","value":""},{"name":"mapMark","type":"string","value":"Henesys"},{"name":"mobRate","type":"float","value":1},{"name":"version","type":"int","value":10},{"name":"returnMap","type":"int","value":100000000},{"name":"fieldLimit","type":"int","value":0},{"name":"hideMinimap","type":"int","value":0},{"name":"forcedReturn","type":"int","value":999999999}]}