{"type":"map","orientation":"orthogonal","renderorder":"right-down","infinite":false,"tilewidth":1,"tileheight":1,"width":800,"height":600,"parallaxoriginx":-400,"parallaxoriginy":80,"nextlayerid":6,"nextobjectid":118,"layers":[{"id":1,"name":"layer_1_obj","type":"objectgroup","visible":true,"opacity":1,"draworder":"index","offsetx":0,"offsety":0,"parallaxx":1,"parallaxy":1,"objects":[{"id":69,"x":-355,"y":141,"visible":true,"properties":[{"name":"layer","type":"int","value":1},{"name":"resource_index","type":"int","value":0},{"name":"oS","type":"string","value":"Tdungeon"},{"name":"l0","type":"string","value":"mushCatle"},{"name":"l1","type":"string","value":"inside"},{"name":"l2","type":"string","value":"0"},{"name":"z","type":"int","value":9},{"name":"zM","type":"int","value":0},{"name":"f","type":"int","value":0}],"gid":28,"width":800,"height":442}],"properties":[]},{"id":2,"name":"layer_1_tile","type":"objectgroup","visible":true,"opacity":1,"draworder":"index","offsetx":0,"offsety":0,"parallaxx":1,"parallaxy":1,"objects":[{"id":1,"x":-90,"y":240,"visible":true,"properties":[{"name":"layer","type":"int","value":1},{"name":"resource_index","type":"int","value":0},{"name":"u","type":"string","value":"bsc"},{"name":"no","type":"int","value":3},{"name":"zM","type":"int","value":0}],"gid":6,"width":90,"height":60},{"id":2,"x":-90,"y":180,"visible":true,"properties":[{"name":"layer","type":"int","value":1},{"name":"resource_index","type":"int","value":1},{"name":"u","type":"string","value":"enH0"},{"name":"no","type":"int","value":2},{"name":"zM","type":"int","value":0}],"gid":1,"width":90,"height":39},{"id":3,"x":0,"y":240,"visible":true,"properties":[{"name":"layer","type":"int","value":1},{"name":"resource_index","type":"int","value":2},{"name":"u","type":"string","value":"bsc"},{"name":"no","type":"int","value":4},{"name":"zM","type":"int","value":0}],"gid":7,"width":90,"height":60},{"id":4,"x":0,"y":180,"visible":true,"properties":[{"name":"layer","type":"int","value":1},{"name":"resource_index","type":"int","value":3},{"name":"u","type":"string","value":"enH0"},{"name":"no","type":"int","value":1},{"name":"zM","type":"int","value":0}],"gid":8,"width":90,"height":39},{"id":5,"x":-270,"y":240,"visible":true,"properties":[{"name":"layer","type":"int","value":1},{"name":"resource_index","type":"int","value":4},{"name":"u","type":"string","value":"bsc"},{"name":"no","type":"int","value":1},{"name":"zM","type":"int","value":0}],"gid":3,"width":91,"height":60},{"id":6,"x":-270,"y":180,"visible":true,"properties":[{"name":"layer","type":"int","value":1},{"name":"resource_index","type":"int","value":5},{"name":"u","type":"string","value":"enH0"},{"name":"no","type":"int","value":0},{"name":"zM","type":"int","value":0}],"gid":4,"width":90,"height":39},{"id":7,"x":180,"y":323,"visible":true,"properties":[{"name":"layer","type":"int","value":1},{"name":"resource_index","type":"int","value":6},{"name":"u","type":"string","value":"enH1"},{"name":"no","type":"int","value":1},{"name":"zM","type":"int","value":0}],"gid":12,"width":90,"height":23},{"id":8,"x":-294,"y":0,"visible":true,"properties":[{"name":"layer","type":"int","value":1},{"name":"resource_index","type":"int","value":7},{"name":"u","type":"string","value":"enV0"},{"name":"no","type":"int","value":0},{"name":"zM","type":"int","value":0}],"gid":24,"width":24,"height":60},{"id":9,"x":-292,"y":180,"visible":true,"properties":[{"name":"layer","type":"int","value":1},{"name":"resource_index","type":"int","value":8},{"name":"u","type":"string","value":"enV0"},{"name":"no","type":"int","value":1},{"name":"zM","type":"int","value":0}],"gid":19,"width":22,"height":60},{"id":10,"x":-270,"y":60,"visible":true,"properties":[{"name":"layer","type":"int","value":1},{"name":"resource_index","type":"int","value":9},{"name":"u","type":"string","value":"enV1"},{"name":"no","type":"int","value":0},{"name":"zM","type":"int","value":0}],"gid":18,"width":25,"height":60},{"id":11,"x":-180,"y":180,"visible":true,"properties":[{"name":"layer","type":"int","value":1},{"name":"resource_index","type":"int","value":10},{"name":"u","type":"string","value":"enH0"},{"name":"no","type":"int","value":2},{"name":"zM","type":"int","value":0}],"gid":1,"width":90,"height":39},{"id":12,"x":-180,"y":240,"visible":true,"properties":[{"name":"layer","type":"int","value":1},{"name":"resource_index","type":"int","value":11},{"name":"u","type":"string","value":"bsc"},{"name":"no","type":"int","value":0},{"name":"zM","type":"int","value":0}],"gid":2,"width":90,"height":60},{"id":13,"x":270,"y":240,"visible":true,"properties":[{"name":"layer","type":"int","value":1},{"name":"resource_index","type":"int","value":12},{"name":"u","type":"string","value":"bsc"},{"name":"no","type":"int","value":2},{"name":"zM","type":"int","value":0}],"gid":5,"width":90,"height":60},{"id":14,"x":270,"y":180,"visible":true,"properties":[{"name":"layer","type":"int","value":1},{"name":"resource_index","type":"int","value":13},{"name":"u","type":"string","value":"enH0"},{"name":"no","type":"int","value":4},{"name":"zM","type":"int","value":0}],"gid":9,"width":90,"height":39},{"id":15,"x":90,"y":240,"visible":true,"properties":[{"name":"layer","type":"int","value":1},{"name":"resource_index","type":"int","value":14},{"name":"u","type":"string","value":"bsc"},{"name":"no","type":"int","value":4},{"name":"zM","type":"int","value":0}],"gid":7,"width":90,"height":60},{"id":16,"x":90,"y":180,"visible":true,"properties":[{"name":"layer","type":"int","value":1},{"name":"resource_index","type":"int","value":15},{"name":"u","type":"string","value":"enH0"},{"name":"no","type":"int","value":0},{"name":"zM","type":"int","value":0}],"gid":4,"width":90,"height":39},{"id":17,"x":336,"y":120,"visible":true,"properties":[{"name":"layer","type":"int","value":1},{"name":"resource_index","type":"int","value":16},{"name":"u","type":"string","value":"enV0"},{"name":"no","type":"int","value":0},{"name":"zM","type":"int","value":0}],"gid":24,"width":24,"height":60},{"id":18,"x":336,"y":60,"visible":true,"properties":[{"name":"layer","type":"int","value":1},{"name":"resource_index","type":"int","value":17},{"name":"u","type":"string","value":"enV0"},{"name":"no","type":"int","value":0},{"name":"zM","type":"int","value":0}],"gid":24,"width":24,"height":60},{"id":19,"x":180,"y":180,"visible":true,"properties":[{"name":"layer","type":"int","value":1},{"name":"resource_index","type":"int","value":18},{"name":"u","type":"string","value":"enH0"},{"name":"no","type":"int","value":3},{"name":"zM","type":"int","value":0}],"gid":17,"width":90,"height":39},{"id":20,"x":180,"y":240,"visible":true,"properties":[{"name":"layer","type":"int","value":1},{"name":"resource_index","type":"int","value":19},{"name":"u","type":"string","value":"bsc"},{"name":"no","type":"int","value":4},{"name":"zM","type":"int","value":0}],"gid":7,"width":90,"height":60},{"id":21,"x":270,"y":318,"visible":true,"properties":[{"name":"layer","type":"int","value":1},{"name":"resource_index","type":"int","value":20},{"name":"u","type":"string","value":"enH1"},{"name":"no","type":"int","value":2},{"name":"zM","type":"int","value":0}],"gid":13,"width":90,"height":18},{"id":22,"x":180,"y":300,"visible":true,"properties":[{"name":"layer","type":"int","value":1},{"name":"resource_index","type":"int","value":21},{"name":"u","type":"string","value":"bsc"},{"name":"no","type":"int","value":2},{"name":"zM","type":"int","value":0}],"gid":5,"width":90,"height":60},{"id":23,"x":0,"y":320,"visible":true,"properties":[{"name":"layer","type":"int","value":1},{"name":"resource_index","type":"int","value":22},{"name":"u","type":"string","value":"enH1"},{"name":"no","type":"int","value":0},{"name":"zM","type":"int","value":0}],"gid":11,"width":90,"height":20},{"id":24,"x":-180,"y":300,"visible":true,"properties":[{"name":"layer","type":"int","value":1},{"name":"resource_index","type":"int","value":23},{"name":"u","type":"string","value":"bsc"},{"name":"no","type":"int","value":3},{"name":"zM","type":"int","value":0}],"gid":6,"width":90,"height":60},{"id":25,"x":90,"y":321,"visible":true,"properties":[{"name":"layer","type":"int","value":1},{"name":"resource_index","type":"int","value":24},{"name":"u","type":"string","value":"enH1"},{"name":"no","type":"int","value":3},{"name":"zM","type":"int","value":0}],"gid":10,"width":90,"height":21},{"id":26,"x":-270,"y":300,"visible":true,"properties":[{"name":"layer","type":"int","value":1},{"name":"resource_index","type":"int","value":25},{"name":"u","type":"string","value":"bsc"},{"name":"no","type":"int","value":1},{"name":"zM","type":"int","value":0}],"gid":3,"width":91,"height":60},{"id":27,"x":360,"y":120,"visible":true,"properties":[{"name":"layer","type":"int","value":1},{"name":"resource_index","type":"int","value":26},{"name":"u","type":"string","value":"enV1"},{"name":"no","type":"int","value":1},{"name":"zM","type":"int","value":0}],"gid":16,"width":21,"height":60},{"id":28,"x":-180,"y":321,"visible":true,"properties":[{"name":"layer","type":"int","value":1},{"name":"resource_index","type":"int","value":27},{"name":"u","type":"string","value":"enH1"},{"name":"no","type":"int","value":3},{"name":"zM","type":"int","value":0}],"gid":10,"width":90,"height":21},{"id":29,"x":-270,"y":320,"visible":true,"properties":[{"name":"layer","type":"int","value":1},{"name":"resource_index","type":"int","value":28},{"name":"u","type":"string","value":"enH1"},{"name":"no","type":"int","value":0},{"name":"zM","type":"int","value":0}],"gid":11,"width":90,"height":20},{"id":30,"x":0,"y":300,"visible":true,"properties":[{"name":"layer","type":"int","value":1},{"name":"resource_index","type":"int","value":29},{"name":"u","type":"string","value":"bsc"},{"name":"no","type":"int","value":4},{"name":"zM","type":"int","value":0}],"gid":7,"width":90,"height":60},{"id":31,"x":-90,"y":318,"visible":true,"properties":[{"name":"layer","type":"int","value":1},{"name":"resource_index","type":"int","value":30},{"name":"u","type":"string","value":"enH1"},{"name":"no","type":"int","value":2},{"name":"zM","type":"int","value":0}],"gid":13,"width":90,"height":18},{"id":32,"x":360,"y":60,"visible":true,"properties":[{"name":"layer","type":"int","value":1},{"name":"resource_index","type":"int","value":31},{"name":"u","type":"string","value":"enV1"},{"name":"no","type":"int","value":1},{"name":"zM","type":"int","value":0}],"gid":16,"width":21,"height":60},{"id":33,"x":270,"y":300,"visible":true,"properties":[{"name":"layer","type":"int","value":1},{"name":"resource_index","type":"int","value":32},{"name":"u","type":"string","value":"bsc"},{"name":"no","type":"int","value":1},{"name":"zM","type":"int","value":0}],"gid":3,"width":91,"height":60},{"id":34,"x":-90,"y":300,"visible":true,"properties":[{"name":"layer","type":"int","value":1},{"name":"resource_index","type":"int","value":33},{"name":"u","type":"string","value":"bsc"},{"name":"no","type":"int","value":3},{"name":"zM","type":"int","value":0}],"gid":6,"width":90,"height":60},{"id":35,"x":90,"y":300,"visible":true,"properties":[{"name":"layer","type":"int","value":1},{"name":"resource_index","type":"int","value":34},{"name":"u","type":"string","value":"bsc"},{"name":"no","type":"int","value":1},{"name":"zM","type":"int","value":0}],"gid":3,"width":91,"height":60},{"id":36,"x":-270,"y":120,"visible":true,"properties":[{"name":"layer","type":"int","value":1},{"name":"resource_index","type":"int","value":35},{"name":"u","type":"string","value":"enV1"},{"name":"no","type":"int","value":0},{"name":"zM","type":"int","value":0}],"gid":18,"width":25,"height":60},{"id":37,"x":-292,"y":120,"visible":true,"properties":[{"name":"layer","type":"int","value":1},{"name":"resource_index","type":"int","value":36},{"name":"u","type":"string","value":"enV0"},{"name":"no","type":"int","value":1},{"name":"zM","type":"int","value":0}],"gid":19,"width":22,"height":60},{"id":38,"x":-270,"y":180,"visible":true,"properties":[{"name":"layer","type":"int","value":1},{"name":"resource_index","type":"int","value":37},{"name":"u","type":"string","value":"enV1"},{"name":"no","type":"int","value":1},{"name":"zM","type":"int","value":0}],"gid":16,"width":21,"height":60},{"id":39,"x":-292,"y":60,"visible":true,"properties":[{"name":"layer","type":"int","value":1},{"name":"resource_index","type":"int","value":38},{"name":"u","type":"string","value":"enV0"},{"name":"no","type":"int","value":1},{"name":"zM","type":"int","value":0}],"gid":19,"width":22,"height":60},{"id":40,"x":-360,"y":300,"visible":true,"properties":[{"name":"layer","type":"int","value":1},{"name":"resource_index","type":"int","value":39},{"name":"u","type":"string","value":"bsc"},{"name":"no","type":"int","value":2},{"name":"zM","type":"int","value":0}],"gid":5,"width":90,"height":60},{"id":41,"x":-360,"y":180,"visible":true,"properties":[{"name":"layer","type":"int","value":1},{"name":"resource_index","type":"int","value":40},{"name":"u","type":"string","value":"enH0"},{"name":"no","type":"int","value":2},{"name":"zM","type":"int","value":0}],"gid":1,"width":90,"height":39},{"id":42,"x":-360,"y":323,"visible":true,"properties":[{"name":"layer","type":"int","value":1},{"name":"resource_index","type":"int","value":41},{"name":"u","type":"string","value":"enH1"},{"name":"no","type":"int","value":1},{"name":"zM","type":"int","value":0}],"gid":12,"width":90,"height":23},{"id":43,"x":-292,"y":-60,"visible":true,"properties":[{"name":"layer","type":"int","value":1},{"name":"resource_index","type":"int","value":42},{"name":"u","type":"string","value":"enV0"},{"name":"no","type":"int","value":1},{"name":"zM","type":"int","value":0}],"gid":19,"width":22,"height":60},{"id":44,"x":-270,"y":0,"visible":true,"properties":[{"name":"layer","type":"int","value":1},{"name":"resource_index","type":"int","value":43},{"name":"u","type":"string","value":"enV1"},{"name":"no","type":"int","value":1},{"name":"zM","type":"int","value":0}],"gid":16,"width":21,"height":60},{"id":45,"x":-294,"y":-120,"visible":true,"properties":[{"name":"layer","type":"int","value":1},{"name":"resource_index","type":"int","value":44},{"name":"u","type":"string","value":"enV0"},{"name":"no","type":"int","value":0},{"name":"zM","type":"int","value":0}],"gid":24,"width":24,"height":60},{"id":46,"x":-270,"y":-60,"visible":true,"properties":[{"name":"layer","type":"int","value":1},{"name":"resource_index","type":"int","value":45},{"name":"u","type":"string","value":"enV1"},{"name":"no","type":"int","value":0},{"name":"zM","type":"int","value":0}],"gid":18,"width":25,"height":60},{"id":47,"x":-292,"y":-180,"visible":true,"properties":[{"name":"layer","type":"int","value":1},{"name":"resource_index","type":"int","value":46},{"name":"u","type":"string","value":"enV0"},{"name":"no","type":"int","value":1},{"name":"zM","type":"int","value":0}],"gid":19,"width":22,"height":60},{"id":48,"x":-270,"y":-120,"visible":true,"properties":[{"name":"layer","type":"int","value":1},{"name":"resource_index","type":"int","value":47},{"name":"u","type":"string","value":"enV1"},{"name":"no","type":"int","value":0},{"name":"zM","type":"int","value":0}],"gid":18,"width":25,"height":60},{"id":49,"x":-292,"y":-240,"visible":true,"properties":[{"name":"layer","type":"int","value":1},{"name":"resource_index","type":"int","value":48},{"name":"u","type":"string","value":"enV0"},{"name":"no","type":"int","value":1},{"name":"zM","type":"int","value":0}],"gid":19,"width":22,"height":60},{"id":50,"x":-270,"y":-180,"visible":true,"properties":[{"name":"layer","type":"int","value":1},{"name":"resource_index","type":"int","value":49},{"name":"u","type":"string","value":"enV1"},{"name":"no","type":"int","value":0},{"name":"zM","type":"int","value":0}],"gid":18,"width":25,"height":60},{"id":51,"x":-270,"y":-240,"visible":true,"properties":[{"name":"layer","type":"int","value":1},{"name":"resource_index","type":"int","value":50},{"name":"u","type":"string","value":"enV1"},{"name":"no","type":"int","value":1},{"name":"zM","type":"int","value":0}],"gid":16,"width":21,"height":60},{"id":52,"x":360,"y":-120,"visible":true,"properties":[{"name":"layer","type":"int","value":1},{"name":"resource_index","type":"int","value":51},{"name":"u","type":"string","value":"enV1"},{"name":"no","type":"int","value":0},{"name":"zM","type":"int","value":0}],"gid":18,"width":25,"height":60},{"id":53,"x":336,"y":-120,"visible":true,"properties":[{"name":"layer","type":"int","value":1},{"name":"resource_index","type":"int","value":52},{"name":"u","type":"string","value":"enV0"},{"name":"no","type":"int","value":0},{"name":"zM","type":"int","value":0}],"gid":24,"width":24,"height":60},{"id":54,"x":338,"y":-180,"visible":true,"properties":[{"name":"layer","type":"int","value":1},{"name":"resource_index","type":"int","value":53},{"name":"u","type":"string","value":"enV0"},{"name":"no","type":"int","value":1},{"name":"zM","type":"int","value":0}],"gid":19,"width":22,"height":60},{"id":55,"x":360,"y":-240,"visible":true,"properties":[{"name":"layer","type":"int","value":1},{"name":"resource_index","type":"int","value":54},{"name":"u","type":"string","value":"enV1"},{"name":"no","type":"int","value":0},{"name":"zM","type":"int","value":0}],"gid":18,"width":25,"height":60},{"id":56,"x":338,"y":-240,"visible":true,"properties":[{"name":"layer","type":"int","value":1},{"name":"resource_index","type":"int","value":55},{"name":"u","type":"string","value":"enV0"},{"name":"no","type":"int","value":1},{"name":"zM","type":"int","value":0}],"gid":19,"width":22,"height":60},{"id":57,"x":360,"y":-180,"visible":true,"properties":[{"name":"layer","type":"int","value":1},{"name":"resource_index","type":"int","value":56},{"name":"u","type":"string","value":"enV1"},{"name":"no","type":"int","value":0},{"name":"zM","type":"int","value":0}],"gid":18,"width":25,"height":60},{"id":58,"x":360,"y":-60,"visible":true,"properties":[{"name":"layer","type":"int","value":1},{"name":"resource_index","type":"int","value":57},{"name":"u","type":"string","value":"enV1"},{"name":"no","type":"int","value":0},{"name":"zM","type":"int","value":0}],"gid":18,"width":25,"height":60},{"id":59,"x":336,"y":-60,"visible":true,"properties":[{"name":"layer","type":"int","value":1},{"name":"resource_index","type":"int","value":58},{"name":"u","type":"string","value":"enV0"},{"name":"no","type":"int","value":0},{"name":"zM","type":"int","value":0}],"gid":24,"width":24,"height":60},{"id":60,"x":360,"y":0,"visible":true,"properties":[{"name":"layer","type":"int","value":1},{"name":"resource_index","type":"int","value":59},{"name":"u","type":"string","value":"enV1"},{"name":"no","type":"int","value":0},{"name":"zM","type":"int","value":0}],"gid":18,"width":25,"height":60},{"id":61,"x":338,"y":0,"visible":true,"properties":[{"name":"layer","type":"int","value":1},{"name":"resource_index","type":"int","value":60},{"name":"u","type":"string","value":"enV0"},{"name":"no","type":"int","value":1},{"name":"zM","type":"int","value":0}],"gid":19,"width":22,"height":60},{"id":62,"x":360,"y":180,"visible":true,"properties":[{"name":"layer","type":"int","value":1},{"name":"resource_index","type":"int","value":61},{"name":"u","type":"string","value":"enV1"},{"name":"no","type":"int","value":0},{"name":"zM","type":"int","value":0}],"gid":18,"width":25,"height":60},{"id":63,"x":338,"y":180,"visible":true,"properties":[{"name":"layer","type":"int","value":1},{"name":"resource_index","type":"int","value":62},{"name":"u","type":"string","value":"enV0"},{"name":"no","type":"int","value":1},{"name":"zM","type":"int","value":0}],"gid":19,"width":22,"height":60},{"id":64,"x":360,"y":300,"visible":true,"properties":[{"name":"layer","type":"int","value":1},{"name":"resource_index","type":"int","value":63},{"name":"u","type":"string","value":"bsc"},{"name":"no","type":"int","value":2},{"name":"zM","type":"int","value":0}],"gid":5,"width":90,"height":60},{"id":65,"x":360,"y":180,"visible":true,"properties":[{"name":"layer","type":"int","value":1},{"name":"resource_index","type":"int","value":64},{"name":"u","type":"string","value":"enH0"},{"name":"no","type":"int","value":2},{"name":"zM","type":"int","value":0}],"gid":1,"width":90,"height":39},{"id":66,"x":360,"y":321,"visible":true,"properties":[{"name":"layer","type":"int","value":1},{"name":"resource_index","type":"int","value":65},{"name":"u","type":"string","value":"enH1"},{"name":"no","type":"int","value":3},{"name":"zM","type":"int","value":0}],"gid":10,"width":90,"height":21},{"id":67,"x":-360,"y":240,"visible":true,"properties":[{"name":"layer","type":"int","value":1},{"name":"resource_index","type":"int","value":66},{"name":"u","type":"string","value":"bsc"},{"name":"no","type":"int","value":0},{"name":"zM","type":"int","value":0}],"gid":2,"width":90,"height":60},{"id":68,"x":360,"y":240,"visible":true,"properties":[{"name":"layer","type":"int","value":1},{"name":"resource_index","type":"int","value":67},{"name":"u","type":"string","value":"bsc"},{"name":"no","type":"int","value":1},{"name":"zM","type":"int","value":0}],"gid":3,"width":91,"height":60}],"properties":[]},{"id":3,"name":"layer_2_obj","type":"objectgroup","visible":true,"opacity":1,"draworder":"index","offsetx":0,"offsety":0,"parallaxx":1,"parallaxy":1,"objects":[{"id":70,"x":-324,"y":299,"visible":true,"properties":[{"name":"layer","type":"int","value":2},{"name":"resource_index","type":"int","value":0},{"name":"oS","type":"string","value":"Tdungeon"},{"name":"l0","type":"string","value":"mushCatle"},{"name":"l1","type":"string","value":"inside"},{"name":"l2","type":"string","value":"1"},{"name":"z","type":"int","value":9},{"name":"zM","type":"int","value":0},{"name":"f","type":"int","value":0}],"gid":29,"width":121,"height":600},{"id":71,"x":296,"y":299,"visible":true,"properties":[{"name":"layer","type":"int","value":2},{"name":"resource_index","type":"int","value":1},{"name":"oS","type":"string","value":"Tdungeon"},{"name":"l0","type":"string","value":"mushCatle"},{"name":"l1","type":"string","value":"inside"},{"name":"l2","type":"string","value":"2"},{"name":"z","type":"int","value":9},{"name":"zM","type":"int","value":0},{"name":"f","type":"int","value":0}],"gid":30,"width":117,"height":600}],"properties":[]},{"id":4,"name":"portal","type":"objectgroup","visible":true,"opacity":1,"draworder":"index","offsetx":0,"offsety":0,"parallaxx":1,"parallaxy":1,"objects":[{"id":72,"x":58,"y":46,"visible":true,"properties":[{"name":"x","type":"int","value":58},{"name":"y","type":"int","value":46},{"name":"pn","type":"string","value":"sp"},{"name":"pt","type":"int","value":0},{"name":"tm","type":"int","value":999999999},{"name":"tn","type":"string","value":""},{"name":"horizontalImpact","type":"int","value":0}],"point":true},{"id":73,"x":-230,"y":148,"visible":true,"properties":[{"name":"x","type":"int","value":-186},{"name":"y","type":"int","value":139},{"name":"pn","type":"string","value":"left00"},{"name":"pt","type":"int","value":2},{"name":"tm","type":"int","value":106020800},{"name":"tn","type":"string","value":"right00"},{"name":"horizontalImpact","type":"int","value":0}],"gid":31,"width":89,"height":257},{"id":74,"x":237,"y":148,"visible":true,"properties":[{"name":"x","type":"int","value":281},{"name":"y","type":"int","value":139},{"name":"pn","type":"string","value":"right00"},{"name":"pt","type":"int","value":2},{"name":"tm","type":"int","value":106021000},{"name":"tn","type":"string","value":"left00"},{"name":"horizontalImpact","type":"int","value":0}],"gid":31,"width":89,"height":257}],"properties":[]},{"id":5,"name":"foothold","type":"objectgroup","visible":true,"opacity":1,"draworder":"index","offsetx":0,"offsety":0,"parallaxx":1,"parallaxy":1,"objects":[{"id":75,"x":-90,"y":142,"visible":true,"properties":[{"name":"layer","type":"int","value":1},{"name":"group","type":"int","value":0},{"name":"id","type":"int","value":1},{"name":"fh_layer","type":"int","value":1},{"name":"fh_group","type":"int","value":0},{"name":"fh_id","type":"int","value":1},{"name":"x1","type":"int","value":-90},{"name":"x2","type":"int","value":0},{"name":"y1","type":"int","value":142},{"name":"y2","type":"int","value":142},{"name":"next","type":"int","value":2},{"name":"prev","type":"int","value":6}],"polyline":[{"x":0,"y":0},{"x":90,"y":0}]},{"id":76,"x":0,"y":142,"visible":true,"properties":[{"name":"layer","type":"int","value":1},{"name":"group","type":"int","value":0},{"name":"id","type":"int","value":2},{"name":"fh_layer","type":"int","value":1},{"name":"fh_group","type":"int","value":0},{"name":"fh_id","type":"int","value":2},{"name":"x1","type":"int","value":0},{"name":"x2","type":"int","value":90},{"name":"y1","type":"int","value":142},{"name":"y2","type":"int","value":142},{"name":"next","type":"int","value":8},{"name":"prev","type":"int","value":1}],"polyline":[{"x":0,"y":0},{"x":90,"y":0}]},{"id":77,"x":-302,"y":0,"visible":true,"properties":[{"name":"layer","type":"int","value":1},{"name":"group","type":"int","value":0},{"name":"id","type":"int","value":3},{"name":"fh_layer","type":"int","value":1},{"name":"fh_group","type":"int","value":0},{"name":"fh_id","type":"int","value":3},{"name":"x1","type":"int","value":-302},{"name":"x2","type":"int","value":-302},{"name":"y1","type":"int","value":0},{"name":"y2","type":"int","value":-60},{"name":"next","type":"int","value":21},{"name":"prev","type":"int","value":18}],"polyline":[{"x":0,"y":0},{"x":0,"y":-60}]},{"id":78,"x":-302,"y":180,"visible":true,"properties":[{"name":"layer","type":"int","value":1},{"name":"group","type":"int","value":0},{"name":"id","type":"int","value":4},{"name":"fh_layer","type":"int","value":1},{"name":"fh_group","type":"int","value":0},{"name":"fh_id","type":"int","value":4},{"name":"x1","type":"int","value":-302},{"name":"x2","type":"int","value":-302},{"name":"y1","type":"int","value":180},{"name":"y2","type":"int","value":120},{"name":"next","type":"int","value":15},{"name":"prev","type":"int","value":19}],"polyline":[{"x":0,"y":0},{"x":0,"y":-60}]},{"id":79,"x":-238,"y":0,"visible":true,"properties":[{"name":"layer","type":"int","value":1},{"name":"group","type":"int","value":0},{"name":"id","type":"int","value":5},{"name":"fh_layer","type":"int","value":1},{"name":"fh_group","type":"int","value":0},{"name":"fh_id","type":"int","value":5},{"name":"x1","type":"int","value":-238},{"name":"x2","type":"int","value":-238},{"name":"y1","type":"int","value":0},{"name":"y2","type":"int","value":60},{"name":"next","type":"int","value":14},{"name":"prev","type":"int","value":22}],"polyline":[{"x":0,"y":0},{"x":0,"y":60}]},{"id":80,"x":-180,"y":142,"visible":true,"properties":[{"name":"layer","type":"int","value":1},{"name":"group","type":"int","value":0},{"name":"id","type":"int","value":6},{"name":"fh_layer","type":"int","value":1},{"name":"fh_group","type":"int","value":0},{"name":"fh_id","type":"int","value":6},{"name":"x1","type":"int","value":-180},{"name":"x2","type":"int","value":-90},{"name":"y1","type":"int","value":142},{"name":"y2","type":"int","value":142},{"name":"next","type":"int","value":1},{"name":"prev","type":"int","value":17}],"polyline":[{"x":0,"y":0},{"x":90,"y":0}]},{"id":81,"x":270,"y":142,"visible":true,"properties":[{"name":"layer","type":"int","value":1},{"name":"group","type":"int","value":0},{"name":"id","type":"int","value":7},{"name":"fh_layer","type":"int","value":1},{"name":"fh_group","type":"int","value":0},{"name":"fh_id","type":"int","value":7},{"name":"x1","type":"int","value":270},{"name":"x2","type":"int","value":328},{"name":"y1","type":"int","value":142},{"name":"y2","type":"int","value":142},{"name":"next","type":"int","value":41},{"name":"prev","type":"int","value":11}],"polyline":[{"x":0,"y":0},{"x":58,"y":0}]},{"id":82,"x":90,"y":142,"visible":true,"properties":[{"name":"layer","type":"int","value":1},{"name":"group","type":"int","value":0},{"name":"id","type":"int","value":8},{"name":"fh_layer","type":"int","value":1},{"name":"fh_group","type":"int","value":0},{"name":"fh_id","type":"int","value":8},{"name":"x1","type":"int","value":90},{"name":"x2","type":"int","value":180},{"name":"y1","type":"int","value":142},{"name":"y2","type":"int","value":142},{"name":"next","type":"int","value":11},{"name":"prev","type":"int","value":2}],"polyline":[{"x":0,"y":0},{"x":90,"y":0}]},{"id":83,"x":328,"y":120,"visible":true,"properties":[{"name":"layer","type":"int","value":1},{"name":"group","type":"int","value":0},{"name":"id","type":"int","value":9},{"name":"fh_layer","type":"int","value":1},{"name":"fh_group","type":"int","value":0},{"name":"fh_id","type":"int","value":9},{"name":"x1","type":"int","value":328},{"name":"x2","type":"int","value":328},{"name":"y1","type":"int","value":120},{"name":"y2","type":"int","value":60},{"name":"next","type":"int","value":10},{"name":"prev","type":"int","value":41}],"polyline":[{"x":0,"y":0},{"x":0,"y":-60}]},{"id":84,"x":328,"y":60,"visible":true,"properties":[{"name":"layer","type":"int","value":1},{"name":"group","type":"int","value":0},{"name":"id","type":"int","value":10},{"name":"fh_layer","type":"int","value":1},{"name":"fh_group","type":"int","value":0},{"name":"fh_id","type":"int","value":10},{"name":"x1","type":"int","value":328},{"name":"x2","type":"int","value":328},{"name":"y1","type":"int","value":60},{"name":"y2","type":"int","value":0},{"name":"next","type":"int","value":39},{"name":"prev","type":"int","value":9}],"polyline":[{"x":0,"y":0},{"x":0,"y":-60}]},{"id":85,"x":180,"y":142,"visible":true,"properties":[{"name":"layer","type":"int","value":1},{"name":"group","type":"int","value":0},{"name":"id","type":"int","value":11},{"name":"fh_layer","type":"int","value":1},{"name":"fh_group","type":"int","value":0},{"name":"fh_id","type":"int","value":11},{"name":"x1","type":"int","value":180},{"name":"x2","type":"int","value":270},{"name":"y1","type":"int","value":142},{"name":"y2","type":"int","value":142},{"name":"next","type":"int","value":7},{"name":"prev","type":"int","value":8}],"polyline":[{"x":0,"y":0},{"x":90,"y":0}]},{"id":86,"x":392,"y":60,"visible":true,"properties":[{"name":"layer","type":"int","value":1},{"name":"group","type":"int","value":0},{"name":"id","type":"int","value":12},{"name":"fh_layer","type":"int","value":1},{"name":"fh_group","type":"int","value":0},{"name":"fh_id","type":"int","value":12},{"name":"x1","type":"int","value":392},{"name":"x2","type":"int","value":392},{"name":"y1","type":"int","value":60},{"name":"y2","type":"int","value":120},{"name":"next","type":"int","value":40},{"name":"prev","type":"int","value":13}],"polyline":[{"x":0,"y":0},{"x":0,"y":60}]},{"id":87,"x":392,"y":0,"visible":true,"properties":[{"name":"layer","type":"int","value":1},{"name":"group","type":"int","value":0},{"name":"id","type":"int","value":13},{"name":"fh_layer","type":"int","value":1},{"name":"fh_group","type":"int","value":0},{"name":"fh_id","type":"int","value":13},{"name":"x1","type":"int","value":392},{"name":"x2","type":"int","value":392},{"name":"y1","type":"int","value":0},{"name":"y2","type":"int","value":60},{"name":"next","type":"int","value":12},{"name":"prev","type":"int","value":38}],"polyline":[{"x":0,"y":0},{"x":0,"y":60}]},{"id":88,"x":-238,"y":60,"visible":true,"properties":[{"name":"layer","type":"int","value":1},{"name":"group","type":"int","value":0},{"name":"id","type":"int","value":14},{"name":"fh_layer","type":"int","value":1},{"name":"fh_group","type":"int","value":0},{"name":"fh_id","type":"int","value":14},{"name":"x1","type":"int","value":-238},{"name":"x2","type":"int","value":-238},{"name":"y1","type":"int","value":60},{"name":"y2","type":"int","value":120},{"name":"next","type":"int","value":16},{"name":"prev","type":"int","value":5}],"polyline":[{"x":0,"y":0},{"x":0,"y":60}]},{"id":89,"x":-302,"y":120,"visible":true,"properties":[{"name":"layer","type":"int","value":1},{"name":"group","type":"int","value":0},{"name":"id","type":"int","value":15},{"name":"fh_layer","type":"int","value":1},{"name":"fh_group","type":"int","value":0},{"name":"fh_id","type":"int","value":15},{"name":"x1","type":"int","value":-302},{"name":"x2","type":"int","value":-302},{"name":"y1","type":"int","value":120},{"name":"y2","type":"int","value":60},{"name":"next","type":"int","value":18},{"name":"prev","type":"int","value":4}],"polyline":[{"x":0,"y":0},{"x":0,"y":-60}]},{"id":90,"x":-238,"y":120,"visible":true,"properties":[{"name":"layer","type":"int","value":1},{"name":"group","type":"int","value":0},{"name":"id","type":"int","value":16},{"name":"fh_layer","type":"int","value":1},{"name":"fh_group","type":"int","value":0},{"name":"fh_id","type":"int","value":16},{"name":"x1","type":"int","value":-238},{"name":"x2","type":"int","value":-238},{"name":"y1","type":"int","value":120},{"name":"y2","type":"int","value":142},{"name":"next","type":"int","value":17},{"name":"prev","type":"int","value":14}],"polyline":[{"x":0,"y":0},{"x":0,"y":22}]},{"id":91,"x":-238,"y":142,"visible":true,"properties":[{"name":"layer","type":"int","value":1},{"name":"group","type":"int","value":0},{"name":"id","type":"int","value":17},{"name":"fh_layer","type":"int","value":1},{"name":"fh_group","type":"int","value":0},{"name":"fh_id","type":"int","value":17},{"name":"x1","type":"int","value":-238},{"name":"x2","type":"int","value":-180},{"name":"y1","type":"int","value":142},{"name":"y2","type":"int","value":142},{"name":"next","type":"int","value":6},{"name":"prev","type":"int","value":16}],"polyline":[{"x":0,"y":0},{"x":58,"y":0}]},{"id":92,"x":-302,"y":60,"visible":true,"properties":[{"name":"layer","type":"int","value":1},{"name":"group","type":"int","value":0},{"name":"id","type":"int","value":18},{"name":"fh_layer","type":"int","value":1},{"name":"fh_group","type":"int","value":0},{"name":"fh_id","type":"int","value":18},{"name":"x1","type":"int","value":-302},{"name":"x2","type":"int","value":-302},{"name":"y1","type":"int","value":60},{"name":"y2","type":"int","value":0},{"name":"next","type":"int","value":3},{"name":"prev","type":"int","value":15}],"polyline":[{"x":0,"y":0},{"x":0,"y":-60}]},{"id":93,"x":-302,"y":240,"visible":true,"properties":[{"name":"layer","type":"int","value":1},{"name":"group","type":"int","value":0},{"name":"id","type":"int","value":19},{"name":"fh_layer","type":"int","value":1},{"name":"fh_group","type":"int","value":0},{"name":"fh_id","type":"int","value":19},{"name":"x1","type":"int","value":-302},{"name":"x2","type":"int","value":-302},{"name":"y1","type":"int","value":240},{"name":"y2","type":"int","value":180},{"name":"next","type":"int","value":4},{"name":"prev","type":"int","value":20}],"polyline":[{"x":0,"y":0},{"x":0,"y":-60}]},{"id":94,"x":-302,"y":300,"visible":true,"properties":[{"name":"layer","type":"int","value":1},{"name":"group","type":"int","value":0},{"name":"id","type":"int","value":20},{"name":"fh_layer","type":"int","value":1},{"name":"fh_group","type":"int","value":0},{"name":"fh_id","type":"int","value":20},{"name":"x1","type":"int","value":-302},{"name":"x2","type":"int","value":-302},{"name":"y1","type":"int","value":300},{"name":"y2","type":"int","value":240},{"name":"next","type":"int","value":19},{"name":"prev","type":"int","value":0}],"polyline":[{"x":0,"y":0},{"x":0,"y":-60}]},{"id":95,"x":-302,"y":-60,"visible":true,"properties":[{"name":"layer","type":"int","value":1},{"name":"group","type":"int","value":0},{"name":"id","type":"int","value":21},{"name":"fh_layer","type":"int","value":1},{"name":"fh_group","type":"int","value":0},{"name":"fh_id","type":"int","value":21},{"name":"x1","type":"int","value":-302},{"name":"x2","type":"int","value":-302},{"name":"y1","type":"int","value":-60},{"name":"y2","type":"int","value":-120},{"name":"next","type":"int","value":23},{"name":"prev","type":"int","value":3}],"polyline":[{"x":0,"y":0},{"x":0,"y":-60}]},{"id":96,"x":-238,"y":-60,"visible":true,"properties":[{"name":"layer","type":"int","value":1},{"name":"group","type":"int","value":0},{"name":"id","type":"int","value":22},{"name":"fh_layer","type":"int","value":1},{"name":"fh_group","type":"int","value":0},{"name":"fh_id","type":"int","value":22},{"name":"x1","type":"int","value":-238},{"name":"x2","type":"int","value":-238},{"name":"y1","type":"int","value":-60},{"name":"y2","type":"int","value":0},{"name":"next","type":"int","value":5},{"name":"prev","type":"int","value":24}],"polyline":[{"x":0,"y":0},{"x":0,"y":60}]},{"id":97,"x":-302,"y":-120,"visible":true,"properties":[{"name":"layer","type":"int","value":1},{"name":"group","type":"int","value":0},{"name":"id","type":"int","value":23},{"name":"fh_layer","type":"int","value":1},{"name":"fh_group","type":"int","value":0},{"name":"fh_id","type":"int","value":23},{"name":"x1","type":"int","value":-302},{"name":"x2","type":"int","value":-302},{"name":"y1","type":"int","value":-120},{"name":"y2","type":"int","value":-180},{"name":"next","type":"int","value":25},{"name":"prev","type":"int","value":21}],"polyline":[{"x":0,"y":0},{"x":0,"y":-60}]},{"id":98,"x":-238,"y":-120,"visible":true,"properties":[{"name":"layer","type":"int","value":1},{"name":"group","type":"int","value":0},{"name":"id","type":"int","value":24},{"name":"fh_layer","type":"int","value":1},{"name":"fh_group","type":"int","value":0},{"name":"fh_id","type":"int","value":24},{"name":"x1","type":"int","value":-238},{"name":"x2","type":"int","value":-238},{"name":"y1","type":"int","value":-120},{"name":"y2","type":"int","value":-60},{"name":"next","type":"int","value":22},{"name":"prev","type":"int","value":26}],"polyline":[{"x":0,"y":0},{"x":0,"y":60}]},{"id":99,"x":-302,"y":-180,"visible":true,"properties":[{"name":"layer","type":"int","value":1},{"name":"group","type":"int","value":0},{"name":"id","type":"int","value":25},{"name":"fh_layer","type":"int","value":1},{"name":"fh_group","type":"int","value":0},{"name":"fh_id","type":"int","value":25},{"name":"x1","type":"int","value":-302},{"name":"x2","type":"int","value":-302},{"name":"y1","type":"int","value":-180},{"name":"y2","type":"int","value":-240},{"name":"next","type":"int","value":27},{"name":"prev","type":"int","value":23}],"polyline":[{"x":0,"y":0},{"x":0,"y":-60}]},{"id":100,"x":-238,"y":-180,"visible":true,"properties":[{"name":"layer","type":"int","value":1},{"name":"group","type":"int","value":0},{"name":"id","type":"int","value":26},{"name":"fh_layer","type":"int","value":1},{"name":"fh_group","type":"int","value":0},{"name":"fh_id","type":"int","value":26},{"name":"x1","type":"int","value":-238},{"name":"x2","type":"int","value":-238},{"name":"y1","type":"int","value":-180},{"name":"y2","type":"int","value":-120},{"name":"next","type":"int","value":24},{"name":"prev","type":"int","value":28}],"polyline":[{"x":0,"y":0},{"x":0,"y":60}]},{"id":101,"x":-302,"y":-240,"visible":true,"properties":[{"name":"layer","type":"int","value":1},{"name":"group","type":"int","value":0},{"name":"id","type":"int","value":27},{"name":"fh_layer","type":"int","value":1},{"name":"fh_group","type":"int","value":0},{"name":"fh_id","type":"int","value":27},{"name":"x1","type":"int","value":-302},{"name":"x2","type":"int","value":-302},{"name":"y1","type":"int","value":-240},{"name":"y2","type":"int","value":-300},{"name":"next","type":"int","value":0},{"name":"prev","type":"int","value":25}],"polyline":[{"x":0,"y":0},{"x":0,"y":-60}]},{"id":102,"x":-238,"y":-240,"visible":true,"properties":[{"name":"layer","type":"int","value":1},{"name":"group","type":"int","value":0},{"name":"id","type":"int","value":28},{"name":"fh_layer","type":"int","value":1},{"name":"fh_group","type":"int","value":0},{"name":"fh_id","type":"int","value":28},{"name":"x1","type":"int","value":-238},{"name":"x2","type":"int","value":-238},{"name":"y1","type":"int","value":-240},{"name":"y2","type":"int","value":-180},{"name":"next","type":"int","value":26},{"name":"prev","type":"int","value":29}],"polyline":[{"x":0,"y":0},{"x":0,"y":60}]},{"id":103,"x":-238,"y":-300,"visible":true,"properties":[{"name":"layer","type":"int","value":1},{"name":"group","type":"int","value":0},{"name":"id","type":"int","value":29},{"name":"fh_layer","type":"int","value":1},{"name":"fh_group","type":"int","value":0},{"name":"fh_id","type":"int","value":29},{"name":"x1","type":"int","value":-238},{"name":"x2","type":"int","value":-238},{"name":"y1","type":"int","value":-300},{"name":"y2","type":"int","value":-240},{"name":"next","type":"int","value":28},{"name":"prev","type":"int","value":0}],"polyline":[{"x":0,"y":0},{"x":0,"y":60}]},{"id":104,"x":392,"y":-180,"visible":true,"properties":[{"name":"layer","type":"int","value":1},{"name":"group","type":"int","value":0},{"name":"id","type":"int","value":30},{"name":"fh_layer","type":"int","value":1},{"name":"fh_group","type":"int","value":0},{"name":"fh_id","type":"int","value":30},{"name":"x1","type":"int","value":392},{"name":"x2","type":"int","value":392},{"name":"y1","type":"int","value":-180},{"name":"y2","type":"int","value":-120},{"name":"next","type":"int","value":36},{"name":"prev","type":"int","value":35}],"polyline":[{"x":0,"y":0},{"x":0,"y":60}]},{"id":105,"x":328,"y":-120,"visible":true,"properties":[{"name":"layer","type":"int","value":1},{"name":"group","type":"int","value":0},{"name":"id","type":"int","value":31},{"name":"fh_layer","type":"int","value":1},{"name":"fh_group","type":"int","value":0},{"name":"fh_id","type":"int","value":31},{"name":"x1","type":"int","value":328},{"name":"x2","type":"int","value":328},{"name":"y1","type":"int","value":-120},{"name":"y2","type":"int","value":-180},{"name":"next","type":"int","value":32},{"name":"prev","type":"int","value":37}],"polyline":[{"x":0,"y":0},{"x":0,"y":-60}]},{"id":106,"x":328,"y":-180,"visible":true,"properties":[{"name":"layer","type":"int","value":1},{"name":"group","type":"int","value":0},{"name":"id","type":"int","value":32},{"name":"fh_layer","type":"int","value":1},{"name":"fh_group","type":"int","value":0},{"name":"fh_id","type":"int","value":32},{"name":"x1","type":"int","value":328},{"name":"x2","type":"int","value":328},{"name":"y1","type":"int","value":-180},{"name":"y2","type":"int","value":-240},{"name":"next","type":"int","value":34},{"name":"prev","type":"int","value":31}],"polyline":[{"x":0,"y":0},{"x":0,"y":-60}]},{"id":107,"x":392,"y":-300,"visible":true,"properties":[{"name":"layer","type":"int","value":1},{"name":"group","type":"int","value":0},{"name":"id","type":"int","value":33},{"name":"fh_layer","type":"int","value":1},{"name":"fh_group","type":"int","value":0},{"name":"fh_id","type":"int","value":33},{"name":"x1","type":"int","value":392},{"name":"x2","type":"int","value":392},{"name":"y1","type":"int","value":-300},{"name":"y2","type":"int","value":-240},{"name":"next","type":"int","value":35},{"name":"prev","type":"int","value":0}],"polyline":[{"x":0,"y":0},{"x":0,"y":60}]},{"id":108,"x":328,"y":-240,"visible":true,"properties":[{"name":"layer","type":"int","value":1},{"name":"group","type":"int","value":0},{"name":"id","type":"int","value":34},{"name":"fh_layer","type":"int","value":1},{"name":"fh_group","type":"int","value":0},{"name":"fh_id","type":"int","value":34},{"name":"x1","type":"int","value":328},{"name":"x2","type":"int","value":328},{"name":"y1","type":"int","value":-240},{"name":"y2","type":"int","value":-300},{"name":"next","type":"int","value":0},{"name":"prev","type":"int","value":32}],"polyline":[{"x":0,"y":0},{"x":0,"y":-60}]},{"id":109,"x":392,"y":-240,"visible":true,"properties":[{"name":"layer","type":"int","value":1},{"name":"group","type":"int","value":0},{"name":"id","type":"int","value":35},{"name":"fh_layer","type":"int","value":1},{"name":"fh_group","type":"int","value":0},{"name":"fh_id","type":"int","value":35},{"name":"x1","type":"int","value":392},{"name":"x2","type":"int","value":392},{"name":"y1","type":"int","value":-240},{"name":"y2","type":"int","value":-180},{"name":"next","type":"int","value":30},{"name":"prev","type":"int","value":33}],"polyline":[{"x":0,"y":0},{"x":0,"y":60}]},{"id":110,"x":392,"y":-120,"visible":true,"properties":[{"name":"layer","type":"int","value":1},{"name":"group","type":"int","value":0},{"name":"id","type":"int","value":36},{"name":"fh_layer","type":"int","value":1},{"name":"fh_group","type":"int","value":0},{"name":"fh_id","type":"int","value":36},{"name":"x1","type":"int","value":392},{"name":"x2","type":"int","value":392},{"name":"y1","type":"int","value":-120},{"name":"y2","type":"int","value":-60},{"name":"next","type":"int","value":38},{"name":"prev","type":"int","value":30}],"polyline":[{"x":0,"y":0},{"x":0,"y":60}]},{"id":111,"x":328,"y":-60,"visible":true,"properties":[{"name":"layer","type":"int","value":1},{"name":"group","type":"int","value":0},{"name":"id","type":"int","value":37},{"name":"fh_layer","type":"int","value":1},{"name":"fh_group","type":"int","value":0},{"name":"fh_id","type":"int","value":37},{"name":"x1","type":"int","value":328},{"name":"x2","type":"int","value":328},{"name":"y1","type":"int","value":-60},{"name":"y2","type":"int","value":-120},{"name":"next","type":"int","value":31},{"name":"prev","type":"int","value":39}],"polyline":[{"x":0,"y":0},{"x":0,"y":-60}]},{"id":112,"x":392,"y":-60,"visible":true,"properties":[{"name":"layer","type":"int","value":1},{"name":"group","type":"int","value":0},{"name":"id","type":"int","value":38},{"name":"fh_layer","type":"int","value":1},{"name":"fh_group","type":"int","value":0},{"name":"fh_id","type":"int","value":38},{"name":"x1","type":"int","value":392},{"name":"x2","type":"int","value":392},{"name":"y1","type":"int","value":-60},{"name":"y2","type":"int","value":0},{"name":"next","type":"int","value":13},{"name":"prev","type":"int","value":36}],"polyline":[{"x":0,"y":0},{"x":0,"y":60}]},{"id":113,"x":328,"y":0,"visible":true,"properties":[{"name":"layer","type":"int","value":1},{"name":"group","type":"int","value":0},{"name":"id","type":"int","value":39},{"name":"fh_layer","type":"int","value":1},{"name":"fh_group","type":"int","value":0},{"name":"fh_id","type":"int","value":39},{"name":"x1","type":"int","value":328},{"name":"x2","type":"int","value":328},{"name":"y1","type":"int","value":0},{"name":"y2","type":"int","value":-60},{"name":"next","type":"int","value":37},{"name":"prev","type":"int","value":10}],"polyline":[{"x":0,"y":0},{"x":0,"y":-60}]},{"id":114,"x":392,"y":120,"visible":true,"properties":[{"name":"layer","type":"int","value":1},{"name":"group","type":"int","value":0},{"name":"id","type":"int","value":40},{"name":"fh_layer","type":"int","value":1},{"name":"fh_group","type":"int","value":0},{"name":"fh_id","type":"int","value":40},{"name":"x1","type":"int","value":392},{"name":"x2","type":"int","value":392},{"name":"y1","type":"int","value":120},{"name":"y2","type":"int","value":180},{"name":"next","type":"int","value":43},{"name":"prev","type":"int","value":12}],"polyline":[{"x":0,"y":0},{"x":0,"y":60}]},{"id":115,"x":328,"y":142,"visible":true,"properties":[{"name":"layer","type":"int","value":1},{"name":"group","type":"int","value":0},{"name":"id","type":"int","value":41},{"name":"fh_layer","type":"int","value":1},{"name":"fh_group","type":"int","value":0},{"name":"fh_id","type":"int","value":41},{"name":"x1","type":"int","value":328},{"name":"x2","type":"int","value":328},{"name":"y1","type":"int","value":142},{"name":"y2","type":"int","value":120},{"name":"next","type":"int","value":9},{"name":"prev","type":"int","value":7}],"polyline":[{"x":0,"y":0},{"x":0,"y":-22}]},{"id":116,"x":392,"y":240,"visible":true,"properties":[{"name":"layer","type":"int","value":1},{"name":"group","type":"int","value":0},{"name":"id","type":"int","value":42},{"name":"fh_layer","type":"int","value":1},{"name":"fh_group","type":"int","value":0},{"name":"fh_id","type":"int","value":42},{"name":"x1","type":"int","value":392},{"name":"x2","type":"int","value":392},{"name":"y1","type":"int","value":240},{"name":"y2","type":"int","value":300},{"name":"next","type":"int","value":0},{"name":"prev","type":"int","value":43}],"polyline":[{"x":0,"y":0},{"x":0,"y":60}]},{"id":117,"x":392,"y":180,"visible":true,"properties":[{"name":"layer","type":"int","value":1},{"name":"group","type":"int","value":0},{"name":"id","type":"int","value":43},{"name":"fh_layer","type":"int","value":1},{"name":"fh_group","type":"int","value":0},{"name":"fh_id","type":"int","value":43},{"name":"x1","type":"int","value":392},{"name":"x2","type":"int","value":392},{"name":"y1","type":"int","value":180},{"name":"y2","type":"int","value":240},{"name":"next","type":"int","value":42},{"name":"prev","type":"int","value":40}],"polyline":[{"x":0,"y":0},{"x":0,"y":60}]}],"properties":[]}],"tilesets":[{"firstgid":1,"source":"../tilesets/tile_mushCatle.tsj"},{"firstgid":28,"source":"../tilesets/obj_Tdungeon_mushCatle_inside.tsj"},{"firstgid":31,"source":"../tilesets/portal_MapHelper.img_portal_game_pv.tsj"}],"properties":[{"name":"bgm","type":"string","value":"Bgm19/MushCatle"},{"name":"fly","type":"int","value":0},{"name":"swim","type":"int","value":0},{"name":"town","type":"int","value":0},{"name":"VRTop","type":"int","value":-300},{"name":"cloud","type":"int","value":0},{"name":"VRLeft","type":"int","value":-355},{"name":"VRRight","type":"int","value":445},{"name":"lvLimit","type":"int","value":30},{"name":"mapMark","type":"string","value":"MushCatle"},{"name":"mobRate","type":"float","value":1.5000001192092896},{"name":"version","type":"int","value":10},{"name":"VRBottom","type":"int","value":300},{"name":"noMapCmd","type":"int","value":0},{"name":"returnMap","type":"int","value":106020000},{"name":"fieldLimit","type":"int","value":0},{"name":"hideMinimap","type":"int","value":0},{"name":"lvForceMove","type":"int","value":39},{"name":"onUserEnter","type":"string","value":""},{"name":"forcedReturn","type":"int","value":999999999},{"name":"onFirstUserEnter","type":"string","value":""}]}