{"type":"map","orientation":"orthogonal","renderorder":"right-down","infinite":false,"tilewidth":1,"tileheight":1,"width":1080,"height":1040,"parallaxoriginx":-400,"parallaxoriginy":80,"nextlayerid":19,"nextobjectid":90,"layers":[{"id":1,"name":"background_back_0","type":"imagelayer","visible":true,"opacity":1,"image":"../images/29403.png","imagewidth":44,"imageheight":44,"offsetx":-22,"offsety":58,"repeatx":true,"repeaty":true,"parallaxx":0,"parallaxy":0,"properties":[{"name":"a","type":"int","value":255},{"name":"f","type":"int","value":0},{"name":"x","type":"int","value":0},{"name":"y","type":"int","value":0},{"name":"bS","type":"string","value":"mushCatle"},{"name":"cx","type":"int","value":0},{"name":"cy","type":"int","value":0},{"name":"no","type":"int","value":0},{"name":"rx","type":"int","value":0},{"name":"ry","type":"int","value":0},{"name":"ani","type":"int","value":0},{"name":"type","type":"int","value":3},{"name":"front","type":"int","value":0}]},{"id":2,"name":"background_back_1","type":"imagelayer","visible":true,"opacity":1,"image":"../images/29404.png","imagewidth":11,"imageheight":340,"offsetx":-7,"offsety":-269,"repeatx":true,"repeaty":false,"parallaxx":0,"parallaxy":0.1,"properties":[{"name":"a","type":"int","value":255},{"name":"f","type":"int","value":0},{"name":"x","type":"int","value":-2},{"name":"y","type":"int","value":-179},{"name":"bS","type":"string","value":"mushCatle"},{"name":"cx","type":"int","value":0},{"name":"cy","type":"int","value":0},{"name":"no","type":"int","value":1},{"name":"rx","type":"int","value":0},{"name":"ry","type":"int","value":-10},{"name":"ani","type":"int","value":0},{"name":"type","type":"int","value":1},{"name":"front","type":"int","value":0}]},{"id":3,"name":"background_back_2","type":"imagelayer","visible":true,"opacity":1,"image":"../images/29405.png","imagewidth":44,"imageheight":44,"offsetx":48,"offsety":-313,"repeatx":true,"repeaty":false,"parallaxx":0,"parallaxy":0.1,"properties":[{"name":"a","type":"int","value":255},{"name":"f","type":"int","value":0},{"name":"x","type":"int","value":70},{"name":"y","type":"int","value":-371},{"name":"bS","type":"string","value":"mushCatle"},{"name":"cx","type":"int","value":0},{"name":"cy","type":"int","value":0},{"name":"no","type":"int","value":2},{"name":"rx","type":"int","value":0},{"name":"ry","type":"int","value":-10},{"name":"ani","type":"int","value":0},{"name":"type","type":"int","value":1},{"name":"front","type":"int","value":0}]},{"id":4,"name":"background_back_3","type":"imagelayer","visible":true,"opacity":1,"image":"../images/29406.png","imagewidth":635,"imageheight":569,"offsetx":-608,"offsety":-209,"repeatx":true,"repeaty":false,"parallaxx":0.3,"parallaxy":0.3,"properties":[{"name":"a","type":"int","value":255},{"name":"f","type":"int","value":0},{"name":"x","type":"int","value":-291},{"name":"y","type":"int","value":-5},{"name":"bS","type":"string","value":"mushCatle"},{"name":"cx","type":"int","value":0},{"name":"cy","type":"int","value":0},{"name":"no","type":"int","value":3},{"name":"rx","type":"int","value":-30},{"name":"ry","type":"int","value":-30},{"name":"ani","type":"int","value":0},{"name":"type","type":"int","value":1},{"name":"front","type":"int","value":0}]},{"id":5,"name":"background_back_4","type":"imagelayer","visible":true,"opacity":1,"image":"../images/29426.png","imagewidth":1024,"imageheight":509,"offsetx":-761,"offsety":-267,"repeatx":true,"repeaty":false,"parallaxx":0.5,"parallaxy":0.5,"properties":[{"name":"a","type":"int","value":255},{"name":"f","type":"int","value":0},{"name":"x","type":"int","value":-249},{"name":"y","type":"int","value":-93},{"name":"bS","type":"string","value":"mushCatle"},{"name":"cx","type":"int","value":0},{"name":"cy","type":"int","value":0},{"name":"no","type":"int","value":23},{"name":"rx","type":"int","value":-50},{"name":"ry","type":"int","value":-50},{"name":"ani","type":"int","value":0},{"name":"type","type":"int","value":1},{"name":"front","type":"int","value":0}]},{"id":6,"name":"background_back_5","type":"imagelayer","visible":true,"opacity":1,"image":"../images/29427.png","imagewidth":795,"imageheight":455,"offsetx":-493,"offsety":-287,"repeatx":true,"repeaty":false,"parallaxx":0.8,"parallaxy":0.9,"properties":[{"name":"a","type":"int","value":255},{"name":"f","type":"int","value":0},{"name":"x","type":"int","value":-96},{"name":"y","type":"int","value":-140},{"name":"bS","type":"string","value":"mushCatle"},{"name":"cx","type":"int","value":0},{"name":"cy","type":"int","value":0},{"name":"no","type":"int","value":24},{"name":"rx","type":"int","value":-80},{"name":"ry","type":"int","value":-90},{"name":"ani","type":"int","value":0},{"name":"type","type":"int","value":1},{"name":"front","type":"int","value":0}]},{"id":7,"name":"background_back_6","type":"imagelayer","visible":true,"opacity":1,"image":"../images/29428.png","imagewidth":1299,"imageheight":227,"offsetx":-756,"offsety":-113,"repeatx":true,"repeaty":false,"parallaxx":0.9,"parallaxy":1,"properties":[{"name":"a","type":"int","value":255},{"name":"f","type":"int","value":0},{"name":"x","type":"int","value":-107},{"name":"y","type":"int","value":-80},{"name":"bS","type":"string","value":"mushCatle"},{"name":"cx","type":"int","value":0},{"name":"cy","type":"int","value":0},{"name":"no","type":"int","value":25},{"name":"rx","type":"int","value":-90},{"name":"ry","type":"int","value":-100},{"name":"ani","type":"int","value":0},{"name":"type","type":"int","value":1},{"name":"front","type":"int","value":0}]},{"id":8,"name":"background_back_7","type":"imagelayer","visible":true,"opacity":1,"image":"../images/29429.png","imagewidth":500,"imageheight":183,"offsetx":-279,"offsety":-26,"repeatx":true,"repeaty":false,"parallaxx":-0.01,"parallaxy":1,"properties":[{"name":"a","type":"int","value":192},{"name":"f","type":"int","value":0},{"name":"x","type":"int","value":-29},{"name":"y","type":"int","value":-15},{"name":"bS","type":"string","value":"mushCatle"},{"name":"cx","type":"int","value":1500},{"name":"cy","type":"int","value":0},{"name":"no","type":"int","value":26},{"name":"rx","type":"int","value":1},{"name":"ry","type":"int","value":-100},{"name":"ani","type":"int","value":0},{"name":"type","type":"int","value":4},{"name":"front","type":"int","value":0}]},{"id":9,"name":"background_back_8","type":"imagelayer","visible":true,"opacity":1,"image":"../images/29430.png","imagewidth":500,"imageheight":276,"offsetx":221,"offsety":-115,"repeatx":true,"repeaty":false,"parallaxx":-0.01,"parallaxy":1,"properties":[{"name":"a","type":"int","value":192},{"name":"f","type":"int","value":0},{"name":"x","type":"int","value":471},{"name":"y","type":"int","value":-57},{"name":"bS","type":"string","value":"mushCatle"},{"name":"cx","type":"int","value":1500},{"name":"cy","type":"int","value":0},{"name":"no","type":"int","value":27},{"name":"rx","type":"int","value":1},{"name":"ry","type":"int","value":-100},{"name":"ani","type":"int","value":0},{"name":"type","type":"int","value":4},{"name":"front","type":"int","value":0}]},{"id":10,"name":"background_back_9","type":"imagelayer","visible":true,"opacity":1,"image":"../images/29431.png","imagewidth":500,"imageheight":335,"offsetx":-779,"offsety":-140,"repeatx":true,"repeaty":false,"parallaxx":-0.01,"parallaxy":1,"properties":[{"name":"a","type":"int","value":192},{"name":"f","type":"int","value":0},{"name":"x","type":"int","value":-529},{"name":"y","type":"int","value":-53},{"name":"bS","type":"string","value":"mushCatle"},{"name":"cx","type":"int","value":1500},{"name":"cy","type":"int","value":0},{"name":"no","type":"int","value":28},{"name":"rx","type":"int","value":1},{"name":"ry","type":"int","value":-100},{"name":"ani","type":"int","value":0},{"name":"type","type":"int","value":4},{"name":"front","type":"int","value":0}]},{"id":11,"name":"background_back","type":"objectgroup","visible":true,"opacity":1,"draworder":"index","offsetx":0,"offsety":0,"parallaxx":1,"parallaxy":1,"objects":[{"id":1,"x":-29,"y":-15,"visible":true,"properties":[{"name":"image_layer_name","type":"string","value":"background_back_7"},{"name":"a","type":"int","value":192},{"name":"f","type":"int","value":0},{"name":"x","type":"int","value":-29},{"name":"y","type":"int","value":-15},{"name":"bS","type":"string","value":"mushCatle"},{"name":"cx","type":"int","value":1500},{"name":"cy","type":"int","value":0},{"name":"no","type":"int","value":26},{"name":"rx","type":"int","value":1},{"name":"ry","type":"int","value":-100},{"name":"ani","type":"int","value":0},{"name":"type","type":"int","value":4},{"name":"front","type":"int","value":0}],"point":true},{"id":2,"x":471,"y":-57,"visible":true,"properties":[{"name":"image_layer_name","type":"string","value":"background_back_8"},{"name":"a","type":"int","value":192},{"name":"f","type":"int","value":0},{"name":"x","type":"int","value":471},{"name":"y","type":"int","value":-57},{"name":"bS","type":"string","value":"mushCatle"},{"name":"cx","type":"int","value":1500},{"name":"cy","type":"int","value":0},{"name":"no","type":"int","value":27},{"name":"rx","type":"int","value":1},{"name":"ry","type":"int","value":-100},{"name":"ani","type":"int","value":0},{"name":"type","type":"int","value":4},{"name":"front","type":"int","value":0}],"point":true},{"id":3,"x":-529,"y":-53,"visible":true,"properties":[{"name":"image_layer_name","type":"string","value":"background_back_9"},{"name":"a","type":"int","value":192},{"name":"f","type":"int","value":0},{"name":"x","type":"int","value":-529},{"name":"y","type":"int","value":-53},{"name":"bS","type":"string","value":"mushCatle"},{"name":"cx","type":"int","value":1500},{"name":"cy","type":"int","value":0},{"name":"no","type":"int","value":28},{"name":"rx","type":"int","value":1},{"name":"ry","type":"int","value":-100},{"name":"ani","type":"int","value":0},{"name":"type","type":"int","value":4},{"name":"front","type":"int","value":0}],"point":true}],"properties":[]},{"id":12,"name":"layer_2_obj","type":"objectgroup","visible":true,"opacity":1,"draworder":"index","offsetx":0,"offsety":0,"parallaxx":1,"parallaxy":1,"objects":[{"id":4,"x":-159,"y":35,"visible":true,"properties":[{"name":"layer","type":"int","value":2},{"name":"resource_index","type":"int","value":0},{"name":"oS","type":"string","value":"Tdungeon"},{"name":"l0","type":"string","value":"mushCatle"},{"name":"l1","type":"string","value":"forest"},{"name":"l2","type":"string","value":"0"},{"name":"z","type":"int","value":9},{"name":"zM","type":"int","value":1},{"name":"f","type":"int","value":0}],"gid":44,"width":569,"height":309}],"properties":[]},{"id":13,"name":"layer_3_obj","type":"objectgroup","visible":true,"opacity":1,"draworder":"index","offsetx":0,"offsety":0,"parallaxx":1,"parallaxy":1,"objects":[{"id":65,"x":502,"y":71,"visible":true,"properties":[{"name":"layer","type":"int","value":3},{"name":"resource_index","type":"int","value":0},{"name":"oS","type":"string","value":"Tdungeon"},{"name":"l0","type":"string","value":"mushCatle"},{"name":"l1","type":"string","value":"tower"},{"name":"l2","type":"string","value":"0"},{"name":"z","type":"int","value":9},{"name":"zM","type":"int","value":0},{"name":"f","type":"int","value":0}],"gid":36,"width":553,"height":278},{"id":66,"x":535,"y":-207,"visible":true,"properties":[{"name":"layer","type":"int","value":3},{"name":"resource_index","type":"int","value":1},{"name":"oS","type":"string","value":"Tdungeon"},{"name":"l0","type":"string","value":"mushCatle"},{"name":"l1","type":"string","value":"tower"},{"name":"l2","type":"string","value":"1"},{"name":"z","type":"int","value":9},{"name":"zM","type":"int","value":2},{"name":"f","type":"int","value":0}],"gid":37,"width":478,"height":215},{"id":67,"x":525,"y":-422,"visible":true,"properties":[{"name":"layer","type":"int","value":3},{"name":"resource_index","type":"int","value":2},{"name":"oS","type":"string","value":"Tdungeon"},{"name":"l0","type":"string","value":"mushCatle"},{"name":"l1","type":"string","value":"tower"},{"name":"l2","type":"string","value":"2"},{"name":"z","type":"int","value":9},{"name":"zM","type":"int","value":3},{"name":"f","type":"int","value":0}],"gid":38,"width":509,"height":172},{"id":68,"x":482,"y":-196,"visible":true,"properties":[{"name":"layer","type":"int","value":3},{"name":"resource_index","type":"int","value":3},{"name":"oS","type":"string","value":"Tdungeon"},{"name":"l0","type":"string","value":"mushCatle"},{"name":"l1","type":"string","value":"forest"},{"name":"l2","type":"string","value":"16"},{"name":"z","type":"int","value":10},{"name":"zM","type":"int","value":0},{"name":"f","type":"int","value":0}],"gid":67,"width":418,"height":301},{"id":69,"x":180,"y":34,"visible":true,"properties":[{"name":"layer","type":"int","value":3},{"name":"resource_index","type":"int","value":4},{"name":"oS","type":"string","value":"Tdungeon"},{"name":"l0","type":"string","value":"mushCatle"},{"name":"l1","type":"string","value":"forest"},{"name":"l2","type":"string","value":"17"},{"name":"z","type":"int","value":10},{"name":"zM","type":"int","value":0},{"name":"f","type":"int","value":0}],"gid":68,"width":668,"height":230},{"id":70,"x":508,"y":-497,"visible":true,"properties":[{"name":"layer","type":"int","value":3},{"name":"resource_index","type":"int","value":5},{"name":"oS","type":"string","value":"Tdungeon"},{"name":"l0","type":"string","value":"mushCatle"},{"name":"l1","type":"string","value":"forest"},{"name":"l2","type":"string","value":"15"},{"name":"z","type":"int","value":9},{"name":"zM","type":"int","value":3},{"name":"f","type":"int","value":0}],"gid":69,"width":342,"height":299},{"id":71,"x":501,"y":-594,"visible":true,"properties":[{"name":"layer","type":"int","value":3},{"name":"resource_index","type":"int","value":6},{"name":"oS","type":"string","value":"Tdungeon"},{"name":"l0","type":"string","value":"mushCatle"},{"name":"l1","type":"string","value":"tower"},{"name":"l2","type":"string","value":"3"},{"name":"z","type":"int","value":6},{"name":"zM","type":"int","value":3},{"name":"f","type":"int","value":0}],"gid":39,"width":540,"height":222}],"properties":[]},{"id":14,"name":"layer_3_tile","type":"objectgroup","visible":true,"opacity":1,"draworder":"index","offsetx":0,"offsety":0,"parallaxx":1,"parallaxy":1,"objects":[{"id":5,"x":180,"y":120,"visible":true,"properties":[{"name":"layer","type":"int","value":3},{"name":"resource_index","type":"int","value":0},{"name":"u","type":"string","value":"bsc"},{"name":"no","type":"int","value":2},{"name":"zM","type":"int","value":0}],"gid":22,"width":90,"height":60},{"id":6,"x":180,"y":60,"visible":true,"properties":[{"name":"layer","type":"int","value":3},{"name":"resource_index","type":"int","value":1},{"name":"u","type":"string","value":"enH0"},{"name":"no","type":"int","value":1},{"name":"zM","type":"int","value":0}],"gid":18,"width":90,"height":39},{"id":7,"x":360,"y":60,"visible":true,"properties":[{"name":"layer","type":"int","value":3},{"name":"resource_index","type":"int","value":2},{"name":"u","type":"string","value":"enH0"},{"name":"no","type":"int","value":0},{"name":"zM","type":"int","value":0}],"gid":17,"width":90,"height":38},{"id":8,"x":720,"y":180,"visible":true,"properties":[{"name":"layer","type":"int","value":3},{"name":"resource_index","type":"int","value":3},{"name":"u","type":"string","value":"bsc"},{"name":"no","type":"int","value":1},{"name":"zM","type":"int","value":0}],"gid":24,"width":90,"height":60},{"id":9,"x":360,"y":120,"visible":true,"properties":[{"name":"layer","type":"int","value":3},{"name":"resource_index","type":"int","value":4},{"name":"u","type":"string","value":"bsc"},{"name":"no","type":"int","value":0},{"name":"zM","type":"int","value":0}],"gid":25,"width":90,"height":60},{"id":10,"x":450,"y":266,"visible":true,"properties":[{"name":"layer","type":"int","value":3},{"name":"resource_index","type":"int","value":5},{"name":"u","type":"string","value":"enH1"},{"name":"no","type":"int","value":1},{"name":"zM","type":"int","value":0}],"gid":19,"width":90,"height":26},{"id":11,"x":90,"y":265,"visible":true,"properties":[{"name":"layer","type":"int","value":3},{"name":"resource_index","type":"int","value":6},{"name":"u","type":"string","value":"enH1"},{"name":"no","type":"int","value":0},{"name":"zM","type":"int","value":0}],"gid":16,"width":90,"height":25},{"id":12,"x":720,"y":120,"visible":true,"properties":[{"name":"layer","type":"int","value":3},{"name":"resource_index","type":"int","value":7},{"name":"u","type":"string","value":"bsc"},{"name":"no","type":"int","value":3},{"name":"zM","type":"int","value":0}],"gid":21,"width":90,"height":60},{"id":13,"x":630,"y":60,"visible":true,"properties":[{"name":"layer","type":"int","value":3},{"name":"resource_index","type":"int","value":8},{"name":"u","type":"string","value":"enH0"},{"name":"no","type":"int","value":0},{"name":"zM","type":"int","value":0}],"gid":17,"width":90,"height":38},{"id":14,"x":630,"y":120,"visible":true,"properties":[{"name":"layer","type":"int","value":3},{"name":"resource_index","type":"int","value":9},{"name":"u","type":"string","value":"bsc"},{"name":"no","type":"int","value":1},{"name":"zM","type":"int","value":0}],"gid":24,"width":90,"height":60},{"id":15,"x":270,"y":120,"visible":true,"properties":[{"name":"layer","type":"int","value":3},{"name":"resource_index","type":"int","value":10},{"name":"u","type":"string","value":"bsc"},{"name":"no","type":"int","value":4},{"name":"zM","type":"int","value":0}],"gid":23,"width":90,"height":60},{"id":16,"x":270,"y":60,"visible":true,"properties":[{"name":"layer","type":"int","value":3},{"name":"resource_index","type":"int","value":11},{"name":"u","type":"string","value":"enH0"},{"name":"no","type":"int","value":1},{"name":"zM","type":"int","value":0}],"gid":18,"width":90,"height":39},{"id":17,"x":360,"y":265,"visible":true,"properties":[{"name":"layer","type":"int","value":3},{"name":"resource_index","type":"int","value":12},{"name":"u","type":"string","value":"enH1"},{"name":"no","type":"int","value":0},{"name":"zM","type":"int","value":0}],"gid":16,"width":90,"height":25},{"id":18,"x":540,"y":266,"visible":true,"properties":[{"name":"layer","type":"int","value":3},{"name":"resource_index","type":"int","value":13},{"name":"u","type":"string","value":"enH1"},{"name":"no","type":"int","value":1},{"name":"zM","type":"int","value":0}],"gid":19,"width":90,"height":26},{"id":19,"x":180,"y":266,"visible":true,"properties":[{"name":"layer","type":"int","value":3},{"name":"resource_index","type":"int","value":14},{"name":"u","type":"string","value":"enH1"},{"name":"no","type":"int","value":1},{"name":"zM","type":"int","value":0}],"gid":19,"width":90,"height":26},{"id":20,"x":180,"y":240,"visible":true,"properties":[{"name":"layer","type":"int","value":3},{"name":"resource_index","type":"int","value":15},{"name":"u","type":"string","value":"bsc"},{"name":"no","type":"int","value":4},{"name":"zM","type":"int","value":0}],"gid":23,"width":90,"height":60},{"id":21,"x":0,"y":60,"visible":true,"properties":[{"name":"layer","type":"int","value":3},{"name":"resource_index","type":"int","value":16},{"name":"u","type":"string","value":"enH0"},{"name":"no","type":"int","value":0},{"name":"zM","type":"int","value":0}],"gid":17,"width":90,"height":38},{"id":22,"x":270,"y":180,"visible":true,"properties":[{"name":"layer","type":"int","value":3},{"name":"resource_index","type":"int","value":17},{"name":"u","type":"string","value":"bsc"},{"name":"no","type":"int","value":4},{"name":"zM","type":"int","value":0}],"gid":23,"width":90,"height":60},{"id":23,"x":450,"y":120,"visible":true,"properties":[{"name":"layer","type":"int","value":3},{"name":"resource_index","type":"int","value":18},{"name":"u","type":"string","value":"bsc"},{"name":"no","type":"int","value":1},{"name":"zM","type":"int","value":0}],"gid":24,"width":90,"height":60},{"id":24,"x":450,"y":180,"visible":true,"properties":[{"name":"layer","type":"int","value":3},{"name":"resource_index","type":"int","value":19},{"name":"u","type":"string","value":"bsc"},{"name":"no","type":"int","value":3},{"name":"zM","type":"int","value":0}],"gid":21,"width":90,"height":60},{"id":25,"x":450,"y":240,"visible":true,"properties":[{"name":"layer","type":"int","value":3},{"name":"resource_index","type":"int","value":20},{"name":"u","type":"string","value":"bsc"},{"name":"no","type":"int","value":1},{"name":"zM","type":"int","value":0}],"gid":24,"width":90,"height":60},{"id":26,"x":270,"y":240,"visible":true,"properties":[{"name":"layer","type":"int","value":3},{"name":"resource_index","type":"int","value":21},{"name":"u","type":"string","value":"bsc"},{"name":"no","type":"int","value":1},{"name":"zM","type":"int","value":0}],"gid":24,"width":90,"height":60},{"id":27,"x":180,"y":180,"visible":true,"properties":[{"name":"layer","type":"int","value":3},{"name":"resource_index","type":"int","value":22},{"name":"u","type":"string","value":"bsc"},{"name":"no","type":"int","value":2},{"name":"zM","type":"int","value":0}],"gid":22,"width":90,"height":60},{"id":28,"x":360,"y":180,"visible":true,"properties":[{"name":"layer","type":"int","value":3},{"name":"resource_index","type":"int","value":23},{"name":"u","type":"string","value":"bsc"},{"name":"no","type":"int","value":3},{"name":"zM","type":"int","value":0}],"gid":21,"width":90,"height":60},{"id":29,"x":360,"y":240,"visible":true,"properties":[{"name":"layer","type":"int","value":3},{"name":"resource_index","type":"int","value":24},{"name":"u","type":"string","value":"bsc"},{"name":"no","type":"int","value":1},{"name":"zM","type":"int","value":0}],"gid":24,"width":90,"height":60},{"id":30,"x":540,"y":240,"visible":true,"properties":[{"name":"layer","type":"int","value":3},{"name":"resource_index","type":"int","value":25},{"name":"u","type":"string","value":"bsc"},{"name":"no","type":"int","value":2},{"name":"zM","type":"int","value":0}],"gid":22,"width":90,"height":60},{"id":31,"x":540,"y":180,"visible":true,"properties":[{"name":"layer","type":"int","value":3},{"name":"resource_index","type":"int","value":26},{"name":"u","type":"string","value":"bsc"},{"name":"no","type":"int","value":3},{"name":"zM","type":"int","value":0}],"gid":21,"width":90,"height":60},{"id":32,"x":450,"y":60,"visible":true,"properties":[{"name":"layer","type":"int","value":3},{"name":"resource_index","type":"int","value":27},{"name":"u","type":"string","value":"enH0"},{"name":"no","type":"int","value":1},{"name":"zM","type":"int","value":0}],"gid":18,"width":90,"height":39},{"id":33,"x":630,"y":240,"visible":true,"properties":[{"name":"layer","type":"int","value":3},{"name":"resource_index","type":"int","value":28},{"name":"u","type":"string","value":"bsc"},{"name":"no","type":"int","value":1},{"name":"zM","type":"int","value":0}],"gid":24,"width":90,"height":60},{"id":34,"x":810,"y":180,"visible":true,"properties":[{"name":"layer","type":"int","value":3},{"name":"resource_index","type":"int","value":29},{"name":"u","type":"string","value":"bsc"},{"name":"no","type":"int","value":4},{"name":"zM","type":"int","value":0}],"gid":23,"width":90,"height":60},{"id":35,"x":720,"y":240,"visible":true,"properties":[{"name":"layer","type":"int","value":3},{"name":"resource_index","type":"int","value":30},{"name":"u","type":"string","value":"bsc"},{"name":"no","type":"int","value":3},{"name":"zM","type":"int","value":0}],"gid":21,"width":90,"height":60},{"id":36,"x":-180,"y":240,"visible":true,"properties":[{"name":"layer","type":"int","value":3},{"name":"resource_index","type":"int","value":31},{"name":"u","type":"string","value":"bsc"},{"name":"no","type":"int","value":2},{"name":"zM","type":"int","value":0}],"gid":22,"width":90,"height":60},{"id":37,"x":630,"y":180,"visible":true,"properties":[{"name":"layer","type":"int","value":3},{"name":"resource_index","type":"int","value":32},{"name":"u","type":"string","value":"bsc"},{"name":"no","type":"int","value":2},{"name":"zM","type":"int","value":0}],"gid":22,"width":90,"height":60},{"id":38,"x":540,"y":60,"visible":true,"properties":[{"name":"layer","type":"int","value":3},{"name":"resource_index","type":"int","value":33},{"name":"u","type":"string","value":"enH0"},{"name":"no","type":"int","value":0},{"name":"zM","type":"int","value":0}],"gid":17,"width":90,"height":38},{"id":39,"x":810,"y":120,"visible":true,"properties":[{"name":"layer","type":"int","value":3},{"name":"resource_index","type":"int","value":34},{"name":"u","type":"string","value":"bsc"},{"name":"no","type":"int","value":3},{"name":"zM","type":"int","value":0}],"gid":21,"width":90,"height":60},{"id":40,"x":-90,"y":60,"visible":true,"properties":[{"name":"layer","type":"int","value":3},{"name":"resource_index","type":"int","value":35},{"name":"u","type":"string","value":"enH0"},{"name":"no","type":"int","value":1},{"name":"zM","type":"int","value":0}],"gid":18,"width":90,"height":39},{"id":41,"x":270,"y":265,"visible":true,"properties":[{"name":"layer","type":"int","value":3},{"name":"resource_index","type":"int","value":36},{"name":"u","type":"string","value":"enH1"},{"name":"no","type":"int","value":0},{"name":"zM","type":"int","value":0}],"gid":16,"width":90,"height":25},{"id":42,"x":0,"y":180,"visible":true,"properties":[{"name":"layer","type":"int","value":3},{"name":"resource_index","type":"int","value":37},{"name":"u","type":"string","value":"bsc"},{"name":"no","type":"int","value":0},{"name":"zM","type":"int","value":0}],"gid":25,"width":90,"height":60},{"id":43,"x":720,"y":265,"visible":true,"properties":[{"name":"layer","type":"int","value":3},{"name":"resource_index","type":"int","value":38},{"name":"u","type":"string","value":"enH1"},{"name":"no","type":"int","value":0},{"name":"zM","type":"int","value":0}],"gid":16,"width":90,"height":25},{"id":44,"x":90,"y":120,"visible":true,"properties":[{"name":"layer","type":"int","value":3},{"name":"resource_index","type":"int","value":39},{"name":"u","type":"string","value":"bsc"},{"name":"no","type":"int","value":1},{"name":"zM","type":"int","value":0}],"gid":24,"width":90,"height":60},{"id":45,"x":90,"y":240,"visible":true,"properties":[{"name":"layer","type":"int","value":3},{"name":"resource_index","type":"int","value":40},{"name":"u","type":"string","value":"bsc"},{"name":"no","type":"int","value":2},{"name":"zM","type":"int","value":0}],"gid":22,"width":90,"height":60},{"id":46,"x":-180,"y":180,"visible":true,"properties":[{"name":"layer","type":"int","value":3},{"name":"resource_index","type":"int","value":41},{"name":"u","type":"string","value":"bsc"},{"name":"no","type":"int","value":1},{"name":"zM","type":"int","value":0}],"gid":24,"width":90,"height":60},{"id":47,"x":810,"y":240,"visible":true,"properties":[{"name":"layer","type":"int","value":3},{"name":"resource_index","type":"int","value":42},{"name":"u","type":"string","value":"bsc"},{"name":"no","type":"int","value":2},{"name":"zM","type":"int","value":0}],"gid":22,"width":90,"height":60},{"id":48,"x":630,"y":265,"visible":true,"properties":[{"name":"layer","type":"int","value":3},{"name":"resource_index","type":"int","value":43},{"name":"u","type":"string","value":"enH1"},{"name":"no","type":"int","value":0},{"name":"zM","type":"int","value":0}],"gid":16,"width":90,"height":25},{"id":49,"x":540,"y":120,"visible":true,"properties":[{"name":"layer","type":"int","value":3},{"name":"resource_index","type":"int","value":44},{"name":"u","type":"string","value":"bsc"},{"name":"no","type":"int","value":3},{"name":"zM","type":"int","value":0}],"gid":21,"width":90,"height":60},{"id":50,"x":90,"y":180,"visible":true,"properties":[{"name":"layer","type":"int","value":3},{"name":"resource_index","type":"int","value":45},{"name":"u","type":"string","value":"bsc"},{"name":"no","type":"int","value":3},{"name":"zM","type":"int","value":0}],"gid":21,"width":90,"height":60},{"id":51,"x":810,"y":266,"visible":true,"properties":[{"name":"layer","type":"int","value":3},{"name":"resource_index","type":"int","value":46},{"name":"u","type":"string","value":"enH1"},{"name":"no","type":"int","value":1},{"name":"zM","type":"int","value":0}],"gid":19,"width":90,"height":26},{"id":52,"x":720,"y":60,"visible":true,"properties":[{"name":"layer","type":"int","value":3},{"name":"resource_index","type":"int","value":47},{"name":"u","type":"string","value":"enH0"},{"name":"no","type":"int","value":0},{"name":"zM","type":"int","value":0}],"gid":17,"width":90,"height":38},{"id":53,"x":0,"y":265,"visible":true,"properties":[{"name":"layer","type":"int","value":3},{"name":"resource_index","type":"int","value":48},{"name":"u","type":"string","value":"enH1"},{"name":"no","type":"int","value":0},{"name":"zM","type":"int","value":0}],"gid":16,"width":90,"height":25},{"id":54,"x":-90,"y":240,"visible":true,"properties":[{"name":"layer","type":"int","value":3},{"name":"resource_index","type":"int","value":49},{"name":"u","type":"string","value":"bsc"},{"name":"no","type":"int","value":4},{"name":"zM","type":"int","value":0}],"gid":23,"width":90,"height":60},{"id":55,"x":90,"y":60,"visible":true,"properties":[{"name":"layer","type":"int","value":3},{"name":"resource_index","type":"int","value":50},{"name":"u","type":"string","value":"enH0"},{"name":"no","type":"int","value":1},{"name":"zM","type":"int","value":0}],"gid":18,"width":90,"height":39},{"id":56,"x":0,"y":240,"visible":true,"properties":[{"name":"layer","type":"int","value":3},{"name":"resource_index","type":"int","value":51},{"name":"u","type":"string","value":"bsc"},{"name":"no","type":"int","value":2},{"name":"zM","type":"int","value":0}],"gid":22,"width":90,"height":60},{"id":57,"x":810,"y":60,"visible":true,"properties":[{"name":"layer","type":"int","value":3},{"name":"resource_index","type":"int","value":52},{"name":"u","type":"string","value":"enH0"},{"name":"no","type":"int","value":0},{"name":"zM","type":"int","value":0}],"gid":17,"width":90,"height":38},{"id":58,"x":0,"y":120,"visible":true,"properties":[{"name":"layer","type":"int","value":3},{"name":"resource_index","type":"int","value":53},{"name":"u","type":"string","value":"bsc"},{"name":"no","type":"int","value":3},{"name":"zM","type":"int","value":0}],"gid":21,"width":90,"height":60},{"id":59,"x":-90,"y":265,"visible":true,"properties":[{"name":"layer","type":"int","value":3},{"name":"resource_index","type":"int","value":54},{"name":"u","type":"string","value":"enH1"},{"name":"no","type":"int","value":0},{"name":"zM","type":"int","value":0}],"gid":16,"width":90,"height":25},{"id":60,"x":-180,"y":60,"visible":true,"properties":[{"name":"layer","type":"int","value":3},{"name":"resource_index","type":"int","value":55},{"name":"u","type":"string","value":"enH0"},{"name":"no","type":"int","value":1},{"name":"zM","type":"int","value":0}],"gid":18,"width":90,"height":39},{"id":61,"x":-180,"y":120,"visible":true,"properties":[{"name":"layer","type":"int","value":3},{"name":"resource_index","type":"int","value":56},{"name":"u","type":"string","value":"bsc"},{"name":"no","type":"int","value":1},{"name":"zM","type":"int","value":0}],"gid":24,"width":90,"height":60},{"id":62,"x":-180,"y":266,"visible":true,"properties":[{"name":"layer","type":"int","value":3},{"name":"resource_index","type":"int","value":57},{"name":"u","type":"string","value":"enH1"},{"name":"no","type":"int","value":1},{"name":"zM","type":"int","value":0}],"gid":19,"width":90,"height":26},{"id":63,"x":-90,"y":120,"visible":true,"properties":[{"name":"layer","type":"int","value":3},{"name":"resource_index","type":"int","value":58},{"name":"u","type":"string","value":"bsc"},{"name":"no","type":"int","value":3},{"name":"zM","type":"int","value":0}],"gid":21,"width":90,"height":60},{"id":64,"x":-90,"y":180,"visible":true,"properties":[{"name":"layer","type":"int","value":3},{"name":"resource_index","type":"int","value":59},{"name":"u","type":"string","value":"bsc"},{"name":"no","type":"int","value":3},{"name":"zM","type":"int","value":0}],"gid":21,"width":90,"height":60}],"properties":[]},{"id":15,"name":"portal","type":"objectgroup","visible":true,"opacity":1,"draworder":"index","offsetx":0,"offsety":0,"parallaxx":1,"parallaxy":1,"objects":[{"id":72,"x":-31,"y":5,"visible":true,"properties":[{"name":"x","type":"int","value":-31},{"name":"y","type":"int","value":5},{"name":"pn","type":"string","value":"sp"},{"name":"pt","type":"int","value":0},{"name":"tm","type":"int","value":999999999},{"name":"tn","type":"string","value":""},{"name":"horizontalImpact","type":"int","value":0}],"point":true},{"id":73,"x":-156,"y":44,"visible":true,"properties":[{"name":"x","type":"int","value":-112},{"name":"y","type":"int","value":35},{"name":"pn","type":"string","value":"left00"},{"name":"pt","type":"int","value":2},{"name":"tm","type":"int","value":106020400},{"name":"tn","type":"string","value":"right00"},{"name":"delay","type":"int","value":0},{"name":"script","type":"string","value":""},{"name":"onlyOnce","type":"int","value":0},{"name":"hideTooltip","type":"int","value":0},{"name":"horizontalImpact","type":"int","value":0}],"gid":70,"width":89,"height":257},{"id":74,"x":258,"y":-14,"visible":true,"properties":[{"name":"x","type":"int","value":258},{"name":"y","type":"int","value":-14},{"name":"pn","type":"string","value":"investigate2"},{"name":"pt","type":"int","value":9},{"name":"tm","type":"int","value":999999999},{"name":"tn","type":"string","value":""},{"name":"delay","type":"int","value":60},{"name":"script","type":"string","value":"investigate2"},{"name":"onlyOnce","type":"int","value":1},{"name":"hideTooltip","type":"int","value":0},{"name":"horizontalImpact","type":"int","value":0}],"point":true},{"id":75,"x":258,"y":-114,"visible":true,"properties":[{"name":"x","type":"int","value":258},{"name":"y","type":"int","value":-114},{"name":"pn","type":"string","value":"investigate2-1"},{"name":"pt","type":"int","value":9},{"name":"tm","type":"int","value":999999999},{"name":"tn","type":"string","value":""},{"name":"delay","type":"int","value":60},{"name":"script","type":"string","value":"investigate2"},{"name":"onlyOnce","type":"int","value":1},{"name":"hideTooltip","type":"int","value":0},{"name":"horizontalImpact","type":"int","value":0}],"point":true}],"properties":[]},{"id":16,"name":"life","type":"objectgroup","visible":true,"opacity":1,"draworder":"index","offsetx":0,"offsety":0,"parallaxx":1,"parallaxy":1,"objects":[{"id":76,"x":899,"y":35,"visible":true,"properties":[{"name":"f","type":"int","value":0},{"name":"x","type":"int","value":899},{"name":"y","type":"int","value":35},{"name":"cy","type":"int","value":35},{"name":"fh","type":"int","value":11},{"name":"id","type":"int","value":1300014},{"name":"rx0","type":"int","value":849},{"name":"rx1","type":"int","value":899},{"name":"hide","type":"int","value":1},{"name":"type","type":"string","value":"n"},{"name":"mobTime","type":"int","value":0},{"name":"npc_aseprite","type":"file","value":"../../Npc/1300014.img/animation.aseprite"}],"point":true}],"properties":[]},{"id":17,"name":"foothold","type":"objectgroup","visible":true,"opacity":1,"draworder":"index","offsetx":0,"offsety":0,"parallaxx":1,"parallaxy":1,"objects":[{"id":77,"x":180,"y":35,"visible":true,"properties":[{"name":"layer","type":"int","value":3},{"name":"group","type":"int","value":0},{"name":"id","type":"int","value":1},{"name":"fh_layer","type":"int","value":3},{"name":"fh_group","type":"int","value":0},{"name":"fh_id","type":"int","value":1},{"name":"x1","type":"int","value":180},{"name":"x2","type":"int","value":270},{"name":"y1","type":"int","value":35},{"name":"y2","type":"int","value":35},{"name":"next","type":"int","value":4},{"name":"prev","type":"int","value":10}],"polyline":[{"x":0,"y":0},{"x":90,"y":0}]},{"id":78,"x":360,"y":35,"visible":true,"properties":[{"name":"layer","type":"int","value":3},{"name":"group","type":"int","value":0},{"name":"id","type":"int","value":2},{"name":"fh_layer","type":"int","value":3},{"name":"fh_group","type":"int","value":0},{"name":"fh_id","type":"int","value":2},{"name":"x1","type":"int","value":360},{"name":"x2","type":"int","value":450},{"name":"y1","type":"int","value":35},{"name":"y2","type":"int","value":35},{"name":"next","type":"int","value":6},{"name":"prev","type":"int","value":4}],"polyline":[{"x":0,"y":0},{"x":90,"y":0}]},{"id":79,"x":630,"y":35,"visible":true,"properties":[{"name":"layer","type":"int","value":3},{"name":"group","type":"int","value":0},{"name":"id","type":"int","value":3},{"name":"fh_layer","type":"int","value":3},{"name":"fh_group","type":"int","value":0},{"name":"fh_id","type":"int","value":3},{"name":"x1","type":"int","value":630},{"name":"x2","type":"int","value":720},{"name":"y1","type":"int","value":35},{"name":"y2","type":"int","value":35},{"name":"next","type":"int","value":9},{"name":"prev","type":"int","value":7}],"polyline":[{"x":0,"y":0},{"x":90,"y":0}]},{"id":80,"x":270,"y":35,"visible":true,"properties":[{"name":"layer","type":"int","value":3},{"name":"group","type":"int","value":0},{"name":"id","type":"int","value":4},{"name":"fh_layer","type":"int","value":3},{"name":"fh_group","type":"int","value":0},{"name":"fh_id","type":"int","value":4},{"name":"x1","type":"int","value":270},{"name":"x2","type":"int","value":360},{"name":"y1","type":"int","value":35},{"name":"y2","type":"int","value":35},{"name":"next","type":"int","value":2},{"name":"prev","type":"int","value":1}],"polyline":[{"x":0,"y":0},{"x":90,"y":0}]},{"id":81,"x":0,"y":35,"visible":true,"properties":[{"name":"layer","type":"int","value":3},{"name":"group","type":"int","value":0},{"name":"id","type":"int","value":5},{"name":"fh_layer","type":"int","value":3},{"name":"fh_group","type":"int","value":0},{"name":"fh_id","type":"int","value":5},{"name":"x1","type":"int","value":0},{"name":"x2","type":"int","value":90},{"name":"y1","type":"int","value":35},{"name":"y2","type":"int","value":35},{"name":"next","type":"int","value":10},{"name":"prev","type":"int","value":8}],"polyline":[{"x":0,"y":0},{"x":90,"y":0}]},{"id":82,"x":450,"y":35,"visible":true,"properties":[{"name":"layer","type":"int","value":3},{"name":"group","type":"int","value":0},{"name":"id","type":"int","value":6},{"name":"fh_layer","type":"int","value":3},{"name":"fh_group","type":"int","value":0},{"name":"fh_id","type":"int","value":6},{"name":"x1","type":"int","value":450},{"name":"x2","type":"int","value":540},{"name":"y1","type":"int","value":35},{"name":"y2","type":"int","value":35},{"name":"next","type":"int","value":7},{"name":"prev","type":"int","value":2}],"polyline":[{"x":0,"y":0},{"x":90,"y":0}]},{"id":83,"x":540,"y":35,"visible":true,"properties":[{"name":"layer","type":"int","value":3},{"name":"group","type":"int","value":0},{"name":"id","type":"int","value":7},{"name":"fh_layer","type":"int","value":3},{"name":"fh_group","type":"int","value":0},{"name":"fh_id","type":"int","value":7},{"name":"x1","type":"int","value":540},{"name":"x2","type":"int","value":630},{"name":"y1","type":"int","value":35},{"name":"y2","type":"int","value":35},{"name":"next","type":"int","value":3},{"name":"prev","type":"int","value":6}],"polyline":[{"x":0,"y":0},{"x":90,"y":0}]},{"id":84,"x":-90,"y":35,"visible":true,"properties":[{"name":"layer","type":"int","value":3},{"name":"group","type":"int","value":0},{"name":"id","type":"int","value":8},{"name":"fh_layer","type":"int","value":3},{"name":"fh_group","type":"int","value":0},{"name":"fh_id","type":"int","value":8},{"name":"x1","type":"int","value":-90},{"name":"x2","type":"int","value":0},{"name":"y1","type":"int","value":35},{"name":"y2","type":"int","value":35},{"name":"next","type":"int","value":5},{"name":"prev","type":"int","value":12}],"polyline":[{"x":0,"y":0},{"x":90,"y":0}]},{"id":85,"x":720,"y":35,"visible":true,"properties":[{"name":"layer","type":"int","value":3},{"name":"group","type":"int","value":0},{"name":"id","type":"int","value":9},{"name":"fh_layer","type":"int","value":3},{"name":"fh_group","type":"int","value":0},{"name":"fh_id","type":"int","value":9},{"name":"x1","type":"int","value":720},{"name":"x2","type":"int","value":810},{"name":"y1","type":"int","value":35},{"name":"y2","type":"int","value":35},{"name":"next","type":"int","value":11},{"name":"prev","type":"int","value":3}],"polyline":[{"x":0,"y":0},{"x":90,"y":0}]},{"id":86,"x":90,"y":35,"visible":true,"properties":[{"name":"layer","type":"int","value":3},{"name":"group","type":"int","value":0},{"name":"id","type":"int","value":10},{"name":"fh_layer","type":"int","value":3},{"name":"fh_group","type":"int","value":0},{"name":"fh_id","type":"int","value":10},{"name":"x1","type":"int","value":90},{"name":"x2","type":"int","value":180},{"name":"y1","type":"int","value":35},{"name":"y2","type":"int","value":35},{"name":"next","type":"int","value":1},{"name":"prev","type":"int","value":5}],"polyline":[{"x":0,"y":0},{"x":90,"y":0}]},{"id":87,"x":810,"y":35,"visible":true,"properties":[{"name":"layer","type":"int","value":3},{"name":"group","type":"int","value":0},{"name":"id","type":"int","value":11},{"name":"fh_layer","type":"int","value":3},{"name":"fh_group","type":"int","value":0},{"name":"fh_id","type":"int","value":11},{"name":"x1","type":"int","value":810},{"name":"x2","type":"int","value":900},{"name":"y1","type":"int","value":35},{"name":"y2","type":"int","value":35},{"name":"next","type":"int","value":0},{"name":"prev","type":"int","value":9}],"polyline":[{"x":0,"y":0},{"x":90,"y":0}]},{"id":88,"x":-180,"y":35,"visible":true,"properties":[{"name":"layer","type":"int","value":3},{"name":"group","type":"int","value":0},{"name":"id","type":"int","value":12},{"name":"fh_layer","type":"int","value":3},{"name":"fh_group","type":"int","value":0},{"name":"fh_id","type":"int","value":12},{"name":"x1","type":"int","value":-180},{"name":"x2","type":"int","value":-90},{"name":"y1","type":"int","value":35},{"name":"y2","type":"int","value":35},{"name":"next","type":"int","value":8},{"name":"prev","type":"int","value":0}],"polyline":[{"x":0,"y":0},{"x":90,"y":0}]}],"properties":[]},{"id":18,"name":"miniMap","type":"objectgroup","visible":true,"opacity":1,"draworder":"index","offsetx":0,"offsety":0,"parallaxx":1,"parallaxy":1,"objects":[{"id":89,"x":228,"y":966,"visible":true,"properties":[{"name":"mag","type":"int","value":4},{"name":"centerX","type":"int","value":228},{"name":"centerY","type":"int","value":966},{"name":"canvas_path","type":"string","value":"../images/30627.png"},{"name":"canvas_width","type":"int","value":83},{"name":"canvas_height","type":"int","value":80},{"name":"canvas_origin_x","type":"int","value":0},{"name":"canvas_origin_y","type":"int","value":0}],"point":true}],"properties":[]}],"tilesets":[{"firstgid":1,"source":"../tilesets/bg_mushCatle.tsj"},{"firstgid":14,"source":"../tilesets/tile_grassySoil.tsj"},{"firstgid":36,"source":"../tilesets/obj_Tdungeon_mushCatle_tower.tsj"},{"firstgid":40,"source":"../tilesets/obj_Tdungeon_mushCatle_forest.tsj"},{"firstgid":70,"source":"../tilesets/portal_MapHelper.img_portal_game_pv.tsj"}],"properties":[{"name":"bgm","type":"string","value":"Bgm19/MushCatle"},{"name":"fly","type":"int","value":0},{"name":"swim","type":"int","value":0},{"name":"town","type":"int","value":0},{"name":"VRTop","type":"int","value":-790},{"name":"cloud","type":"int","value":0},{"name":"VRLeft","type":"int","value":-180},{"name":"VRRight","type":"int","value":900},{"name":"lvLimit","type":"int","value":30},{"name":"mapMark","type":"string","value":"MushCatle"},{"name":"mobRate","type":"float","value":1.5000001192092896},{"name":"version","type":"int","value":10},{"name":"VRBottom","type":"int","value":250},{"name":"noMapCmd","type":"int","value":0},{"name":"returnMap","type":"int","value":106020000},{"name":"fieldLimit","type":"int","value":0},{"name":"hideMinimap","type":"int","value":0},{"name":"lvForceMove","type":"int","value":39},{"name":"onUserEnter","type":"string","value":""},{"name":"forcedReturn","type":"int","value":999999999},{"name":"onFirstUserEnter","type":"string","value":""}]}