{"type":"map","orientation":"orthogonal","renderorder":"right-down","infinite":false,"tilewidth":1,"tileheight":1,"width":982,"height":2680,"parallaxoriginx":-400,"parallaxoriginy":80,"nextlayerid":32,"nextobjectid":153,"layers":[{"id":1,"name":"background_back_0","type":"imagelayer","visible":true,"opacity":1,"image":"../images/29604.png","imagewidth":179,"imageheight":170,"offsetx":-89,"offsety":-5,"repeatx":true,"repeaty":true,"parallaxx":0,"parallaxy":0,"properties":[{"name":"a","type":"int","value":255},{"name":"f","type":"int","value":0},{"name":"x","type":"int","value":0},{"name":"y","type":"int","value":0},{"name":"bS","type":"string","value":"snowyLightrock"},{"name":"cx","type":"int","value":0},{"name":"cy","type":"int","value":0},{"name":"no","type":"int","value":0},{"name":"rx","type":"int","value":0},{"name":"ry","type":"int","value":0},{"name":"ani","type":"int","value":0},{"name":"type","type":"int","value":3},{"name":"front","type":"int","value":0}]},{"id":2,"name":"background_back_1","type":"imagelayer","visible":true,"opacity":1,"image":"../images/27237.png","imagewidth":725,"imageheight":199,"offsetx":-277,"offsety":248,"repeatx":false,"repeaty":true,"parallaxx":0.6,"parallaxy":0.4,"properties":[{"name":"a","type":"int","value":255},{"name":"f","type":"int","value":0},{"name":"x","type":"int","value":85},{"name":"y","type":"int","value":267},{"name":"bS","type":"string","value":"snowyLightrock2"},{"name":"cx","type":"int","value":0},{"name":"cy","type":"int","value":0},{"name":"no","type":"int","value":22},{"name":"rx","type":"int","value":-60},{"name":"ry","type":"int","value":-40},{"name":"ani","type":"int","value":0},{"name":"type","type":"int","value":2},{"name":"front","type":"int","value":0}]},{"id":3,"name":"background_back_2","type":"imagelayer","visible":true,"opacity":1,"image":"../images/27218.png","imagewidth":282,"imageheight":300,"offsetx":-403,"offsety":-20,"repeatx":false,"repeaty":true,"parallaxx":1,"parallaxy":1,"properties":[{"name":"a","type":"int","value":255},{"name":"f","type":"int","value":0},{"name":"x","type":"int","value":-262},{"name":"y","type":"int","value":50},{"name":"bS","type":"string","value":"snowyLightrock2"},{"name":"cx","type":"int","value":0},{"name":"cy","type":"int","value":600},{"name":"no","type":"int","value":3},{"name":"rx","type":"int","value":-100},{"name":"ry","type":"int","value":-100},{"name":"ani","type":"int","value":0},{"name":"type","type":"int","value":2},{"name":"front","type":"int","value":0}]},{"id":4,"name":"background_back_3","type":"imagelayer","visible":true,"opacity":1,"image":"../images/27219.png","imagewidth":306,"imageheight":300,"offsetx":-403,"offsety":280,"repeatx":false,"repeaty":true,"parallaxx":1,"parallaxy":1,"properties":[{"name":"a","type":"int","value":255},{"name":"f","type":"int","value":0},{"name":"x","type":"int","value":-250},{"name":"y","type":"int","value":350},{"name":"bS","type":"string","value":"snowyLightrock2"},{"name":"cx","type":"int","value":0},{"name":"cy","type":"int","value":600},{"name":"no","type":"int","value":4},{"name":"rx","type":"int","value":-100},{"name":"ry","type":"int","value":-100},{"name":"ani","type":"int","value":0},{"name":"type","type":"int","value":2},{"name":"front","type":"int","value":0}]},{"id":5,"name":"background_back_4","type":"imagelayer","visible":true,"opacity":1,"image":"../images/27220.png","imagewidth":137,"imageheight":114,"offsetx":-384,"offsety":-181,"repeatx":false,"repeaty":true,"parallaxx":1,"parallaxy":1,"properties":[{"name":"a","type":"int","value":255},{"name":"f","type":"int","value":0},{"name":"x","type":"int","value":-316},{"name":"y","type":"int","value":-204},{"name":"bS","type":"string","value":"snowyLightrock2"},{"name":"cx","type":"int","value":0},{"name":"cy","type":"int","value":600},{"name":"no","type":"int","value":5},{"name":"rx","type":"int","value":-100},{"name":"ry","type":"int","value":-100},{"name":"ani","type":"int","value":0},{"name":"type","type":"int","value":2},{"name":"front","type":"int","value":0}]},{"id":6,"name":"background_back_5","type":"imagelayer","visible":true,"opacity":1,"image":"../images/27222.png","imagewidth":43,"imageheight":72,"offsetx":-273,"offsety":-17,"repeatx":false,"repeaty":true,"parallaxx":1,"parallaxy":1,"properties":[{"name":"a","type":"int","value":255},{"name":"f","type":"int","value":0},{"name":"x","type":"int","value":-252},{"name":"y","type":"int","value":-61},{"name":"bS","type":"string","value":"snowyLightrock2"},{"name":"cx","type":"int","value":0},{"name":"cy","type":"int","value":600},{"name":"no","type":"int","value":7},{"name":"rx","type":"int","value":-100},{"name":"ry","type":"int","value":-100},{"name":"ani","type":"int","value":0},{"name":"type","type":"int","value":2},{"name":"front","type":"int","value":0}]},{"id":7,"name":"background_back_6","type":"imagelayer","visible":true,"opacity":1,"image":"../images/27223.png","imagewidth":104,"imageheight":91,"offsetx":-209,"offsety":-225,"repeatx":false,"repeaty":true,"parallaxx":1,"parallaxy":1,"properties":[{"name":"a","type":"int","value":255},{"name":"f","type":"int","value":0},{"name":"x","type":"int","value":-157},{"name":"y","type":"int","value":-260},{"name":"bS","type":"string","value":"snowyLightrock2"},{"name":"cx","type":"int","value":0},{"name":"cy","type":"int","value":600},{"name":"no","type":"int","value":8},{"name":"rx","type":"int","value":-100},{"name":"ry","type":"int","value":-100},{"name":"ani","type":"int","value":0},{"name":"type","type":"int","value":2},{"name":"front","type":"int","value":0}]},{"id":8,"name":"background_back_7","type":"imagelayer","visible":true,"opacity":1,"image":"../images/27224.png","imagewidth":90,"imageheight":77,"offsetx":-244,"offsety":186,"repeatx":false,"repeaty":true,"parallaxx":1,"parallaxy":1,"properties":[{"name":"a","type":"int","value":255},{"name":"f","type":"int","value":0},{"name":"x","type":"int","value":-199},{"name":"y","type":"int","value":144},{"name":"bS","type":"string","value":"snowyLightrock2"},{"name":"cx","type":"int","value":0},{"name":"cy","type":"int","value":600},{"name":"no","type":"int","value":9},{"name":"rx","type":"int","value":-100},{"name":"ry","type":"int","value":-100},{"name":"ani","type":"int","value":0},{"name":"type","type":"int","value":2},{"name":"front","type":"int","value":0}]},{"id":9,"name":"background_back_8","type":"imagelayer","visible":true,"opacity":1,"image":"../images/27225.png","imagewidth":51,"imageheight":73,"offsetx":-331,"offsety":16,"repeatx":false,"repeaty":true,"parallaxx":1,"parallaxy":1,"properties":[{"name":"a","type":"int","value":255},{"name":"f","type":"int","value":0},{"name":"x","type":"int","value":-306},{"name":"y","type":"int","value":-28},{"name":"bS","type":"string","value":"snowyLightrock2"},{"name":"cx","type":"int","value":0},{"name":"cy","type":"int","value":600},{"name":"no","type":"int","value":10},{"name":"rx","type":"int","value":-100},{"name":"ry","type":"int","value":-100},{"name":"ani","type":"int","value":0},{"name":"type","type":"int","value":2},{"name":"front","type":"int","value":0}]},{"id":10,"name":"background_back_9","type":"imagelayer","visible":true,"opacity":1,"image":"../images/27226.png","imagewidth":29,"imageheight":21,"offsetx":-230,"offsety":94,"repeatx":false,"repeaty":true,"parallaxx":1,"parallaxy":1,"properties":[{"name":"a","type":"int","value":255},{"name":"f","type":"int","value":0},{"name":"x","type":"int","value":-216},{"name":"y","type":"int","value":24},{"name":"bS","type":"string","value":"snowyLightrock2"},{"name":"cx","type":"int","value":0},{"name":"cy","type":"int","value":600},{"name":"no","type":"int","value":11},{"name":"rx","type":"int","value":-100},{"name":"ry","type":"int","value":-100},{"name":"ani","type":"int","value":0},{"name":"type","type":"int","value":2},{"name":"front","type":"int","value":0}]},{"id":11,"name":"background_back_10","type":"imagelayer","visible":true,"opacity":1,"image":"../images/27228.png","imagewidth":74,"imageheight":88,"offsetx":-283,"offsety":-200,"repeatx":false,"repeaty":true,"parallaxx":1,"parallaxy":1,"properties":[{"name":"a","type":"int","value":255},{"name":"f","type":"int","value":0},{"name":"x","type":"int","value":-246},{"name":"y","type":"int","value":-236},{"name":"bS","type":"string","value":"snowyLightrock2"},{"name":"cx","type":"int","value":0},{"name":"cy","type":"int","value":600},{"name":"no","type":"int","value":13},{"name":"rx","type":"int","value":-100},{"name":"ry","type":"int","value":-100},{"name":"ani","type":"int","value":0},{"name":"type","type":"int","value":2},{"name":"front","type":"int","value":0}]},{"id":12,"name":"background_back_11","type":"imagelayer","visible":true,"opacity":1,"image":"../images/27229.png","imagewidth":291,"imageheight":300,"offsetx":293,"offsety":-324,"repeatx":false,"repeaty":true,"parallaxx":1,"parallaxy":1,"properties":[{"name":"a","type":"int","value":255},{"name":"f","type":"int","value":0},{"name":"x","type":"int","value":438},{"name":"y","type":"int","value":-254},{"name":"bS","type":"string","value":"snowyLightrock2"},{"name":"cx","type":"int","value":0},{"name":"cy","type":"int","value":600},{"name":"no","type":"int","value":14},{"name":"rx","type":"int","value":-100},{"name":"ry","type":"int","value":-100},{"name":"ani","type":"int","value":0},{"name":"type","type":"int","value":2},{"name":"front","type":"int","value":0}]},{"id":13,"name":"background_back_12","type":"imagelayer","visible":true,"opacity":1,"image":"../images/27230.png","imagewidth":242,"imageheight":300,"offsetx":340,"offsety":-24,"repeatx":false,"repeaty":true,"parallaxx":1,"parallaxy":1,"properties":[{"name":"a","type":"int","value":255},{"name":"f","type":"int","value":0},{"name":"x","type":"int","value":461},{"name":"y","type":"int","value":46},{"name":"bS","type":"string","value":"snowyLightrock2"},{"name":"cx","type":"int","value":0},{"name":"cy","type":"int","value":600},{"name":"no","type":"int","value":15},{"name":"rx","type":"int","value":-100},{"name":"ry","type":"int","value":-100},{"name":"ani","type":"int","value":0},{"name":"type","type":"int","value":2},{"name":"front","type":"int","value":0}]},{"id":14,"name":"background_back_13","type":"imagelayer","visible":true,"opacity":1,"image":"../images/27231.png","imagewidth":50,"imageheight":77,"offsetx":394,"offsety":363,"repeatx":false,"repeaty":true,"parallaxx":1,"parallaxy":1,"properties":[{"name":"a","type":"int","value":255},{"name":"f","type":"int","value":0},{"name":"x","type":"int","value":419},{"name":"y","type":"int","value":321},{"name":"bS","type":"string","value":"snowyLightrock2"},{"name":"cx","type":"int","value":0},{"name":"cy","type":"int","value":600},{"name":"no","type":"int","value":16},{"name":"rx","type":"int","value":-100},{"name":"ry","type":"int","value":-100},{"name":"ani","type":"int","value":0},{"name":"type","type":"int","value":2},{"name":"front","type":"int","value":0}]},{"id":15,"name":"background_back_14","type":"imagelayer","visible":true,"opacity":1,"image":"../images/27232.png","imagewidth":120,"imageheight":161,"offsetx":452,"offsety":-206,"repeatx":false,"repeaty":true,"parallaxx":1,"parallaxy":1,"properties":[{"name":"a","type":"int","value":255},{"name":"f","type":"int","value":0},{"name":"x","type":"int","value":512},{"name":"y","type":"int","value":-206},{"name":"bS","type":"string","value":"snowyLightrock2"},{"name":"cx","type":"int","value":0},{"name":"cy","type":"int","value":600},{"name":"no","type":"int","value":17},{"name":"rx","type":"int","value":-100},{"name":"ry","type":"int","value":-100},{"name":"ani","type":"int","value":0},{"name":"type","type":"int","value":2},{"name":"front","type":"int","value":0}]},{"id":16,"name":"background_back_15","type":"imagelayer","visible":true,"opacity":1,"image":"../images/27233.png","imagewidth":43,"imageheight":64,"offsetx":417,"offsety":580,"repeatx":false,"repeaty":true,"parallaxx":1,"parallaxy":1,"properties":[{"name":"a","type":"int","value":255},{"name":"f","type":"int","value":0},{"name":"x","type":"int","value":438},{"name":"y","type":"int","value":532},{"name":"bS","type":"string","value":"snowyLightrock2"},{"name":"cx","type":"int","value":0},{"name":"cy","type":"int","value":600},{"name":"no","type":"int","value":18},{"name":"rx","type":"int","value":-100},{"name":"ry","type":"int","value":-100},{"name":"ani","type":"int","value":0},{"name":"type","type":"int","value":2},{"name":"front","type":"int","value":0}]},{"id":17,"name":"background_back_16","type":"imagelayer","visible":true,"opacity":1,"image":"../images/27234.png","imagewidth":100,"imageheight":96,"offsetx":396,"offsety":48,"repeatx":false,"repeaty":true,"parallaxx":1,"parallaxy":1,"properties":[{"name":"a","type":"int","value":255},{"name":"f","type":"int","value":0},{"name":"x","type":"int","value":446},{"name":"y","type":"int","value":16},{"name":"bS","type":"string","value":"snowyLightrock2"},{"name":"cx","type":"int","value":0},{"name":"cy","type":"int","value":600},{"name":"no","type":"int","value":19},{"name":"rx","type":"int","value":-100},{"name":"ry","type":"int","value":-100},{"name":"ani","type":"int","value":0},{"name":"type","type":"int","value":2},{"name":"front","type":"int","value":0}]},{"id":18,"name":"background_back_17","type":"imagelayer","visible":true,"opacity":1,"image":"../images/27235.png","imagewidth":77,"imageheight":87,"offsetx":480,"offsety":-29,"repeatx":false,"repeaty":true,"parallaxx":1,"parallaxy":1,"properties":[{"name":"a","type":"int","value":255},{"name":"f","type":"int","value":0},{"name":"x","type":"int","value":518},{"name":"y","type":"int","value":-66},{"name":"bS","type":"string","value":"snowyLightrock2"},{"name":"cx","type":"int","value":0},{"name":"cy","type":"int","value":600},{"name":"no","type":"int","value":20},{"name":"rx","type":"int","value":-100},{"name":"ry","type":"int","value":-100},{"name":"ani","type":"int","value":0},{"name":"type","type":"int","value":2},{"name":"front","type":"int","value":0}]},{"id":22,"name":"layer_3_obj","type":"objectgroup","visible":true,"opacity":1,"draworder":"index","offsetx":0,"offsety":0,"parallaxx":1,"parallaxy":1,"objects":[{"id":4,"x":-405,"y":339,"visible":true,"properties":[{"name":"layer","type":"int","value":3},{"name":"resource_index","type":"int","value":0},{"name":"oS","type":"string","value":"dungeon2"},{"name":"l0","type":"string","value":"snowyLightrock"},{"name":"l1","type":"string","value":"foot"},{"name":"l2","type":"string","value":"0"},{"name":"z","type":"int","value":6},{"name":"zM","type":"int","value":2},{"name":"f","type":"int","value":0}],"gid":55,"width":418,"height":317},{"id":5,"x":149,"y":258,"visible":true,"properties":[{"name":"layer","type":"int","value":3},{"name":"resource_index","type":"int","value":1},{"name":"oS","type":"string","value":"dungeon2"},{"name":"l0","type":"string","value":"snowyLightrock"},{"name":"l1","type":"string","value":"foot"},{"name":"l2","type":"string","value":"3"},{"name":"z","type":"int","value":4},{"name":"zM","type":"int","value":1},{"name":"f","type":"int","value":0}],"gid":56,"width":434,"height":258},{"id":6,"x":-28,"y":88,"visible":true,"properties":[{"name":"layer","type":"int","value":3},{"name":"resource_index","type":"int","value":2},{"name":"oS","type":"string","value":"dungeon2"},{"name":"l0","type":"string","value":"snowyLightrock"},{"name":"l1","type":"string","value":"foot"},{"name":"l2","type":"string","value":"10"},{"name":"z","type":"int","value":5},{"name":"zM","type":"int","value":2},{"name":"f","type":"int","value":0}],"gid":57,"width":182,"height":74},{"id":7,"x":-404,"y":-26,"visible":true,"properties":[{"name":"layer","type":"int","value":3},{"name":"resource_index","type":"int","value":3},{"name":"oS","type":"string","value":"dungeon2"},{"name":"l0","type":"string","value":"snowyLightrock"},{"name":"l1","type":"string","value":"foot"},{"name":"l2","type":"string","value":"1"},{"name":"z","type":"int","value":9},{"name":"zM","type":"int","value":8},{"name":"f","type":"int","value":0}],"gid":58,"width":306,"height":190},{"id":8,"x":-225,"y":461,"visible":true,"properties":[{"name":"layer","type":"int","value":3},{"name":"resource_index","type":"int","value":4},{"name":"oS","type":"string","value":"dungeon2"},{"name":"l0","type":"string","value":"snowyLightrock"},{"name":"l1","type":"string","value":"artificiality"},{"name":"l2","type":"string","value":"4"},{"name":"z","type":"int","value":7},{"name":"zM","type":"int","value":2},{"name":"f","type":"int","value":0}],"gid":68,"width":259,"height":340},{"id":9,"x":420,"y":472,"visible":true,"properties":[{"name":"layer","type":"int","value":3},{"name":"resource_index","type":"int","value":5},{"name":"oS","type":"string","value":"dungeon2"},{"name":"l0","type":"string","value":"snowyLightrock"},{"name":"l1","type":"string","value":"foot"},{"name":"l2","type":"string","value":"4"},{"name":"z","type":"int","value":3},{"name":"zM","type":"int","value":1},{"name":"f","type":"int","value":0}],"gid":59,"width":162,"height":216},{"id":10,"x":-337,"y":-185,"visible":true,"properties":[{"name":"layer","type":"int","value":3},{"name":"resource_index","type":"int","value":6},{"name":"oS","type":"string","value":"acc12"},{"name":"l0","type":"string","value":"rienFD"},{"name":"l1","type":"string","value":"cave1"},{"name":"l2","type":"string","value":"3"},{"name":"z","type":"int","value":10},{"name":"zM","type":"int","value":8},{"name":"f","type":"int","value":0}],"gid":42,"width":127,"height":178}],"properties":[]},{"id":23,"name":"layer_4_obj","type":"objectgroup","visible":true,"opacity":1,"draworder":"index","offsetx":0,"offsety":0,"parallaxx":1,"parallaxy":1,"objects":[{"id":11,"x":381,"y":369,"visible":true,"properties":[{"name":"layer","type":"int","value":4},{"name":"resource_index","type":"int","value":0},{"name":"oS","type":"string","value":"connect"},{"name":"l0","type":"string","value":"ladder"},{"name":"l1","type":"string","value":"11"},{"name":"l2","type":"string","value":"4"},{"name":"z","type":"int","value":3},{"name":"zM","type":"int","value":4},{"name":"f","type":"int","value":0}],"gid":38,"width":48,"height":54},{"id":12,"x":370,"y":21,"visible":true,"properties":[{"name":"layer","type":"int","value":4},{"name":"resource_index","type":"int","value":1},{"name":"oS","type":"string","value":"connect"},{"name":"l0","type":"string","value":"ladder"},{"name":"l1","type":"string","value":"11"},{"name":"l2","type":"string","value":"0"},{"name":"z","type":"int","value":3},{"name":"zM","type":"int","value":7},{"name":"f","type":"int","value":0}],"gid":39,"width":61,"height":17},{"id":13,"x":378,"y":49,"visible":true,"properties":[{"name":"layer","type":"int","value":4},{"name":"resource_index","type":"int","value":2},{"name":"oS","type":"string","value":"connect"},{"name":"l0","type":"string","value":"ladder"},{"name":"l1","type":"string","value":"11"},{"name":"l2","type":"string","value":"1"},{"name":"z","type":"int","value":3},{"name":"zM","type":"int","value":6},{"name":"f","type":"int","value":0}],"gid":40,"width":53,"height":28},{"id":14,"x":381,"y":102,"visible":true,"properties":[{"name":"layer","type":"int","value":4},{"name":"resource_index","type":"int","value":3},{"name":"oS","type":"string","value":"connect"},{"name":"l0","type":"string","value":"ladder"},{"name":"l1","type":"string","value":"11"},{"name":"l2","type":"string","value":"4"},{"name":"z","type":"int","value":3},{"name":"zM","type":"int","value":6},{"name":"f","type":"int","value":0}],"gid":38,"width":48,"height":54},{"id":15,"x":381,"y":155,"visible":true,"properties":[{"name":"layer","type":"int","value":4},{"name":"resource_index","type":"int","value":4},{"name":"oS","type":"string","value":"connect"},{"name":"l0","type":"string","value":"ladder"},{"name":"l1","type":"string","value":"11"},{"name":"l2","type":"string","value":"4"},{"name":"z","type":"int","value":3},{"name":"zM","type":"int","value":6},{"name":"f","type":"int","value":0}],"gid":38,"width":48,"height":54},{"id":16,"x":381,"y":209,"visible":true,"properties":[{"name":"layer","type":"int","value":4},{"name":"resource_index","type":"int","value":5},{"name":"oS","type":"string","value":"connect"},{"name":"l0","type":"string","value":"ladder"},{"name":"l1","type":"string","value":"11"},{"name":"l2","type":"string","value":"4"},{"name":"z","type":"int","value":3},{"name":"zM","type":"int","value":5},{"name":"f","type":"int","value":0}],"gid":38,"width":48,"height":54},{"id":17,"x":381,"y":262,"visible":true,"properties":[{"name":"layer","type":"int","value":4},{"name":"resource_index","type":"int","value":6},{"name":"oS","type":"string","value":"connect"},{"name":"l0","type":"string","value":"ladder"},{"name":"l1","type":"string","value":"11"},{"name":"l2","type":"string","value":"4"},{"name":"z","type":"int","value":3},{"name":"zM","type":"int","value":5},{"name":"f","type":"int","value":0}],"gid":38,"width":48,"height":54},{"id":18,"x":381,"y":315,"visible":true,"properties":[{"name":"layer","type":"int","value":4},{"name":"resource_index","type":"int","value":7},{"name":"oS","type":"string","value":"connect"},{"name":"l0","type":"string","value":"ladder"},{"name":"l1","type":"string","value":"11"},{"name":"l2","type":"string","value":"4"},{"name":"z","type":"int","value":3},{"name":"zM","type":"int","value":5},{"name":"f","type":"int","value":0}],"gid":38,"width":48,"height":54},{"id":19,"x":379,"y":386,"visible":true,"properties":[{"name":"layer","type":"int","value":4},{"name":"resource_index","type":"int","value":8},{"name":"oS","type":"string","value":"connect"},{"name":"l0","type":"string","value":"ladder"},{"name":"l1","type":"string","value":"11"},{"name":"l2","type":"string","value":"3"},{"name":"z","type":"int","value":3},{"name":"zM","type":"int","value":4},{"name":"f","type":"int","value":0}],"gid":41,"width":50,"height":18}],"properties":[]},{"id":24,"name":"layer_5_tile","type":"objectgroup","visible":true,"opacity":1,"draworder":"index","offsetx":0,"offsety":0,"parallaxx":1,"parallaxy":1,"objects":[{"id":20,"x":490,"y":481,"visible":true,"properties":[{"name":"layer","type":"int","value":5},{"name":"resource_index","type":"int","value":0},{"name":"u","type":"string","value":"edU"},{"name":"no","type":"int","value":0},{"name":"zM","type":"int","value":0}],"gid":2,"width":95,"height":35},{"id":21,"x":540,"y":540,"visible":true,"properties":[{"name":"layer","type":"int","value":5},{"name":"resource_index","type":"int","value":1},{"name":"u","type":"string","value":"enV1"},{"name":"no","type":"int","value":1},{"name":"zM","type":"int","value":0}],"gid":3,"width":33,"height":60},{"id":22,"x":270,"y":660,"visible":true,"properties":[{"name":"layer","type":"int","value":5},{"name":"resource_index","type":"int","value":2},{"name":"u","type":"string","value":"bsc"},{"name":"no","type":"int","value":2},{"name":"zM","type":"int","value":0}],"gid":4,"width":90,"height":60},{"id":23,"x":540,"y":600,"visible":true,"properties":[{"name":"layer","type":"int","value":5},{"name":"resource_index","type":"int","value":3},{"name":"u","type":"string","value":"enV1"},{"name":"no","type":"int","value":1},{"name":"zM","type":"int","value":0}],"gid":3,"width":33,"height":60},{"id":24,"x":360,"y":540,"visible":true,"properties":[{"name":"layer","type":"int","value":5},{"name":"resource_index","type":"int","value":4},{"name":"u","type":"string","value":"bsc"},{"name":"no","type":"int","value":3},{"name":"zM","type":"int","value":0}],"gid":5,"width":90,"height":60},{"id":25,"x":540,"y":660,"visible":true,"properties":[{"name":"layer","type":"int","value":5},{"name":"resource_index","type":"int","value":5},{"name":"u","type":"string","value":"enV1"},{"name":"no","type":"int","value":0},{"name":"zM","type":"int","value":0}],"gid":6,"width":34,"height":60},{"id":26,"x":360,"y":720,"visible":true,"properties":[{"name":"layer","type":"int","value":5},{"name":"resource_index","type":"int","value":6},{"name":"u","type":"string","value":"bsc"},{"name":"no","type":"int","value":3},{"name":"zM","type":"int","value":0}],"gid":5,"width":90,"height":60},{"id":27,"x":540,"y":720,"visible":true,"properties":[{"name":"layer","type":"int","value":5},{"name":"resource_index","type":"int","value":7},{"name":"u","type":"string","value":"enV1"},{"name":"no","type":"int","value":1},{"name":"zM","type":"int","value":0}],"gid":3,"width":33,"height":60},{"id":28,"x":270,"y":600,"visible":true,"properties":[{"name":"layer","type":"int","value":5},{"name":"resource_index","type":"int","value":8},{"name":"u","type":"string","value":"bsc"},{"name":"no","type":"int","value":0},{"name":"zM","type":"int","value":0}],"gid":7,"width":90,"height":60},{"id":29,"x":360,"y":600,"visible":true,"properties":[{"name":"layer","type":"int","value":5},{"name":"resource_index","type":"int","value":9},{"name":"u","type":"string","value":"bsc"},{"name":"no","type":"int","value":1},{"name":"zM","type":"int","value":0}],"gid":8,"width":90,"height":60},{"id":30,"x":-90,"y":540,"visible":true,"properties":[{"name":"layer","type":"int","value":5},{"name":"resource_index","type":"int","value":10},{"name":"u","type":"string","value":"bsc"},{"name":"no","type":"int","value":4},{"name":"zM","type":"int","value":0}],"gid":9,"width":90,"height":60},{"id":31,"x":270,"y":720,"visible":true,"properties":[{"name":"layer","type":"int","value":5},{"name":"resource_index","type":"int","value":11},{"name":"u","type":"string","value":"bsc"},{"name":"no","type":"int","value":3},{"name":"zM","type":"int","value":0}],"gid":5,"width":90,"height":60},{"id":32,"x":360,"y":660,"visible":true,"properties":[{"name":"layer","type":"int","value":5},{"name":"resource_index","type":"int","value":12},{"name":"u","type":"string","value":"bsc"},{"name":"no","type":"int","value":3},{"name":"zM","type":"int","value":0}],"gid":5,"width":90,"height":60},{"id":33,"x":360,"y":480,"visible":true,"properties":[{"name":"layer","type":"int","value":5},{"name":"resource_index","type":"int","value":13},{"name":"u","type":"string","value":"enH0"},{"name":"no","type":"int","value":0},{"name":"zM","type":"int","value":0}],"gid":10,"width":90,"height":33},{"id":34,"x":450,"y":600,"visible":true,"properties":[{"name":"layer","type":"int","value":5},{"name":"resource_index","type":"int","value":14},{"name":"u","type":"string","value":"bsc"},{"name":"no","type":"int","value":3},{"name":"zM","type":"int","value":0}],"gid":5,"width":90,"height":60},{"id":35,"x":450,"y":660,"visible":true,"properties":[{"name":"layer","type":"int","value":5},{"name":"resource_index","type":"int","value":15},{"name":"u","type":"string","value":"bsc"},{"name":"no","type":"int","value":3},{"name":"zM","type":"int","value":0}],"gid":5,"width":90,"height":60},{"id":36,"x":450,"y":540,"visible":true,"properties":[{"name":"layer","type":"int","value":5},{"name":"resource_index","type":"int","value":16},{"name":"u","type":"string","value":"bsc"},{"name":"no","type":"int","value":2},{"name":"zM","type":"int","value":0}],"gid":4,"width":90,"height":60},{"id":37,"x":450,"y":480,"visible":true,"properties":[{"name":"layer","type":"int","value":5},{"name":"resource_index","type":"int","value":17},{"name":"u","type":"string","value":"enH0"},{"name":"no","type":"int","value":0},{"name":"zM","type":"int","value":0}],"gid":10,"width":90,"height":33},{"id":38,"x":450,"y":720,"visible":true,"properties":[{"name":"layer","type":"int","value":5},{"name":"resource_index","type":"int","value":18},{"name":"u","type":"string","value":"bsc"},{"name":"no","type":"int","value":2},{"name":"zM","type":"int","value":0}],"gid":4,"width":90,"height":60},{"id":39,"x":0,"y":720,"visible":true,"properties":[{"name":"layer","type":"int","value":5},{"name":"resource_index","type":"int","value":19},{"name":"u","type":"string","value":"bsc"},{"name":"no","type":"int","value":1},{"name":"zM","type":"int","value":0}],"gid":8,"width":90,"height":60},{"id":40,"x":270,"y":540,"visible":true,"properties":[{"name":"layer","type":"int","value":5},{"name":"resource_index","type":"int","value":20},{"name":"u","type":"string","value":"bsc"},{"name":"no","type":"int","value":1},{"name":"zM","type":"int","value":0}],"gid":8,"width":90,"height":60},{"id":41,"x":270,"y":480,"visible":true,"properties":[{"name":"layer","type":"int","value":5},{"name":"resource_index","type":"int","value":21},{"name":"u","type":"string","value":"enH0"},{"name":"no","type":"int","value":0},{"name":"zM","type":"int","value":0}],"gid":10,"width":90,"height":33},{"id":42,"x":180,"y":540,"visible":true,"properties":[{"name":"layer","type":"int","value":5},{"name":"resource_index","type":"int","value":22},{"name":"u","type":"string","value":"bsc"},{"name":"no","type":"int","value":4},{"name":"zM","type":"int","value":0}],"gid":9,"width":90,"height":60},{"id":43,"x":180,"y":480,"visible":true,"properties":[{"name":"layer","type":"int","value":5},{"name":"resource_index","type":"int","value":23},{"name":"u","type":"string","value":"enH0"},{"name":"no","type":"int","value":1},{"name":"zM","type":"int","value":0}],"gid":11,"width":90,"height":33},{"id":44,"x":90,"y":540,"visible":true,"properties":[{"name":"layer","type":"int","value":5},{"name":"resource_index","type":"int","value":24},{"name":"u","type":"string","value":"bsc"},{"name":"no","type":"int","value":2},{"name":"zM","type":"int","value":0}],"gid":4,"width":90,"height":60},{"id":45,"x":90,"y":480,"visible":true,"properties":[{"name":"layer","type":"int","value":5},{"name":"resource_index","type":"int","value":25},{"name":"u","type":"string","value":"enH0"},{"name":"no","type":"int","value":2},{"name":"zM","type":"int","value":0}],"gid":12,"width":90,"height":33},{"id":46,"x":0,"y":540,"visible":true,"properties":[{"name":"layer","type":"int","value":5},{"name":"resource_index","type":"int","value":26},{"name":"u","type":"string","value":"bsc"},{"name":"no","type":"int","value":4},{"name":"zM","type":"int","value":0}],"gid":9,"width":90,"height":60},{"id":47,"x":0,"y":480,"visible":true,"properties":[{"name":"layer","type":"int","value":5},{"name":"resource_index","type":"int","value":27},{"name":"u","type":"string","value":"enH0"},{"name":"no","type":"int","value":2},{"name":"zM","type":"int","value":0}],"gid":12,"width":90,"height":33},{"id":48,"x":-180,"y":540,"visible":true,"properties":[{"name":"layer","type":"int","value":5},{"name":"resource_index","type":"int","value":28},{"name":"u","type":"string","value":"bsc"},{"name":"no","type":"int","value":2},{"name":"zM","type":"int","value":0}],"gid":4,"width":90,"height":60},{"id":49,"x":-180,"y":480,"visible":true,"properties":[{"name":"layer","type":"int","value":5},{"name":"resource_index","type":"int","value":29},{"name":"u","type":"string","value":"enH0"},{"name":"no","type":"int","value":0},{"name":"zM","type":"int","value":0}],"gid":10,"width":90,"height":33},{"id":50,"x":-90,"y":480,"visible":true,"properties":[{"name":"layer","type":"int","value":5},{"name":"resource_index","type":"int","value":30},{"name":"u","type":"string","value":"enH0"},{"name":"no","type":"int","value":1},{"name":"zM","type":"int","value":0}],"gid":11,"width":90,"height":33},{"id":51,"x":180,"y":600,"visible":true,"properties":[{"name":"layer","type":"int","value":5},{"name":"resource_index","type":"int","value":31},{"name":"u","type":"string","value":"bsc"},{"name":"no","type":"int","value":0},{"name":"zM","type":"int","value":0}],"gid":7,"width":90,"height":60},{"id":52,"x":90,"y":600,"visible":true,"properties":[{"name":"layer","type":"int","value":5},{"name":"resource_index","type":"int","value":32},{"name":"u","type":"string","value":"bsc"},{"name":"no","type":"int","value":3},{"name":"zM","type":"int","value":0}],"gid":5,"width":90,"height":60},{"id":53,"x":0,"y":600,"visible":true,"properties":[{"name":"layer","type":"int","value":5},{"name":"resource_index","type":"int","value":33},{"name":"u","type":"string","value":"bsc"},{"name":"no","type":"int","value":0},{"name":"zM","type":"int","value":0}],"gid":7,"width":90,"height":60},{"id":54,"x":90,"y":660,"visible":true,"properties":[{"name":"layer","type":"int","value":5},{"name":"resource_index","type":"int","value":34},{"name":"u","type":"string","value":"bsc"},{"name":"no","type":"int","value":1},{"name":"zM","type":"int","value":0}],"gid":8,"width":90,"height":60},{"id":55,"x":-360,"y":600,"visible":true,"properties":[{"name":"layer","type":"int","value":5},{"name":"resource_index","type":"int","value":35},{"name":"u","type":"string","value":"bsc"},{"name":"no","type":"int","value":4},{"name":"zM","type":"int","value":0}],"gid":9,"width":90,"height":60},{"id":56,"x":90,"y":720,"visible":true,"properties":[{"name":"layer","type":"int","value":5},{"name":"resource_index","type":"int","value":36},{"name":"u","type":"string","value":"bsc"},{"name":"no","type":"int","value":1},{"name":"zM","type":"int","value":0}],"gid":8,"width":90,"height":60},{"id":57,"x":180,"y":660,"visible":true,"properties":[{"name":"layer","type":"int","value":5},{"name":"resource_index","type":"int","value":37},{"name":"u","type":"string","value":"bsc"},{"name":"no","type":"int","value":1},{"name":"zM","type":"int","value":0}],"gid":8,"width":90,"height":60},{"id":58,"x":-360,"y":540,"visible":true,"properties":[{"name":"layer","type":"int","value":5},{"name":"resource_index","type":"int","value":38},{"name":"u","type":"string","value":"bsc"},{"name":"no","type":"int","value":2},{"name":"zM","type":"int","value":0}],"gid":4,"width":90,"height":60},{"id":59,"x":180,"y":720,"visible":true,"properties":[{"name":"layer","type":"int","value":5},{"name":"resource_index","type":"int","value":39},{"name":"u","type":"string","value":"bsc"},{"name":"no","type":"int","value":0},{"name":"zM","type":"int","value":0}],"gid":7,"width":90,"height":60},{"id":60,"x":-90,"y":720,"visible":true,"properties":[{"name":"layer","type":"int","value":5},{"name":"resource_index","type":"int","value":40},{"name":"u","type":"string","value":"bsc"},{"name":"no","type":"int","value":1},{"name":"zM","type":"int","value":0}],"gid":8,"width":90,"height":60},{"id":61,"x":-360,"y":480,"visible":true,"properties":[{"name":"layer","type":"int","value":5},{"name":"resource_index","type":"int","value":41},{"name":"u","type":"string","value":"enH0"},{"name":"no","type":"int","value":2},{"name":"zM","type":"int","value":0}],"gid":12,"width":90,"height":33},{"id":62,"x":-270,"y":660,"visible":true,"properties":[{"name":"layer","type":"int","value":5},{"name":"resource_index","type":"int","value":42},{"name":"u","type":"string","value":"bsc"},{"name":"no","type":"int","value":4},{"name":"zM","type":"int","value":0}],"gid":9,"width":90,"height":60},{"id":63,"x":-180,"y":600,"visible":true,"properties":[{"name":"layer","type":"int","value":5},{"name":"resource_index","type":"int","value":43},{"name":"u","type":"string","value":"bsc"},{"name":"no","type":"int","value":4},{"name":"zM","type":"int","value":0}],"gid":9,"width":90,"height":60},{"id":64,"x":-270,"y":600,"visible":true,"properties":[{"name":"layer","type":"int","value":5},{"name":"resource_index","type":"int","value":44},{"name":"u","type":"string","value":"bsc"},{"name":"no","type":"int","value":1},{"name":"zM","type":"int","value":0}],"gid":8,"width":90,"height":60},{"id":65,"x":0,"y":752,"visible":true,"properties":[{"name":"layer","type":"int","value":5},{"name":"resource_index","type":"int","value":45},{"name":"u","type":"string","value":"enH1"},{"name":"no","type":"int","value":1},{"name":"zM","type":"int","value":0}],"gid":13,"width":90,"height":32},{"id":66,"x":-90,"y":600,"visible":true,"properties":[{"name":"layer","type":"int","value":5},{"name":"resource_index","type":"int","value":46},{"name":"u","type":"string","value":"bsc"},{"name":"no","type":"int","value":3},{"name":"zM","type":"int","value":0}],"gid":5,"width":90,"height":60},{"id":67,"x":-270,"y":480,"visible":true,"properties":[{"name":"layer","type":"int","value":5},{"name":"resource_index","type":"int","value":47},{"name":"u","type":"string","value":"enH0"},{"name":"no","type":"int","value":0},{"name":"zM","type":"int","value":0}],"gid":10,"width":90,"height":33},{"id":68,"x":-270,"y":540,"visible":true,"properties":[{"name":"layer","type":"int","value":5},{"name":"resource_index","type":"int","value":48},{"name":"u","type":"string","value":"bsc"},{"name":"no","type":"int","value":3},{"name":"zM","type":"int","value":0}],"gid":5,"width":90,"height":60},{"id":69,"x":450,"y":749,"visible":true,"properties":[{"name":"layer","type":"int","value":5},{"name":"resource_index","type":"int","value":49},{"name":"u","type":"string","value":"enH1"},{"name":"no","type":"int","value":0},{"name":"zM","type":"int","value":0}],"gid":14,"width":90,"height":29},{"id":70,"x":507,"y":750,"visible":true,"properties":[{"name":"layer","type":"int","value":5},{"name":"resource_index","type":"int","value":50},{"name":"u","type":"string","value":"edD"},{"name":"no","type":"int","value":0},{"name":"zM","type":"int","value":0}],"gid":15,"width":64,"height":30},{"id":71,"x":-360,"y":720,"visible":true,"properties":[{"name":"layer","type":"int","value":5},{"name":"resource_index","type":"int","value":51},{"name":"u","type":"string","value":"bsc"},{"name":"no","type":"int","value":4},{"name":"zM","type":"int","value":0}],"gid":9,"width":90,"height":60},{"id":72,"x":-270,"y":720,"visible":true,"properties":[{"name":"layer","type":"int","value":5},{"name":"resource_index","type":"int","value":52},{"name":"u","type":"string","value":"bsc"},{"name":"no","type":"int","value":2},{"name":"zM","type":"int","value":0}],"gid":4,"width":90,"height":60},{"id":73,"x":180,"y":752,"visible":true,"properties":[{"name":"layer","type":"int","value":5},{"name":"resource_index","type":"int","value":53},{"name":"u","type":"string","value":"enH1"},{"name":"no","type":"int","value":1},{"name":"zM","type":"int","value":0}],"gid":13,"width":90,"height":32},{"id":74,"x":-90,"y":660,"visible":true,"properties":[{"name":"layer","type":"int","value":5},{"name":"resource_index","type":"int","value":54},{"name":"u","type":"string","value":"bsc"},{"name":"no","type":"int","value":3},{"name":"zM","type":"int","value":0}],"gid":5,"width":90,"height":60},{"id":75,"x":360,"y":752,"visible":true,"properties":[{"name":"layer","type":"int","value":5},{"name":"resource_index","type":"int","value":55},{"name":"u","type":"string","value":"enH1"},{"name":"no","type":"int","value":1},{"name":"zM","type":"int","value":0}],"gid":13,"width":90,"height":32},{"id":76,"x":-360,"y":660,"visible":true,"properties":[{"name":"layer","type":"int","value":5},{"name":"resource_index","type":"int","value":56},{"name":"u","type":"string","value":"bsc"},{"name":"no","type":"int","value":4},{"name":"zM","type":"int","value":0}],"gid":9,"width":90,"height":60},{"id":77,"x":0,"y":660,"visible":true,"properties":[{"name":"layer","type":"int","value":5},{"name":"resource_index","type":"int","value":57},{"name":"u","type":"string","value":"bsc"},{"name":"no","type":"int","value":4},{"name":"zM","type":"int","value":0}],"gid":9,"width":90,"height":60},{"id":78,"x":-180,"y":720,"visible":true,"properties":[{"name":"layer","type":"int","value":5},{"name":"resource_index","type":"int","value":58},{"name":"u","type":"string","value":"bsc"},{"name":"no","type":"int","value":2},{"name":"zM","type":"int","value":0}],"gid":4,"width":90,"height":60},{"id":79,"x":-180,"y":660,"visible":true,"properties":[{"name":"layer","type":"int","value":5},{"name":"resource_index","type":"int","value":59},{"name":"u","type":"string","value":"bsc"},{"name":"no","type":"int","value":0},{"name":"zM","type":"int","value":0}],"gid":7,"width":90,"height":60},{"id":80,"x":-90,"y":752,"visible":true,"properties":[{"name":"layer","type":"int","value":5},{"name":"resource_index","type":"int","value":60},{"name":"u","type":"string","value":"enH1"},{"name":"no","type":"int","value":1},{"name":"zM","type":"int","value":0}],"gid":13,"width":90,"height":32},{"id":81,"x":-180,"y":752,"visible":true,"properties":[{"name":"layer","type":"int","value":5},{"name":"resource_index","type":"int","value":61},{"name":"u","type":"string","value":"enH1"},{"name":"no","type":"int","value":1},{"name":"zM","type":"int","value":0}],"gid":13,"width":90,"height":32},{"id":82,"x":-360,"y":752,"visible":true,"properties":[{"name":"layer","type":"int","value":5},{"name":"resource_index","type":"int","value":62},{"name":"u","type":"string","value":"enH1"},{"name":"no","type":"int","value":1},{"name":"zM","type":"int","value":0}],"gid":13,"width":90,"height":32},{"id":83,"x":-270,"y":749,"visible":true,"properties":[{"name":"layer","type":"int","value":5},{"name":"resource_index","type":"int","value":63},{"name":"u","type":"string","value":"enH1"},{"name":"no","type":"int","value":0},{"name":"zM","type":"int","value":0}],"gid":14,"width":90,"height":29},{"id":84,"x":270,"y":752,"visible":true,"properties":[{"name":"layer","type":"int","value":5},{"name":"resource_index","type":"int","value":64},{"name":"u","type":"string","value":"enH1"},{"name":"no","type":"int","value":1},{"name":"zM","type":"int","value":0}],"gid":13,"width":90,"height":32},{"id":85,"x":90,"y":752,"visible":true,"properties":[{"name":"layer","type":"int","value":5},{"name":"resource_index","type":"int","value":65},{"name":"u","type":"string","value":"enH1"},{"name":"no","type":"int","value":1},{"name":"zM","type":"int","value":0}],"gid":13,"width":90,"height":32},{"id":86,"x":-393,"y":540,"visible":true,"properties":[{"name":"layer","type":"int","value":5},{"name":"resource_index","type":"int","value":66},{"name":"u","type":"string","value":"enV0"},{"name":"no","type":"int","value":0},{"name":"zM","type":"int","value":0}],"gid":16,"width":33,"height":60},{"id":87,"x":-410,"y":481,"visible":true,"properties":[{"name":"layer","type":"int","value":5},{"name":"resource_index","type":"int","value":67},{"name":"u","type":"string","value":"edU"},{"name":"no","type":"int","value":0},{"name":"zM","type":"int","value":0}],"gid":2,"width":95,"height":35},{"id":88,"x":-394,"y":600,"visible":true,"properties":[{"name":"layer","type":"int","value":5},{"name":"resource_index","type":"int","value":68},{"name":"u","type":"string","value":"enV0"},{"name":"no","type":"int","value":1},{"name":"zM","type":"int","value":0}],"gid":17,"width":34,"height":60},{"id":89,"x":-394,"y":660,"visible":true,"properties":[{"name":"layer","type":"int","value":5},{"name":"resource_index","type":"int","value":69},{"name":"u","type":"string","value":"enV0"},{"name":"no","type":"int","value":1},{"name":"zM","type":"int","value":0}],"gid":17,"width":34,"height":60},{"id":90,"x":-394,"y":720,"visible":true,"properties":[{"name":"layer","type":"int","value":5},{"name":"resource_index","type":"int","value":70},{"name":"u","type":"string","value":"enV0"},{"name":"no","type":"int","value":1},{"name":"zM","type":"int","value":0}],"gid":17,"width":34,"height":60},{"id":91,"x":-393,"y":750,"visible":true,"properties":[{"name":"layer","type":"int","value":5},{"name":"resource_index","type":"int","value":71},{"name":"u","type":"string","value":"edD"},{"name":"no","type":"int","value":0},{"name":"zM","type":"int","value":0}],"gid":15,"width":64,"height":30}],"properties":[]},{"id":25,"name":"layer_6_obj","type":"objectgroup","visible":true,"opacity":1,"draworder":"index","offsetx":0,"offsety":0,"parallaxx":1,"parallaxy":1,"objects":[{"id":92,"x":-403,"y":458,"visible":true,"properties":[{"name":"layer","type":"int","value":6},{"name":"resource_index","type":"int","value":0},{"name":"oS","type":"string","value":"dungeon2"},{"name":"l0","type":"string","value":"snowyLightrock"},{"name":"l1","type":"string","value":"artificiality"},{"name":"l2","type":"string","value":"5"},{"name":"z","type":"int","value":3},{"name":"zM","type":"int","value":3},{"name":"f","type":"int","value":0}],"gid":69,"width":201,"height":189}],"properties":[]},{"id":26,"name":"layer_7_obj","type":"objectgroup","visible":true,"opacity":1,"draworder":"index","offsetx":0,"offsety":0,"parallaxx":1,"parallaxy":1,"objects":[{"id":93,"x":-161,"y":-202,"visible":true,"properties":[{"name":"layer","type":"int","value":7},{"name":"resource_index","type":"int","value":0},{"name":"oS","type":"string","value":"connect"},{"name":"l0","type":"string","value":"rope"},{"name":"l1","type":"string","value":"9"},{"name":"l2","type":"string","value":"0"},{"name":"z","type":"int","value":9},{"name":"zM","type":"int","value":11},{"name":"f","type":"int","value":0}],"gid":18,"width":12,"height":20},{"id":94,"x":-157,"y":-76,"visible":true,"properties":[{"name":"layer","type":"int","value":7},{"name":"resource_index","type":"int","value":1},{"name":"oS","type":"string","value":"connect"},{"name":"l0","type":"string","value":"rope"},{"name":"l1","type":"string","value":"9"},{"name":"l2","type":"string","value":"5"},{"name":"z","type":"int","value":9},{"name":"zM","type":"int","value":10},{"name":"f","type":"int","value":0}],"gid":19,"width":4,"height":126},{"id":95,"x":-159,"y":-58,"visible":true,"properties":[{"name":"layer","type":"int","value":7},{"name":"resource_index","type":"int","value":2},{"name":"oS","type":"string","value":"connect"},{"name":"l0","type":"string","value":"rope"},{"name":"l1","type":"string","value":"9"},{"name":"l2","type":"string","value":"2"},{"name":"z","type":"int","value":9},{"name":"zM","type":"int","value":9},{"name":"f","type":"int","value":0}],"gid":20,"width":8,"height":18}],"properties":[]},{"id":27,"name":"portal","type":"objectgroup","visible":true,"opacity":1,"draworder":"index","offsetx":0,"offsety":0,"parallaxx":1,"parallaxy":1,"objects":[{"id":96,"x":-169,"y":-346,"visible":true,"properties":[{"name":"x","type":"int","value":-169},{"name":"y","type":"int","value":-346},{"name":"pn","type":"string","value":"sp"},{"name":"pt","type":"int","value":0},{"name":"tm","type":"int","value":999999999},{"name":"tn","type":"string","value":""}],"point":true},{"id":97,"x":-274,"y":-199,"visible":true,"properties":[{"name":"x","type":"int","value":-274},{"name":"y","type":"int","value":-199},{"name":"pn","type":"string","value":"out00"},{"name":"pt","type":"int","value":1},{"name":"tm","type":"int","value":140030000},{"name":"tn","type":"string","value":"in00"},{"name":"horizontalImpact","type":"int","value":0}],"point":true},{"id":98,"x":-254,"y":464,"visible":true,"properties":[{"name":"x","type":"int","value":-210},{"name":"y","type":"int","value":455},{"name":"pn","type":"string","value":"in00"},{"name":"pt","type":"int","value":2},{"name":"tm","type":"int","value":108010702},{"name":"tn","type":"string","value":"out00"},{"name":"horizontalImpact","type":"int","value":0}],"gid":60,"width":89,"height":257}],"properties":[]},{"id":28,"name":"life","type":"objectgroup","visible":true,"opacity":1,"draworder":"index","offsetx":0,"offsety":0,"parallaxx":1,"parallaxy":1,"objects":[{"id":99,"x":-82,"y":448,"visible":true,"properties":[{"name":"f","type":"int","value":1},{"name":"x","type":"int","value":-82},{"name":"y","type":"int","value":448},{"name":"cy","type":"int","value":454},{"name":"fh","type":"int","value":14},{"name":"id","type":"int","value":1203001},{"name":"rx0","type":"int","value":-132},{"name":"rx1","type":"int","value":-32},{"name":"hide","type":"int","value":0},{"name":"type","type":"string","value":"n"},{"name":"mobTime","type":"int","value":0},{"name":"npc_aseprite","type":"file","value":"../../Npc/1203001.img/animation.aseprite"}],"point":true}],"properties":[]},{"id":29,"name":"foothold","type":"objectgroup","visible":true,"opacity":1,"draworder":"index","offsetx":0,"offsety":0,"parallaxx":1,"parallaxy":1,"objects":[{"id":100,"x":150,"y":30,"visible":true,"properties":[{"name":"layer","type":"int","value":3},{"name":"group","type":"int","value":1},{"name":"id","type":"int","value":35},{"name":"fh_layer","type":"int","value":3},{"name":"fh_group","type":"int","value":1},{"name":"fh_id","type":"int","value":35},{"name":"x1","type":"int","value":150},{"name":"x2","type":"int","value":190},{"name":"y1","type":"int","value":30},{"name":"y2","type":"int","value":17},{"name":"next","type":"int","value":36},{"name":"prev","type":"int","value":34}],"polyline":[{"x":0,"y":0},{"x":40,"y":-13}]},{"id":101,"x":190,"y":17,"visible":true,"properties":[{"name":"layer","type":"int","value":3},{"name":"group","type":"int","value":1},{"name":"id","type":"int","value":36},{"name":"fh_layer","type":"int","value":3},{"name":"fh_group","type":"int","value":1},{"name":"fh_id","type":"int","value":36},{"name":"x1","type":"int","value":190},{"name":"x2","type":"int","value":276},{"name":"y1","type":"int","value":17},{"name":"y2","type":"int","value":24},{"name":"next","type":"int","value":37},{"name":"prev","type":"int","value":35}],"polyline":[{"x":0,"y":0},{"x":86,"y":7}]},{"id":102,"x":276,"y":24,"visible":true,"properties":[{"name":"layer","type":"int","value":3},{"name":"group","type":"int","value":1},{"name":"id","type":"int","value":37},{"name":"fh_layer","type":"int","value":3},{"name":"fh_group","type":"int","value":1},{"name":"fh_id","type":"int","value":37},{"name":"x1","type":"int","value":276},{"name":"x2","type":"int","value":312},{"name":"y1","type":"int","value":24},{"name":"y2","type":"int","value":21},{"name":"next","type":"int","value":38},{"name":"prev","type":"int","value":36}],"polyline":[{"x":0,"y":0},{"x":36,"y":-3}]},{"id":103,"x":312,"y":21,"visible":true,"properties":[{"name":"layer","type":"int","value":3},{"name":"group","type":"int","value":1},{"name":"id","type":"int","value":38},{"name":"fh_layer","type":"int","value":3},{"name":"fh_group","type":"int","value":1},{"name":"fh_id","type":"int","value":38},{"name":"x1","type":"int","value":312},{"name":"x2","type":"int","value":349},{"name":"y1","type":"int","value":21},{"name":"y2","type":"int","value":25},{"name":"next","type":"int","value":39},{"name":"prev","type":"int","value":37}],"polyline":[{"x":0,"y":0},{"x":37,"y":4}]},{"id":104,"x":349,"y":25,"visible":true,"properties":[{"name":"layer","type":"int","value":3},{"name":"group","type":"int","value":1},{"name":"id","type":"int","value":39},{"name":"fh_layer","type":"int","value":3},{"name":"fh_group","type":"int","value":1},{"name":"fh_id","type":"int","value":39},{"name":"x1","type":"int","value":349},{"name":"x2","type":"int","value":448},{"name":"y1","type":"int","value":25},{"name":"y2","type":"int","value":12},{"name":"next","type":"int","value":40},{"name":"prev","type":"int","value":38}],"polyline":[{"x":0,"y":0},{"x":99,"y":-13}]},{"id":105,"x":448,"y":12,"visible":true,"properties":[{"name":"layer","type":"int","value":3},{"name":"group","type":"int","value":1},{"name":"id","type":"int","value":40},{"name":"fh_layer","type":"int","value":3},{"name":"fh_group","type":"int","value":1},{"name":"fh_id","type":"int","value":40},{"name":"x1","type":"int","value":448},{"name":"x2","type":"int","value":582},{"name":"y1","type":"int","value":12},{"name":"y2","type":"int","value":8},{"name":"next","type":"int","value":0},{"name":"prev","type":"int","value":39}],"polyline":[{"x":0,"y":0},{"x":134,"y":-4}]},{"id":106,"x":425,"y":369,"visible":true,"properties":[{"name":"layer","type":"int","value":3},{"name":"group","type":"int","value":1},{"name":"id","type":"int","value":41},{"name":"fh_layer","type":"int","value":3},{"name":"fh_group","type":"int","value":1},{"name":"fh_id","type":"int","value":41},{"name":"x1","type":"int","value":425},{"name":"x2","type":"int","value":475},{"name":"y1","type":"int","value":369},{"name":"y2","type":"int","value":359},{"name":"next","type":"int","value":42},{"name":"prev","type":"int","value":0}],"polyline":[{"x":0,"y":0},{"x":50,"y":-10}]},{"id":107,"x":475,"y":359,"visible":true,"properties":[{"name":"layer","type":"int","value":3},{"name":"group","type":"int","value":1},{"name":"id","type":"int","value":42},{"name":"fh_layer","type":"int","value":3},{"name":"fh_group","type":"int","value":1},{"name":"fh_id","type":"int","value":42},{"name":"x1","type":"int","value":475},{"name":"x2","type":"int","value":488},{"name":"y1","type":"int","value":359},{"name":"y2","type":"int","value":345},{"name":"next","type":"int","value":43},{"name":"prev","type":"int","value":41}],"polyline":[{"x":0,"y":0},{"x":13,"y":-14}]},{"id":108,"x":488,"y":345,"visible":true,"properties":[{"name":"layer","type":"int","value":3},{"name":"group","type":"int","value":1},{"name":"id","type":"int","value":43},{"name":"fh_layer","type":"int","value":3},{"name":"fh_group","type":"int","value":1},{"name":"fh_id","type":"int","value":43},{"name":"x1","type":"int","value":488},{"name":"x2","type":"int","value":520},{"name":"y1","type":"int","value":345},{"name":"y2","type":"int","value":343},{"name":"next","type":"int","value":44},{"name":"prev","type":"int","value":42}],"polyline":[{"x":0,"y":0},{"x":32,"y":-2}]},{"id":109,"x":520,"y":343,"visible":true,"properties":[{"name":"layer","type":"int","value":3},{"name":"group","type":"int","value":1},{"name":"id","type":"int","value":44},{"name":"fh_layer","type":"int","value":3},{"name":"fh_group","type":"int","value":1},{"name":"fh_id","type":"int","value":44},{"name":"x1","type":"int","value":520},{"name":"x2","type":"int","value":498},{"name":"y1","type":"int","value":343},{"name":"y2","type":"int","value":281},{"name":"next","type":"int","value":45},{"name":"prev","type":"int","value":43}],"polyline":[{"x":0,"y":0},{"x":-22,"y":-62}]},{"id":110,"x":498,"y":281,"visible":true,"properties":[{"name":"layer","type":"int","value":3},{"name":"group","type":"int","value":1},{"name":"id","type":"int","value":45},{"name":"fh_layer","type":"int","value":3},{"name":"fh_group","type":"int","value":1},{"name":"fh_id","type":"int","value":45},{"name":"x1","type":"int","value":498},{"name":"x2","type":"int","value":535},{"name":"y1","type":"int","value":281},{"name":"y2","type":"int","value":278},{"name":"next","type":"int","value":46},{"name":"prev","type":"int","value":44}],"polyline":[{"x":0,"y":0},{"x":37,"y":-3}]},{"id":111,"x":535,"y":278,"visible":true,"properties":[{"name":"layer","type":"int","value":3},{"name":"group","type":"int","value":1},{"name":"id","type":"int","value":46},{"name":"fh_layer","type":"int","value":3},{"name":"fh_group","type":"int","value":1},{"name":"fh_id","type":"int","value":46},{"name":"x1","type":"int","value":535},{"name":"x2","type":"int","value":565},{"name":"y1","type":"int","value":278},{"name":"y2","type":"int","value":271},{"name":"next","type":"int","value":47},{"name":"prev","type":"int","value":45}],"polyline":[{"x":0,"y":0},{"x":30,"y":-7}]},{"id":112,"x":565,"y":271,"visible":true,"properties":[{"name":"layer","type":"int","value":3},{"name":"group","type":"int","value":1},{"name":"id","type":"int","value":47},{"name":"fh_layer","type":"int","value":3},{"name":"fh_group","type":"int","value":1},{"name":"fh_id","type":"int","value":47},{"name":"x1","type":"int","value":565},{"name":"x2","type":"int","value":582},{"name":"y1","type":"int","value":271},{"name":"y2","type":"int","value":265},{"name":"next","type":"int","value":0},{"name":"prev","type":"int","value":46}],"polyline":[{"x":0,"y":0},{"x":17,"y":-6}]},{"id":113,"x":-402,"y":57,"visible":true,"properties":[{"name":"layer","type":"int","value":3},{"name":"group","type":"int","value":2},{"name":"id","type":"int","value":24},{"name":"fh_layer","type":"int","value":3},{"name":"fh_group","type":"int","value":2},{"name":"fh_id","type":"int","value":24},{"name":"x1","type":"int","value":-402},{"name":"x2","type":"int","value":-192},{"name":"y1","type":"int","value":57},{"name":"y2","type":"int","value":43},{"name":"next","type":"int","value":25},{"name":"prev","type":"int","value":0}],"polyline":[{"x":0,"y":0},{"x":210,"y":-14}]},{"id":114,"x":-192,"y":43,"visible":true,"properties":[{"name":"layer","type":"int","value":3},{"name":"group","type":"int","value":2},{"name":"id","type":"int","value":25},{"name":"fh_layer","type":"int","value":3},{"name":"fh_group","type":"int","value":2},{"name":"fh_id","type":"int","value":25},{"name":"x1","type":"int","value":-192},{"name":"x2","type":"int","value":-96},{"name":"y1","type":"int","value":43},{"name":"y2","type":"int","value":27},{"name":"next","type":"int","value":26},{"name":"prev","type":"int","value":24}],"polyline":[{"x":0,"y":0},{"x":96,"y":-16}]},{"id":115,"x":-96,"y":27,"visible":true,"properties":[{"name":"layer","type":"int","value":3},{"name":"group","type":"int","value":2},{"name":"id","type":"int","value":26},{"name":"fh_layer","type":"int","value":3},{"name":"fh_group","type":"int","value":2},{"name":"fh_id","type":"int","value":26},{"name":"x1","type":"int","value":-96},{"name":"x2","type":"int","value":-79},{"name":"y1","type":"int","value":27},{"name":"y2","type":"int","value":32},{"name":"next","type":"int","value":27},{"name":"prev","type":"int","value":25}],"polyline":[{"x":0,"y":0},{"x":17,"y":5}]},{"id":116,"x":-79,"y":32,"visible":true,"properties":[{"name":"layer","type":"int","value":3},{"name":"group","type":"int","value":2},{"name":"id","type":"int","value":27},{"name":"fh_layer","type":"int","value":3},{"name":"fh_group","type":"int","value":2},{"name":"fh_id","type":"int","value":27},{"name":"x1","type":"int","value":-79},{"name":"x2","type":"int","value":-26},{"name":"y1","type":"int","value":32},{"name":"y2","type":"int","value":28},{"name":"next","type":"int","value":28},{"name":"prev","type":"int","value":26}],"polyline":[{"x":0,"y":0},{"x":53,"y":-4}]},{"id":117,"x":-26,"y":28,"visible":true,"properties":[{"name":"layer","type":"int","value":3},{"name":"group","type":"int","value":2},{"name":"id","type":"int","value":28},{"name":"fh_layer","type":"int","value":3},{"name":"fh_group","type":"int","value":2},{"name":"fh_id","type":"int","value":28},{"name":"x1","type":"int","value":-26},{"name":"x2","type":"int","value":-3},{"name":"y1","type":"int","value":28},{"name":"y2","type":"int","value":35},{"name":"next","type":"int","value":29},{"name":"prev","type":"int","value":27}],"polyline":[{"x":0,"y":0},{"x":23,"y":7}]},{"id":118,"x":-3,"y":35,"visible":true,"properties":[{"name":"layer","type":"int","value":3},{"name":"group","type":"int","value":2},{"name":"id","type":"int","value":29},{"name":"fh_layer","type":"int","value":3},{"name":"fh_group","type":"int","value":2},{"name":"fh_id","type":"int","value":29},{"name":"x1","type":"int","value":-3},{"name":"x2","type":"int","value":26},{"name":"y1","type":"int","value":35},{"name":"y2","type":"int","value":34},{"name":"next","type":"int","value":30},{"name":"prev","type":"int","value":28}],"polyline":[{"x":0,"y":0},{"x":29,"y":-1}]},{"id":119,"x":26,"y":34,"visible":true,"properties":[{"name":"layer","type":"int","value":3},{"name":"group","type":"int","value":2},{"name":"id","type":"int","value":30},{"name":"fh_layer","type":"int","value":3},{"name":"fh_group","type":"int","value":2},{"name":"fh_id","type":"int","value":30},{"name":"x1","type":"int","value":26},{"name":"x2","type":"int","value":34},{"name":"y1","type":"int","value":34},{"name":"y2","type":"int","value":28},{"name":"next","type":"int","value":31},{"name":"prev","type":"int","value":29}],"polyline":[{"x":0,"y":0},{"x":8,"y":-6}]},{"id":120,"x":34,"y":28,"visible":true,"properties":[{"name":"layer","type":"int","value":3},{"name":"group","type":"int","value":2},{"name":"id","type":"int","value":31},{"name":"fh_layer","type":"int","value":3},{"name":"fh_group","type":"int","value":2},{"name":"fh_id","type":"int","value":31},{"name":"x1","type":"int","value":34},{"name":"x2","type":"int","value":76},{"name":"y1","type":"int","value":28},{"name":"y2","type":"int","value":23},{"name":"next","type":"int","value":32},{"name":"prev","type":"int","value":30}],"polyline":[{"x":0,"y":0},{"x":42,"y":-5}]},{"id":121,"x":76,"y":23,"visible":true,"properties":[{"name":"layer","type":"int","value":3},{"name":"group","type":"int","value":2},{"name":"id","type":"int","value":32},{"name":"fh_layer","type":"int","value":3},{"name":"fh_group","type":"int","value":2},{"name":"fh_id","type":"int","value":32},{"name":"x1","type":"int","value":76},{"name":"x2","type":"int","value":115},{"name":"y1","type":"int","value":23},{"name":"y2","type":"int","value":26},{"name":"next","type":"int","value":33},{"name":"prev","type":"int","value":31}],"polyline":[{"x":0,"y":0},{"x":39,"y":3}]},{"id":122,"x":115,"y":26,"visible":true,"properties":[{"name":"layer","type":"int","value":3},{"name":"group","type":"int","value":2},{"name":"id","type":"int","value":33},{"name":"fh_layer","type":"int","value":3},{"name":"fh_group","type":"int","value":2},{"name":"fh_id","type":"int","value":33},{"name":"x1","type":"int","value":115},{"name":"x2","type":"int","value":129},{"name":"y1","type":"int","value":26},{"name":"y2","type":"int","value":30},{"name":"next","type":"int","value":34},{"name":"prev","type":"int","value":32}],"polyline":[{"x":0,"y":0},{"x":14,"y":4}]},{"id":123,"x":129,"y":30,"visible":true,"properties":[{"name":"layer","type":"int","value":3},{"name":"group","type":"int","value":2},{"name":"id","type":"int","value":34},{"name":"fh_layer","type":"int","value":3},{"name":"fh_group","type":"int","value":2},{"name":"fh_id","type":"int","value":34},{"name":"x1","type":"int","value":129},{"name":"x2","type":"int","value":150},{"name":"y1","type":"int","value":30},{"name":"y2","type":"int","value":30},{"name":"next","type":"int","value":35},{"name":"prev","type":"int","value":33}],"polyline":[{"x":0,"y":0},{"x":21,"y":0}]},{"id":124,"x":-403,"y":-211,"visible":true,"properties":[{"name":"layer","type":"int","value":3},{"name":"group","type":"int","value":8},{"name":"id","type":"int","value":48},{"name":"fh_layer","type":"int","value":3},{"name":"fh_group","type":"int","value":8},{"name":"fh_id","type":"int","value":48},{"name":"x1","type":"int","value":-403},{"name":"x2","type":"int","value":-257},{"name":"y1","type":"int","value":-211},{"name":"y2","type":"int","value":-195},{"name":"next","type":"int","value":49},{"name":"prev","type":"int","value":0}],"polyline":[{"x":0,"y":0},{"x":146,"y":16}]},{"id":125,"x":-257,"y":-195,"visible":true,"properties":[{"name":"layer","type":"int","value":3},{"name":"group","type":"int","value":8},{"name":"id","type":"int","value":49},{"name":"fh_layer","type":"int","value":3},{"name":"fh_group","type":"int","value":8},{"name":"fh_id","type":"int","value":49},{"name":"x1","type":"int","value":-257},{"name":"x2","type":"int","value":-178},{"name":"y1","type":"int","value":-195},{"name":"y2","type":"int","value":-208},{"name":"next","type":"int","value":50},{"name":"prev","type":"int","value":48}],"polyline":[{"x":0,"y":0},{"x":79,"y":-13}]},{"id":126,"x":-178,"y":-208,"visible":true,"properties":[{"name":"layer","type":"int","value":3},{"name":"group","type":"int","value":8},{"name":"id","type":"int","value":50},{"name":"fh_layer","type":"int","value":3},{"name":"fh_group","type":"int","value":8},{"name":"fh_id","type":"int","value":50},{"name":"x1","type":"int","value":-178},{"name":"x2","type":"int","value":-99},{"name":"y1","type":"int","value":-208},{"name":"y2","type":"int","value":-203},{"name":"next","type":"int","value":0},{"name":"prev","type":"int","value":49}],"polyline":[{"x":0,"y":0},{"x":79,"y":5}]},{"id":127,"x":500,"y":454,"visible":true,"properties":[{"name":"layer","type":"int","value":5},{"name":"group","type":"int","value":0},{"name":"id","type":"int","value":1},{"name":"fh_layer","type":"int","value":5},{"name":"fh_group","type":"int","value":0},{"name":"fh_id","type":"int","value":1},{"name":"x1","type":"int","value":500},{"name":"x2","type":"int","value":580},{"name":"y1","type":"int","value":454},{"name":"y2","type":"int","value":454},{"name":"next","type":"int","value":2},{"name":"prev","type":"int","value":8}],"polyline":[{"x":0,"y":0},{"x":80,"y":0}]},{"id":128,"x":580,"y":454,"visible":true,"properties":[{"name":"layer","type":"int","value":5},{"name":"group","type":"int","value":0},{"name":"id","type":"int","value":2},{"name":"fh_layer","type":"int","value":5},{"name":"fh_group","type":"int","value":0},{"name":"fh_id","type":"int","value":2},{"name":"x1","type":"int","value":580},{"name":"x2","type":"int","value":580},{"name":"y1","type":"int","value":454},{"name":"y2","type":"int","value":480},{"name":"next","type":"int","value":3},{"name":"prev","type":"int","value":1}],"polyline":[{"x":0,"y":0},{"x":0,"y":26}]},{"id":129,"x":580,"y":480,"visible":true,"properties":[{"name":"layer","type":"int","value":5},{"name":"group","type":"int","value":0},{"name":"id","type":"int","value":3},{"name":"fh_layer","type":"int","value":5},{"name":"fh_group","type":"int","value":0},{"name":"fh_id","type":"int","value":3},{"name":"x1","type":"int","value":580},{"name":"x2","type":"int","value":580},{"name":"y1","type":"int","value":480},{"name":"y2","type":"int","value":540},{"name":"next","type":"int","value":4},{"name":"prev","type":"int","value":2}],"polyline":[{"x":0,"y":0},{"x":0,"y":60}]},{"id":130,"x":580,"y":540,"visible":true,"properties":[{"name":"layer","type":"int","value":5},{"name":"group","type":"int","value":0},{"name":"id","type":"int","value":4},{"name":"fh_layer","type":"int","value":5},{"name":"fh_group","type":"int","value":0},{"name":"fh_id","type":"int","value":4},{"name":"x1","type":"int","value":580},{"name":"x2","type":"int","value":580},{"name":"y1","type":"int","value":540},{"name":"y2","type":"int","value":600},{"name":"next","type":"int","value":5},{"name":"prev","type":"int","value":3}],"polyline":[{"x":0,"y":0},{"x":0,"y":60}]},{"id":131,"x":580,"y":600,"visible":true,"properties":[{"name":"layer","type":"int","value":5},{"name":"group","type":"int","value":0},{"name":"id","type":"int","value":5},{"name":"fh_layer","type":"int","value":5},{"name":"fh_group","type":"int","value":0},{"name":"fh_id","type":"int","value":5},{"name":"x1","type":"int","value":580},{"name":"x2","type":"int","value":580},{"name":"y1","type":"int","value":600},{"name":"y2","type":"int","value":660},{"name":"next","type":"int","value":6},{"name":"prev","type":"int","value":4}],"polyline":[{"x":0,"y":0},{"x":0,"y":60}]},{"id":132,"x":580,"y":660,"visible":true,"properties":[{"name":"layer","type":"int","value":5},{"name":"group","type":"int","value":0},{"name":"id","type":"int","value":6},{"name":"fh_layer","type":"int","value":5},{"name":"fh_group","type":"int","value":0},{"name":"fh_id","type":"int","value":6},{"name":"x1","type":"int","value":580},{"name":"x2","type":"int","value":580},{"name":"y1","type":"int","value":660},{"name":"y2","type":"int","value":720},{"name":"next","type":"int","value":0},{"name":"prev","type":"int","value":5}],"polyline":[{"x":0,"y":0},{"x":0,"y":60}]},{"id":133,"x":360,"y":454,"visible":true,"properties":[{"name":"layer","type":"int","value":5},{"name":"group","type":"int","value":0},{"name":"id","type":"int","value":7},{"name":"fh_layer","type":"int","value":5},{"name":"fh_group","type":"int","value":0},{"name":"fh_id","type":"int","value":7},{"name":"x1","type":"int","value":360},{"name":"x2","type":"int","value":450},{"name":"y1","type":"int","value":454},{"name":"y2","type":"int","value":454},{"name":"next","type":"int","value":8},{"name":"prev","type":"int","value":9}],"polyline":[{"x":0,"y":0},{"x":90,"y":0}]},{"id":134,"x":450,"y":454,"visible":true,"properties":[{"name":"layer","type":"int","value":5},{"name":"group","type":"int","value":0},{"name":"id","type":"int","value":8},{"name":"fh_layer","type":"int","value":5},{"name":"fh_group","type":"int","value":0},{"name":"fh_id","type":"int","value":8},{"name":"x1","type":"int","value":450},{"name":"x2","type":"int","value":500},{"name":"y1","type":"int","value":454},{"name":"y2","type":"int","value":454},{"name":"next","type":"int","value":1},{"name":"prev","type":"int","value":7}],"polyline":[{"x":0,"y":0},{"x":50,"y":0}]},{"id":135,"x":270,"y":454,"visible":true,"properties":[{"name":"layer","type":"int","value":5},{"name":"group","type":"int","value":0},{"name":"id","type":"int","value":9},{"name":"fh_layer","type":"int","value":5},{"name":"fh_group","type":"int","value":0},{"name":"fh_id","type":"int","value":9},{"name":"x1","type":"int","value":270},{"name":"x2","type":"int","value":360},{"name":"y1","type":"int","value":454},{"name":"y2","type":"int","value":454},{"name":"next","type":"int","value":7},{"name":"prev","type":"int","value":10}],"polyline":[{"x":0,"y":0},{"x":90,"y":0}]},{"id":136,"x":180,"y":454,"visible":true,"properties":[{"name":"layer","type":"int","value":5},{"name":"group","type":"int","value":0},{"name":"id","type":"int","value":10},{"name":"fh_layer","type":"int","value":5},{"name":"fh_group","type":"int","value":0},{"name":"fh_id","type":"int","value":10},{"name":"x1","type":"int","value":180},{"name":"x2","type":"int","value":270},{"name":"y1","type":"int","value":454},{"name":"y2","type":"int","value":454},{"name":"next","type":"int","value":9},{"name":"prev","type":"int","value":11}],"polyline":[{"x":0,"y":0},{"x":90,"y":0}]},{"id":137,"x":90,"y":454,"visible":true,"properties":[{"name":"layer","type":"int","value":5},{"name":"group","type":"int","value":0},{"name":"id","type":"int","value":11},{"name":"fh_layer","type":"int","value":5},{"name":"fh_group","type":"int","value":0},{"name":"fh_id","type":"int","value":11},{"name":"x1","type":"int","value":90},{"name":"x2","type":"int","value":180},{"name":"y1","type":"int","value":454},{"name":"y2","type":"int","value":454},{"name":"next","type":"int","value":10},{"name":"prev","type":"int","value":12}],"polyline":[{"x":0,"y":0},{"x":90,"y":0}]},{"id":138,"x":0,"y":454,"visible":true,"properties":[{"name":"layer","type":"int","value":5},{"name":"group","type":"int","value":0},{"name":"id","type":"int","value":12},{"name":"fh_layer","type":"int","value":5},{"name":"fh_group","type":"int","value":0},{"name":"fh_id","type":"int","value":12},{"name":"x1","type":"int","value":0},{"name":"x2","type":"int","value":90},{"name":"y1","type":"int","value":454},{"name":"y2","type":"int","value":454},{"name":"next","type":"int","value":11},{"name":"prev","type":"int","value":14}],"polyline":[{"x":0,"y":0},{"x":90,"y":0}]},{"id":139,"x":-180,"y":454,"visible":true,"properties":[{"name":"layer","type":"int","value":5},{"name":"group","type":"int","value":0},{"name":"id","type":"int","value":13},{"name":"fh_layer","type":"int","value":5},{"name":"fh_group","type":"int","value":0},{"name":"fh_id","type":"int","value":13},{"name":"x1","type":"int","value":-180},{"name":"x2","type":"int","value":-90},{"name":"y1","type":"int","value":454},{"name":"y2","type":"int","value":454},{"name":"next","type":"int","value":14},{"name":"prev","type":"int","value":19}],"polyline":[{"x":0,"y":0},{"x":90,"y":0}]},{"id":140,"x":-90,"y":454,"visible":true,"properties":[{"name":"layer","type":"int","value":5},{"name":"group","type":"int","value":0},{"name":"id","type":"int","value":14},{"name":"fh_layer","type":"int","value":5},{"name":"fh_group","type":"int","value":0},{"name":"fh_id","type":"int","value":14},{"name":"x1","type":"int","value":-90},{"name":"x2","type":"int","value":0},{"name":"y1","type":"int","value":454},{"name":"y2","type":"int","value":454},{"name":"next","type":"int","value":12},{"name":"prev","type":"int","value":13}],"polyline":[{"x":0,"y":0},{"x":90,"y":0}]},{"id":141,"x":-360,"y":454,"visible":true,"properties":[{"name":"layer","type":"int","value":5},{"name":"group","type":"int","value":0},{"name":"id","type":"int","value":15},{"name":"fh_layer","type":"int","value":5},{"name":"fh_group","type":"int","value":0},{"name":"fh_id","type":"int","value":15},{"name":"x1","type":"int","value":-360},{"name":"x2","type":"int","value":-320},{"name":"y1","type":"int","value":454},{"name":"y2","type":"int","value":454},{"name":"next","type":"int","value":18},{"name":"prev","type":"int","value":17}],"polyline":[{"x":0,"y":0},{"x":40,"y":0}]},{"id":142,"x":-400,"y":480,"visible":true,"properties":[{"name":"layer","type":"int","value":5},{"name":"group","type":"int","value":0},{"name":"id","type":"int","value":16},{"name":"fh_layer","type":"int","value":5},{"name":"fh_group","type":"int","value":0},{"name":"fh_id","type":"int","value":16},{"name":"x1","type":"int","value":-400},{"name":"x2","type":"int","value":-400},{"name":"y1","type":"int","value":480},{"name":"y2","type":"int","value":454},{"name":"next","type":"int","value":17},{"name":"prev","type":"int","value":22}],"polyline":[{"x":0,"y":0},{"x":0,"y":-26}]},{"id":143,"x":-400,"y":454,"visible":true,"properties":[{"name":"layer","type":"int","value":5},{"name":"group","type":"int","value":0},{"name":"id","type":"int","value":17},{"name":"fh_layer","type":"int","value":5},{"name":"fh_group","type":"int","value":0},{"name":"fh_id","type":"int","value":17},{"name":"x1","type":"int","value":-400},{"name":"x2","type":"int","value":-360},{"name":"y1","type":"int","value":454},{"name":"y2","type":"int","value":454},{"name":"next","type":"int","value":15},{"name":"prev","type":"int","value":16}],"polyline":[{"x":0,"y":0},{"x":40,"y":0}]},{"id":144,"x":-320,"y":454,"visible":true,"properties":[{"name":"layer","type":"int","value":5},{"name":"group","type":"int","value":0},{"name":"id","type":"int","value":18},{"name":"fh_layer","type":"int","value":5},{"name":"fh_group","type":"int","value":0},{"name":"fh_id","type":"int","value":18},{"name":"x1","type":"int","value":-320},{"name":"x2","type":"int","value":-270},{"name":"y1","type":"int","value":454},{"name":"y2","type":"int","value":454},{"name":"next","type":"int","value":19},{"name":"prev","type":"int","value":15}],"polyline":[{"x":0,"y":0},{"x":50,"y":0}]},{"id":145,"x":-270,"y":454,"visible":true,"properties":[{"name":"layer","type":"int","value":5},{"name":"group","type":"int","value":0},{"name":"id","type":"int","value":19},{"name":"fh_layer","type":"int","value":5},{"name":"fh_group","type":"int","value":0},{"name":"fh_id","type":"int","value":19},{"name":"x1","type":"int","value":-270},{"name":"x2","type":"int","value":-180},{"name":"y1","type":"int","value":454},{"name":"y2","type":"int","value":454},{"name":"next","type":"int","value":13},{"name":"prev","type":"int","value":18}],"polyline":[{"x":0,"y":0},{"x":90,"y":0}]},{"id":146,"x":-400,"y":660,"visible":true,"properties":[{"name":"layer","type":"int","value":5},{"name":"group","type":"int","value":0},{"name":"id","type":"int","value":20},{"name":"fh_layer","type":"int","value":5},{"name":"fh_group","type":"int","value":0},{"name":"fh_id","type":"int","value":20},{"name":"x1","type":"int","value":-400},{"name":"x2","type":"int","value":-400},{"name":"y1","type":"int","value":660},{"name":"y2","type":"int","value":600},{"name":"next","type":"int","value":21},{"name":"prev","type":"int","value":23}],"polyline":[{"x":0,"y":0},{"x":0,"y":-60}]},{"id":147,"x":-400,"y":600,"visible":true,"properties":[{"name":"layer","type":"int","value":5},{"name":"group","type":"int","value":0},{"name":"id","type":"int","value":21},{"name":"fh_layer","type":"int","value":5},{"name":"fh_group","type":"int","value":0},{"name":"fh_id","type":"int","value":21},{"name":"x1","type":"int","value":-400},{"name":"x2","type":"int","value":-400},{"name":"y1","type":"int","value":600},{"name":"y2","type":"int","value":540},{"name":"next","type":"int","value":22},{"name":"prev","type":"int","value":20}],"polyline":[{"x":0,"y":0},{"x":0,"y":-60}]},{"id":148,"x":-400,"y":540,"visible":true,"properties":[{"name":"layer","type":"int","value":5},{"name":"group","type":"int","value":0},{"name":"id","type":"int","value":22},{"name":"fh_layer","type":"int","value":5},{"name":"fh_group","type":"int","value":0},{"name":"fh_id","type":"int","value":22},{"name":"x1","type":"int","value":-400},{"name":"x2","type":"int","value":-400},{"name":"y1","type":"int","value":540},{"name":"y2","type":"int","value":480},{"name":"next","type":"int","value":16},{"name":"prev","type":"int","value":21}],"polyline":[{"x":0,"y":0},{"x":0,"y":-60}]},{"id":149,"x":-400,"y":720,"visible":true,"properties":[{"name":"layer","type":"int","value":5},{"name":"group","type":"int","value":0},{"name":"id","type":"int","value":23},{"name":"fh_layer","type":"int","value":5},{"name":"fh_group","type":"int","value":0},{"name":"fh_id","type":"int","value":23},{"name":"x1","type":"int","value":-400},{"name":"x2","type":"int","value":-400},{"name":"y1","type":"int","value":720},{"name":"y2","type":"int","value":660},{"name":"next","type":"int","value":20},{"name":"prev","type":"int","value":0}],"polyline":[{"x":0,"y":0},{"x":0,"y":-60}]}],"properties":[]},{"id":30,"name":"ladderRope","type":"objectgroup","visible":true,"opacity":1,"draworder":"index","offsetx":0,"offsety":0,"parallaxx":1,"parallaxy":1,"objects":[{"id":150,"x":405,"y":19,"visible":true,"properties":[{"name":"ladder_id","type":"int","value":1},{"name":"l","type":"int","value":1},{"name":"x","type":"int","value":405},{"name":"uf","type":"int","value":1},{"name":"y1","type":"int","value":19},{"name":"y2","type":"int","value":417},{"name":"page","type":"int","value":4}],"polyline":[{"x":0,"y":0},{"x":0,"y":398}]},{"id":151,"x":-155,"y":-204,"visible":true,"properties":[{"name":"ladder_id","type":"int","value":2},{"name":"l","type":"int","value":0},{"name":"x","type":"int","value":-155},{"name":"uf","type":"int","value":1},{"name":"y1","type":"int","value":-204},{"name":"y2","type":"int","value":-27},{"name":"page","type":"int","value":7}],"polyline":[{"x":0,"y":0},{"x":0,"y":177}]}],"properties":[]},{"id":31,"name":"miniMap","type":"objectgroup","visible":true,"opacity":1,"draworder":"index","offsetx":0,"offsety":0,"parallaxx":1,"parallaxy":1,"objects":[{"id":152,"x":458,"y":513,"visible":true,"properties":[{"name":"mag","type":"int","value":4},{"name":"centerX","type":"int","value":458},{"name":"centerY","type":"int","value":513},{"name":"canvas_path","type":"string","value":"../images/30704.png"},{"name":"canvas_width","type":"int","value":68},{"name":"canvas_height","type":"int","value":82},{"name":"canvas_origin_x","type":"int","value":0},{"name":"canvas_origin_y","type":"int","value":0}],"point":true}],"properties":[]},{"id":19,"name":"background_front_18","type":"objectgroup","visible":true,"opacity":1,"draworder":"index","offsetx":0,"offsety":0,"parallaxx":0,"parallaxy":0,"objects":[{"id":1,"x":-400,"y":380,"visible":true,"properties":[],"gid":43,"width":800,"height":600}],"properties":[{"name":"a","type":"int","value":255},{"name":"f","type":"int","value":0},{"name":"x","type":"int","value":0},{"name":"y","type":"int","value":0},{"name":"bS","type":"string","value":"dragonRoad"},{"name":"cx","type":"int","value":0},{"name":"cy","type":"int","value":0},{"name":"no","type":"int","value":17},{"name":"rx","type":"int","value":0},{"name":"ry","type":"int","value":0},{"name":"ani","type":"int","value":1},{"name":"type","type":"int","value":0},{"name":"front","type":"int","value":1}]},{"id":20,"name":"background_front_19","type":"objectgroup","visible":true,"opacity":1,"draworder":"index","offsetx":0,"offsety":0,"parallaxx":0,"parallaxy":0,"objects":[{"id":2,"x":-400,"y":380,"visible":true,"properties":[],"gid":47,"width":800,"height":600}],"properties":[{"name":"a","type":"int","value":255},{"name":"f","type":"int","value":0},{"name":"x","type":"int","value":0},{"name":"y","type":"int","value":0},{"name":"bS","type":"string","value":"dragonRoad"},{"name":"cx","type":"int","value":0},{"name":"cy","type":"int","value":0},{"name":"no","type":"int","value":18},{"name":"rx","type":"int","value":0},{"name":"ry","type":"int","value":0},{"name":"ani","type":"int","value":1},{"name":"type","type":"int","value":0},{"name":"front","type":"int","value":1}]},{"id":21,"name":"background_front_20","type":"objectgroup","visible":true,"opacity":1,"draworder":"index","offsetx":0,"offsety":0,"parallaxx":0,"parallaxy":0,"objects":[{"id":3,"x":-400,"y":380,"visible":true,"properties":[],"gid":51,"width":800,"height":600}],"properties":[{"name":"a","type":"int","value":255},{"name":"f","type":"int","value":0},{"name":"x","type":"int","value":0},{"name":"y","type":"int","value":0},{"name":"bS","type":"string","value":"dragonRoad"},{"name":"cx","type":"int","value":0},{"name":"cy","type":"int","value":0},{"name":"no","type":"int","value":19},{"name":"rx","type":"int","value":0},{"name":"ry","type":"int","value":0},{"name":"ani","type":"int","value":1},{"name":"type","type":"int","value":0},{"name":"front","type":"int","value":1}]}],"tilesets":[{"firstgid":1,"source":"../tilesets/bg_snowyLightrock.tsj"},{"firstgid":2,"source":"../tilesets/tile_snowyLightrock.tsj"},{"firstgid":18,"source":"../tilesets/obj_connect_rope_9.tsj"},{"firstgid":21,"source":"../tilesets/bg_snowyLightrock2.tsj"},{"firstgid":38,"source":"../tilesets/obj_connect_ladder_11.tsj"},{"firstgid":42,"source":"../tilesets/obj_acc12_rienFD_cave1.tsj"},{"firstgid":43,"source":"../tilesets/bg_Back_dragonRoad.img_ani_17.tsj"},{"firstgid":47,"source":"../tilesets/bg_Back_dragonRoad.img_ani_18.tsj"},{"firstgid":51,"source":"../tilesets/bg_Back_dragonRoad.img_ani_19.tsj"},{"firstgid":55,"source":"../tilesets/obj_dungeon2_snowyLightrock_foot.tsj"},{"firstgid":60,"source":"../tilesets/portal_MapHelper.img_portal_game_pv.tsj"},{"firstgid":68,"source":"../tilesets/obj_dungeon2_snowyLightrock_artificiality.tsj"}],"properties":[{"name":"fs","type":"float","value":0.20000000298023224},{"name":"bgm","type":"string","value":"Bgm05/WolfWood"},{"name":"fly","type":"int","value":0},{"name":"swim","type":"int","value":0},{"name":"town","type":"int","value":0},{"name":"VRTop","type":"int","value":-2020},{"name":"cloud","type":"int","value":0},{"name":"decHP","type":"int","value":10},{"name":"VRLeft","type":"int","value":-402},{"name":"VRRight","type":"int","value":580},{"name":"mapMark","type":"string","value":"ElNathDungeon"},{"name":"mobRate","type":"float","value":1},{"name":"version","type":"int","value":10},{"name":"VRBottom","type":"int","value":660},{"name":"noMapCmd","type":"int","value":0},{"name":"returnMap","type":"int","value":140030000},{"name":"fieldLimit","type":"int","value":2370300},{"name":"hideMinimap","type":"int","value":0},{"name":"onUserEnter","type":"string","value":""},{"name":"protectItem","type":"int","value":1102109},{"name":"forcedReturn","type":"int","value":140030000},{"name":"onFirstUserEnter","type":"string","value":""}]}