{"type":"map","orientation":"orthogonal","renderorder":"right-down","infinite":false,"tilewidth":1,"tileheight":1,"width":900,"height":600,"parallaxoriginx":-400,"parallaxoriginy":80,"nextlayerid":21,"nextobjectid":206,"layers":[{"id":1,"name":"background_back_0","type":"imagelayer","visible":true,"opacity":1,"image":"../images/26838.png","imagewidth":10,"imageheight":2134,"offsetx":30,"offsety":-2039,"repeatx":true,"repeaty":true,"parallaxx":1,"parallaxy":1,"properties":[{"name":"a","type":"int","value":255},{"name":"f","type":"int","value":0},{"name":"x","type":"int","value":35},{"name":"y","type":"int","value":-1052},{"name":"bS","type":"string","value":"event"},{"name":"cx","type":"int","value":0},{"name":"cy","type":"int","value":0},{"name":"no","type":"int","value":20},{"name":"rx","type":"int","value":-100},{"name":"ry","type":"int","value":-100},{"name":"ani","type":"int","value":0},{"name":"type","type":"int","value":3},{"name":"front","type":"int","value":0}]},{"id":2,"name":"background_back_1","type":"imagelayer","visible":true,"opacity":1,"image":"../images/26839.png","imagewidth":331,"imageheight":175,"offsetx":-408,"offsety":-222,"repeatx":true,"repeaty":false,"parallaxx":-0.05,"parallaxy":0.2,"properties":[{"name":"a","type":"int","value":255},{"name":"f","type":"int","value":0},{"name":"x","type":"int","value":-243},{"name":"y","type":"int","value":-215},{"name":"bS","type":"string","value":"event"},{"name":"cx","type":"int","value":1200},{"name":"cy","type":"int","value":0},{"name":"no","type":"int","value":21},{"name":"rx","type":"int","value":5},{"name":"ry","type":"int","value":-20},{"name":"ani","type":"int","value":0},{"name":"type","type":"int","value":4},{"name":"front","type":"int","value":0}]},{"id":3,"name":"background_back_2","type":"imagelayer","visible":true,"opacity":1,"image":"../images/26840.png","imagewidth":253,"imageheight":128,"offsetx":30,"offsety":-249,"repeatx":true,"repeaty":false,"parallaxx":-0.04,"parallaxy":0.2,"properties":[{"name":"a","type":"int","value":255},{"name":"f","type":"int","value":0},{"name":"x","type":"int","value":33},{"name":"y","type":"int","value":-233},{"name":"bS","type":"string","value":"event"},{"name":"cx","type":"int","value":1200},{"name":"cy","type":"int","value":0},{"name":"no","type":"int","value":22},{"name":"rx","type":"int","value":4},{"name":"ry","type":"int","value":-20},{"name":"ani","type":"int","value":0},{"name":"type","type":"int","value":4},{"name":"front","type":"int","value":0}]},{"id":4,"name":"background_back_3","type":"imagelayer","visible":true,"opacity":1,"image":"../images/26841.png","imagewidth":333,"imageheight":141,"offsetx":606,"offsety":-257,"repeatx":true,"repeaty":false,"parallaxx":-0.05,"parallaxy":0.2,"properties":[{"name":"a","type":"int","value":255},{"name":"f","type":"int","value":1},{"name":"x","type":"int","value":772},{"name":"y","type":"int","value":-267},{"name":"bS","type":"string","value":"event"},{"name":"cx","type":"int","value":1200},{"name":"cy","type":"int","value":0},{"name":"no","type":"int","value":23},{"name":"rx","type":"int","value":5},{"name":"ry","type":"int","value":-20},{"name":"ani","type":"int","value":0},{"name":"type","type":"int","value":4},{"name":"front","type":"int","value":0}]},{"id":5,"name":"background_back_4","type":"imagelayer","visible":true,"opacity":1,"image":"../images/26846.png","imagewidth":417,"imageheight":230,"offsetx":218,"offsety":-64,"repeatx":true,"repeaty":false,"parallaxx":0.5,"parallaxy":0.3,"properties":[{"name":"a","type":"int","value":255},{"name":"f","type":"int","value":0},{"name":"x","type":"int","value":426},{"name":"y","type":"int","value":-29},{"name":"bS","type":"string","value":"event"},{"name":"cx","type":"int","value":0},{"name":"cy","type":"int","value":0},{"name":"no","type":"int","value":28},{"name":"rx","type":"int","value":-50},{"name":"ry","type":"int","value":-30},{"name":"ani","type":"int","value":0},{"name":"type","type":"int","value":1},{"name":"front","type":"int","value":0}]},{"id":6,"name":"background_back_5","type":"imagelayer","visible":true,"opacity":1,"image":"../images/26847.png","imagewidth":568,"imageheight":435,"offsetx":-427,"offsety":-210,"repeatx":false,"repeaty":false,"parallaxx":0.6,"parallaxy":0.5,"properties":[{"name":"a","type":"int","value":255},{"name":"f","type":"int","value":0},{"name":"x","type":"int","value":-143},{"name":"y","type":"int","value":-73},{"name":"bS","type":"string","value":"event"},{"name":"cx","type":"int","value":0},{"name":"cy","type":"int","value":0},{"name":"no","type":"int","value":29},{"name":"rx","type":"int","value":-60},{"name":"ry","type":"int","value":-50},{"name":"ani","type":"int","value":0},{"name":"type","type":"int","value":0},{"name":"front","type":"int","value":0}]},{"id":7,"name":"background_back_6","type":"imagelayer","visible":true,"opacity":1,"image":"../images/26848.png","imagewidth":486,"imageheight":300,"offsetx":140,"offsety":-77,"repeatx":false,"repeaty":false,"parallaxx":0.6,"parallaxy":0.5,"properties":[{"name":"a","type":"int","value":255},{"name":"f","type":"int","value":0},{"name":"x","type":"int","value":383},{"name":"y","type":"int","value":-7},{"name":"bS","type":"string","value":"event"},{"name":"cx","type":"int","value":0},{"name":"cy","type":"int","value":0},{"name":"no","type":"int","value":30},{"name":"rx","type":"int","value":-60},{"name":"ry","type":"int","value":-50},{"name":"ani","type":"int","value":0},{"name":"type","type":"int","value":0},{"name":"front","type":"int","value":0}]},{"id":8,"name":"background_back_7","type":"imagelayer","visible":true,"opacity":1,"image":"../images/26849.png","imagewidth":350,"imageheight":495,"offsetx":623,"offsety":-271,"repeatx":false,"repeaty":false,"parallaxx":0.6,"parallaxy":0.5,"properties":[{"name":"a","type":"int","value":255},{"name":"f","type":"int","value":0},{"name":"x","type":"int","value":798},{"name":"y","type":"int","value":-104},{"name":"bS","type":"string","value":"event"},{"name":"cx","type":"int","value":0},{"name":"cy","type":"int","value":0},{"name":"no","type":"int","value":31},{"name":"rx","type":"int","value":-60},{"name":"ry","type":"int","value":-50},{"name":"ani","type":"int","value":0},{"name":"type","type":"int","value":0},{"name":"front","type":"int","value":0}]},{"id":9,"name":"background_back_8","type":"imagelayer","visible":true,"opacity":1,"image":"../images/26851.png","imagewidth":891,"imageheight":363,"offsetx":-431,"offsety":-70,"repeatx":false,"repeaty":false,"parallaxx":0.7,"parallaxy":0.7,"properties":[{"name":"a","type":"int","value":255},{"name":"f","type":"int","value":0},{"name":"x","type":"int","value":14},{"name":"y","type":"int","value":31},{"name":"bS","type":"string","value":"event"},{"name":"cx","type":"int","value":0},{"name":"cy","type":"int","value":0},{"name":"no","type":"int","value":33},{"name":"rx","type":"int","value":-70},{"name":"ry","type":"int","value":-70},{"name":"ani","type":"int","value":0},{"name":"type","type":"int","value":0},{"name":"front","type":"int","value":0}]},{"id":10,"name":"background_back_9","type":"imagelayer","visible":true,"opacity":1,"image":"../images/26852.png","imagewidth":694,"imageheight":272,"offsetx":-59,"offsety":-43,"repeatx":false,"repeaty":false,"parallaxx":0.8,"parallaxy":1,"properties":[{"name":"a","type":"int","value":255},{"name":"f","type":"int","value":0},{"name":"x","type":"int","value":288},{"name":"y","type":"int","value":13},{"name":"bS","type":"string","value":"event"},{"name":"cx","type":"int","value":0},{"name":"cy","type":"int","value":0},{"name":"no","type":"int","value":34},{"name":"rx","type":"int","value":-80},{"name":"ry","type":"int","value":-100},{"name":"ani","type":"int","value":0},{"name":"type","type":"int","value":0},{"name":"front","type":"int","value":0}]},{"id":11,"name":"background_back_10","type":"imagelayer","visible":true,"opacity":1,"image":"../images/26853.png","imagewidth":698,"imageheight":257,"offsetx":635,"offsety":-28,"repeatx":false,"repeaty":false,"parallaxx":0.8,"parallaxy":1,"properties":[{"name":"a","type":"int","value":255},{"name":"f","type":"int","value":0},{"name":"x","type":"int","value":984},{"name":"y","type":"int","value":20},{"name":"bS","type":"string","value":"event"},{"name":"cx","type":"int","value":0},{"name":"cy","type":"int","value":0},{"name":"no","type":"int","value":35},{"name":"rx","type":"int","value":-80},{"name":"ry","type":"int","value":-100},{"name":"ani","type":"int","value":0},{"name":"type","type":"int","value":0},{"name":"front","type":"int","value":0}]},{"id":12,"name":"background_back","type":"objectgroup","visible":true,"opacity":1,"draworder":"index","offsetx":0,"offsety":0,"parallaxx":1,"parallaxy":1,"objects":[{"id":1,"x":-243,"y":-215,"visible":true,"properties":[{"name":"image_layer_name","type":"string","value":"background_back_1"},{"name":"a","type":"int","value":255},{"name":"f","type":"int","value":0},{"name":"x","type":"int","value":-243},{"name":"y","type":"int","value":-215},{"name":"bS","type":"string","value":"event"},{"name":"cx","type":"int","value":1200},{"name":"cy","type":"int","value":0},{"name":"no","type":"int","value":21},{"name":"rx","type":"int","value":5},{"name":"ry","type":"int","value":-20},{"name":"ani","type":"int","value":0},{"name":"type","type":"int","value":4},{"name":"front","type":"int","value":0}],"point":true},{"id":2,"x":33,"y":-233,"visible":true,"properties":[{"name":"image_layer_name","type":"string","value":"background_back_2"},{"name":"a","type":"int","value":255},{"name":"f","type":"int","value":0},{"name":"x","type":"int","value":33},{"name":"y","type":"int","value":-233},{"name":"bS","type":"string","value":"event"},{"name":"cx","type":"int","value":1200},{"name":"cy","type":"int","value":0},{"name":"no","type":"int","value":22},{"name":"rx","type":"int","value":4},{"name":"ry","type":"int","value":-20},{"name":"ani","type":"int","value":0},{"name":"type","type":"int","value":4},{"name":"front","type":"int","value":0}],"point":true},{"id":3,"x":772,"y":-267,"visible":true,"properties":[{"name":"image_layer_name","type":"string","value":"background_back_3"},{"name":"a","type":"int","value":255},{"name":"f","type":"int","value":1},{"name":"x","type":"int","value":772},{"name":"y","type":"int","value":-267},{"name":"bS","type":"string","value":"event"},{"name":"cx","type":"int","value":1200},{"name":"cy","type":"int","value":0},{"name":"no","type":"int","value":23},{"name":"rx","type":"int","value":5},{"name":"ry","type":"int","value":-20},{"name":"ani","type":"int","value":0},{"name":"type","type":"int","value":4},{"name":"front","type":"int","value":0}],"point":true}],"properties":[]},{"id":13,"name":"layer_0_obj","type":"objectgroup","visible":true,"opacity":1,"draworder":"index","offsetx":0,"offsety":0,"parallaxx":1,"parallaxy":1,"objects":[{"id":4,"x":250,"y":156,"visible":true,"properties":[{"name":"layer","type":"int","value":0},{"name":"resource_index","type":"int","value":0},{"name":"oS","type":"string","value":"event"},{"name":"l0","type":"string","value":"battleField"},{"name":"l1","type":"string","value":"acc"},{"name":"l2","type":"string","value":"10"},{"name":"z","type":"int","value":9},{"name":"zM","type":"int","value":4},{"name":"f","type":"int","value":0}],"gid":38,"width":200,"height":177},{"id":5,"x":758,"y":151,"visible":true,"properties":[{"name":"layer","type":"int","value":0},{"name":"resource_index","type":"int","value":1},{"name":"oS","type":"string","value":"event"},{"name":"l0","type":"string","value":"battleField"},{"name":"l1","type":"string","value":"acc"},{"name":"l2","type":"string","value":"2"},{"name":"z","type":"int","value":9},{"name":"zM","type":"int","value":7},{"name":"f","type":"int","value":0}],"gid":39,"width":57,"height":72},{"id":6,"x":103,"y":158,"visible":true,"properties":[{"name":"layer","type":"int","value":0},{"name":"resource_index","type":"int","value":2},{"name":"oS","type":"string","value":"event"},{"name":"l0","type":"string","value":"battleField"},{"name":"l1","type":"string","value":"acc"},{"name":"l2","type":"string","value":"6"},{"name":"z","type":"int","value":9},{"name":"zM","type":"int","value":3},{"name":"f","type":"int","value":0}],"gid":40,"width":51,"height":73},{"id":7,"x":-127,"y":159,"visible":true,"properties":[{"name":"layer","type":"int","value":0},{"name":"resource_index","type":"int","value":3},{"name":"oS","type":"string","value":"event"},{"name":"l0","type":"string","value":"battleField"},{"name":"l1","type":"string","value":"acc"},{"name":"l2","type":"string","value":"4"},{"name":"z","type":"int","value":9},{"name":"zM","type":"int","value":1},{"name":"f","type":"int","value":0}],"gid":41,"width":230,"height":77},{"id":8,"x":-278,"y":153,"visible":true,"properties":[{"name":"layer","type":"int","value":0},{"name":"resource_index","type":"int","value":4},{"name":"oS","type":"string","value":"event"},{"name":"l0","type":"string","value":"battleField"},{"name":"l1","type":"string","value":"acc"},{"name":"l2","type":"string","value":"2"},{"name":"z","type":"int","value":9},{"name":"zM","type":"int","value":5},{"name":"f","type":"int","value":0}],"gid":39,"width":57,"height":72},{"id":9,"x":-335,"y":-29,"visible":true,"properties":[{"name":"layer","type":"int","value":0},{"name":"resource_index","type":"int","value":5},{"name":"oS","type":"string","value":"event"},{"name":"l0","type":"string","value":"battleField"},{"name":"l1","type":"string","value":"acc"},{"name":"l2","type":"string","value":"6"},{"name":"z","type":"int","value":9},{"name":"zM","type":"int","value":14},{"name":"f","type":"int","value":0}],"gid":40,"width":51,"height":73},{"id":10,"x":815,"y":152,"visible":true,"properties":[{"name":"layer","type":"int","value":0},{"name":"resource_index","type":"int","value":6},{"name":"oS","type":"string","value":"event"},{"name":"l0","type":"string","value":"battleField"},{"name":"l1","type":"string","value":"acc"},{"name":"l2","type":"string","value":"4"},{"name":"z","type":"int","value":9},{"name":"zM","type":"int","value":6},{"name":"f","type":"int","value":0}],"gid":41,"width":230,"height":77},{"id":11,"x":-177,"y":158,"visible":true,"properties":[{"name":"layer","type":"int","value":0},{"name":"resource_index","type":"int","value":7},{"name":"oS","type":"string","value":"event"},{"name":"l0","type":"string","value":"battleField"},{"name":"l1","type":"string","value":"acc"},{"name":"l2","type":"string","value":"6"},{"name":"z","type":"int","value":9},{"name":"zM","type":"int","value":1},{"name":"f","type":"int","value":1}],"gid":40,"width":51,"height":73},{"id":12,"x":495,"y":167,"visible":true,"properties":[{"name":"layer","type":"int","value":0},{"name":"resource_index","type":"int","value":8},{"name":"oS","type":"string","value":"event"},{"name":"l0","type":"string","value":"battleField"},{"name":"l1","type":"string","value":"nature"},{"name":"l2","type":"string","value":"1"},{"name":"z","type":"int","value":7},{"name":"zM","type":"int","value":2},{"name":"f","type":"int","value":0}],"gid":43,"width":255,"height":136},{"id":13,"x":-456,"y":154,"visible":true,"properties":[{"name":"layer","type":"int","value":0},{"name":"resource_index","type":"int","value":9},{"name":"oS","type":"string","value":"event"},{"name":"l0","type":"string","value":"battleField"},{"name":"l1","type":"string","value":"nature"},{"name":"l2","type":"string","value":"4"},{"name":"z","type":"int","value":9},{"name":"zM","type":"int","value":5},{"name":"f","type":"int","value":0}],"gid":44,"width":255,"height":136},{"id":14,"x":-308,"y":167,"visible":true,"properties":[{"name":"layer","type":"int","value":0},{"name":"resource_index","type":"int","value":10},{"name":"oS","type":"string","value":"event"},{"name":"l0","type":"string","value":"battleField"},{"name":"l1","type":"string","value":"nature"},{"name":"l2","type":"string","value":"5"},{"name":"z","type":"int","value":11},{"name":"zM","type":"int","value":1},{"name":"f","type":"int","value":0}],"gid":45,"width":142,"height":78},{"id":15,"x":-89,"y":153,"visible":true,"properties":[{"name":"layer","type":"int","value":0},{"name":"resource_index","type":"int","value":11},{"name":"oS","type":"string","value":"event"},{"name":"l0","type":"string","value":"battleField"},{"name":"l1","type":"string","value":"nature"},{"name":"l2","type":"string","value":"6"},{"name":"z","type":"int","value":8},{"name":"zM","type":"int","value":1},{"name":"f","type":"int","value":0}],"gid":46,"width":83,"height":66},{"id":16,"x":75,"y":151,"visible":true,"properties":[{"name":"layer","type":"int","value":0},{"name":"resource_index","type":"int","value":12},{"name":"oS","type":"string","value":"event"},{"name":"l0","type":"string","value":"battleField"},{"name":"l1","type":"string","value":"nature"},{"name":"l2","type":"string","value":"7"},{"name":"z","type":"int","value":9},{"name":"zM","type":"int","value":3},{"name":"f","type":"int","value":0}],"gid":47,"width":70,"height":26},{"id":17,"x":-211,"y":153,"visible":true,"properties":[{"name":"layer","type":"int","value":0},{"name":"resource_index","type":"int","value":13},{"name":"oS","type":"string","value":"event"},{"name":"l0","type":"string","value":"battleField"},{"name":"l1","type":"string","value":"nature"},{"name":"l2","type":"string","value":"8"},{"name":"z","type":"int","value":10},{"name":"zM","type":"int","value":1},{"name":"f","type":"int","value":0}],"gid":48,"width":46,"height":22},{"id":18,"x":-168,"y":156,"visible":true,"properties":[{"name":"layer","type":"int","value":0},{"name":"resource_index","type":"int","value":14},{"name":"oS","type":"string","value":"event"},{"name":"l0","type":"string","value":"battleField"},{"name":"l1","type":"string","value":"nature"},{"name":"l2","type":"string","value":"9"},{"name":"z","type":"int","value":10},{"name":"zM","type":"int","value":1},{"name":"f","type":"int","value":0}],"gid":49,"width":82,"height":35},{"id":19,"x":-265,"y":154,"visible":true,"properties":[{"name":"layer","type":"int","value":0},{"name":"resource_index","type":"int","value":15},{"name":"oS","type":"string","value":"event"},{"name":"l0","type":"string","value":"battleField"},{"name":"l1","type":"string","value":"nature"},{"name":"l2","type":"string","value":"13"},{"name":"z","type":"int","value":12},{"name":"zM","type":"int","value":1},{"name":"f","type":"int","value":0}],"gid":50,"width":59,"height":61},{"id":20,"x":-298,"y":151,"visible":true,"properties":[{"name":"layer","type":"int","value":0},{"name":"resource_index","type":"int","value":16},{"name":"oS","type":"string","value":"event"},{"name":"l0","type":"string","value":"battleField"},{"name":"l1","type":"string","value":"nature"},{"name":"l2","type":"string","value":"12"},{"name":"z","type":"int","value":12},{"name":"zM","type":"int","value":1},{"name":"f","type":"int","value":0}],"gid":51,"width":54,"height":76},{"id":21,"x":-453,"y":-29,"visible":true,"properties":[{"name":"layer","type":"int","value":0},{"name":"resource_index","type":"int","value":17},{"name":"oS","type":"string","value":"event"},{"name":"l0","type":"string","value":"battleField"},{"name":"l1","type":"string","value":"acc"},{"name":"l2","type":"string","value":"5"},{"name":"z","type":"int","value":9},{"name":"zM","type":"int","value":13},{"name":"f","type":"int","value":0}],"gid":42,"width":118,"height":71},{"id":22,"x":478,"y":151,"visible":true,"properties":[{"name":"layer","type":"int","value":0},{"name":"resource_index","type":"int","value":18},{"name":"oS","type":"string","value":"event"},{"name":"l0","type":"string","value":"battleField"},{"name":"l1","type":"string","value":"acc"},{"name":"l2","type":"string","value":"2"},{"name":"z","type":"int","value":9},{"name":"zM","type":"int","value":2},{"name":"f","type":"int","value":0}],"gid":39,"width":57,"height":72},{"id":23,"x":534,"y":152,"visible":true,"properties":[{"name":"layer","type":"int","value":0},{"name":"resource_index","type":"int","value":19},{"name":"oS","type":"string","value":"event"},{"name":"l0","type":"string","value":"battleField"},{"name":"l1","type":"string","value":"acc"},{"name":"l2","type":"string","value":"4"},{"name":"z","type":"int","value":9},{"name":"zM","type":"int","value":7},{"name":"f","type":"int","value":0}],"gid":41,"width":230,"height":77}],"properties":[]},{"id":14,"name":"layer_1_tile","type":"objectgroup","visible":true,"opacity":1,"draworder":"index","offsetx":0,"offsety":0,"parallaxx":1,"parallaxy":1,"objects":[{"id":24,"x":0,"y":240,"visible":true,"properties":[{"name":"layer","type":"int","value":1},{"name":"resource_index","type":"int","value":0},{"name":"u","type":"string","value":"bsc"},{"name":"no","type":"int","value":4},{"name":"zM","type":"int","value":0}],"gid":21,"width":90,"height":60},{"id":25,"x":90,"y":180,"visible":true,"properties":[{"name":"layer","type":"int","value":1},{"name":"resource_index","type":"int","value":1},{"name":"u","type":"string","value":"enH0"},{"name":"no","type":"int","value":0},{"name":"zM","type":"int","value":0}],"gid":15,"width":90,"height":38},{"id":26,"x":-270,"y":180,"visible":true,"properties":[{"name":"layer","type":"int","value":1},{"name":"resource_index","type":"int","value":2},{"name":"u","type":"string","value":"enH0"},{"name":"no","type":"int","value":0},{"name":"zM","type":"int","value":0}],"gid":15,"width":90,"height":38},{"id":27,"x":-180,"y":240,"visible":true,"properties":[{"name":"layer","type":"int","value":1},{"name":"resource_index","type":"int","value":3},{"name":"u","type":"string","value":"bsc"},{"name":"no","type":"int","value":1},{"name":"zM","type":"int","value":0}],"gid":22,"width":90,"height":60},{"id":28,"x":-90,"y":300,"visible":true,"properties":[{"name":"layer","type":"int","value":1},{"name":"resource_index","type":"int","value":4},{"name":"u","type":"string","value":"bsc"},{"name":"no","type":"int","value":0},{"name":"zM","type":"int","value":0}],"gid":23,"width":90,"height":60},{"id":29,"x":-450,"y":360,"visible":true,"properties":[{"name":"layer","type":"int","value":1},{"name":"resource_index","type":"int","value":5},{"name":"u","type":"string","value":"bsc"},{"name":"no","type":"int","value":2},{"name":"zM","type":"int","value":0}],"gid":20,"width":90,"height":60},{"id":30,"x":-180,"y":300,"visible":true,"properties":[{"name":"layer","type":"int","value":1},{"name":"resource_index","type":"int","value":6},{"name":"u","type":"string","value":"bsc"},{"name":"no","type":"int","value":3},{"name":"zM","type":"int","value":0}],"gid":19,"width":90,"height":60},{"id":31,"x":0,"y":300,"visible":true,"properties":[{"name":"layer","type":"int","value":1},{"name":"resource_index","type":"int","value":7},{"name":"u","type":"string","value":"bsc"},{"name":"no","type":"int","value":1},{"name":"zM","type":"int","value":0}],"gid":22,"width":90,"height":60},{"id":32,"x":-90,"y":180,"visible":true,"properties":[{"name":"layer","type":"int","value":1},{"name":"resource_index","type":"int","value":8},{"name":"u","type":"string","value":"enH0"},{"name":"no","type":"int","value":1},{"name":"zM","type":"int","value":0}],"gid":16,"width":90,"height":39},{"id":33,"x":-90,"y":240,"visible":true,"properties":[{"name":"layer","type":"int","value":1},{"name":"resource_index","type":"int","value":9},{"name":"u","type":"string","value":"bsc"},{"name":"no","type":"int","value":2},{"name":"zM","type":"int","value":0}],"gid":20,"width":90,"height":60},{"id":34,"x":-294,"y":17,"visible":true,"properties":[{"name":"layer","type":"int","value":1},{"name":"resource_index","type":"int","value":10},{"name":"u","type":"string","value":"edD"},{"name":"no","type":"int","value":0},{"name":"zM","type":"int","value":11}],"gid":13,"width":48,"height":17},{"id":35,"x":-270,"y":300,"visible":true,"properties":[{"name":"layer","type":"int","value":1},{"name":"resource_index","type":"int","value":11},{"name":"u","type":"string","value":"bsc"},{"name":"no","type":"int","value":3},{"name":"zM","type":"int","value":0}],"gid":19,"width":90,"height":60},{"id":36,"x":-270,"y":240,"visible":true,"properties":[{"name":"layer","type":"int","value":1},{"name":"resource_index","type":"int","value":12},{"name":"u","type":"string","value":"bsc"},{"name":"no","type":"int","value":3},{"name":"zM","type":"int","value":0}],"gid":19,"width":90,"height":60},{"id":37,"x":-180,"y":180,"visible":true,"properties":[{"name":"layer","type":"int","value":1},{"name":"resource_index","type":"int","value":13},{"name":"u","type":"string","value":"enH0"},{"name":"no","type":"int","value":0},{"name":"zM","type":"int","value":0}],"gid":15,"width":90,"height":38},{"id":38,"x":-450,"y":240,"visible":true,"properties":[{"name":"layer","type":"int","value":1},{"name":"resource_index","type":"int","value":14},{"name":"u","type":"string","value":"bsc"},{"name":"no","type":"int","value":0},{"name":"zM","type":"int","value":0}],"gid":23,"width":90,"height":60},{"id":39,"x":-450,"y":180,"visible":true,"properties":[{"name":"layer","type":"int","value":1},{"name":"resource_index","type":"int","value":15},{"name":"u","type":"string","value":"enH0"},{"name":"no","type":"int","value":0},{"name":"zM","type":"int","value":0}],"gid":15,"width":90,"height":38},{"id":40,"x":-299,"y":1,"visible":true,"properties":[{"name":"layer","type":"int","value":1},{"name":"resource_index","type":"int","value":16},{"name":"u","type":"string","value":"edU"},{"name":"no","type":"int","value":1},{"name":"zM","type":"int","value":11}],"gid":18,"width":55,"height":38},{"id":41,"x":-360,"y":240,"visible":true,"properties":[{"name":"layer","type":"int","value":1},{"name":"resource_index","type":"int","value":17},{"name":"u","type":"string","value":"bsc"},{"name":"no","type":"int","value":4},{"name":"zM","type":"int","value":0}],"gid":21,"width":90,"height":60},{"id":42,"x":0,"y":180,"visible":true,"properties":[{"name":"layer","type":"int","value":1},{"name":"resource_index","type":"int","value":18},{"name":"u","type":"string","value":"enH0"},{"name":"no","type":"int","value":0},{"name":"zM","type":"int","value":0}],"gid":15,"width":90,"height":38},{"id":43,"x":90,"y":240,"visible":true,"properties":[{"name":"layer","type":"int","value":1},{"name":"resource_index","type":"int","value":19},{"name":"u","type":"string","value":"bsc"},{"name":"no","type":"int","value":3},{"name":"zM","type":"int","value":0}],"gid":19,"width":90,"height":60},{"id":44,"x":180,"y":300,"visible":true,"properties":[{"name":"layer","type":"int","value":1},{"name":"resource_index","type":"int","value":20},{"name":"u","type":"string","value":"bsc"},{"name":"no","type":"int","value":4},{"name":"zM","type":"int","value":0}],"gid":21,"width":90,"height":60},{"id":45,"x":360,"y":240,"visible":true,"properties":[{"name":"layer","type":"int","value":1},{"name":"resource_index","type":"int","value":21},{"name":"u","type":"string","value":"bsc"},{"name":"no","type":"int","value":3},{"name":"zM","type":"int","value":0}],"gid":19,"width":90,"height":60},{"id":46,"x":360,"y":180,"visible":true,"properties":[{"name":"layer","type":"int","value":1},{"name":"resource_index","type":"int","value":22},{"name":"u","type":"string","value":"enH0"},{"name":"no","type":"int","value":0},{"name":"zM","type":"int","value":0}],"gid":15,"width":90,"height":38},{"id":47,"x":0,"y":360,"visible":true,"properties":[{"name":"layer","type":"int","value":1},{"name":"resource_index","type":"int","value":23},{"name":"u","type":"string","value":"bsc"},{"name":"no","type":"int","value":2},{"name":"zM","type":"int","value":0}],"gid":20,"width":90,"height":60},{"id":48,"x":180,"y":240,"visible":true,"properties":[{"name":"layer","type":"int","value":1},{"name":"resource_index","type":"int","value":24},{"name":"u","type":"string","value":"bsc"},{"name":"no","type":"int","value":4},{"name":"zM","type":"int","value":0}],"gid":21,"width":90,"height":60},{"id":49,"x":90,"y":300,"visible":true,"properties":[{"name":"layer","type":"int","value":1},{"name":"resource_index","type":"int","value":25},{"name":"u","type":"string","value":"bsc"},{"name":"no","type":"int","value":0},{"name":"zM","type":"int","value":0}],"gid":23,"width":90,"height":60},{"id":50,"x":270,"y":240,"visible":true,"properties":[{"name":"layer","type":"int","value":1},{"name":"resource_index","type":"int","value":26},{"name":"u","type":"string","value":"bsc"},{"name":"no","type":"int","value":0},{"name":"zM","type":"int","value":0}],"gid":23,"width":90,"height":60},{"id":51,"x":270,"y":180,"visible":true,"properties":[{"name":"layer","type":"int","value":1},{"name":"resource_index","type":"int","value":27},{"name":"u","type":"string","value":"enH0"},{"name":"no","type":"int","value":0},{"name":"zM","type":"int","value":0}],"gid":15,"width":90,"height":38},{"id":52,"x":180,"y":180,"visible":true,"properties":[{"name":"layer","type":"int","value":1},{"name":"resource_index","type":"int","value":28},{"name":"u","type":"string","value":"enH0"},{"name":"no","type":"int","value":1},{"name":"zM","type":"int","value":0}],"gid":16,"width":90,"height":39},{"id":53,"x":270,"y":300,"visible":true,"properties":[{"name":"layer","type":"int","value":1},{"name":"resource_index","type":"int","value":29},{"name":"u","type":"string","value":"bsc"},{"name":"no","type":"int","value":3},{"name":"zM","type":"int","value":0}],"gid":19,"width":90,"height":60},{"id":54,"x":360,"y":300,"visible":true,"properties":[{"name":"layer","type":"int","value":1},{"name":"resource_index","type":"int","value":30},{"name":"u","type":"string","value":"bsc"},{"name":"no","type":"int","value":1},{"name":"zM","type":"int","value":0}],"gid":22,"width":90,"height":60},{"id":55,"x":270,"y":360,"visible":true,"properties":[{"name":"layer","type":"int","value":1},{"name":"resource_index","type":"int","value":31},{"name":"u","type":"string","value":"bsc"},{"name":"no","type":"int","value":4},{"name":"zM","type":"int","value":0}],"gid":21,"width":90,"height":60},{"id":56,"x":-450,"y":300,"visible":true,"properties":[{"name":"layer","type":"int","value":1},{"name":"resource_index","type":"int","value":32},{"name":"u","type":"string","value":"bsc"},{"name":"no","type":"int","value":0},{"name":"zM","type":"int","value":0}],"gid":23,"width":90,"height":60},{"id":57,"x":90,"y":360,"visible":true,"properties":[{"name":"layer","type":"int","value":1},{"name":"resource_index","type":"int","value":33},{"name":"u","type":"string","value":"bsc"},{"name":"no","type":"int","value":0},{"name":"zM","type":"int","value":0}],"gid":23,"width":90,"height":60},{"id":58,"x":180,"y":360,"visible":true,"properties":[{"name":"layer","type":"int","value":1},{"name":"resource_index","type":"int","value":34},{"name":"u","type":"string","value":"bsc"},{"name":"no","type":"int","value":4},{"name":"zM","type":"int","value":0}],"gid":21,"width":90,"height":60},{"id":59,"x":360,"y":360,"visible":true,"properties":[{"name":"layer","type":"int","value":1},{"name":"resource_index","type":"int","value":35},{"name":"u","type":"string","value":"bsc"},{"name":"no","type":"int","value":1},{"name":"zM","type":"int","value":0}],"gid":22,"width":90,"height":60},{"id":60,"x":-360,"y":360,"visible":true,"properties":[{"name":"layer","type":"int","value":1},{"name":"resource_index","type":"int","value":36},{"name":"u","type":"string","value":"bsc"},{"name":"no","type":"int","value":4},{"name":"zM","type":"int","value":0}],"gid":21,"width":90,"height":60},{"id":61,"x":-90,"y":360,"visible":true,"properties":[{"name":"layer","type":"int","value":1},{"name":"resource_index","type":"int","value":37},{"name":"u","type":"string","value":"bsc"},{"name":"no","type":"int","value":4},{"name":"zM","type":"int","value":0}],"gid":21,"width":90,"height":60},{"id":62,"x":-270,"y":360,"visible":true,"properties":[{"name":"layer","type":"int","value":1},{"name":"resource_index","type":"int","value":38},{"name":"u","type":"string","value":"bsc"},{"name":"no","type":"int","value":2},{"name":"zM","type":"int","value":0}],"gid":20,"width":90,"height":60},{"id":63,"x":-180,"y":360,"visible":true,"properties":[{"name":"layer","type":"int","value":1},{"name":"resource_index","type":"int","value":39},{"name":"u","type":"string","value":"bsc"},{"name":"no","type":"int","value":2},{"name":"zM","type":"int","value":0}],"gid":20,"width":90,"height":60},{"id":64,"x":-360,"y":386,"visible":true,"properties":[{"name":"layer","type":"int","value":1},{"name":"resource_index","type":"int","value":40},{"name":"u","type":"string","value":"enH1"},{"name":"no","type":"int","value":1},{"name":"zM","type":"int","value":0}],"gid":17,"width":90,"height":26},{"id":65,"x":-450,"y":385,"visible":true,"properties":[{"name":"layer","type":"int","value":1},{"name":"resource_index","type":"int","value":41},{"name":"u","type":"string","value":"enH1"},{"name":"no","type":"int","value":0},{"name":"zM","type":"int","value":0}],"gid":14,"width":90,"height":25},{"id":66,"x":-90,"y":386,"visible":true,"properties":[{"name":"layer","type":"int","value":1},{"name":"resource_index","type":"int","value":42},{"name":"u","type":"string","value":"enH1"},{"name":"no","type":"int","value":1},{"name":"zM","type":"int","value":0}],"gid":17,"width":90,"height":26},{"id":67,"x":-270,"y":385,"visible":true,"properties":[{"name":"layer","type":"int","value":1},{"name":"resource_index","type":"int","value":43},{"name":"u","type":"string","value":"enH1"},{"name":"no","type":"int","value":0},{"name":"zM","type":"int","value":0}],"gid":14,"width":90,"height":25},{"id":68,"x":-180,"y":385,"visible":true,"properties":[{"name":"layer","type":"int","value":1},{"name":"resource_index","type":"int","value":44},{"name":"u","type":"string","value":"enH1"},{"name":"no","type":"int","value":0},{"name":"zM","type":"int","value":0}],"gid":14,"width":90,"height":25},{"id":69,"x":0,"y":385,"visible":true,"properties":[{"name":"layer","type":"int","value":1},{"name":"resource_index","type":"int","value":45},{"name":"u","type":"string","value":"enH1"},{"name":"no","type":"int","value":0},{"name":"zM","type":"int","value":0}],"gid":14,"width":90,"height":25},{"id":70,"x":90,"y":385,"visible":true,"properties":[{"name":"layer","type":"int","value":1},{"name":"resource_index","type":"int","value":46},{"name":"u","type":"string","value":"enH1"},{"name":"no","type":"int","value":0},{"name":"zM","type":"int","value":0}],"gid":14,"width":90,"height":25},{"id":71,"x":270,"y":385,"visible":true,"properties":[{"name":"layer","type":"int","value":1},{"name":"resource_index","type":"int","value":47},{"name":"u","type":"string","value":"enH1"},{"name":"no","type":"int","value":0},{"name":"zM","type":"int","value":0}],"gid":14,"width":90,"height":25},{"id":72,"x":360,"y":385,"visible":true,"properties":[{"name":"layer","type":"int","value":1},{"name":"resource_index","type":"int","value":48},{"name":"u","type":"string","value":"enH1"},{"name":"no","type":"int","value":0},{"name":"zM","type":"int","value":0}],"gid":14,"width":90,"height":25},{"id":73,"x":180,"y":385,"visible":true,"properties":[{"name":"layer","type":"int","value":1},{"name":"resource_index","type":"int","value":49},{"name":"u","type":"string","value":"enH1"},{"name":"no","type":"int","value":0},{"name":"zM","type":"int","value":0}],"gid":14,"width":90,"height":25},{"id":74,"x":-360,"y":300,"visible":true,"properties":[{"name":"layer","type":"int","value":1},{"name":"resource_index","type":"int","value":50},{"name":"u","type":"string","value":"bsc"},{"name":"no","type":"int","value":4},{"name":"zM","type":"int","value":0}],"gid":21,"width":90,"height":60},{"id":75,"x":-360,"y":180,"visible":true,"properties":[{"name":"layer","type":"int","value":1},{"name":"resource_index","type":"int","value":51},{"name":"u","type":"string","value":"enH0"},{"name":"no","type":"int","value":1},{"name":"zM","type":"int","value":0}],"gid":16,"width":90,"height":39},{"id":76,"x":-360,"y":25,"visible":true,"properties":[{"name":"layer","type":"int","value":1},{"name":"resource_index","type":"int","value":52},{"name":"u","type":"string","value":"enH1"},{"name":"no","type":"int","value":0},{"name":"zM","type":"int","value":11}],"gid":14,"width":90,"height":25},{"id":77,"x":-360,"y":0,"visible":true,"properties":[{"name":"layer","type":"int","value":1},{"name":"resource_index","type":"int","value":53},{"name":"u","type":"string","value":"enH0"},{"name":"no","type":"int","value":0},{"name":"zM","type":"int","value":11}],"gid":15,"width":90,"height":38},{"id":78,"x":-450,"y":0,"visible":true,"properties":[{"name":"layer","type":"int","value":1},{"name":"resource_index","type":"int","value":54},{"name":"u","type":"string","value":"enH0"},{"name":"no","type":"int","value":0},{"name":"zM","type":"int","value":11}],"gid":15,"width":90,"height":38},{"id":79,"x":-450,"y":25,"visible":true,"properties":[{"name":"layer","type":"int","value":1},{"name":"resource_index","type":"int","value":55},{"name":"u","type":"string","value":"enH1"},{"name":"no","type":"int","value":0},{"name":"zM","type":"int","value":11}],"gid":14,"width":90,"height":25},{"id":80,"x":450,"y":240,"visible":true,"properties":[{"name":"layer","type":"int","value":1},{"name":"resource_index","type":"int","value":56},{"name":"u","type":"string","value":"bsc"},{"name":"no","type":"int","value":1},{"name":"zM","type":"int","value":0}],"gid":22,"width":90,"height":60},{"id":81,"x":450,"y":180,"visible":true,"properties":[{"name":"layer","type":"int","value":1},{"name":"resource_index","type":"int","value":57},{"name":"u","type":"string","value":"enH0"},{"name":"no","type":"int","value":1},{"name":"zM","type":"int","value":0}],"gid":16,"width":90,"height":39},{"id":82,"x":810,"y":360,"visible":true,"properties":[{"name":"layer","type":"int","value":1},{"name":"resource_index","type":"int","value":58},{"name":"u","type":"string","value":"bsc"},{"name":"no","type":"int","value":2},{"name":"zM","type":"int","value":0}],"gid":20,"width":90,"height":60},{"id":83,"x":540,"y":300,"visible":true,"properties":[{"name":"layer","type":"int","value":1},{"name":"resource_index","type":"int","value":59},{"name":"u","type":"string","value":"bsc"},{"name":"no","type":"int","value":3},{"name":"zM","type":"int","value":0}],"gid":19,"width":90,"height":60},{"id":84,"x":450,"y":300,"visible":true,"properties":[{"name":"layer","type":"int","value":1},{"name":"resource_index","type":"int","value":60},{"name":"u","type":"string","value":"bsc"},{"name":"no","type":"int","value":1},{"name":"zM","type":"int","value":0}],"gid":22,"width":90,"height":60},{"id":85,"x":720,"y":386,"visible":true,"properties":[{"name":"layer","type":"int","value":1},{"name":"resource_index","type":"int","value":61},{"name":"u","type":"string","value":"enH1"},{"name":"no","type":"int","value":1},{"name":"zM","type":"int","value":0}],"gid":17,"width":90,"height":26},{"id":86,"x":540,"y":240,"visible":true,"properties":[{"name":"layer","type":"int","value":1},{"name":"resource_index","type":"int","value":62},{"name":"u","type":"string","value":"bsc"},{"name":"no","type":"int","value":2},{"name":"zM","type":"int","value":0}],"gid":20,"width":90,"height":60},{"id":87,"x":540,"y":180,"visible":true,"properties":[{"name":"layer","type":"int","value":1},{"name":"resource_index","type":"int","value":63},{"name":"u","type":"string","value":"enH0"},{"name":"no","type":"int","value":1},{"name":"zM","type":"int","value":0}],"gid":16,"width":90,"height":39},{"id":88,"x":630,"y":240,"visible":true,"properties":[{"name":"layer","type":"int","value":1},{"name":"resource_index","type":"int","value":64},{"name":"u","type":"string","value":"bsc"},{"name":"no","type":"int","value":3},{"name":"zM","type":"int","value":0}],"gid":19,"width":90,"height":60},{"id":89,"x":540,"y":360,"visible":true,"properties":[{"name":"layer","type":"int","value":1},{"name":"resource_index","type":"int","value":65},{"name":"u","type":"string","value":"bsc"},{"name":"no","type":"int","value":2},{"name":"zM","type":"int","value":0}],"gid":20,"width":90,"height":60},{"id":90,"x":630,"y":385,"visible":true,"properties":[{"name":"layer","type":"int","value":1},{"name":"resource_index","type":"int","value":66},{"name":"u","type":"string","value":"enH1"},{"name":"no","type":"int","value":0},{"name":"zM","type":"int","value":0}],"gid":14,"width":90,"height":25},{"id":91,"x":450,"y":360,"visible":true,"properties":[{"name":"layer","type":"int","value":1},{"name":"resource_index","type":"int","value":67},{"name":"u","type":"string","value":"bsc"},{"name":"no","type":"int","value":2},{"name":"zM","type":"int","value":0}],"gid":20,"width":90,"height":60},{"id":92,"x":540,"y":386,"visible":true,"properties":[{"name":"layer","type":"int","value":1},{"name":"resource_index","type":"int","value":68},{"name":"u","type":"string","value":"enH1"},{"name":"no","type":"int","value":1},{"name":"zM","type":"int","value":0}],"gid":17,"width":90,"height":26},{"id":93,"x":450,"y":386,"visible":true,"properties":[{"name":"layer","type":"int","value":1},{"name":"resource_index","type":"int","value":69},{"name":"u","type":"string","value":"enH1"},{"name":"no","type":"int","value":1},{"name":"zM","type":"int","value":0}],"gid":17,"width":90,"height":26},{"id":94,"x":630,"y":360,"visible":true,"properties":[{"name":"layer","type":"int","value":1},{"name":"resource_index","type":"int","value":70},{"name":"u","type":"string","value":"bsc"},{"name":"no","type":"int","value":1},{"name":"zM","type":"int","value":0}],"gid":22,"width":90,"height":60},{"id":95,"x":720,"y":240,"visible":true,"properties":[{"name":"layer","type":"int","value":1},{"name":"resource_index","type":"int","value":71},{"name":"u","type":"string","value":"bsc"},{"name":"no","type":"int","value":1},{"name":"zM","type":"int","value":0}],"gid":22,"width":90,"height":60},{"id":96,"x":720,"y":180,"visible":true,"properties":[{"name":"layer","type":"int","value":1},{"name":"resource_index","type":"int","value":72},{"name":"u","type":"string","value":"enH0"},{"name":"no","type":"int","value":0},{"name":"zM","type":"int","value":0}],"gid":15,"width":90,"height":38},{"id":97,"x":630,"y":180,"visible":true,"properties":[{"name":"layer","type":"int","value":1},{"name":"resource_index","type":"int","value":73},{"name":"u","type":"string","value":"enH0"},{"name":"no","type":"int","value":1},{"name":"zM","type":"int","value":0}],"gid":16,"width":90,"height":39},{"id":98,"x":810,"y":240,"visible":true,"properties":[{"name":"layer","type":"int","value":1},{"name":"resource_index","type":"int","value":74},{"name":"u","type":"string","value":"bsc"},{"name":"no","type":"int","value":2},{"name":"zM","type":"int","value":0}],"gid":20,"width":90,"height":60},{"id":99,"x":810,"y":180,"visible":true,"properties":[{"name":"layer","type":"int","value":1},{"name":"resource_index","type":"int","value":75},{"name":"u","type":"string","value":"enH0"},{"name":"no","type":"int","value":0},{"name":"zM","type":"int","value":0}],"gid":15,"width":90,"height":38},{"id":100,"x":900,"y":240,"visible":true,"properties":[{"name":"layer","type":"int","value":1},{"name":"resource_index","type":"int","value":76},{"name":"u","type":"string","value":"bsc"},{"name":"no","type":"int","value":4},{"name":"zM","type":"int","value":0}],"gid":21,"width":90,"height":60},{"id":101,"x":990,"y":360,"visible":true,"properties":[{"name":"layer","type":"int","value":1},{"name":"resource_index","type":"int","value":77},{"name":"u","type":"string","value":"enV1"},{"name":"no","type":"int","value":0},{"name":"zM","type":"int","value":0}],"gid":29,"width":29,"height":60},{"id":102,"x":630,"y":300,"visible":true,"properties":[{"name":"layer","type":"int","value":1},{"name":"resource_index","type":"int","value":78},{"name":"u","type":"string","value":"bsc"},{"name":"no","type":"int","value":1},{"name":"zM","type":"int","value":0}],"gid":22,"width":90,"height":60},{"id":103,"x":720,"y":360,"visible":true,"properties":[{"name":"layer","type":"int","value":1},{"name":"resource_index","type":"int","value":79},{"name":"u","type":"string","value":"bsc"},{"name":"no","type":"int","value":3},{"name":"zM","type":"int","value":0}],"gid":19,"width":90,"height":60},{"id":104,"x":900,"y":360,"visible":true,"properties":[{"name":"layer","type":"int","value":1},{"name":"resource_index","type":"int","value":80},{"name":"u","type":"string","value":"bsc"},{"name":"no","type":"int","value":2},{"name":"zM","type":"int","value":0}],"gid":20,"width":90,"height":60},{"id":105,"x":720,"y":300,"visible":true,"properties":[{"name":"layer","type":"int","value":1},{"name":"resource_index","type":"int","value":81},{"name":"u","type":"string","value":"bsc"},{"name":"no","type":"int","value":2},{"name":"zM","type":"int","value":0}],"gid":20,"width":90,"height":60},{"id":106,"x":810,"y":300,"visible":true,"properties":[{"name":"layer","type":"int","value":1},{"name":"resource_index","type":"int","value":82},{"name":"u","type":"string","value":"bsc"},{"name":"no","type":"int","value":4},{"name":"zM","type":"int","value":0}],"gid":21,"width":90,"height":60},{"id":107,"x":966,"y":377,"visible":true,"properties":[{"name":"layer","type":"int","value":1},{"name":"resource_index","type":"int","value":83},{"name":"u","type":"string","value":"edD"},{"name":"no","type":"int","value":0},{"name":"zM","type":"int","value":0}],"gid":13,"width":48,"height":17},{"id":108,"x":990,"y":300,"visible":true,"properties":[{"name":"layer","type":"int","value":1},{"name":"resource_index","type":"int","value":84},{"name":"u","type":"string","value":"enV1"},{"name":"no","type":"int","value":1},{"name":"zM","type":"int","value":0}],"gid":27,"width":29,"height":60},{"id":109,"x":810,"y":385,"visible":true,"properties":[{"name":"layer","type":"int","value":1},{"name":"resource_index","type":"int","value":85},{"name":"u","type":"string","value":"enH1"},{"name":"no","type":"int","value":0},{"name":"zM","type":"int","value":0}],"gid":14,"width":90,"height":25},{"id":110,"x":990,"y":240,"visible":true,"properties":[{"name":"layer","type":"int","value":1},{"name":"resource_index","type":"int","value":86},{"name":"u","type":"string","value":"enV1"},{"name":"no","type":"int","value":0},{"name":"zM","type":"int","value":0}],"gid":29,"width":29,"height":60},{"id":111,"x":900,"y":386,"visible":true,"properties":[{"name":"layer","type":"int","value":1},{"name":"resource_index","type":"int","value":87},{"name":"u","type":"string","value":"enH1"},{"name":"no","type":"int","value":1},{"name":"zM","type":"int","value":0}],"gid":17,"width":90,"height":26},{"id":112,"x":961,"y":180,"visible":true,"properties":[{"name":"layer","type":"int","value":1},{"name":"resource_index","type":"int","value":88},{"name":"u","type":"string","value":"edU"},{"name":"no","type":"int","value":0},{"name":"zM","type":"int","value":0}],"gid":12,"width":54,"height":37},{"id":113,"x":900,"y":300,"visible":true,"properties":[{"name":"layer","type":"int","value":1},{"name":"resource_index","type":"int","value":89},{"name":"u","type":"string","value":"bsc"},{"name":"no","type":"int","value":2},{"name":"zM","type":"int","value":0}],"gid":20,"width":90,"height":60},{"id":114,"x":900,"y":180,"visible":true,"properties":[{"name":"layer","type":"int","value":1},{"name":"resource_index","type":"int","value":90},{"name":"u","type":"string","value":"enH0"},{"name":"no","type":"int","value":0},{"name":"zM","type":"int","value":0}],"gid":15,"width":90,"height":38},{"id":115,"x":-209,"y":-59,"visible":true,"properties":[{"name":"layer","type":"int","value":1},{"name":"resource_index","type":"int","value":91},{"name":"u","type":"string","value":"edU"},{"name":"no","type":"int","value":1},{"name":"zM","type":"int","value":15}],"gid":18,"width":55,"height":38},{"id":116,"x":-204,"y":-43,"visible":true,"properties":[{"name":"layer","type":"int","value":1},{"name":"resource_index","type":"int","value":92},{"name":"u","type":"string","value":"edD"},{"name":"no","type":"int","value":0},{"name":"zM","type":"int","value":15}],"gid":13,"width":48,"height":17},{"id":117,"x":-90,"y":-35,"visible":true,"properties":[{"name":"layer","type":"int","value":1},{"name":"resource_index","type":"int","value":93},{"name":"u","type":"string","value":"enH1"},{"name":"no","type":"int","value":0},{"name":"zM","type":"int","value":15}],"gid":14,"width":90,"height":25},{"id":118,"x":-90,"y":-60,"visible":true,"properties":[{"name":"layer","type":"int","value":1},{"name":"resource_index","type":"int","value":94},{"name":"u","type":"string","value":"enH0"},{"name":"no","type":"int","value":0},{"name":"zM","type":"int","value":15}],"gid":15,"width":90,"height":38},{"id":119,"x":-180,"y":-60,"visible":true,"properties":[{"name":"layer","type":"int","value":1},{"name":"resource_index","type":"int","value":95},{"name":"u","type":"string","value":"enH0"},{"name":"no","type":"int","value":1},{"name":"zM","type":"int","value":15}],"gid":16,"width":90,"height":39},{"id":120,"x":-180,"y":-34,"visible":true,"properties":[{"name":"layer","type":"int","value":1},{"name":"resource_index","type":"int","value":96},{"name":"u","type":"string","value":"enH1"},{"name":"no","type":"int","value":1},{"name":"zM","type":"int","value":15}],"gid":17,"width":90,"height":26},{"id":121,"x":0,"y":-35,"visible":true,"properties":[{"name":"layer","type":"int","value":1},{"name":"resource_index","type":"int","value":97},{"name":"u","type":"string","value":"enH1"},{"name":"no","type":"int","value":0},{"name":"zM","type":"int","value":15}],"gid":14,"width":90,"height":25},{"id":122,"x":0,"y":-60,"visible":true,"properties":[{"name":"layer","type":"int","value":1},{"name":"resource_index","type":"int","value":98},{"name":"u","type":"string","value":"enH0"},{"name":"no","type":"int","value":0},{"name":"zM","type":"int","value":15}],"gid":15,"width":90,"height":38},{"id":123,"x":90,"y":-35,"visible":true,"properties":[{"name":"layer","type":"int","value":1},{"name":"resource_index","type":"int","value":99},{"name":"u","type":"string","value":"enH1"},{"name":"no","type":"int","value":0},{"name":"zM","type":"int","value":15}],"gid":14,"width":90,"height":25},{"id":124,"x":90,"y":-60,"visible":true,"properties":[{"name":"layer","type":"int","value":1},{"name":"resource_index","type":"int","value":100},{"name":"u","type":"string","value":"enH0"},{"name":"no","type":"int","value":1},{"name":"zM","type":"int","value":15}],"gid":16,"width":90,"height":39},{"id":125,"x":786,"y":17,"visible":true,"properties":[{"name":"layer","type":"int","value":1},{"name":"resource_index","type":"int","value":101},{"name":"u","type":"string","value":"edD"},{"name":"no","type":"int","value":0},{"name":"zM","type":"int","value":10}],"gid":13,"width":48,"height":17},{"id":126,"x":781,"y":0,"visible":true,"properties":[{"name":"layer","type":"int","value":1},{"name":"resource_index","type":"int","value":102},{"name":"u","type":"string","value":"edU"},{"name":"no","type":"int","value":0},{"name":"zM","type":"int","value":10}],"gid":12,"width":54,"height":37},{"id":127,"x":900,"y":25,"visible":true,"properties":[{"name":"layer","type":"int","value":1},{"name":"resource_index","type":"int","value":103},{"name":"u","type":"string","value":"enH1"},{"name":"no","type":"int","value":0},{"name":"zM","type":"int","value":10}],"gid":14,"width":90,"height":25},{"id":128,"x":900,"y":0,"visible":true,"properties":[{"name":"layer","type":"int","value":1},{"name":"resource_index","type":"int","value":104},{"name":"u","type":"string","value":"enH0"},{"name":"no","type":"int","value":1},{"name":"zM","type":"int","value":10}],"gid":16,"width":90,"height":39},{"id":129,"x":810,"y":0,"visible":true,"properties":[{"name":"layer","type":"int","value":1},{"name":"resource_index","type":"int","value":105},{"name":"u","type":"string","value":"enH0"},{"name":"no","type":"int","value":0},{"name":"zM","type":"int","value":10}],"gid":15,"width":90,"height":38},{"id":130,"x":810,"y":26,"visible":true,"properties":[{"name":"layer","type":"int","value":1},{"name":"resource_index","type":"int","value":106},{"name":"u","type":"string","value":"enH1"},{"name":"no","type":"int","value":1},{"name":"zM","type":"int","value":10}],"gid":17,"width":90,"height":26},{"id":131,"x":966,"y":17,"visible":true,"properties":[{"name":"layer","type":"int","value":1},{"name":"resource_index","type":"int","value":107},{"name":"u","type":"string","value":"edD"},{"name":"no","type":"int","value":0},{"name":"zM","type":"int","value":10}],"gid":13,"width":48,"height":17},{"id":132,"x":961,"y":0,"visible":true,"properties":[{"name":"layer","type":"int","value":1},{"name":"resource_index","type":"int","value":108},{"name":"u","type":"string","value":"edU"},{"name":"no","type":"int","value":0},{"name":"zM","type":"int","value":10}],"gid":12,"width":54,"height":37},{"id":133,"x":540,"y":-35,"visible":true,"properties":[{"name":"layer","type":"int","value":1},{"name":"resource_index","type":"int","value":109},{"name":"u","type":"string","value":"enH1"},{"name":"no","type":"int","value":0},{"name":"zM","type":"int","value":15}],"gid":14,"width":90,"height":25},{"id":134,"x":540,"y":-60,"visible":true,"properties":[{"name":"layer","type":"int","value":1},{"name":"resource_index","type":"int","value":110},{"name":"u","type":"string","value":"enH0"},{"name":"no","type":"int","value":1},{"name":"zM","type":"int","value":15}],"gid":16,"width":90,"height":39},{"id":135,"x":720,"y":-35,"visible":true,"properties":[{"name":"layer","type":"int","value":1},{"name":"resource_index","type":"int","value":111},{"name":"u","type":"string","value":"enH1"},{"name":"no","type":"int","value":0},{"name":"zM","type":"int","value":15}],"gid":14,"width":90,"height":25},{"id":136,"x":720,"y":-60,"visible":true,"properties":[{"name":"layer","type":"int","value":1},{"name":"resource_index","type":"int","value":112},{"name":"u","type":"string","value":"enH0"},{"name":"no","type":"int","value":0},{"name":"zM","type":"int","value":15}],"gid":15,"width":90,"height":38},{"id":137,"x":630,"y":-60,"visible":true,"properties":[{"name":"layer","type":"int","value":1},{"name":"resource_index","type":"int","value":113},{"name":"u","type":"string","value":"enH0"},{"name":"no","type":"int","value":1},{"name":"zM","type":"int","value":15}],"gid":16,"width":90,"height":39},{"id":138,"x":630,"y":-35,"visible":true,"properties":[{"name":"layer","type":"int","value":1},{"name":"resource_index","type":"int","value":114},{"name":"u","type":"string","value":"enH1"},{"name":"no","type":"int","value":0},{"name":"zM","type":"int","value":15}],"gid":14,"width":90,"height":25},{"id":139,"x":781,"y":-60,"visible":true,"properties":[{"name":"layer","type":"int","value":1},{"name":"resource_index","type":"int","value":115},{"name":"u","type":"string","value":"edU"},{"name":"no","type":"int","value":0},{"name":"zM","type":"int","value":15}],"gid":12,"width":54,"height":37},{"id":140,"x":786,"y":-43,"visible":true,"properties":[{"name":"layer","type":"int","value":1},{"name":"resource_index","type":"int","value":116},{"name":"u","type":"string","value":"edD"},{"name":"no","type":"int","value":0},{"name":"zM","type":"int","value":15}],"gid":13,"width":48,"height":17},{"id":141,"x":450,"y":-60,"visible":true,"properties":[{"name":"layer","type":"int","value":1},{"name":"resource_index","type":"int","value":117},{"name":"u","type":"string","value":"enH0"},{"name":"no","type":"int","value":0},{"name":"zM","type":"int","value":15}],"gid":15,"width":90,"height":38},{"id":142,"x":450,"y":-34,"visible":true,"properties":[{"name":"layer","type":"int","value":1},{"name":"resource_index","type":"int","value":118},{"name":"u","type":"string","value":"enH1"},{"name":"no","type":"int","value":1},{"name":"zM","type":"int","value":15}],"gid":17,"width":90,"height":26},{"id":143,"x":180,"y":-34,"visible":true,"properties":[{"name":"layer","type":"int","value":1},{"name":"resource_index","type":"int","value":119},{"name":"u","type":"string","value":"enH1"},{"name":"no","type":"int","value":1},{"name":"zM","type":"int","value":15}],"gid":17,"width":90,"height":26},{"id":144,"x":180,"y":-60,"visible":true,"properties":[{"name":"layer","type":"int","value":1},{"name":"resource_index","type":"int","value":120},{"name":"u","type":"string","value":"enH0"},{"name":"no","type":"int","value":0},{"name":"zM","type":"int","value":15}],"gid":15,"width":90,"height":38},{"id":145,"x":270,"y":-35,"visible":true,"properties":[{"name":"layer","type":"int","value":1},{"name":"resource_index","type":"int","value":121},{"name":"u","type":"string","value":"enH1"},{"name":"no","type":"int","value":0},{"name":"zM","type":"int","value":15}],"gid":14,"width":90,"height":25},{"id":146,"x":270,"y":-60,"visible":true,"properties":[{"name":"layer","type":"int","value":1},{"name":"resource_index","type":"int","value":122},{"name":"u","type":"string","value":"enH0"},{"name":"no","type":"int","value":1},{"name":"zM","type":"int","value":15}],"gid":16,"width":90,"height":39},{"id":147,"x":360,"y":-35,"visible":true,"properties":[{"name":"layer","type":"int","value":1},{"name":"resource_index","type":"int","value":123},{"name":"u","type":"string","value":"enH1"},{"name":"no","type":"int","value":0},{"name":"zM","type":"int","value":15}],"gid":14,"width":90,"height":25},{"id":148,"x":360,"y":-60,"visible":true,"properties":[{"name":"layer","type":"int","value":1},{"name":"resource_index","type":"int","value":124},{"name":"u","type":"string","value":"enH0"},{"name":"no","type":"int","value":0},{"name":"zM","type":"int","value":15}],"gid":15,"width":90,"height":38}],"properties":[]},{"id":15,"name":"layer_2_obj","type":"objectgroup","visible":true,"opacity":1,"draworder":"index","offsetx":0,"offsety":0,"parallaxx":1,"parallaxy":1,"objects":[{"id":149,"x":-287,"y":4,"visible":true,"properties":[{"name":"layer","type":"int","value":2},{"name":"resource_index","type":"int","value":0},{"name":"oS","type":"string","value":"connect"},{"name":"l0","type":"string","value":"rope"},{"name":"l1","type":"string","value":"0"},{"name":"l2","type":"string","value":"0"},{"name":"z","type":"int","value":9},{"name":"zM","type":"int","value":12},{"name":"f","type":"int","value":0}],"gid":34,"width":19,"height":49},{"id":150,"x":-284,"y":34,"visible":true,"properties":[{"name":"layer","type":"int","value":2},{"name":"resource_index","type":"int","value":1},{"name":"oS","type":"string","value":"connect"},{"name":"l0","type":"string","value":"rope"},{"name":"l1","type":"string","value":"0"},{"name":"l2","type":"string","value":"1"},{"name":"z","type":"int","value":9},{"name":"zM","type":"int","value":9},{"name":"f","type":"int","value":0}],"gid":37,"width":5,"height":30},{"id":151,"x":-286,"y":64,"visible":true,"properties":[{"name":"layer","type":"int","value":2},{"name":"resource_index","type":"int","value":2},{"name":"oS","type":"string","value":"connect"},{"name":"l0","type":"string","value":"rope"},{"name":"l1","type":"string","value":"0"},{"name":"l2","type":"string","value":"2"},{"name":"z","type":"int","value":9},{"name":"zM","type":"int","value":8},{"name":"f","type":"int","value":0}],"gid":36,"width":11,"height":30}],"properties":[]},{"id":16,"name":"portal","type":"objectgroup","visible":true,"opacity":1,"draworder":"index","offsetx":0,"offsety":0,"parallaxx":1,"parallaxy":1,"objects":[{"id":152,"x":-211,"y":148,"visible":true,"properties":[{"name":"x","type":"int","value":-211},{"name":"y","type":"int","value":148},{"name":"pn","type":"string","value":"sp"},{"name":"pt","type":"int","value":0},{"name":"tm","type":"int","value":999999999},{"name":"tn","type":"string","value":""}],"point":true},{"id":153,"x":-352,"y":150,"visible":true,"properties":[{"name":"x","type":"int","value":-352},{"name":"y","type":"int","value":150},{"name":"pn","type":"string","value":"start00"},{"name":"pt","type":"int","value":1},{"name":"tm","type":"int","value":999999999},{"name":"tn","type":"string","value":""}],"point":true},{"id":154,"x":-366,"y":-23,"visible":true,"properties":[{"name":"x","type":"int","value":-366},{"name":"y","type":"int","value":-23},{"name":"pn","type":"string","value":"out00"},{"name":"pt","type":"int","value":7},{"name":"tm","type":"int","value":999999999},{"name":"tn","type":"string","value":""},{"name":"script","type":"string","value":"BF_out"}],"point":true}],"properties":[]},{"id":17,"name":"life","type":"objectgroup","visible":true,"opacity":1,"draworder":"index","offsetx":0,"offsety":0,"parallaxx":1,"parallaxy":1,"objects":[{"id":155,"x":280,"y":153,"visible":true,"properties":[{"name":"f","type":"int","value":0},{"name":"x","type":"int","value":280},{"name":"y","type":"int","value":153},{"name":"cy","type":"int","value":155},{"name":"fh","type":"int","value":8},{"name":"id","type":"int","value":9000054},{"name":"rx0","type":"int","value":230},{"name":"rx1","type":"int","value":330},{"name":"hide","type":"int","value":0},{"name":"type","type":"string","value":"n"},{"name":"mobTime","type":"int","value":0},{"name":"npc_aseprite","type":"file","value":"../../Npc/9000054.img/animation.aseprite"}],"point":true}],"properties":[]},{"id":18,"name":"foothold","type":"objectgroup","visible":true,"opacity":1,"draworder":"index","offsetx":0,"offsety":0,"parallaxx":1,"parallaxy":1,"objects":[{"id":156,"x":90,"y":155,"visible":true,"properties":[{"name":"layer","type":"int","value":1},{"name":"group","type":"int","value":0},{"name":"id","type":"int","value":1},{"name":"fh_layer","type":"int","value":1},{"name":"fh_group","type":"int","value":0},{"name":"fh_id","type":"int","value":1},{"name":"x1","type":"int","value":90},{"name":"x2","type":"int","value":180},{"name":"y1","type":"int","value":155},{"name":"y2","type":"int","value":155},{"name":"next","type":"int","value":9},{"name":"prev","type":"int","value":6}],"polyline":[{"x":0,"y":0},{"x":90,"y":0}]},{"id":157,"x":-270,"y":155,"visible":true,"properties":[{"name":"layer","type":"int","value":1},{"name":"group","type":"int","value":0},{"name":"id","type":"int","value":2},{"name":"fh_layer","type":"int","value":1},{"name":"fh_group","type":"int","value":0},{"name":"fh_id","type":"int","value":2},{"name":"x1","type":"int","value":-270},{"name":"x2","type":"int","value":-180},{"name":"y1","type":"int","value":155},{"name":"y2","type":"int","value":155},{"name":"next","type":"int","value":4},{"name":"prev","type":"int","value":10}],"polyline":[{"x":0,"y":0},{"x":90,"y":0}]},{"id":158,"x":-90,"y":155,"visible":true,"properties":[{"name":"layer","type":"int","value":1},{"name":"group","type":"int","value":0},{"name":"id","type":"int","value":3},{"name":"fh_layer","type":"int","value":1},{"name":"fh_group","type":"int","value":0},{"name":"fh_id","type":"int","value":3},{"name":"x1","type":"int","value":-90},{"name":"x2","type":"int","value":0},{"name":"y1","type":"int","value":155},{"name":"y2","type":"int","value":155},{"name":"next","type":"int","value":6},{"name":"prev","type":"int","value":4}],"polyline":[{"x":0,"y":0},{"x":90,"y":0}]},{"id":159,"x":-180,"y":155,"visible":true,"properties":[{"name":"layer","type":"int","value":1},{"name":"group","type":"int","value":0},{"name":"id","type":"int","value":4},{"name":"fh_layer","type":"int","value":1},{"name":"fh_group","type":"int","value":0},{"name":"fh_id","type":"int","value":4},{"name":"x1","type":"int","value":-180},{"name":"x2","type":"int","value":-90},{"name":"y1","type":"int","value":155},{"name":"y2","type":"int","value":155},{"name":"next","type":"int","value":3},{"name":"prev","type":"int","value":2}],"polyline":[{"x":0,"y":0},{"x":90,"y":0}]},{"id":160,"x":-450,"y":155,"visible":true,"properties":[{"name":"layer","type":"int","value":1},{"name":"group","type":"int","value":0},{"name":"id","type":"int","value":5},{"name":"fh_layer","type":"int","value":1},{"name":"fh_group","type":"int","value":0},{"name":"fh_id","type":"int","value":5},{"name":"x1","type":"int","value":-450},{"name":"x2","type":"int","value":-360},{"name":"y1","type":"int","value":155},{"name":"y2","type":"int","value":155},{"name":"next","type":"int","value":10},{"name":"prev","type":"int","value":0}],"polyline":[{"x":0,"y":0},{"x":90,"y":0}]},{"id":161,"x":0,"y":155,"visible":true,"properties":[{"name":"layer","type":"int","value":1},{"name":"group","type":"int","value":0},{"name":"id","type":"int","value":6},{"name":"fh_layer","type":"int","value":1},{"name":"fh_group","type":"int","value":0},{"name":"fh_id","type":"int","value":6},{"name":"x1","type":"int","value":0},{"name":"x2","type":"int","value":90},{"name":"y1","type":"int","value":155},{"name":"y2","type":"int","value":155},{"name":"next","type":"int","value":1},{"name":"prev","type":"int","value":3}],"polyline":[{"x":0,"y":0},{"x":90,"y":0}]},{"id":162,"x":360,"y":155,"visible":true,"properties":[{"name":"layer","type":"int","value":1},{"name":"group","type":"int","value":0},{"name":"id","type":"int","value":7},{"name":"fh_layer","type":"int","value":1},{"name":"fh_group","type":"int","value":0},{"name":"fh_id","type":"int","value":7},{"name":"x1","type":"int","value":360},{"name":"x2","type":"int","value":450},{"name":"y1","type":"int","value":155},{"name":"y2","type":"int","value":155},{"name":"next","type":"int","value":11},{"name":"prev","type":"int","value":8}],"polyline":[{"x":0,"y":0},{"x":90,"y":0}]},{"id":163,"x":270,"y":155,"visible":true,"properties":[{"name":"layer","type":"int","value":1},{"name":"group","type":"int","value":0},{"name":"id","type":"int","value":8},{"name":"fh_layer","type":"int","value":1},{"name":"fh_group","type":"int","value":0},{"name":"fh_id","type":"int","value":8},{"name":"x1","type":"int","value":270},{"name":"x2","type":"int","value":360},{"name":"y1","type":"int","value":155},{"name":"y2","type":"int","value":155},{"name":"next","type":"int","value":7},{"name":"prev","type":"int","value":9}],"polyline":[{"x":0,"y":0},{"x":90,"y":0}]},{"id":164,"x":180,"y":155,"visible":true,"properties":[{"name":"layer","type":"int","value":1},{"name":"group","type":"int","value":0},{"name":"id","type":"int","value":9},{"name":"fh_layer","type":"int","value":1},{"name":"fh_group","type":"int","value":0},{"name":"fh_id","type":"int","value":9},{"name":"x1","type":"int","value":180},{"name":"x2","type":"int","value":270},{"name":"y1","type":"int","value":155},{"name":"y2","type":"int","value":155},{"name":"next","type":"int","value":8},{"name":"prev","type":"int","value":1}],"polyline":[{"x":0,"y":0},{"x":90,"y":0}]},{"id":165,"x":-360,"y":155,"visible":true,"properties":[{"name":"layer","type":"int","value":1},{"name":"group","type":"int","value":0},{"name":"id","type":"int","value":10},{"name":"fh_layer","type":"int","value":1},{"name":"fh_group","type":"int","value":0},{"name":"fh_id","type":"int","value":10},{"name":"x1","type":"int","value":-360},{"name":"x2","type":"int","value":-270},{"name":"y1","type":"int","value":155},{"name":"y2","type":"int","value":155},{"name":"next","type":"int","value":2},{"name":"prev","type":"int","value":5}],"polyline":[{"x":0,"y":0},{"x":90,"y":0}]},{"id":166,"x":450,"y":155,"visible":true,"properties":[{"name":"layer","type":"int","value":1},{"name":"group","type":"int","value":0},{"name":"id","type":"int","value":11},{"name":"fh_layer","type":"int","value":1},{"name":"fh_group","type":"int","value":0},{"name":"fh_id","type":"int","value":11},{"name":"x1","type":"int","value":450},{"name":"x2","type":"int","value":540},{"name":"y1","type":"int","value":155},{"name":"y2","type":"int","value":155},{"name":"next","type":"int","value":12},{"name":"prev","type":"int","value":7}],"polyline":[{"x":0,"y":0},{"x":90,"y":0}]},{"id":167,"x":540,"y":155,"visible":true,"properties":[{"name":"layer","type":"int","value":1},{"name":"group","type":"int","value":0},{"name":"id","type":"int","value":12},{"name":"fh_layer","type":"int","value":1},{"name":"fh_group","type":"int","value":0},{"name":"fh_id","type":"int","value":12},{"name":"x1","type":"int","value":540},{"name":"x2","type":"int","value":630},{"name":"y1","type":"int","value":155},{"name":"y2","type":"int","value":155},{"name":"next","type":"int","value":14},{"name":"prev","type":"int","value":11}],"polyline":[{"x":0,"y":0},{"x":90,"y":0}]},{"id":168,"x":720,"y":155,"visible":true,"properties":[{"name":"layer","type":"int","value":1},{"name":"group","type":"int","value":0},{"name":"id","type":"int","value":13},{"name":"fh_layer","type":"int","value":1},{"name":"fh_group","type":"int","value":0},{"name":"fh_id","type":"int","value":13},{"name":"x1","type":"int","value":720},{"name":"x2","type":"int","value":810},{"name":"y1","type":"int","value":155},{"name":"y2","type":"int","value":155},{"name":"next","type":"int","value":15},{"name":"prev","type":"int","value":14}],"polyline":[{"x":0,"y":0},{"x":90,"y":0}]},{"id":169,"x":630,"y":155,"visible":true,"properties":[{"name":"layer","type":"int","value":1},{"name":"group","type":"int","value":0},{"name":"id","type":"int","value":14},{"name":"fh_layer","type":"int","value":1},{"name":"fh_group","type":"int","value":0},{"name":"fh_id","type":"int","value":14},{"name":"x1","type":"int","value":630},{"name":"x2","type":"int","value":720},{"name":"y1","type":"int","value":155},{"name":"y2","type":"int","value":155},{"name":"next","type":"int","value":13},{"name":"prev","type":"int","value":12}],"polyline":[{"x":0,"y":0},{"x":90,"y":0}]},{"id":170,"x":810,"y":155,"visible":true,"properties":[{"name":"layer","type":"int","value":1},{"name":"group","type":"int","value":0},{"name":"id","type":"int","value":15},{"name":"fh_layer","type":"int","value":1},{"name":"fh_group","type":"int","value":0},{"name":"fh_id","type":"int","value":15},{"name":"x1","type":"int","value":810},{"name":"x2","type":"int","value":900},{"name":"y1","type":"int","value":155},{"name":"y2","type":"int","value":155},{"name":"next","type":"int","value":21},{"name":"prev","type":"int","value":13}],"polyline":[{"x":0,"y":0},{"x":90,"y":0}]},{"id":171,"x":1029,"y":300,"visible":true,"properties":[{"name":"layer","type":"int","value":1},{"name":"group","type":"int","value":0},{"name":"id","type":"int","value":16},{"name":"fh_layer","type":"int","value":1},{"name":"fh_group","type":"int","value":0},{"name":"fh_id","type":"int","value":16},{"name":"x1","type":"int","value":1029},{"name":"x2","type":"int","value":1029},{"name":"y1","type":"int","value":300},{"name":"y2","type":"int","value":360},{"name":"next","type":"int","value":0},{"name":"prev","type":"int","value":17}],"polyline":[{"x":0,"y":0},{"x":0,"y":60}]},{"id":172,"x":1029,"y":240,"visible":true,"properties":[{"name":"layer","type":"int","value":1},{"name":"group","type":"int","value":0},{"name":"id","type":"int","value":17},{"name":"fh_layer","type":"int","value":1},{"name":"fh_group","type":"int","value":0},{"name":"fh_id","type":"int","value":17},{"name":"x1","type":"int","value":1029},{"name":"x2","type":"int","value":1029},{"name":"y1","type":"int","value":240},{"name":"y2","type":"int","value":300},{"name":"next","type":"int","value":16},{"name":"prev","type":"int","value":18}],"polyline":[{"x":0,"y":0},{"x":0,"y":60}]},{"id":173,"x":1029,"y":180,"visible":true,"properties":[{"name":"layer","type":"int","value":1},{"name":"group","type":"int","value":0},{"name":"id","type":"int","value":18},{"name":"fh_layer","type":"int","value":1},{"name":"fh_group","type":"int","value":0},{"name":"fh_id","type":"int","value":18},{"name":"x1","type":"int","value":1029},{"name":"x2","type":"int","value":1029},{"name":"y1","type":"int","value":180},{"name":"y2","type":"int","value":240},{"name":"next","type":"int","value":17},{"name":"prev","type":"int","value":20}],"polyline":[{"x":0,"y":0},{"x":0,"y":60}]},{"id":174,"x":951,"y":155,"visible":true,"properties":[{"name":"layer","type":"int","value":1},{"name":"group","type":"int","value":0},{"name":"id","type":"int","value":19},{"name":"fh_layer","type":"int","value":1},{"name":"fh_group","type":"int","value":0},{"name":"fh_id","type":"int","value":19},{"name":"x1","type":"int","value":951},{"name":"x2","type":"int","value":1029},{"name":"y1","type":"int","value":155},{"name":"y2","type":"int","value":155},{"name":"next","type":"int","value":20},{"name":"prev","type":"int","value":21}],"polyline":[{"x":0,"y":0},{"x":78,"y":0}]},{"id":175,"x":1029,"y":155,"visible":true,"properties":[{"name":"layer","type":"int","value":1},{"name":"group","type":"int","value":0},{"name":"id","type":"int","value":20},{"name":"fh_layer","type":"int","value":1},{"name":"fh_group","type":"int","value":0},{"name":"fh_id","type":"int","value":20},{"name":"x1","type":"int","value":1029},{"name":"x2","type":"int","value":1029},{"name":"y1","type":"int","value":155},{"name":"y2","type":"int","value":180},{"name":"next","type":"int","value":18},{"name":"prev","type":"int","value":19}],"polyline":[{"x":0,"y":0},{"x":0,"y":25}]},{"id":176,"x":900,"y":155,"visible":true,"properties":[{"name":"layer","type":"int","value":1},{"name":"group","type":"int","value":0},{"name":"id","type":"int","value":21},{"name":"fh_layer","type":"int","value":1},{"name":"fh_group","type":"int","value":0},{"name":"fh_id","type":"int","value":21},{"name":"x1","type":"int","value":900},{"name":"x2","type":"int","value":951},{"name":"y1","type":"int","value":155},{"name":"y2","type":"int","value":155},{"name":"next","type":"int","value":19},{"name":"prev","type":"int","value":15}],"polyline":[{"x":0,"y":0},{"x":51,"y":0}]},{"id":177,"x":771,"y":0,"visible":true,"properties":[{"name":"layer","type":"int","value":1},{"name":"group","type":"int","value":10},{"name":"id","type":"int","value":42},{"name":"fh_layer","type":"int","value":1},{"name":"fh_group","type":"int","value":10},{"name":"fh_id","type":"int","value":42},{"name":"x1","type":"int","value":771},{"name":"x2","type":"int","value":771},{"name":"y1","type":"int","value":0},{"name":"y2","type":"int","value":-25},{"name":"next","type":"int","value":43},{"name":"prev","type":"int","value":0}],"polyline":[{"x":0,"y":0},{"x":0,"y":-25}]},{"id":178,"x":771,"y":-25,"visible":true,"properties":[{"name":"layer","type":"int","value":1},{"name":"group","type":"int","value":10},{"name":"id","type":"int","value":43},{"name":"fh_layer","type":"int","value":1},{"name":"fh_group","type":"int","value":10},{"name":"fh_id","type":"int","value":43},{"name":"x1","type":"int","value":771},{"name":"x2","type":"int","value":849},{"name":"y1","type":"int","value":-25},{"name":"y2","type":"int","value":-25},{"name":"next","type":"int","value":45},{"name":"prev","type":"int","value":42}],"polyline":[{"x":0,"y":0},{"x":78,"y":0}]},{"id":179,"x":900,"y":-25,"visible":true,"properties":[{"name":"layer","type":"int","value":1},{"name":"group","type":"int","value":10},{"name":"id","type":"int","value":44},{"name":"fh_layer","type":"int","value":1},{"name":"fh_group","type":"int","value":10},{"name":"fh_id","type":"int","value":44},{"name":"x1","type":"int","value":900},{"name":"x2","type":"int","value":951},{"name":"y1","type":"int","value":-25},{"name":"y2","type":"int","value":-25},{"name":"next","type":"int","value":46},{"name":"prev","type":"int","value":45}],"polyline":[{"x":0,"y":0},{"x":51,"y":0}]},{"id":180,"x":849,"y":-25,"visible":true,"properties":[{"name":"layer","type":"int","value":1},{"name":"group","type":"int","value":10},{"name":"id","type":"int","value":45},{"name":"fh_layer","type":"int","value":1},{"name":"fh_group","type":"int","value":10},{"name":"fh_id","type":"int","value":45},{"name":"x1","type":"int","value":849},{"name":"x2","type":"int","value":900},{"name":"y1","type":"int","value":-25},{"name":"y2","type":"int","value":-25},{"name":"next","type":"int","value":44},{"name":"prev","type":"int","value":43}],"polyline":[{"x":0,"y":0},{"x":51,"y":0}]},{"id":181,"x":951,"y":-25,"visible":true,"properties":[{"name":"layer","type":"int","value":1},{"name":"group","type":"int","value":10},{"name":"id","type":"int","value":46},{"name":"fh_layer","type":"int","value":1},{"name":"fh_group","type":"int","value":10},{"name":"fh_id","type":"int","value":46},{"name":"x1","type":"int","value":951},{"name":"x2","type":"int","value":990},{"name":"y1","type":"int","value":-25},{"name":"y2","type":"int","value":-25},{"name":"next","type":"int","value":47},{"name":"prev","type":"int","value":44}],"polyline":[{"x":0,"y":0},{"x":39,"y":0}]},{"id":182,"x":990,"y":-25,"visible":true,"properties":[{"name":"layer","type":"int","value":1},{"name":"group","type":"int","value":10},{"name":"id","type":"int","value":47},{"name":"fh_layer","type":"int","value":1},{"name":"fh_group","type":"int","value":10},{"name":"fh_id","type":"int","value":47},{"name":"x1","type":"int","value":990},{"name":"x2","type":"int","value":1029},{"name":"y1","type":"int","value":-25},{"name":"y2","type":"int","value":-25},{"name":"next","type":"int","value":48},{"name":"prev","type":"int","value":46}],"polyline":[{"x":0,"y":0},{"x":39,"y":0}]},{"id":183,"x":1029,"y":-25,"visible":true,"properties":[{"name":"layer","type":"int","value":1},{"name":"group","type":"int","value":10},{"name":"id","type":"int","value":48},{"name":"fh_layer","type":"int","value":1},{"name":"fh_group","type":"int","value":10},{"name":"fh_id","type":"int","value":48},{"name":"x1","type":"int","value":1029},{"name":"x2","type":"int","value":1029},{"name":"y1","type":"int","value":-25},{"name":"y2","type":"int","value":0},{"name":"next","type":"int","value":0},{"name":"prev","type":"int","value":47}],"polyline":[{"x":0,"y":0},{"x":0,"y":25}]},{"id":184,"x":-309,"y":-25,"visible":true,"properties":[{"name":"layer","type":"int","value":1},{"name":"group","type":"int","value":11},{"name":"id","type":"int","value":22},{"name":"fh_layer","type":"int","value":1},{"name":"fh_group","type":"int","value":11},{"name":"fh_id","type":"int","value":22},{"name":"x1","type":"int","value":-309},{"name":"x2","type":"int","value":-231},{"name":"y1","type":"int","value":-25},{"name":"y2","type":"int","value":-25},{"name":"next","type":"int","value":23},{"name":"prev","type":"int","value":24}],"polyline":[{"x":0,"y":0},{"x":78,"y":0}]},{"id":185,"x":-231,"y":-25,"visible":true,"properties":[{"name":"layer","type":"int","value":1},{"name":"group","type":"int","value":11},{"name":"id","type":"int","value":23},{"name":"fh_layer","type":"int","value":1},{"name":"fh_group","type":"int","value":11},{"name":"fh_id","type":"int","value":23},{"name":"x1","type":"int","value":-231},{"name":"x2","type":"int","value":-231},{"name":"y1","type":"int","value":-25},{"name":"y2","type":"int","value":0},{"name":"next","type":"int","value":0},{"name":"prev","type":"int","value":22}],"polyline":[{"x":0,"y":0},{"x":0,"y":25}]},{"id":186,"x":-360,"y":-25,"visible":true,"properties":[{"name":"layer","type":"int","value":1},{"name":"group","type":"int","value":11},{"name":"id","type":"int","value":24},{"name":"fh_layer","type":"int","value":1},{"name":"fh_group","type":"int","value":11},{"name":"fh_id","type":"int","value":24},{"name":"x1","type":"int","value":-360},{"name":"x2","type":"int","value":-309},{"name":"y1","type":"int","value":-25},{"name":"y2","type":"int","value":-25},{"name":"next","type":"int","value":22},{"name":"prev","type":"int","value":25}],"polyline":[{"x":0,"y":0},{"x":51,"y":0}]},{"id":187,"x":-450,"y":-25,"visible":true,"properties":[{"name":"layer","type":"int","value":1},{"name":"group","type":"int","value":11},{"name":"id","type":"int","value":25},{"name":"fh_layer","type":"int","value":1},{"name":"fh_group","type":"int","value":11},{"name":"fh_id","type":"int","value":25},{"name":"x1","type":"int","value":-450},{"name":"x2","type":"int","value":-360},{"name":"y1","type":"int","value":-25},{"name":"y2","type":"int","value":-25},{"name":"next","type":"int","value":24},{"name":"prev","type":"int","value":0}],"polyline":[{"x":0,"y":0},{"x":90,"y":0}]},{"id":188,"x":-219,"y":-60,"visible":true,"properties":[{"name":"layer","type":"int","value":1},{"name":"group","type":"int","value":15},{"name":"id","type":"int","value":26},{"name":"fh_layer","type":"int","value":1},{"name":"fh_group","type":"int","value":15},{"name":"fh_id","type":"int","value":26},{"name":"x1","type":"int","value":-219},{"name":"x2","type":"int","value":-219},{"name":"y1","type":"int","value":-60},{"name":"y2","type":"int","value":-85},{"name":"next","type":"int","value":27},{"name":"prev","type":"int","value":0}],"polyline":[{"x":0,"y":0},{"x":0,"y":-25}]},{"id":189,"x":-219,"y":-85,"visible":true,"properties":[{"name":"layer","type":"int","value":1},{"name":"group","type":"int","value":15},{"name":"id","type":"int","value":27},{"name":"fh_layer","type":"int","value":1},{"name":"fh_group","type":"int","value":15},{"name":"fh_id","type":"int","value":27},{"name":"x1","type":"int","value":-219},{"name":"x2","type":"int","value":-141},{"name":"y1","type":"int","value":-85},{"name":"y2","type":"int","value":-85},{"name":"next","type":"int","value":29},{"name":"prev","type":"int","value":26}],"polyline":[{"x":0,"y":0},{"x":78,"y":0}]},{"id":190,"x":-90,"y":-85,"visible":true,"properties":[{"name":"layer","type":"int","value":1},{"name":"group","type":"int","value":15},{"name":"id","type":"int","value":28},{"name":"fh_layer","type":"int","value":1},{"name":"fh_group","type":"int","value":15},{"name":"fh_id","type":"int","value":28},{"name":"x1","type":"int","value":-90},{"name":"x2","type":"int","value":0},{"name":"y1","type":"int","value":-85},{"name":"y2","type":"int","value":-85},{"name":"next","type":"int","value":30},{"name":"prev","type":"int","value":29}],"polyline":[{"x":0,"y":0},{"x":90,"y":0}]},{"id":191,"x":-141,"y":-85,"visible":true,"properties":[{"name":"layer","type":"int","value":1},{"name":"group","type":"int","value":15},{"name":"id","type":"int","value":29},{"name":"fh_layer","type":"int","value":1},{"name":"fh_group","type":"int","value":15},{"name":"fh_id","type":"int","value":29},{"name":"x1","type":"int","value":-141},{"name":"x2","type":"int","value":-90},{"name":"y1","type":"int","value":-85},{"name":"y2","type":"int","value":-85},{"name":"next","type":"int","value":28},{"name":"prev","type":"int","value":27}],"polyline":[{"x":0,"y":0},{"x":51,"y":0}]},{"id":192,"x":0,"y":-85,"visible":true,"properties":[{"name":"layer","type":"int","value":1},{"name":"group","type":"int","value":15},{"name":"id","type":"int","value":30},{"name":"fh_layer","type":"int","value":1},{"name":"fh_group","type":"int","value":15},{"name":"fh_id","type":"int","value":30},{"name":"x1","type":"int","value":0},{"name":"x2","type":"int","value":90},{"name":"y1","type":"int","value":-85},{"name":"y2","type":"int","value":-85},{"name":"next","type":"int","value":31},{"name":"prev","type":"int","value":28}],"polyline":[{"x":0,"y":0},{"x":90,"y":0}]},{"id":193,"x":90,"y":-85,"visible":true,"properties":[{"name":"layer","type":"int","value":1},{"name":"group","type":"int","value":15},{"name":"id","type":"int","value":31},{"name":"fh_layer","type":"int","value":1},{"name":"fh_group","type":"int","value":15},{"name":"fh_id","type":"int","value":31},{"name":"x1","type":"int","value":90},{"name":"x2","type":"int","value":180},{"name":"y1","type":"int","value":-85},{"name":"y2","type":"int","value":-85},{"name":"next","type":"int","value":39},{"name":"prev","type":"int","value":30}],"polyline":[{"x":0,"y":0},{"x":90,"y":0}]},{"id":194,"x":540,"y":-85,"visible":true,"properties":[{"name":"layer","type":"int","value":1},{"name":"group","type":"int","value":15},{"name":"id","type":"int","value":32},{"name":"fh_layer","type":"int","value":1},{"name":"fh_group","type":"int","value":15},{"name":"fh_id","type":"int","value":32},{"name":"x1","type":"int","value":540},{"name":"x2","type":"int","value":630},{"name":"y1","type":"int","value":-85},{"name":"y2","type":"int","value":-85},{"name":"next","type":"int","value":34},{"name":"prev","type":"int","value":38}],"polyline":[{"x":0,"y":0},{"x":90,"y":0}]},{"id":195,"x":720,"y":-85,"visible":true,"properties":[{"name":"layer","type":"int","value":1},{"name":"group","type":"int","value":15},{"name":"id","type":"int","value":33},{"name":"fh_layer","type":"int","value":1},{"name":"fh_group","type":"int","value":15},{"name":"fh_id","type":"int","value":33},{"name":"x1","type":"int","value":720},{"name":"x2","type":"int","value":771},{"name":"y1","type":"int","value":-85},{"name":"y2","type":"int","value":-85},{"name":"next","type":"int","value":35},{"name":"prev","type":"int","value":34}],"polyline":[{"x":0,"y":0},{"x":51,"y":0}]},{"id":196,"x":630,"y":-85,"visible":true,"properties":[{"name":"layer","type":"int","value":1},{"name":"group","type":"int","value":15},{"name":"id","type":"int","value":34},{"name":"fh_layer","type":"int","value":1},{"name":"fh_group","type":"int","value":15},{"name":"fh_id","type":"int","value":34},{"name":"x1","type":"int","value":630},{"name":"x2","type":"int","value":720},{"name":"y1","type":"int","value":-85},{"name":"y2","type":"int","value":-85},{"name":"next","type":"int","value":33},{"name":"prev","type":"int","value":32}],"polyline":[{"x":0,"y":0},{"x":90,"y":0}]},{"id":197,"x":771,"y":-85,"visible":true,"properties":[{"name":"layer","type":"int","value":1},{"name":"group","type":"int","value":15},{"name":"id","type":"int","value":35},{"name":"fh_layer","type":"int","value":1},{"name":"fh_group","type":"int","value":15},{"name":"fh_id","type":"int","value":35},{"name":"x1","type":"int","value":771},{"name":"x2","type":"int","value":810},{"name":"y1","type":"int","value":-85},{"name":"y2","type":"int","value":-85},{"name":"next","type":"int","value":36},{"name":"prev","type":"int","value":33}],"polyline":[{"x":0,"y":0},{"x":39,"y":0}]},{"id":198,"x":810,"y":-85,"visible":true,"properties":[{"name":"layer","type":"int","value":1},{"name":"group","type":"int","value":15},{"name":"id","type":"int","value":36},{"name":"fh_layer","type":"int","value":1},{"name":"fh_group","type":"int","value":15},{"name":"fh_id","type":"int","value":36},{"name":"x1","type":"int","value":810},{"name":"x2","type":"int","value":849},{"name":"y1","type":"int","value":-85},{"name":"y2","type":"int","value":-85},{"name":"next","type":"int","value":37},{"name":"prev","type":"int","value":35}],"polyline":[{"x":0,"y":0},{"x":39,"y":0}]},{"id":199,"x":849,"y":-85,"visible":true,"properties":[{"name":"layer","type":"int","value":1},{"name":"group","type":"int","value":15},{"name":"id","type":"int","value":37},{"name":"fh_layer","type":"int","value":1},{"name":"fh_group","type":"int","value":15},{"name":"fh_id","type":"int","value":37},{"name":"x1","type":"int","value":849},{"name":"x2","type":"int","value":849},{"name":"y1","type":"int","value":-85},{"name":"y2","type":"int","value":-60},{"name":"next","type":"int","value":0},{"name":"prev","type":"int","value":36}],"polyline":[{"x":0,"y":0},{"x":0,"y":25}]},{"id":200,"x":450,"y":-85,"visible":true,"properties":[{"name":"layer","type":"int","value":1},{"name":"group","type":"int","value":15},{"name":"id","type":"int","value":38},{"name":"fh_layer","type":"int","value":1},{"name":"fh_group","type":"int","value":15},{"name":"fh_id","type":"int","value":38},{"name":"x1","type":"int","value":450},{"name":"x2","type":"int","value":540},{"name":"y1","type":"int","value":-85},{"name":"y2","type":"int","value":-85},{"name":"next","type":"int","value":32},{"name":"prev","type":"int","value":41}],"polyline":[{"x":0,"y":0},{"x":90,"y":0}]},{"id":201,"x":180,"y":-85,"visible":true,"properties":[{"name":"layer","type":"int","value":1},{"name":"group","type":"int","value":15},{"name":"id","type":"int","value":39},{"name":"fh_layer","type":"int","value":1},{"name":"fh_group","type":"int","value":15},{"name":"fh_id","type":"int","value":39},{"name":"x1","type":"int","value":180},{"name":"x2","type":"int","value":270},{"name":"y1","type":"int","value":-85},{"name":"y2","type":"int","value":-85},{"name":"next","type":"int","value":40},{"name":"prev","type":"int","value":31}],"polyline":[{"x":0,"y":0},{"x":90,"y":0}]},{"id":202,"x":270,"y":-85,"visible":true,"properties":[{"name":"layer","type":"int","value":1},{"name":"group","type":"int","value":15},{"name":"id","type":"int","value":40},{"name":"fh_layer","type":"int","value":1},{"name":"fh_group","type":"int","value":15},{"name":"fh_id","type":"int","value":40},{"name":"x1","type":"int","value":270},{"name":"x2","type":"int","value":360},{"name":"y1","type":"int","value":-85},{"name":"y2","type":"int","value":-85},{"name":"next","type":"int","value":41},{"name":"prev","type":"int","value":39}],"polyline":[{"x":0,"y":0},{"x":90,"y":0}]},{"id":203,"x":360,"y":-85,"visible":true,"properties":[{"name":"layer","type":"int","value":1},{"name":"group","type":"int","value":15},{"name":"id","type":"int","value":41},{"name":"fh_layer","type":"int","value":1},{"name":"fh_group","type":"int","value":15},{"name":"fh_id","type":"int","value":41},{"name":"x1","type":"int","value":360},{"name":"x2","type":"int","value":450},{"name":"y1","type":"int","value":-85},{"name":"y2","type":"int","value":-85},{"name":"next","type":"int","value":38},{"name":"prev","type":"int","value":40}],"polyline":[{"x":0,"y":0},{"x":90,"y":0}]}],"properties":[]},{"id":19,"name":"ladderRope","type":"objectgroup","visible":true,"opacity":1,"draworder":"index","offsetx":0,"offsety":0,"parallaxx":1,"parallaxy":1,"objects":[{"id":204,"x":-282,"y":-23,"visible":true,"properties":[{"name":"ladder_id","type":"int","value":1},{"name":"l","type":"int","value":0},{"name":"x","type":"int","value":-282},{"name":"uf","type":"int","value":1},{"name":"y1","type":"int","value":-23},{"name":"y2","type":"int","value":86},{"name":"page","type":"int","value":2}],"polyline":[{"x":0,"y":0},{"x":0,"y":109}]}],"properties":[]},{"id":20,"name":"miniMap","type":"objectgroup","visible":true,"opacity":1,"draworder":"index","offsetx":0,"offsety":0,"parallaxx":1,"parallaxy":1,"objects":[{"id":205,"x":504,"y":252,"visible":true,"properties":[{"name":"mag","type":"int","value":4},{"name":"centerX","type":"int","value":504},{"name":"centerY","type":"int","value":252},{"name":"canvas_path","type":"string","value":"../images/30785.png"},{"name":"canvas_width","type":"int","value":99},{"name":"canvas_height","type":"int","value":42},{"name":"canvas_origin_x","type":"int","value":0},{"name":"canvas_origin_y","type":"int","value":0}],"point":true}],"properties":[]}],"tilesets":[{"firstgid":1,"source":"../tilesets/bg_event.tsj"},{"firstgid":12,"source":"../tilesets/tile_grassySoil.tsj"},{"firstgid":34,"source":"../tilesets/obj_connect_rope_0.tsj"},{"firstgid":38,"source":"../tilesets/obj_event_battleField_acc.tsj"},{"firstgid":43,"source":"../tilesets/obj_event_battleField_nature.tsj"}],"properties":[{"name":"bgm","type":"string","value":"Bgm18/WolfAndSheep"},{"name":"fly","type":"int","value":0},{"name":"swim","type":"int","value":0},{"name":"town","type":"int","value":0},{"name":"VRTop","type":"int","value":-300},{"name":"cloud","type":"int","value":0},{"name":"VRLeft","type":"int","value":-450},{"name":"VRRight","type":"int","value":450},{"name":"mapMark","type":"string","value":"Event"},{"name":"mobRate","type":"float","value":1},{"name":"version","type":"int","value":10},{"name":"VRBottom","type":"int","value":300},{"name":"noMapCmd","type":"int","value":0},{"name":"returnMap","type":"int","value":109050001},{"name":"fieldLimit","type":"int","value":271336},{"name":"hideMinimap","type":"int","value":0},{"name":"onUserEnter","type":"string","value":""},{"name":"forcedReturn","type":"int","value":109050001},{"name":"onFirstUserEnter","type":"string","value":""}]}