{"type":"map","orientation":"orthogonal","renderorder":"right-down","infinite":false,"tilewidth":1,"tileheight":1,"width":800,"height":600,"parallaxoriginx":-400,"parallaxoriginy":80,"nextlayerid":6,"nextobjectid":31,"layers":[{"id":1,"name":"layer_0_obj","type":"objectgroup","visible":true,"opacity":1,"draworder":"index","offsetx":0,"offsety":0,"parallaxx":1,"parallaxy":1,"objects":[{"id":1,"x":-400,"y":299,"visible":true,"properties":[{"name":"layer","type":"int","value":0},{"name":"resource_index","type":"int","value":0},{"name":"oS","type":"string","value":"acc1"},{"name":"l0","type":"string","value":"lv200"},{"name":"l1","type":"string","value":"pirate"},{"name":"l2","type":"string","value":"0"},{"name":"z","type":"int","value":9},{"name":"zM","type":"int","value":0},{"name":"f","type":"int","value":0}],"gid":1,"width":800,"height":600}],"properties":[]},{"id":2,"name":"layer_1_obj","type":"objectgroup","visible":true,"opacity":1,"draworder":"index","offsetx":0,"offsety":0,"parallaxx":1,"parallaxy":1,"objects":[{"id":2,"x":-401,"y":299,"visible":true,"properties":[{"name":"layer","type":"int","value":1},{"name":"resource_index","type":"int","value":0},{"name":"oS","type":"string","value":"acc1"},{"name":"l0","type":"string","value":"lv200"},{"name":"l1","type":"string","value":"pirate"},{"name":"l2","type":"string","value":"1"},{"name":"z","type":"int","value":9},{"name":"zM","type":"int","value":1},{"name":"f","type":"int","value":0}],"gid":2,"width":800,"height":133},{"id":3,"x":-400,"y":178,"visible":true,"properties":[{"name":"layer","type":"int","value":1},{"name":"resource_index","type":"int","value":1},{"name":"oS","type":"string","value":"acc1"},{"name":"l0","type":"string","value":"lv200"},{"name":"l1","type":"string","value":"pirate"},{"name":"l2","type":"string","value":"2"},{"name":"z","type":"int","value":7},{"name":"zM","type":"int","value":1},{"name":"f","type":"int","value":0}],"gid":3,"width":800,"height":473}],"properties":[]},{"id":3,"name":"portal","type":"objectgroup","visible":true,"opacity":1,"draworder":"index","offsetx":0,"offsety":0,"parallaxx":1,"parallaxy":1,"objects":[{"id":4,"x":0,"y":0,"visible":true,"properties":[{"name":"x","type":"int","value":0},{"name":"y","type":"int","value":0},{"name":"pn","type":"string","value":"sp"},{"name":"pt","type":"int","value":0},{"name":"tm","type":"int","value":999999999},{"name":"tn","type":"string","value":""},{"name":"horizontalImpact","type":"int","value":0}],"point":true},{"id":5,"x":291,"y":142,"visible":true,"properties":[{"name":"x","type":"int","value":335},{"name":"y","type":"int","value":133},{"name":"pn","type":"string","value":"out00"},{"name":"pt","type":"int","value":2},{"name":"tm","type":"int","value":120000101},{"name":"tn","type":"string","value":"rank00"},{"name":"horizontalImpact","type":"int","value":0}],"gid":4,"width":89,"height":257}],"properties":[]},{"id":4,"name":"life","type":"objectgroup","visible":true,"opacity":1,"draworder":"index","offsetx":0,"offsety":0,"parallaxx":1,"parallaxy":1,"objects":[{"id":6,"x":-68,"y":-47,"visible":true,"properties":[{"name":"f","type":"int","value":0},{"name":"x","type":"int","value":-68},{"name":"y","type":"int","value":-47},{"name":"cy","type":"int","value":-40},{"name":"fh","type":"int","value":2},{"name":"id","type":"int","value":9901740},{"name":"rx0","type":"int","value":-118},{"name":"rx1","type":"int","value":-18},{"name":"hide","type":"int","value":0},{"name":"type","type":"string","value":"n"},{"name":"mobTime","type":"int","value":0},{"name":"npc_aseprite","type":"file","value":"../../Npc/9901740.img/animation.aseprite"}],"point":true},{"id":7,"x":41,"y":-47,"visible":true,"properties":[{"name":"f","type":"int","value":0},{"name":"x","type":"int","value":41},{"name":"y","type":"int","value":-47},{"name":"cy","type":"int","value":-40},{"name":"fh","type":"int","value":2},{"name":"id","type":"int","value":9901741},{"name":"rx0","type":"int","value":-9},{"name":"rx1","type":"int","value":91},{"name":"hide","type":"int","value":0},{"name":"type","type":"string","value":"n"},{"name":"mobTime","type":"int","value":0},{"name":"npc_aseprite","type":"file","value":"../../Npc/9901741.img/animation.aseprite"}],"point":true},{"id":8,"x":150,"y":-48,"visible":true,"properties":[{"name":"f","type":"int","value":0},{"name":"x","type":"int","value":150},{"name":"y","type":"int","value":-48},{"name":"cy","type":"int","value":-40},{"name":"fh","type":"int","value":2},{"name":"id","type":"int","value":9901742},{"name":"rx0","type":"int","value":100},{"name":"rx1","type":"int","value":200},{"name":"hide","type":"int","value":0},{"name":"type","type":"string","value":"n"},{"name":"mobTime","type":"int","value":0},{"name":"npc_aseprite","type":"file","value":"../../Npc/9901742.img/animation.aseprite"}],"point":true},{"id":9,"x":-151,"y":37,"visible":true,"properties":[{"name":"f","type":"int","value":0},{"name":"x","type":"int","value":-151},{"name":"y","type":"int","value":37},{"name":"cy","type":"int","value":43},{"name":"fh","type":"int","value":3},{"name":"id","type":"int","value":9901743},{"name":"rx0","type":"int","value":-201},{"name":"rx1","type":"int","value":-101},{"name":"hide","type":"int","value":0},{"name":"type","type":"string","value":"n"},{"name":"mobTime","type":"int","value":0},{"name":"npc_aseprite","type":"file","value":"../../Npc/9901743.img/animation.aseprite"}],"point":true},{"id":10,"x":-338,"y":-6,"visible":true,"properties":[{"name":"f","type":"int","value":0},{"name":"x","type":"int","value":-338},{"name":"y","type":"int","value":-6},{"name":"cy","type":"int","value":-1},{"name":"fh","type":"int","value":7},{"name":"id","type":"int","value":9901744},{"name":"rx0","type":"int","value":-381},{"name":"rx1","type":"int","value":-288},{"name":"hide","type":"int","value":0},{"name":"type","type":"string","value":"n"},{"name":"mobTime","type":"int","value":0},{"name":"npc_aseprite","type":"file","value":"../../Npc/9901744.img/animation.aseprite"}],"point":true},{"id":11,"x":347,"y":-9,"visible":true,"properties":[{"name":"f","type":"int","value":0},{"name":"x","type":"int","value":347},{"name":"y","type":"int","value":-9},{"name":"cy","type":"int","value":-1},{"name":"fh","type":"int","value":12},{"name":"id","type":"int","value":9901745},{"name":"rx0","type":"int","value":297},{"name":"rx1","type":"int","value":383},{"name":"hide","type":"int","value":0},{"name":"type","type":"string","value":"n"},{"name":"mobTime","type":"int","value":0},{"name":"npc_aseprite","type":"file","value":"../../Npc/9901745.img/animation.aseprite"}],"point":true},{"id":12,"x":131,"y":72,"visible":true,"properties":[{"name":"f","type":"int","value":0},{"name":"x","type":"int","value":131},{"name":"y","type":"int","value":72},{"name":"cy","type":"int","value":78},{"name":"fh","type":"int","value":4},{"name":"id","type":"int","value":9901746},{"name":"rx0","type":"int","value":81},{"name":"rx1","type":"int","value":181},{"name":"hide","type":"int","value":0},{"name":"type","type":"string","value":"n"},{"name":"mobTime","type":"int","value":0},{"name":"npc_aseprite","type":"file","value":"../../Npc/9901746.img/animation.aseprite"}],"point":true},{"id":13,"x":-341,"y":129,"visible":true,"properties":[{"name":"f","type":"int","value":0},{"name":"x","type":"int","value":-341},{"name":"y","type":"int","value":129},{"name":"cy","type":"int","value":136},{"name":"fh","type":"int","value":9},{"name":"id","type":"int","value":9901747},{"name":"rx0","type":"int","value":-381},{"name":"rx1","type":"int","value":-291},{"name":"hide","type":"int","value":0},{"name":"type","type":"string","value":"n"},{"name":"mobTime","type":"int","value":0},{"name":"npc_aseprite","type":"file","value":"../../Npc/9901747.img/animation.aseprite"}],"point":true},{"id":14,"x":-220,"y":165,"visible":true,"properties":[{"name":"f","type":"int","value":0},{"name":"x","type":"int","value":-220},{"name":"y","type":"int","value":165},{"name":"cy","type":"int","value":170},{"name":"fh","type":"int","value":1},{"name":"id","type":"int","value":9901748},{"name":"rx0","type":"int","value":-270},{"name":"rx1","type":"int","value":-170},{"name":"hide","type":"int","value":0},{"name":"type","type":"string","value":"n"},{"name":"mobTime","type":"int","value":0},{"name":"npc_aseprite","type":"file","value":"../../Npc/9901748.img/animation.aseprite"}],"point":true},{"id":15,"x":-119,"y":166,"visible":true,"properties":[{"name":"f","type":"int","value":0},{"name":"x","type":"int","value":-119},{"name":"y","type":"int","value":166},{"name":"cy","type":"int","value":170},{"name":"fh","type":"int","value":1},{"name":"id","type":"int","value":9901749},{"name":"rx0","type":"int","value":-169},{"name":"rx1","type":"int","value":-69},{"name":"hide","type":"int","value":0},{"name":"type","type":"string","value":"n"},{"name":"mobTime","type":"int","value":0},{"name":"npc_aseprite","type":"file","value":"../../Npc/9901749.img/animation.aseprite"}],"point":true},{"id":16,"x":109,"y":167,"visible":true,"properties":[{"name":"f","type":"int","value":0},{"name":"x","type":"int","value":109},{"name":"y","type":"int","value":167},{"name":"cy","type":"int","value":170},{"name":"fh","type":"int","value":1},{"name":"id","type":"int","value":9010021},{"name":"rx0","type":"int","value":59},{"name":"rx1","type":"int","value":159},{"name":"hide","type":"int","value":0},{"name":"type","type":"string","value":"n"},{"name":"mobTime","type":"int","value":0},{"name":"npc_aseprite","type":"file","value":"../../Npc/9010021.img/animation.aseprite"}],"point":true}],"properties":[]},{"id":5,"name":"foothold","type":"objectgroup","visible":true,"opacity":1,"draworder":"index","offsetx":0,"offsety":0,"parallaxx":1,"parallaxy":1,"objects":[{"id":17,"x":-401,"y":170,"visible":true,"properties":[{"name":"layer","type":"int","value":1},{"name":"group","type":"int","value":1},{"name":"id","type":"int","value":1},{"name":"fh_layer","type":"int","value":1},{"name":"fh_group","type":"int","value":1},{"name":"fh_id","type":"int","value":1},{"name":"x1","type":"int","value":-401},{"name":"x2","type":"int","value":399},{"name":"y1","type":"int","value":170},{"name":"y2","type":"int","value":170},{"name":"next","type":"int","value":0},{"name":"prev","type":"int","value":0}],"polyline":[{"x":0,"y":0},{"x":800,"y":0}]},{"id":18,"x":-97,"y":-40,"visible":true,"properties":[{"name":"layer","type":"int","value":1},{"name":"group","type":"int","value":1},{"name":"id","type":"int","value":2},{"name":"fh_layer","type":"int","value":1},{"name":"fh_group","type":"int","value":1},{"name":"fh_id","type":"int","value":2},{"name":"x1","type":"int","value":-97},{"name":"x2","type":"int","value":191},{"name":"y1","type":"int","value":-40},{"name":"y2","type":"int","value":-40},{"name":"next","type":"int","value":0},{"name":"prev","type":"int","value":0}],"polyline":[{"x":0,"y":0},{"x":288,"y":0}]},{"id":19,"x":-218,"y":43,"visible":true,"properties":[{"name":"layer","type":"int","value":1},{"name":"group","type":"int","value":1},{"name":"id","type":"int","value":3},{"name":"fh_layer","type":"int","value":1},{"name":"fh_group","type":"int","value":1},{"name":"fh_id","type":"int","value":3},{"name":"x1","type":"int","value":-218},{"name":"x2","type":"int","value":70},{"name":"y1","type":"int","value":43},{"name":"y2","type":"int","value":43},{"name":"next","type":"int","value":0},{"name":"prev","type":"int","value":0}],"polyline":[{"x":0,"y":0},{"x":288,"y":0}]},{"id":20,"x":-10,"y":77,"visible":true,"properties":[{"name":"layer","type":"int","value":1},{"name":"group","type":"int","value":1},{"name":"id","type":"int","value":4},{"name":"fh_layer","type":"int","value":1},{"name":"fh_group","type":"int","value":1},{"name":"fh_id","type":"int","value":4},{"name":"x1","type":"int","value":-10},{"name":"x2","type":"int","value":203},{"name":"y1","type":"int","value":77},{"name":"y2","type":"int","value":79},{"name":"next","type":"int","value":0},{"name":"prev","type":"int","value":0}],"polyline":[{"x":0,"y":0},{"x":213,"y":2}]},{"id":21,"x":-397,"y":5,"visible":true,"properties":[{"name":"layer","type":"int","value":1},{"name":"group","type":"int","value":1},{"name":"id","type":"int","value":5},{"name":"fh_layer","type":"int","value":1},{"name":"fh_group","type":"int","value":1},{"name":"fh_id","type":"int","value":5},{"name":"x1","type":"int","value":-397},{"name":"x2","type":"int","value":-374},{"name":"y1","type":"int","value":5},{"name":"y2","type":"int","value":0},{"name":"next","type":"int","value":6},{"name":"prev","type":"int","value":0}],"polyline":[{"x":0,"y":0},{"x":23,"y":-5}]},{"id":22,"x":-374,"y":0,"visible":true,"properties":[{"name":"layer","type":"int","value":1},{"name":"group","type":"int","value":1},{"name":"id","type":"int","value":6},{"name":"fh_layer","type":"int","value":1},{"name":"fh_group","type":"int","value":1},{"name":"fh_id","type":"int","value":6},{"name":"x1","type":"int","value":-374},{"name":"x2","type":"int","value":-344},{"name":"y1","type":"int","value":0},{"name":"y2","type":"int","value":-1},{"name":"next","type":"int","value":7},{"name":"prev","type":"int","value":5}],"polyline":[{"x":0,"y":0},{"x":30,"y":-1}]},{"id":23,"x":-344,"y":-1,"visible":true,"properties":[{"name":"layer","type":"int","value":1},{"name":"group","type":"int","value":1},{"name":"id","type":"int","value":7},{"name":"fh_layer","type":"int","value":1},{"name":"fh_group","type":"int","value":1},{"name":"fh_id","type":"int","value":7},{"name":"x1","type":"int","value":-344},{"name":"x2","type":"int","value":-312},{"name":"y1","type":"int","value":-1},{"name":"y2","type":"int","value":1},{"name":"next","type":"int","value":8},{"name":"prev","type":"int","value":6}],"polyline":[{"x":0,"y":0},{"x":32,"y":2}]},{"id":24,"x":-312,"y":1,"visible":true,"properties":[{"name":"layer","type":"int","value":1},{"name":"group","type":"int","value":1},{"name":"id","type":"int","value":8},{"name":"fh_layer","type":"int","value":1},{"name":"fh_group","type":"int","value":1},{"name":"fh_id","type":"int","value":8},{"name":"x1","type":"int","value":-312},{"name":"x2","type":"int","value":-292},{"name":"y1","type":"int","value":1},{"name":"y2","type":"int","value":12},{"name":"next","type":"int","value":0},{"name":"prev","type":"int","value":7}],"polyline":[{"x":0,"y":0},{"x":20,"y":11}]},{"id":25,"x":-397,"y":136,"visible":true,"properties":[{"name":"layer","type":"int","value":1},{"name":"group","type":"int","value":1},{"name":"id","type":"int","value":9},{"name":"fh_layer","type":"int","value":1},{"name":"fh_group","type":"int","value":1},{"name":"fh_id","type":"int","value":9},{"name":"x1","type":"int","value":-397},{"name":"x2","type":"int","value":-287},{"name":"y1","type":"int","value":136},{"name":"y2","type":"int","value":136},{"name":"next","type":"int","value":0},{"name":"prev","type":"int","value":0}],"polyline":[{"x":0,"y":0},{"x":110,"y":0}]},{"id":26,"x":293,"y":12,"visible":true,"properties":[{"name":"layer","type":"int","value":1},{"name":"group","type":"int","value":1},{"name":"id","type":"int","value":10},{"name":"fh_layer","type":"int","value":1},{"name":"fh_group","type":"int","value":1},{"name":"fh_id","type":"int","value":10},{"name":"x1","type":"int","value":293},{"name":"x2","type":"int","value":313},{"name":"y1","type":"int","value":12},{"name":"y2","type":"int","value":1},{"name":"next","type":"int","value":11},{"name":"prev","type":"int","value":0}],"polyline":[{"x":0,"y":0},{"x":20,"y":-11}]},{"id":27,"x":313,"y":1,"visible":true,"properties":[{"name":"layer","type":"int","value":1},{"name":"group","type":"int","value":1},{"name":"id","type":"int","value":11},{"name":"fh_layer","type":"int","value":1},{"name":"fh_group","type":"int","value":1},{"name":"fh_id","type":"int","value":11},{"name":"x1","type":"int","value":313},{"name":"x2","type":"int","value":339},{"name":"y1","type":"int","value":1},{"name":"y2","type":"int","value":-1},{"name":"next","type":"int","value":12},{"name":"prev","type":"int","value":10}],"polyline":[{"x":0,"y":0},{"x":26,"y":-2}]},{"id":28,"x":339,"y":-1,"visible":true,"properties":[{"name":"layer","type":"int","value":1},{"name":"group","type":"int","value":1},{"name":"id","type":"int","value":12},{"name":"fh_layer","type":"int","value":1},{"name":"fh_group","type":"int","value":1},{"name":"fh_id","type":"int","value":12},{"name":"x1","type":"int","value":339},{"name":"x2","type":"int","value":371},{"name":"y1","type":"int","value":-1},{"name":"y2","type":"int","value":-3},{"name":"next","type":"int","value":13},{"name":"prev","type":"int","value":11}],"polyline":[{"x":0,"y":0},{"x":32,"y":-2}]},{"id":29,"x":371,"y":-3,"visible":true,"properties":[{"name":"layer","type":"int","value":1},{"name":"group","type":"int","value":1},{"name":"id","type":"int","value":13},{"name":"fh_layer","type":"int","value":1},{"name":"fh_group","type":"int","value":1},{"name":"fh_id","type":"int","value":13},{"name":"x1","type":"int","value":371},{"name":"x2","type":"int","value":403},{"name":"y1","type":"int","value":-3},{"name":"y2","type":"int","value":6},{"name":"next","type":"int","value":0},{"name":"prev","type":"int","value":12}],"polyline":[{"x":0,"y":0},{"x":32,"y":9}]},{"id":30,"x":284,"y":134,"visible":true,"properties":[{"name":"layer","type":"int","value":1},{"name":"group","type":"int","value":1},{"name":"id","type":"int","value":14},{"name":"fh_layer","type":"int","value":1},{"name":"fh_group","type":"int","value":1},{"name":"fh_id","type":"int","value":14},{"name":"x1","type":"int","value":284},{"name":"x2","type":"int","value":394},{"name":"y1","type":"int","value":134},{"name":"y2","type":"int","value":134},{"name":"next","type":"int","value":0},{"name":"prev","type":"int","value":0}],"polyline":[{"x":0,"y":0},{"x":110,"y":0}]}],"properties":[]}],"tilesets":[{"firstgid":1,"source":"../tilesets/obj_acc1_lv200_pirate.tsj"},{"firstgid":4,"source":"../tilesets/portal_MapHelper.img_portal_game_pv.tsj"}],"properties":[{"name":"bgm","type":"string","value":"Bgm15/inNautilus"},{"name":"fly","type":"int","value":0},{"name":"swim","type":"int","value":0},{"name":"town","type":"int","value":0},{"name":"VRTop","type":"int","value":-300},{"name":"cloud","type":"int","value":0},{"name":"VRLeft","type":"int","value":-400},{"name":"VRRight","type":"int","value":400},{"name":"mapMark","type":"string","value":"Nautilus"},{"name":"mobRate","type":"float","value":1},{"name":"version","type":"int","value":10},{"name":"VRBottom","type":"int","value":300},{"name":"noMapCmd","type":"int","value":0},{"name":"returnMap","type":"int","value":120000000},{"name":"fieldLimit","type":"int","value":0},{"name":"hideMinimap","type":"int","value":0},{"name":"onUserEnter","type":"string","value":""},{"name":"forcedReturn","type":"int","value":999999999},{"name":"onFirstUserEnter","type":"string","value":""}]}