{"type":"map","orientation":"orthogonal","renderorder":"right-down","infinite":false,"tilewidth":1,"tileheight":1,"width":1075,"height":1124,"parallaxoriginx":-400,"parallaxoriginy":80,"nextlayerid":43,"nextobjectid":159,"layers":[{"id":1,"name":"background_back_0","type":"imagelayer","visible":true,"opacity":1,"image":"../images/27592.png","imagewidth":30,"imageheight":30,"offsetx":-15,"offsety":65,"repeatx":true,"repeaty":true,"parallaxx":0,"parallaxy":0,"properties":[{"name":"a","type":"int","value":255},{"name":"f","type":"int","value":0},{"name":"x","type":"int","value":0},{"name":"y","type":"int","value":0},{"name":"bS","type":"string","value":"ereb"},{"name":"cx","type":"int","value":0},{"name":"cy","type":"int","value":0},{"name":"no","type":"int","value":0},{"name":"rx","type":"int","value":0},{"name":"ry","type":"int","value":0},{"name":"ani","type":"int","value":0},{"name":"type","type":"int","value":3},{"name":"front","type":"int","value":0}]},{"id":2,"name":"background_back_1","type":"imagelayer","visible":true,"opacity":1,"image":"../images/27593.png","imagewidth":10,"imageheight":537,"offsetx":92,"offsety":-641,"repeatx":true,"repeaty":false,"parallaxx":0,"parallaxy":1,"properties":[{"name":"a","type":"int","value":255},{"name":"f","type":"int","value":0},{"name":"x","type":"int","value":97},{"name":"y","type":"int","value":-453},{"name":"bS","type":"string","value":"ereb"},{"name":"cx","type":"int","value":0},{"name":"cy","type":"int","value":0},{"name":"no","type":"int","value":1},{"name":"rx","type":"int","value":0},{"name":"ry","type":"int","value":-100},{"name":"ani","type":"int","value":0},{"name":"type","type":"int","value":1},{"name":"front","type":"int","value":0}]},{"id":3,"name":"background_back_2","type":"imagelayer","visible":true,"opacity":1,"image":"../images/27594.png","imagewidth":331,"imageheight":175,"offsetx":-433,"offsety":-485,"repeatx":true,"repeaty":false,"parallaxx":0.03,"parallaxy":0.5,"properties":[{"name":"a","type":"int","value":255},{"name":"f","type":"int","value":0},{"name":"x","type":"int","value":-268},{"name":"y","type":"int","value":-478},{"name":"bS","type":"string","value":"ereb"},{"name":"cx","type":"int","value":1200},{"name":"cy","type":"int","value":0},{"name":"no","type":"int","value":2},{"name":"rx","type":"int","value":-3},{"name":"ry","type":"int","value":-50},{"name":"ani","type":"int","value":0},{"name":"type","type":"int","value":4},{"name":"front","type":"int","value":0}]},{"id":4,"name":"background_back_3","type":"imagelayer","visible":true,"opacity":1,"image":"../images/27595.png","imagewidth":253,"imageheight":128,"offsetx":-389,"offsety":-511,"repeatx":true,"repeaty":false,"parallaxx":0.05,"parallaxy":0.5,"properties":[{"name":"a","type":"int","value":255},{"name":"f","type":"int","value":0},{"name":"x","type":"int","value":-386},{"name":"y","type":"int","value":-495},{"name":"bS","type":"string","value":"ereb"},{"name":"cx","type":"int","value":1200},{"name":"cy","type":"int","value":0},{"name":"no","type":"int","value":3},{"name":"rx","type":"int","value":-5},{"name":"ry","type":"int","value":-50},{"name":"ani","type":"int","value":0},{"name":"type","type":"int","value":4},{"name":"front","type":"int","value":0}]},{"id":5,"name":"background_back_4","type":"imagelayer","visible":true,"opacity":1,"image":"../images/27596.png","imagewidth":333,"imageheight":141,"offsetx":84,"offsety":-394,"repeatx":true,"repeaty":false,"parallaxx":0.03,"parallaxy":0.5,"properties":[{"name":"a","type":"int","value":255},{"name":"f","type":"int","value":0},{"name":"x","type":"int","value":250},{"name":"y","type":"int","value":-404},{"name":"bS","type":"string","value":"ereb"},{"name":"cx","type":"int","value":1200},{"name":"cy","type":"int","value":0},{"name":"no","type":"int","value":4},{"name":"rx","type":"int","value":-3},{"name":"ry","type":"int","value":-50},{"name":"ani","type":"int","value":0},{"name":"type","type":"int","value":4},{"name":"front","type":"int","value":0}]},{"id":6,"name":"background_back_5","type":"imagelayer","visible":true,"opacity":1,"image":"../images/27597.png","imagewidth":281,"imageheight":102,"offsetx":230,"offsety":-325,"repeatx":true,"repeaty":false,"parallaxx":0.04,"parallaxy":0.5,"properties":[{"name":"a","type":"int","value":255},{"name":"f","type":"int","value":0},{"name":"x","type":"int","value":370},{"name":"y","type":"int","value":-354},{"name":"bS","type":"string","value":"ereb"},{"name":"cx","type":"int","value":1200},{"name":"cy","type":"int","value":0},{"name":"no","type":"int","value":5},{"name":"rx","type":"int","value":-4},{"name":"ry","type":"int","value":-50},{"name":"ani","type":"int","value":0},{"name":"type","type":"int","value":4},{"name":"front","type":"int","value":0}]},{"id":7,"name":"background_back_6","type":"imagelayer","visible":true,"opacity":1,"image":"../images/27598.png","imagewidth":176,"imageheight":116,"offsetx":-16,"offsety":-277,"repeatx":true,"repeaty":false,"parallaxx":0.04,"parallaxy":0.5,"properties":[{"name":"a","type":"int","value":255},{"name":"f","type":"int","value":0},{"name":"x","type":"int","value":23},{"name":"y","type":"int","value":-348},{"name":"bS","type":"string","value":"ereb"},{"name":"cx","type":"int","value":1200},{"name":"cy","type":"int","value":0},{"name":"no","type":"int","value":6},{"name":"rx","type":"int","value":-4},{"name":"ry","type":"int","value":-50},{"name":"ani","type":"int","value":0},{"name":"type","type":"int","value":4},{"name":"front","type":"int","value":0}]},{"id":8,"name":"background_back_7","type":"imagelayer","visible":true,"opacity":1,"image":"../images/27599.png","imagewidth":397,"imageheight":182,"offsetx":-565,"offsety":-401,"repeatx":true,"repeaty":false,"parallaxx":0.03,"parallaxy":0.5,"properties":[{"name":"a","type":"int","value":255},{"name":"f","type":"int","value":0},{"name":"x","type":"int","value":-367},{"name":"y","type":"int","value":-390},{"name":"bS","type":"string","value":"ereb"},{"name":"cx","type":"int","value":1200},{"name":"cy","type":"int","value":0},{"name":"no","type":"int","value":7},{"name":"rx","type":"int","value":-3},{"name":"ry","type":"int","value":-50},{"name":"ani","type":"int","value":0},{"name":"type","type":"int","value":4},{"name":"front","type":"int","value":0}]},{"id":9,"name":"background_back_8","type":"imagelayer","visible":true,"opacity":1,"image":"../images/27600.png","imagewidth":95,"imageheight":63,"offsetx":-320,"offsety":-265,"repeatx":true,"repeaty":false,"parallaxx":0.02,"parallaxy":0.5,"properties":[{"name":"a","type":"int","value":255},{"name":"f","type":"int","value":0},{"name":"x","type":"int","value":-278},{"name":"y","type":"int","value":-347},{"name":"bS","type":"string","value":"ereb"},{"name":"cx","type":"int","value":1200},{"name":"cy","type":"int","value":0},{"name":"no","type":"int","value":8},{"name":"rx","type":"int","value":-2},{"name":"ry","type":"int","value":-50},{"name":"ani","type":"int","value":0},{"name":"type","type":"int","value":4},{"name":"front","type":"int","value":0}]},{"id":10,"name":"background_back_9","type":"imagelayer","visible":true,"opacity":1,"image":"../images/27601.png","imagewidth":400,"imageheight":235,"offsetx":-59,"offsety":-310,"repeatx":true,"repeaty":false,"parallaxx":0.2,"parallaxy":0.6,"properties":[{"name":"a","type":"int","value":255},{"name":"f","type":"int","value":0},{"name":"x","type":"int","value":141},{"name":"y","type":"int","value":-273},{"name":"bS","type":"string","value":"ereb"},{"name":"cx","type":"int","value":0},{"name":"cy","type":"int","value":0},{"name":"no","type":"int","value":9},{"name":"rx","type":"int","value":-20},{"name":"ry","type":"int","value":-60},{"name":"ani","type":"int","value":0},{"name":"type","type":"int","value":1},{"name":"front","type":"int","value":0}]},{"id":11,"name":"background_back_10","type":"imagelayer","visible":true,"opacity":1,"image":"../images/27602.png","imagewidth":800,"imageheight":651,"offsetx":-1593,"offsety":-469,"repeatx":false,"repeaty":false,"parallaxx":0.3,"parallaxy":0.7,"properties":[{"name":"a","type":"int","value":255},{"name":"f","type":"int","value":0},{"name":"x","type":"int","value":-1193},{"name":"y","type":"int","value":-224},{"name":"bS","type":"string","value":"ereb"},{"name":"cx","type":"int","value":0},{"name":"cy","type":"int","value":0},{"name":"no","type":"int","value":10},{"name":"rx","type":"int","value":-30},{"name":"ry","type":"int","value":-70},{"name":"ani","type":"int","value":0},{"name":"type","type":"int","value":0},{"name":"front","type":"int","value":0}]},{"id":12,"name":"background_back_11","type":"imagelayer","visible":true,"opacity":1,"image":"../images/27603.png","imagewidth":800,"imageheight":441,"offsetx":-793,"offsety":-258,"repeatx":false,"repeaty":false,"parallaxx":0.3,"parallaxy":0.7,"properties":[{"name":"a","type":"int","value":255},{"name":"f","type":"int","value":0},{"name":"x","type":"int","value":-393},{"name":"y","type":"int","value":-118},{"name":"bS","type":"string","value":"ereb"},{"name":"cx","type":"int","value":0},{"name":"cy","type":"int","value":0},{"name":"no","type":"int","value":11},{"name":"rx","type":"int","value":-30},{"name":"ry","type":"int","value":-70},{"name":"ani","type":"int","value":0},{"name":"type","type":"int","value":0},{"name":"front","type":"int","value":0}]},{"id":13,"name":"background_back_12","type":"imagelayer","visible":true,"opacity":1,"image":"../images/27604.png","imagewidth":800,"imageheight":425,"offsetx":7,"offsety":-242,"repeatx":false,"repeaty":false,"parallaxx":0.3,"parallaxy":0.7,"properties":[{"name":"a","type":"int","value":255},{"name":"f","type":"int","value":0},{"name":"x","type":"int","value":407},{"name":"y","type":"int","value":-110},{"name":"bS","type":"string","value":"ereb"},{"name":"cx","type":"int","value":0},{"name":"cy","type":"int","value":0},{"name":"no","type":"int","value":12},{"name":"rx","type":"int","value":-30},{"name":"ry","type":"int","value":-70},{"name":"ani","type":"int","value":0},{"name":"type","type":"int","value":0},{"name":"front","type":"int","value":0}]},{"id":14,"name":"background_back_13","type":"imagelayer","visible":true,"opacity":1,"image":"../images/27605.png","imagewidth":800,"imageheight":444,"offsetx":807,"offsety":-261,"repeatx":false,"repeaty":false,"parallaxx":0.3,"parallaxy":0.7,"properties":[{"name":"a","type":"int","value":255},{"name":"f","type":"int","value":0},{"name":"x","type":"int","value":1207},{"name":"y","type":"int","value":-119},{"name":"bS","type":"string","value":"ereb"},{"name":"cx","type":"int","value":0},{"name":"cy","type":"int","value":0},{"name":"no","type":"int","value":13},{"name":"rx","type":"int","value":-30},{"name":"ry","type":"int","value":-70},{"name":"ani","type":"int","value":0},{"name":"type","type":"int","value":0},{"name":"front","type":"int","value":0}]},{"id":15,"name":"background_back_14","type":"imagelayer","visible":true,"opacity":1,"image":"../images/27606.png","imagewidth":800,"imageheight":257,"offsetx":-1549,"offsety":-95,"repeatx":false,"repeaty":false,"parallaxx":0.5,"parallaxy":0.8,"properties":[{"name":"a","type":"int","value":255},{"name":"f","type":"int","value":0},{"name":"x","type":"int","value":-1149},{"name":"y","type":"int","value":-47},{"name":"bS","type":"string","value":"ereb"},{"name":"cx","type":"int","value":0},{"name":"cy","type":"int","value":0},{"name":"no","type":"int","value":14},{"name":"rx","type":"int","value":-50},{"name":"ry","type":"int","value":-80},{"name":"ani","type":"int","value":0},{"name":"type","type":"int","value":0},{"name":"front","type":"int","value":0}]},{"id":16,"name":"background_back_15","type":"imagelayer","visible":true,"opacity":1,"image":"../images/27607.png","imagewidth":800,"imageheight":278,"offsetx":-749,"offsety":-116,"repeatx":false,"repeaty":false,"parallaxx":0.5,"parallaxy":0.8,"properties":[{"name":"a","type":"int","value":255},{"name":"f","type":"int","value":0},{"name":"x","type":"int","value":-349},{"name":"y","type":"int","value":-57},{"name":"bS","type":"string","value":"ereb"},{"name":"cx","type":"int","value":0},{"name":"cy","type":"int","value":0},{"name":"no","type":"int","value":15},{"name":"rx","type":"int","value":-50},{"name":"ry","type":"int","value":-80},{"name":"ani","type":"int","value":0},{"name":"type","type":"int","value":0},{"name":"front","type":"int","value":0}]},{"id":17,"name":"background_back_16","type":"imagelayer","visible":true,"opacity":1,"image":"../images/27608.png","imagewidth":800,"imageheight":242,"offsetx":51,"offsety":-80,"repeatx":false,"repeaty":false,"parallaxx":0.5,"parallaxy":0.8,"properties":[{"name":"a","type":"int","value":255},{"name":"f","type":"int","value":0},{"name":"x","type":"int","value":451},{"name":"y","type":"int","value":-39},{"name":"bS","type":"string","value":"ereb"},{"name":"cx","type":"int","value":0},{"name":"cy","type":"int","value":0},{"name":"no","type":"int","value":16},{"name":"rx","type":"int","value":-50},{"name":"ry","type":"int","value":-80},{"name":"ani","type":"int","value":0},{"name":"type","type":"int","value":0},{"name":"front","type":"int","value":0}]},{"id":18,"name":"background_back_17","type":"imagelayer","visible":true,"opacity":1,"image":"../images/27609.png","imagewidth":800,"imageheight":217,"offsetx":851,"offsety":-54,"repeatx":false,"repeaty":false,"parallaxx":0.5,"parallaxy":0.8,"properties":[{"name":"a","type":"int","value":255},{"name":"f","type":"int","value":0},{"name":"x","type":"int","value":1251},{"name":"y","type":"int","value":-26},{"name":"bS","type":"string","value":"ereb"},{"name":"cx","type":"int","value":0},{"name":"cy","type":"int","value":0},{"name":"no","type":"int","value":17},{"name":"rx","type":"int","value":-50},{"name":"ry","type":"int","value":-80},{"name":"ani","type":"int","value":0},{"name":"type","type":"int","value":0},{"name":"front","type":"int","value":0}]},{"id":19,"name":"background_back_18","type":"objectgroup","visible":true,"opacity":1,"draworder":"index","offsetx":0,"offsety":0,"parallaxx":0.5,"parallaxy":0.9,"objects":[{"id":8,"x":-348,"y":-132,"visible":true,"properties":[],"gid":62,"width":277,"height":208}],"properties":[{"name":"a","type":"int","value":255},{"name":"f","type":"int","value":0},{"name":"x","type":"int","value":-326},{"name":"y","type":"int","value":-216},{"name":"bS","type":"string","value":"ereb"},{"name":"cx","type":"int","value":0},{"name":"cy","type":"int","value":0},{"name":"no","type":"int","value":6},{"name":"rx","type":"int","value":-50},{"name":"ry","type":"int","value":-90},{"name":"ani","type":"int","value":1},{"name":"type","type":"int","value":0},{"name":"front","type":"int","value":0}]},{"id":20,"name":"background_back_19","type":"objectgroup","visible":true,"opacity":1,"draworder":"index","offsetx":0,"offsety":0,"parallaxx":0.5,"parallaxy":0.9,"objects":[{"id":9,"x":-1167,"y":-137,"visible":true,"properties":[],"gid":62,"width":277,"height":208}],"properties":[{"name":"a","type":"int","value":255},{"name":"f","type":"int","value":0},{"name":"x","type":"int","value":-1145},{"name":"y","type":"int","value":-221},{"name":"bS","type":"string","value":"ereb"},{"name":"cx","type":"int","value":0},{"name":"cy","type":"int","value":0},{"name":"no","type":"int","value":6},{"name":"rx","type":"int","value":-50},{"name":"ry","type":"int","value":-90},{"name":"ani","type":"int","value":1},{"name":"type","type":"int","value":0},{"name":"front","type":"int","value":0}]},{"id":21,"name":"background_back_20","type":"objectgroup","visible":true,"opacity":1,"draworder":"index","offsetx":0,"offsety":0,"parallaxx":0.6,"parallaxy":0.9,"objects":[{"id":10,"x":-2168,"y":-129,"visible":true,"properties":[],"gid":62,"width":277,"height":208}],"properties":[{"name":"a","type":"int","value":255},{"name":"f","type":"int","value":0},{"name":"x","type":"int","value":-2146},{"name":"y","type":"int","value":-213},{"name":"bS","type":"string","value":"ereb"},{"name":"cx","type":"int","value":0},{"name":"cy","type":"int","value":0},{"name":"no","type":"int","value":6},{"name":"rx","type":"int","value":-60},{"name":"ry","type":"int","value":-90},{"name":"ani","type":"int","value":1},{"name":"type","type":"int","value":0},{"name":"front","type":"int","value":0}]},{"id":22,"name":"background_back_21","type":"objectgroup","visible":true,"opacity":1,"draworder":"index","offsetx":0,"offsety":0,"parallaxx":0.6,"parallaxy":0.9,"objects":[{"id":11,"x":1026,"y":-112,"visible":true,"properties":[],"gid":62,"width":277,"height":208}],"properties":[{"name":"a","type":"int","value":255},{"name":"f","type":"int","value":0},{"name":"x","type":"int","value":1048},{"name":"y","type":"int","value":-196},{"name":"bS","type":"string","value":"ereb"},{"name":"cx","type":"int","value":0},{"name":"cy","type":"int","value":0},{"name":"no","type":"int","value":6},{"name":"rx","type":"int","value":-60},{"name":"ry","type":"int","value":-90},{"name":"ani","type":"int","value":1},{"name":"type","type":"int","value":0},{"name":"front","type":"int","value":0}]},{"id":23,"name":"background_back_22","type":"imagelayer","visible":true,"opacity":1,"image":"../images/27610.png","imagewidth":800,"imageheight":515,"offsetx":-1585,"offsety":-335,"repeatx":true,"repeaty":false,"parallaxx":0.6,"parallaxy":0.95,"properties":[{"name":"a","type":"int","value":255},{"name":"f","type":"int","value":0},{"name":"x","type":"int","value":-1185},{"name":"y","type":"int","value":-158},{"name":"bS","type":"string","value":"ereb"},{"name":"cx","type":"int","value":3200},{"name":"cy","type":"int","value":0},{"name":"no","type":"int","value":18},{"name":"rx","type":"int","value":-60},{"name":"ry","type":"int","value":-95},{"name":"ani","type":"int","value":0},{"name":"type","type":"int","value":1},{"name":"front","type":"int","value":0}]},{"id":24,"name":"background_back_23","type":"imagelayer","visible":true,"opacity":1,"image":"../images/27611.png","imagewidth":800,"imageheight":515,"offsetx":-785,"offsety":-335,"repeatx":true,"repeaty":false,"parallaxx":0.6,"parallaxy":0.95,"properties":[{"name":"a","type":"int","value":255},{"name":"f","type":"int","value":0},{"name":"x","type":"int","value":-385},{"name":"y","type":"int","value":-158},{"name":"bS","type":"string","value":"ereb"},{"name":"cx","type":"int","value":3200},{"name":"cy","type":"int","value":0},{"name":"no","type":"int","value":19},{"name":"rx","type":"int","value":-60},{"name":"ry","type":"int","value":-95},{"name":"ani","type":"int","value":0},{"name":"type","type":"int","value":1},{"name":"front","type":"int","value":0}]},{"id":25,"name":"background_back_24","type":"imagelayer","visible":true,"opacity":1,"image":"../images/27612.png","imagewidth":800,"imageheight":529,"offsetx":15,"offsety":-349,"repeatx":true,"repeaty":false,"parallaxx":0.6,"parallaxy":0.95,"properties":[{"name":"a","type":"int","value":255},{"name":"f","type":"int","value":0},{"name":"x","type":"int","value":415},{"name":"y","type":"int","value":-165},{"name":"bS","type":"string","value":"ereb"},{"name":"cx","type":"int","value":3200},{"name":"cy","type":"int","value":0},{"name":"no","type":"int","value":20},{"name":"rx","type":"int","value":-60},{"name":"ry","type":"int","value":-95},{"name":"ani","type":"int","value":0},{"name":"type","type":"int","value":1},{"name":"front","type":"int","value":0}]},{"id":26,"name":"background_back_25","type":"imagelayer","visible":true,"opacity":1,"image":"../images/27613.png","imagewidth":800,"imageheight":515,"offsetx":815,"offsety":-335,"repeatx":true,"repeaty":false,"parallaxx":0.6,"parallaxy":0.95,"properties":[{"name":"a","type":"int","value":255},{"name":"f","type":"int","value":0},{"name":"x","type":"int","value":1215},{"name":"y","type":"int","value":-158},{"name":"bS","type":"string","value":"ereb"},{"name":"cx","type":"int","value":3200},{"name":"cy","type":"int","value":0},{"name":"no","type":"int","value":21},{"name":"rx","type":"int","value":-60},{"name":"ry","type":"int","value":-95},{"name":"ani","type":"int","value":0},{"name":"type","type":"int","value":1},{"name":"front","type":"int","value":0}]},{"id":27,"name":"background_back_26","type":"objectgroup","visible":true,"opacity":1,"draworder":"index","offsetx":0,"offsety":0,"parallaxx":0.6,"parallaxy":0.3,"objects":[{"id":12,"x":-3697,"y":281,"visible":true,"properties":[],"gid":50,"width":516,"height":723},{"id":13,"x":-3181,"y":281,"visible":true,"properties":[],"gid":50,"width":516,"height":723},{"id":14,"x":-2665,"y":281,"visible":true,"properties":[],"gid":50,"width":516,"height":723},{"id":15,"x":-2149,"y":281,"visible":true,"properties":[],"gid":50,"width":516,"height":723},{"id":16,"x":-1633,"y":281,"visible":true,"properties":[],"gid":50,"width":516,"height":723},{"id":17,"x":-1117,"y":281,"visible":true,"properties":[],"gid":50,"width":516,"height":723}],"properties":[{"name":"a","type":"int","value":255},{"name":"f","type":"int","value":0},{"name":"x","type":"int","value":173},{"name":"y","type":"int","value":-161},{"name":"bS","type":"string","value":"ereb"},{"name":"cx","type":"int","value":3200},{"name":"cy","type":"int","value":0},{"name":"no","type":"int","value":0},{"name":"rx","type":"int","value":-60},{"name":"ry","type":"int","value":-30},{"name":"ani","type":"int","value":1},{"name":"type","type":"int","value":1},{"name":"front","type":"int","value":0}]},{"id":28,"name":"background_back_27","type":"objectgroup","visible":true,"opacity":1,"draworder":"index","offsetx":0,"offsety":0,"parallaxx":0.6,"parallaxy":0.3,"objects":[{"id":18,"x":-3582,"y":182,"visible":true,"properties":[],"gid":52,"width":529,"height":659},{"id":19,"x":-3053,"y":182,"visible":true,"properties":[],"gid":52,"width":529,"height":659},{"id":20,"x":-2524,"y":182,"visible":true,"properties":[],"gid":52,"width":529,"height":659},{"id":21,"x":-1995,"y":182,"visible":true,"properties":[],"gid":52,"width":529,"height":659},{"id":22,"x":-1466,"y":182,"visible":true,"properties":[],"gid":52,"width":529,"height":659}],"properties":[{"name":"a","type":"int","value":255},{"name":"f","type":"int","value":0},{"name":"x","type":"int","value":-144},{"name":"y","type":"int","value":-228},{"name":"bS","type":"string","value":"ereb"},{"name":"cx","type":"int","value":3200},{"name":"cy","type":"int","value":0},{"name":"no","type":"int","value":1},{"name":"rx","type":"int","value":-60},{"name":"ry","type":"int","value":-30},{"name":"ani","type":"int","value":1},{"name":"type","type":"int","value":1},{"name":"front","type":"int","value":0}]},{"id":29,"name":"background_back_28","type":"objectgroup","visible":true,"opacity":1,"draworder":"index","offsetx":0,"offsety":0,"parallaxx":0.6,"parallaxy":0.3,"objects":[{"id":23,"x":-3206,"y":4,"visible":true,"properties":[],"gid":54,"width":376,"height":443},{"id":24,"x":-2830,"y":4,"visible":true,"properties":[],"gid":54,"width":376,"height":443},{"id":25,"x":-2454,"y":4,"visible":true,"properties":[],"gid":54,"width":376,"height":443},{"id":26,"x":-2078,"y":4,"visible":true,"properties":[],"gid":54,"width":376,"height":443},{"id":27,"x":-1702,"y":4,"visible":true,"properties":[],"gid":54,"width":376,"height":443},{"id":28,"x":-1326,"y":4,"visible":true,"properties":[],"gid":54,"width":376,"height":443}],"properties":[{"name":"a","type":"int","value":255},{"name":"f","type":"int","value":0},{"name":"x","type":"int","value":-762},{"name":"y","type":"int","value":-298},{"name":"bS","type":"string","value":"ereb"},{"name":"cx","type":"int","value":3200},{"name":"cy","type":"int","value":0},{"name":"no","type":"int","value":2},{"name":"rx","type":"int","value":-60},{"name":"ry","type":"int","value":-30},{"name":"ani","type":"int","value":1},{"name":"type","type":"int","value":1},{"name":"front","type":"int","value":0}]},{"id":30,"name":"background_back_29","type":"objectgroup","visible":true,"opacity":1,"draworder":"index","offsetx":0,"offsety":0,"parallaxx":0.6,"parallaxy":0.3,"objects":[{"id":29,"x":-3499,"y":145,"visible":true,"properties":[],"gid":56,"width":554,"height":619},{"id":30,"x":-2945,"y":145,"visible":true,"properties":[],"gid":56,"width":554,"height":619},{"id":31,"x":-2391,"y":145,"visible":true,"properties":[],"gid":56,"width":554,"height":619},{"id":32,"x":-1837,"y":145,"visible":true,"properties":[],"gid":56,"width":554,"height":619},{"id":33,"x":-1283,"y":145,"visible":true,"properties":[],"gid":56,"width":554,"height":619}],"properties":[{"name":"a","type":"int","value":255},{"name":"f","type":"int","value":0},{"name":"x","type":"int","value":656},{"name":"y","type":"int","value":-245},{"name":"bS","type":"string","value":"ereb"},{"name":"cx","type":"int","value":3200},{"name":"cy","type":"int","value":0},{"name":"no","type":"int","value":3},{"name":"rx","type":"int","value":-60},{"name":"ry","type":"int","value":-30},{"name":"ani","type":"int","value":1},{"name":"type","type":"int","value":1},{"name":"front","type":"int","value":0}]},{"id":31,"name":"background_back_30","type":"objectgroup","visible":true,"opacity":1,"draworder":"index","offsetx":0,"offsety":0,"parallaxx":0.6,"parallaxy":0.3,"objects":[{"id":34,"x":-3325,"y":60,"visible":true,"properties":[],"gid":58,"width":424,"height":506},{"id":35,"x":-2901,"y":60,"visible":true,"properties":[],"gid":58,"width":424,"height":506},{"id":36,"x":-2477,"y":60,"visible":true,"properties":[],"gid":58,"width":424,"height":506},{"id":37,"x":-2053,"y":60,"visible":true,"properties":[],"gid":58,"width":424,"height":506},{"id":38,"x":-1629,"y":60,"visible":true,"properties":[],"gid":58,"width":424,"height":506},{"id":39,"x":-1205,"y":60,"visible":true,"properties":[],"gid":58,"width":424,"height":506}],"properties":[{"name":"a","type":"int","value":255},{"name":"f","type":"int","value":0},{"name":"x","type":"int","value":279},{"name":"y","type":"int","value":-273},{"name":"bS","type":"string","value":"ereb"},{"name":"cx","type":"int","value":3200},{"name":"cy","type":"int","value":0},{"name":"no","type":"int","value":4},{"name":"rx","type":"int","value":-60},{"name":"ry","type":"int","value":-30},{"name":"ani","type":"int","value":1},{"name":"type","type":"int","value":1},{"name":"front","type":"int","value":0}]},{"id":32,"name":"background_back_31","type":"objectgroup","visible":true,"opacity":1,"draworder":"index","offsetx":0,"offsety":0,"parallaxx":0.6,"parallaxy":0.3,"objects":[{"id":40,"x":-3222,"y":49,"visible":true,"properties":[],"gid":60,"width":389,"height":485},{"id":41,"x":-2833,"y":49,"visible":true,"properties":[],"gid":60,"width":389,"height":485},{"id":42,"x":-2444,"y":49,"visible":true,"properties":[],"gid":60,"width":389,"height":485},{"id":43,"x":-2055,"y":49,"visible":true,"properties":[],"gid":60,"width":389,"height":485},{"id":44,"x":-1666,"y":49,"visible":true,"properties":[],"gid":60,"width":389,"height":485},{"id":45,"x":-1277,"y":49,"visible":true,"properties":[],"gid":60,"width":389,"height":485}],"properties":[{"name":"a","type":"int","value":255},{"name":"f","type":"int","value":0},{"name":"x","type":"int","value":-1083},{"name":"y","type":"int","value":-274},{"name":"bS","type":"string","value":"ereb"},{"name":"cx","type":"int","value":3200},{"name":"cy","type":"int","value":0},{"name":"no","type":"int","value":5},{"name":"rx","type":"int","value":-60},{"name":"ry","type":"int","value":-30},{"name":"ani","type":"int","value":1},{"name":"type","type":"int","value":1},{"name":"front","type":"int","value":0}]},{"id":33,"name":"background_back","type":"objectgroup","visible":true,"opacity":1,"draworder":"index","offsetx":0,"offsety":0,"parallaxx":1,"parallaxy":1,"objects":[{"id":1,"x":-268,"y":-478,"visible":true,"properties":[{"name":"image_layer_name","type":"string","value":"background_back_2"},{"name":"a","type":"int","value":255},{"name":"f","type":"int","value":0},{"name":"x","type":"int","value":-268},{"name":"y","type":"int","value":-478},{"name":"bS","type":"string","value":"ereb"},{"name":"cx","type":"int","value":1200},{"name":"cy","type":"int","value":0},{"name":"no","type":"int","value":2},{"name":"rx","type":"int","value":-3},{"name":"ry","type":"int","value":-50},{"name":"ani","type":"int","value":0},{"name":"type","type":"int","value":4},{"name":"front","type":"int","value":0}],"point":true},{"id":2,"x":-386,"y":-495,"visible":true,"properties":[{"name":"image_layer_name","type":"string","value":"background_back_3"},{"name":"a","type":"int","value":255},{"name":"f","type":"int","value":0},{"name":"x","type":"int","value":-386},{"name":"y","type":"int","value":-495},{"name":"bS","type":"string","value":"ereb"},{"name":"cx","type":"int","value":1200},{"name":"cy","type":"int","value":0},{"name":"no","type":"int","value":3},{"name":"rx","type":"int","value":-5},{"name":"ry","type":"int","value":-50},{"name":"ani","type":"int","value":0},{"name":"type","type":"int","value":4},{"name":"front","type":"int","value":0}],"point":true},{"id":3,"x":250,"y":-404,"visible":true,"properties":[{"name":"image_layer_name","type":"string","value":"background_back_4"},{"name":"a","type":"int","value":255},{"name":"f","type":"int","value":0},{"name":"x","type":"int","value":250},{"name":"y","type":"int","value":-404},{"name":"bS","type":"string","value":"ereb"},{"name":"cx","type":"int","value":1200},{"name":"cy","type":"int","value":0},{"name":"no","type":"int","value":4},{"name":"rx","type":"int","value":-3},{"name":"ry","type":"int","value":-50},{"name":"ani","type":"int","value":0},{"name":"type","type":"int","value":4},{"name":"front","type":"int","value":0}],"point":true},{"id":4,"x":370,"y":-354,"visible":true,"properties":[{"name":"image_layer_name","type":"string","value":"background_back_5"},{"name":"a","type":"int","value":255},{"name":"f","type":"int","value":0},{"name":"x","type":"int","value":370},{"name":"y","type":"int","value":-354},{"name":"bS","type":"string","value":"ereb"},{"name":"cx","type":"int","value":1200},{"name":"cy","type":"int","value":0},{"name":"no","type":"int","value":5},{"name":"rx","type":"int","value":-4},{"name":"ry","type":"int","value":-50},{"name":"ani","type":"int","value":0},{"name":"type","type":"int","value":4},{"name":"front","type":"int","value":0}],"point":true},{"id":5,"x":23,"y":-348,"visible":true,"properties":[{"name":"image_layer_name","type":"string","value":"background_back_6"},{"name":"a","type":"int","value":255},{"name":"f","type":"int","value":0},{"name":"x","type":"int","value":23},{"name":"y","type":"int","value":-348},{"name":"bS","type":"string","value":"ereb"},{"name":"cx","type":"int","value":1200},{"name":"cy","type":"int","value":0},{"name":"no","type":"int","value":6},{"name":"rx","type":"int","value":-4},{"name":"ry","type":"int","value":-50},{"name":"ani","type":"int","value":0},{"name":"type","type":"int","value":4},{"name":"front","type":"int","value":0}],"point":true},{"id":6,"x":-367,"y":-390,"visible":true,"properties":[{"name":"image_layer_name","type":"string","value":"background_back_7"},{"name":"a","type":"int","value":255},{"name":"f","type":"int","value":0},{"name":"x","type":"int","value":-367},{"name":"y","type":"int","value":-390},{"name":"bS","type":"string","value":"ereb"},{"name":"cx","type":"int","value":1200},{"name":"cy","type":"int","value":0},{"name":"no","type":"int","value":7},{"name":"rx","type":"int","value":-3},{"name":"ry","type":"int","value":-50},{"name":"ani","type":"int","value":0},{"name":"type","type":"int","value":4},{"name":"front","type":"int","value":0}],"point":true},{"id":7,"x":-278,"y":-347,"visible":true,"properties":[{"name":"image_layer_name","type":"string","value":"background_back_8"},{"name":"a","type":"int","value":255},{"name":"f","type":"int","value":0},{"name":"x","type":"int","value":-278},{"name":"y","type":"int","value":-347},{"name":"bS","type":"string","value":"ereb"},{"name":"cx","type":"int","value":1200},{"name":"cy","type":"int","value":0},{"name":"no","type":"int","value":8},{"name":"rx","type":"int","value":-2},{"name":"ry","type":"int","value":-50},{"name":"ani","type":"int","value":0},{"name":"type","type":"int","value":4},{"name":"front","type":"int","value":0}],"point":true}],"properties":[]},{"id":34,"name":"layer_0_obj","type":"objectgroup","visible":true,"opacity":1,"draworder":"index","offsetx":0,"offsety":0,"parallaxx":1,"parallaxy":1,"objects":[{"id":46,"x":-2163,"y":90,"visible":true,"properties":[{"name":"layer","type":"int","value":0},{"name":"resource_index","type":"int","value":0},{"name":"oS","type":"string","value":"acc11"},{"name":"l0","type":"string","value":"erebTW"},{"name":"l1","type":"string","value":"ship"},{"name":"l2","type":"string","value":"11"},{"name":"z","type":"int","value":9},{"name":"zM","type":"int","value":2},{"name":"f","type":"int","value":0}],"gid":44,"width":126,"height":293},{"id":47,"x":-2159,"y":69,"visible":true,"properties":[{"name":"layer","type":"int","value":0},{"name":"resource_index","type":"int","value":1},{"name":"oS","type":"string","value":"acc11"},{"name":"l0","type":"string","value":"erebTW"},{"name":"l1","type":"string","value":"nature"},{"name":"l2","type":"string","value":"0"},{"name":"z","type":"int","value":9},{"name":"zM","type":"int","value":0},{"name":"f","type":"int","value":0}],"gid":78,"width":569,"height":699},{"id":48,"x":-2703,"y":96,"visible":true,"properties":[{"name":"layer","type":"int","value":0},{"name":"resource_index","type":"int","value":2},{"name":"oS","type":"string","value":"acc11"},{"name":"l0","type":"string","value":"erebTW"},{"name":"l1","type":"string","value":"nature"},{"name":"l2","type":"string","value":"11"},{"name":"z","type":"int","value":9},{"name":"zM","type":"int","value":0},{"name":"f","type":"int","value":0}],"gid":93,"width":255,"height":136},{"id":49,"x":-2267,"y":102,"visible":true,"properties":[{"name":"layer","type":"int","value":0},{"name":"resource_index","type":"int","value":3},{"name":"oS","type":"string","value":"acc11"},{"name":"l0","type":"string","value":"erebTW"},{"name":"l1","type":"string","value":"nature"},{"name":"l2","type":"string","value":"16"},{"name":"z","type":"int","value":9},{"name":"zM","type":"int","value":0},{"name":"f","type":"int","value":0}],"gid":96,"width":96,"height":86},{"id":50,"x":-2192,"y":88,"visible":true,"properties":[{"name":"layer","type":"int","value":0},{"name":"resource_index","type":"int","value":4},{"name":"oS","type":"string","value":"acc11"},{"name":"l0","type":"string","value":"erebTW"},{"name":"l1","type":"string","value":"nature"},{"name":"l2","type":"string","value":"20"},{"name":"z","type":"int","value":9},{"name":"zM","type":"int","value":0},{"name":"f","type":"int","value":0}],"gid":91,"width":61,"height":40}],"properties":[]},{"id":35,"name":"layer_1_obj","type":"objectgroup","visible":true,"opacity":1,"draworder":"index","offsetx":0,"offsety":0,"parallaxx":1,"parallaxy":1,"objects":[{"id":51,"x":-2209,"y":91,"visible":true,"properties":[{"name":"layer","type":"int","value":1},{"name":"resource_index","type":"int","value":0},{"name":"oS","type":"string","value":"acc11"},{"name":"l0","type":"string","value":"erebTW"},{"name":"l1","type":"string","value":"ship"},{"name":"l2","type":"string","value":"9"},{"name":"z","type":"int","value":9},{"name":"zM","type":"int","value":1},{"name":"f","type":"int","value":0}],"gid":45,"width":590,"height":581},{"id":52,"x":-2001,"y":-442,"visible":true,"properties":[{"name":"layer","type":"int","value":1},{"name":"resource_index","type":"int","value":1},{"name":"oS","type":"string","value":"acc11"},{"name":"l0","type":"string","value":"erebTW"},{"name":"l1","type":"string","value":"ship"},{"name":"l2","type":"string","value":"10"},{"name":"z","type":"int","value":9},{"name":"zM","type":"int","value":1},{"name":"f","type":"int","value":0}],"gid":46,"width":382,"height":417},{"id":53,"x":-2049,"y":89,"visible":true,"properties":[{"name":"layer","type":"int","value":1},{"name":"resource_index","type":"int","value":2},{"name":"oS","type":"string","value":"acc11"},{"name":"l0","type":"string","value":"erebTW"},{"name":"l1","type":"string","value":"ship"},{"name":"l2","type":"string","value":"8"},{"name":"z","type":"int","value":10},{"name":"zM","type":"int","value":1},{"name":"f","type":"int","value":0}],"gid":47,"width":105,"height":162},{"id":54,"x":-2424,"y":-409,"visible":true,"properties":[{"name":"layer","type":"int","value":1},{"name":"resource_index","type":"int","value":3},{"name":"oS","type":"string","value":"acc11"},{"name":"l0","type":"string","value":"erebTW"},{"name":"l1","type":"string","value":"ship"},{"name":"l2","type":"string","value":"2"},{"name":"z","type":"int","value":9},{"name":"zM","type":"int","value":1},{"name":"f","type":"int","value":0}],"gid":43,"width":433,"height":326},{"id":55,"x":-1977,"y":-393,"visible":true,"properties":[{"name":"layer","type":"int","value":1},{"name":"resource_index","type":"int","value":4},{"name":"oS","type":"string","value":"acc11"},{"name":"l0","type":"string","value":"erebTW"},{"name":"l1","type":"string","value":"ship"},{"name":"l2","type":"string","value":"1"},{"name":"z","type":"int","value":9},{"name":"zM","type":"int","value":1},{"name":"f","type":"int","value":0}],"gid":48,"width":282,"height":441},{"id":56,"x":-1870,"y":-383,"visible":true,"properties":[{"name":"layer","type":"int","value":1},{"name":"resource_index","type":"int","value":5},{"name":"oS","type":"string","value":"acc11"},{"name":"l0","type":"string","value":"erebTW"},{"name":"l1","type":"string","value":"nature"},{"name":"l2","type":"string","value":"26"},{"name":"z","type":"int","value":10},{"name":"zM","type":"int","value":0},{"name":"f","type":"int","value":0}],"gid":104,"width":59,"height":25},{"id":57,"x":-1909,"y":-386,"visible":true,"properties":[{"name":"layer","type":"int","value":1},{"name":"resource_index","type":"int","value":6},{"name":"oS","type":"string","value":"acc11"},{"name":"l0","type":"string","value":"erebTW"},{"name":"l1","type":"string","value":"nature"},{"name":"l2","type":"string","value":"29"},{"name":"z","type":"int","value":9},{"name":"zM","type":"int","value":0},{"name":"f","type":"int","value":0}],"gid":88,"width":84,"height":38}],"properties":[]},{"id":36,"name":"layer_3_tile","type":"objectgroup","visible":true,"opacity":1,"draworder":"index","offsetx":0,"offsety":0,"parallaxx":1,"parallaxy":1,"objects":[{"id":58,"x":-2520,"y":240,"visible":true,"properties":[{"name":"layer","type":"int","value":3},{"name":"resource_index","type":"int","value":0},{"name":"u","type":"string","value":"bsc"},{"name":"no","type":"int","value":2},{"name":"zM","type":"int","value":0}],"gid":28,"width":90,"height":60},{"id":59,"x":-2430,"y":180,"visible":true,"properties":[{"name":"layer","type":"int","value":3},{"name":"resource_index","type":"int","value":1},{"name":"u","type":"string","value":"bsc"},{"name":"no","type":"int","value":5},{"name":"zM","type":"int","value":0}],"gid":30,"width":90,"height":60},{"id":60,"x":-2340,"y":120,"visible":true,"properties":[{"name":"layer","type":"int","value":3},{"name":"resource_index","type":"int","value":2},{"name":"u","type":"string","value":"enH0"},{"name":"no","type":"int","value":2},{"name":"zM","type":"int","value":0}],"gid":32,"width":90,"height":37},{"id":61,"x":-2520,"y":331,"visible":true,"properties":[{"name":"layer","type":"int","value":3},{"name":"resource_index","type":"int","value":3},{"name":"u","type":"string","value":"enH1"},{"name":"no","type":"int","value":0},{"name":"zM","type":"int","value":0}],"gid":31,"width":90,"height":31},{"id":62,"x":-2520,"y":120,"visible":true,"properties":[{"name":"layer","type":"int","value":3},{"name":"resource_index","type":"int","value":4},{"name":"u","type":"string","value":"enH0"},{"name":"no","type":"int","value":0},{"name":"zM","type":"int","value":0}],"gid":23,"width":90,"height":36},{"id":63,"x":-2520,"y":300,"visible":true,"properties":[{"name":"layer","type":"int","value":3},{"name":"resource_index","type":"int","value":5},{"name":"u","type":"string","value":"bsc"},{"name":"no","type":"int","value":2},{"name":"zM","type":"int","value":0}],"gid":28,"width":90,"height":60},{"id":64,"x":-2610,"y":120,"visible":true,"properties":[{"name":"layer","type":"int","value":3},{"name":"resource_index","type":"int","value":6},{"name":"u","type":"string","value":"enH0"},{"name":"no","type":"int","value":0},{"name":"zM","type":"int","value":0}],"gid":23,"width":90,"height":36},{"id":65,"x":-2700,"y":332,"visible":true,"properties":[{"name":"layer","type":"int","value":3},{"name":"resource_index","type":"int","value":7},{"name":"u","type":"string","value":"enH1"},{"name":"no","type":"int","value":1},{"name":"zM","type":"int","value":0}],"gid":24,"width":90,"height":32},{"id":66,"x":-2700,"y":300,"visible":true,"properties":[{"name":"layer","type":"int","value":3},{"name":"resource_index","type":"int","value":8},{"name":"u","type":"string","value":"bsc"},{"name":"no","type":"int","value":2},{"name":"zM","type":"int","value":0}],"gid":28,"width":90,"height":60},{"id":67,"x":-2430,"y":120,"visible":true,"properties":[{"name":"layer","type":"int","value":3},{"name":"resource_index","type":"int","value":9},{"name":"u","type":"string","value":"enH0"},{"name":"no","type":"int","value":1},{"name":"zM","type":"int","value":0}],"gid":34,"width":90,"height":37},{"id":68,"x":-2340,"y":240,"visible":true,"properties":[{"name":"layer","type":"int","value":3},{"name":"resource_index","type":"int","value":10},{"name":"u","type":"string","value":"bsc"},{"name":"no","type":"int","value":5},{"name":"zM","type":"int","value":0}],"gid":30,"width":90,"height":60},{"id":69,"x":-2250,"y":180,"visible":true,"properties":[{"name":"layer","type":"int","value":3},{"name":"resource_index","type":"int","value":11},{"name":"u","type":"string","value":"bsc"},{"name":"no","type":"int","value":5},{"name":"zM","type":"int","value":0}],"gid":30,"width":90,"height":60},{"id":70,"x":-2250,"y":120,"visible":true,"properties":[{"name":"layer","type":"int","value":3},{"name":"resource_index","type":"int","value":12},{"name":"u","type":"string","value":"enH0"},{"name":"no","type":"int","value":1},{"name":"zM","type":"int","value":0}],"gid":34,"width":90,"height":37},{"id":71,"x":-2340,"y":180,"visible":true,"properties":[{"name":"layer","type":"int","value":3},{"name":"resource_index","type":"int","value":13},{"name":"u","type":"string","value":"bsc"},{"name":"no","type":"int","value":3},{"name":"zM","type":"int","value":0}],"gid":29,"width":90,"height":60},{"id":72,"x":-2700,"y":120,"visible":true,"properties":[{"name":"layer","type":"int","value":3},{"name":"resource_index","type":"int","value":14},{"name":"u","type":"string","value":"enH0"},{"name":"no","type":"int","value":1},{"name":"zM","type":"int","value":0}],"gid":34,"width":90,"height":37},{"id":73,"x":-2610,"y":300,"visible":true,"properties":[{"name":"layer","type":"int","value":3},{"name":"resource_index","type":"int","value":15},{"name":"u","type":"string","value":"bsc"},{"name":"no","type":"int","value":0},{"name":"zM","type":"int","value":0}],"gid":25,"width":90,"height":60},{"id":74,"x":-2520,"y":180,"visible":true,"properties":[{"name":"layer","type":"int","value":3},{"name":"resource_index","type":"int","value":16},{"name":"u","type":"string","value":"bsc"},{"name":"no","type":"int","value":5},{"name":"zM","type":"int","value":0}],"gid":30,"width":90,"height":60},{"id":75,"x":-2070,"y":331,"visible":true,"properties":[{"name":"layer","type":"int","value":3},{"name":"resource_index","type":"int","value":17},{"name":"u","type":"string","value":"enH1"},{"name":"no","type":"int","value":0},{"name":"zM","type":"int","value":0}],"gid":31,"width":90,"height":31},{"id":76,"x":-2430,"y":300,"visible":true,"properties":[{"name":"layer","type":"int","value":3},{"name":"resource_index","type":"int","value":18},{"name":"u","type":"string","value":"bsc"},{"name":"no","type":"int","value":0},{"name":"zM","type":"int","value":0}],"gid":25,"width":90,"height":60},{"id":77,"x":-2610,"y":180,"visible":true,"properties":[{"name":"layer","type":"int","value":3},{"name":"resource_index","type":"int","value":19},{"name":"u","type":"string","value":"bsc"},{"name":"no","type":"int","value":3},{"name":"zM","type":"int","value":0}],"gid":29,"width":90,"height":60},{"id":78,"x":-2700,"y":180,"visible":true,"properties":[{"name":"layer","type":"int","value":3},{"name":"resource_index","type":"int","value":20},{"name":"u","type":"string","value":"bsc"},{"name":"no","type":"int","value":0},{"name":"zM","type":"int","value":0}],"gid":25,"width":90,"height":60},{"id":79,"x":-2340,"y":300,"visible":true,"properties":[{"name":"layer","type":"int","value":3},{"name":"resource_index","type":"int","value":21},{"name":"u","type":"string","value":"bsc"},{"name":"no","type":"int","value":4},{"name":"zM","type":"int","value":0}],"gid":27,"width":90,"height":60},{"id":80,"x":-2250,"y":331,"visible":true,"properties":[{"name":"layer","type":"int","value":3},{"name":"resource_index","type":"int","value":22},{"name":"u","type":"string","value":"enH1"},{"name":"no","type":"int","value":0},{"name":"zM","type":"int","value":0}],"gid":31,"width":90,"height":31},{"id":81,"x":-2610,"y":331,"visible":true,"properties":[{"name":"layer","type":"int","value":3},{"name":"resource_index","type":"int","value":23},{"name":"u","type":"string","value":"enH1"},{"name":"no","type":"int","value":0},{"name":"zM","type":"int","value":0}],"gid":31,"width":90,"height":31},{"id":82,"x":-2070,"y":240,"visible":true,"properties":[{"name":"layer","type":"int","value":3},{"name":"resource_index","type":"int","value":24},{"name":"u","type":"string","value":"bsc"},{"name":"no","type":"int","value":0},{"name":"zM","type":"int","value":0}],"gid":25,"width":90,"height":60},{"id":83,"x":-2160,"y":332,"visible":true,"properties":[{"name":"layer","type":"int","value":3},{"name":"resource_index","type":"int","value":25},{"name":"u","type":"string","value":"enH1"},{"name":"no","type":"int","value":2},{"name":"zM","type":"int","value":0}],"gid":33,"width":90,"height":32},{"id":84,"x":-2610,"y":240,"visible":true,"properties":[{"name":"layer","type":"int","value":3},{"name":"resource_index","type":"int","value":26},{"name":"u","type":"string","value":"bsc"},{"name":"no","type":"int","value":5},{"name":"zM","type":"int","value":0}],"gid":30,"width":90,"height":60},{"id":85,"x":-2250,"y":300,"visible":true,"properties":[{"name":"layer","type":"int","value":3},{"name":"resource_index","type":"int","value":27},{"name":"u","type":"string","value":"bsc"},{"name":"no","type":"int","value":5},{"name":"zM","type":"int","value":0}],"gid":30,"width":90,"height":60},{"id":86,"x":-2430,"y":331,"visible":true,"properties":[{"name":"layer","type":"int","value":3},{"name":"resource_index","type":"int","value":28},{"name":"u","type":"string","value":"enH1"},{"name":"no","type":"int","value":0},{"name":"zM","type":"int","value":0}],"gid":31,"width":90,"height":31},{"id":87,"x":-2160,"y":240,"visible":true,"properties":[{"name":"layer","type":"int","value":3},{"name":"resource_index","type":"int","value":29},{"name":"u","type":"string","value":"bsc"},{"name":"no","type":"int","value":3},{"name":"zM","type":"int","value":0}],"gid":29,"width":90,"height":60},{"id":88,"x":-1980,"y":120,"visible":true,"properties":[{"name":"layer","type":"int","value":3},{"name":"resource_index","type":"int","value":30},{"name":"u","type":"string","value":"enH0"},{"name":"no","type":"int","value":0},{"name":"zM","type":"int","value":0}],"gid":23,"width":90,"height":36},{"id":89,"x":-2430,"y":240,"visible":true,"properties":[{"name":"layer","type":"int","value":3},{"name":"resource_index","type":"int","value":31},{"name":"u","type":"string","value":"bsc"},{"name":"no","type":"int","value":0},{"name":"zM","type":"int","value":0}],"gid":25,"width":90,"height":60},{"id":90,"x":-2340,"y":331,"visible":true,"properties":[{"name":"layer","type":"int","value":3},{"name":"resource_index","type":"int","value":32},{"name":"u","type":"string","value":"enH1"},{"name":"no","type":"int","value":0},{"name":"zM","type":"int","value":0}],"gid":31,"width":90,"height":31},{"id":91,"x":-1980,"y":180,"visible":true,"properties":[{"name":"layer","type":"int","value":3},{"name":"resource_index","type":"int","value":33},{"name":"u","type":"string","value":"bsc"},{"name":"no","type":"int","value":5},{"name":"zM","type":"int","value":0}],"gid":30,"width":90,"height":60},{"id":92,"x":-2070,"y":300,"visible":true,"properties":[{"name":"layer","type":"int","value":3},{"name":"resource_index","type":"int","value":34},{"name":"u","type":"string","value":"bsc"},{"name":"no","type":"int","value":0},{"name":"zM","type":"int","value":0}],"gid":25,"width":90,"height":60},{"id":93,"x":-2160,"y":180,"visible":true,"properties":[{"name":"layer","type":"int","value":3},{"name":"resource_index","type":"int","value":35},{"name":"u","type":"string","value":"bsc"},{"name":"no","type":"int","value":5},{"name":"zM","type":"int","value":0}],"gid":30,"width":90,"height":60},{"id":94,"x":-1980,"y":332,"visible":true,"properties":[{"name":"layer","type":"int","value":3},{"name":"resource_index","type":"int","value":36},{"name":"u","type":"string","value":"enH1"},{"name":"no","type":"int","value":1},{"name":"zM","type":"int","value":0}],"gid":24,"width":90,"height":32},{"id":95,"x":-2160,"y":120,"visible":true,"properties":[{"name":"layer","type":"int","value":3},{"name":"resource_index","type":"int","value":37},{"name":"u","type":"string","value":"enH0"},{"name":"no","type":"int","value":0},{"name":"zM","type":"int","value":0}],"gid":23,"width":90,"height":36},{"id":96,"x":-2250,"y":240,"visible":true,"properties":[{"name":"layer","type":"int","value":3},{"name":"resource_index","type":"int","value":38},{"name":"u","type":"string","value":"bsc"},{"name":"no","type":"int","value":5},{"name":"zM","type":"int","value":0}],"gid":30,"width":90,"height":60},{"id":97,"x":-2160,"y":300,"visible":true,"properties":[{"name":"layer","type":"int","value":3},{"name":"resource_index","type":"int","value":39},{"name":"u","type":"string","value":"bsc"},{"name":"no","type":"int","value":2},{"name":"zM","type":"int","value":0}],"gid":28,"width":90,"height":60},{"id":98,"x":-1710,"y":120,"visible":true,"properties":[{"name":"layer","type":"int","value":3},{"name":"resource_index","type":"int","value":40},{"name":"u","type":"string","value":"enH0"},{"name":"no","type":"int","value":2},{"name":"zM","type":"int","value":0}],"gid":32,"width":90,"height":37},{"id":99,"x":-2700,"y":240,"visible":true,"properties":[{"name":"layer","type":"int","value":3},{"name":"resource_index","type":"int","value":41},{"name":"u","type":"string","value":"bsc"},{"name":"no","type":"int","value":0},{"name":"zM","type":"int","value":0}],"gid":25,"width":90,"height":60},{"id":100,"x":-1710,"y":240,"visible":true,"properties":[{"name":"layer","type":"int","value":3},{"name":"resource_index","type":"int","value":42},{"name":"u","type":"string","value":"bsc"},{"name":"no","type":"int","value":5},{"name":"zM","type":"int","value":0}],"gid":30,"width":90,"height":60},{"id":101,"x":-1710,"y":332,"visible":true,"properties":[{"name":"layer","type":"int","value":3},{"name":"resource_index","type":"int","value":43},{"name":"u","type":"string","value":"enH1"},{"name":"no","type":"int","value":1},{"name":"zM","type":"int","value":0}],"gid":24,"width":90,"height":32},{"id":102,"x":-1800,"y":120,"visible":true,"properties":[{"name":"layer","type":"int","value":3},{"name":"resource_index","type":"int","value":44},{"name":"u","type":"string","value":"enH0"},{"name":"no","type":"int","value":1},{"name":"zM","type":"int","value":0}],"gid":34,"width":90,"height":37},{"id":103,"x":-1890,"y":331,"visible":true,"properties":[{"name":"layer","type":"int","value":3},{"name":"resource_index","type":"int","value":45},{"name":"u","type":"string","value":"enH1"},{"name":"no","type":"int","value":0},{"name":"zM","type":"int","value":0}],"gid":31,"width":90,"height":31},{"id":104,"x":-1710,"y":300,"visible":true,"properties":[{"name":"layer","type":"int","value":3},{"name":"resource_index","type":"int","value":46},{"name":"u","type":"string","value":"bsc"},{"name":"no","type":"int","value":4},{"name":"zM","type":"int","value":0}],"gid":27,"width":90,"height":60},{"id":105,"x":-1890,"y":240,"visible":true,"properties":[{"name":"layer","type":"int","value":3},{"name":"resource_index","type":"int","value":47},{"name":"u","type":"string","value":"bsc"},{"name":"no","type":"int","value":3},{"name":"zM","type":"int","value":0}],"gid":29,"width":90,"height":60},{"id":106,"x":-1800,"y":240,"visible":true,"properties":[{"name":"layer","type":"int","value":3},{"name":"resource_index","type":"int","value":48},{"name":"u","type":"string","value":"bsc"},{"name":"no","type":"int","value":1},{"name":"zM","type":"int","value":0}],"gid":26,"width":90,"height":60},{"id":107,"x":-1800,"y":300,"visible":true,"properties":[{"name":"layer","type":"int","value":3},{"name":"resource_index","type":"int","value":49},{"name":"u","type":"string","value":"bsc"},{"name":"no","type":"int","value":5},{"name":"zM","type":"int","value":0}],"gid":30,"width":90,"height":60},{"id":108,"x":-1710,"y":180,"visible":true,"properties":[{"name":"layer","type":"int","value":3},{"name":"resource_index","type":"int","value":50},{"name":"u","type":"string","value":"bsc"},{"name":"no","type":"int","value":5},{"name":"zM","type":"int","value":0}],"gid":30,"width":90,"height":60},{"id":109,"x":-1800,"y":332,"visible":true,"properties":[{"name":"layer","type":"int","value":3},{"name":"resource_index","type":"int","value":51},{"name":"u","type":"string","value":"enH1"},{"name":"no","type":"int","value":2},{"name":"zM","type":"int","value":0}],"gid":33,"width":90,"height":32},{"id":110,"x":-1980,"y":300,"visible":true,"properties":[{"name":"layer","type":"int","value":3},{"name":"resource_index","type":"int","value":52},{"name":"u","type":"string","value":"bsc"},{"name":"no","type":"int","value":5},{"name":"zM","type":"int","value":0}],"gid":30,"width":90,"height":60},{"id":111,"x":-1980,"y":240,"visible":true,"properties":[{"name":"layer","type":"int","value":3},{"name":"resource_index","type":"int","value":53},{"name":"u","type":"string","value":"bsc"},{"name":"no","type":"int","value":5},{"name":"zM","type":"int","value":0}],"gid":30,"width":90,"height":60},{"id":112,"x":-1800,"y":180,"visible":true,"properties":[{"name":"layer","type":"int","value":3},{"name":"resource_index","type":"int","value":54},{"name":"u","type":"string","value":"bsc"},{"name":"no","type":"int","value":4},{"name":"zM","type":"int","value":0}],"gid":27,"width":90,"height":60},{"id":113,"x":-1890,"y":300,"visible":true,"properties":[{"name":"layer","type":"int","value":3},{"name":"resource_index","type":"int","value":55},{"name":"u","type":"string","value":"bsc"},{"name":"no","type":"int","value":3},{"name":"zM","type":"int","value":0}],"gid":29,"width":90,"height":60},{"id":114,"x":-2070,"y":180,"visible":true,"properties":[{"name":"layer","type":"int","value":3},{"name":"resource_index","type":"int","value":56},{"name":"u","type":"string","value":"bsc"},{"name":"no","type":"int","value":0},{"name":"zM","type":"int","value":0}],"gid":25,"width":90,"height":60},{"id":115,"x":-2070,"y":120,"visible":true,"properties":[{"name":"layer","type":"int","value":3},{"name":"resource_index","type":"int","value":57},{"name":"u","type":"string","value":"enH0"},{"name":"no","type":"int","value":2},{"name":"zM","type":"int","value":0}],"gid":32,"width":90,"height":37},{"id":116,"x":-1890,"y":180,"visible":true,"properties":[{"name":"layer","type":"int","value":3},{"name":"resource_index","type":"int","value":58},{"name":"u","type":"string","value":"bsc"},{"name":"no","type":"int","value":5},{"name":"zM","type":"int","value":0}],"gid":30,"width":90,"height":60},{"id":117,"x":-1890,"y":120,"visible":true,"properties":[{"name":"layer","type":"int","value":3},{"name":"resource_index","type":"int","value":59},{"name":"u","type":"string","value":"enH0"},{"name":"no","type":"int","value":1},{"name":"zM","type":"int","value":0}],"gid":34,"width":90,"height":37}],"properties":[]},{"id":37,"name":"layer_4_obj","type":"objectgroup","visible":true,"opacity":1,"draworder":"index","offsetx":0,"offsety":0,"parallaxx":1,"parallaxy":1,"objects":[{"id":118,"x":-2086,"y":89,"visible":true,"properties":[{"name":"layer","type":"int","value":4},{"name":"resource_index","type":"int","value":0},{"name":"oS","type":"string","value":"acc11"},{"name":"l0","type":"string","value":"erebTW"},{"name":"l1","type":"string","value":"ship"},{"name":"l2","type":"string","value":"7"},{"name":"z","type":"int","value":9},{"name":"zM","type":"int","value":3},{"name":"f","type":"int","value":0}],"gid":49,"width":280,"height":321}],"properties":[]},{"id":38,"name":"portal","type":"objectgroup","visible":true,"opacity":1,"draworder":"index","offsetx":0,"offsety":0,"parallaxx":1,"parallaxy":1,"objects":[{"id":119,"x":-2054,"y":-435,"visible":true,"properties":[{"name":"x","type":"int","value":-2054},{"name":"y","type":"int","value":-435},{"name":"pn","type":"string","value":"sp"},{"name":"pt","type":"int","value":0},{"name":"tm","type":"int","value":999999999},{"name":"tn","type":"string","value":""}],"point":true},{"id":120,"x":-2597,"y":94,"visible":true,"properties":[{"name":"x","type":"int","value":-2553},{"name":"y","type":"int","value":85},{"name":"pn","type":"string","value":"out00"},{"name":"pt","type":"int","value":2},{"name":"tm","type":"int","value":130000200},{"name":"tn","type":"string","value":"in00"},{"name":"delay","type":"int","value":0},{"name":"script","type":"string","value":""},{"name":"onlyOnce","type":"int","value":0},{"name":"hideTooltip","type":"int","value":0}],"gid":108,"width":89,"height":257}],"properties":[]},{"id":39,"name":"life","type":"objectgroup","visible":true,"opacity":1,"draworder":"index","offsetx":0,"offsety":0,"parallaxx":1,"parallaxy":1,"objects":[{"id":121,"x":-1922,"y":-549,"visible":true,"properties":[{"name":"f","type":"int","value":1},{"name":"x","type":"int","value":-1922},{"name":"y","type":"int","value":-549},{"name":"cy","type":"int","value":-540},{"name":"fh","type":"int","value":32},{"name":"id","type":"int","value":1100003},{"name":"rx0","type":"int","value":-1972},{"name":"rx1","type":"int","value":-1872},{"name":"hide","type":"int","value":0},{"name":"type","type":"string","value":"n"},{"name":"mobTime","type":"int","value":0},{"name":"npc_aseprite","type":"file","value":"../../Npc/1100003.img/animation.aseprite"}],"point":true},{"id":122,"x":-1810,"y":-548,"visible":true,"properties":[{"name":"f","type":"int","value":0},{"name":"x","type":"int","value":-1810},{"name":"y","type":"int","value":-548},{"name":"cy","type":"int","value":-540},{"name":"fh","type":"int","value":32},{"name":"id","type":"int","value":1100004},{"name":"rx0","type":"int","value":-1860},{"name":"rx1","type":"int","value":-1760},{"name":"hide","type":"int","value":0},{"name":"type","type":"string","value":"n"},{"name":"mobTime","type":"int","value":0},{"name":"npc_aseprite","type":"file","value":"../../Npc/1100004.img/animation.aseprite"}],"point":true}],"properties":[]},{"id":40,"name":"foothold","type":"objectgroup","visible":true,"opacity":1,"draworder":"index","offsetx":0,"offsety":0,"parallaxx":1,"parallaxy":1,"objects":[{"id":123,"x":-2020,"y":51,"visible":true,"properties":[{"name":"layer","type":"int","value":1},{"name":"group","type":"int","value":1},{"name":"id","type":"int","value":13},{"name":"fh_layer","type":"int","value":1},{"name":"fh_group","type":"int","value":1},{"name":"fh_id","type":"int","value":13},{"name":"x1","type":"int","value":-2020},{"name":"x2","type":"int","value":-1826},{"name":"y1","type":"int","value":51},{"name":"y2","type":"int","value":50},{"name":"next","type":"int","value":0},{"name":"prev","type":"int","value":0}],"polyline":[{"x":0,"y":0},{"x":194,"y":-1}]},{"id":124,"x":-1976,"y":10,"visible":true,"properties":[{"name":"layer","type":"int","value":1},{"name":"group","type":"int","value":1},{"name":"id","type":"int","value":14},{"name":"fh_layer","type":"int","value":1},{"name":"fh_group","type":"int","value":1},{"name":"fh_id","type":"int","value":14},{"name":"x1","type":"int","value":-1976},{"name":"x2","type":"int","value":-1782},{"name":"y1","type":"int","value":10},{"name":"y2","type":"int","value":9},{"name":"next","type":"int","value":0},{"name":"prev","type":"int","value":0}],"polyline":[{"x":0,"y":0},{"x":194,"y":-1}]},{"id":125,"x":-1944,"y":-30,"visible":true,"properties":[{"name":"layer","type":"int","value":1},{"name":"group","type":"int","value":1},{"name":"id","type":"int","value":15},{"name":"fh_layer","type":"int","value":1},{"name":"fh_group","type":"int","value":1},{"name":"fh_id","type":"int","value":15},{"name":"x1","type":"int","value":-1944},{"name":"x2","type":"int","value":-1750},{"name":"y1","type":"int","value":-30},{"name":"y2","type":"int","value":-31},{"name":"next","type":"int","value":0},{"name":"prev","type":"int","value":0}],"polyline":[{"x":0,"y":0},{"x":194,"y":-1}]},{"id":126,"x":-1905,"y":-66,"visible":true,"properties":[{"name":"layer","type":"int","value":1},{"name":"group","type":"int","value":1},{"name":"id","type":"int","value":16},{"name":"fh_layer","type":"int","value":1},{"name":"fh_group","type":"int","value":1},{"name":"fh_id","type":"int","value":16},{"name":"x1","type":"int","value":-1905},{"name":"x2","type":"int","value":-1721},{"name":"y1","type":"int","value":-66},{"name":"y2","type":"int","value":-67},{"name":"next","type":"int","value":0},{"name":"prev","type":"int","value":0}],"polyline":[{"x":0,"y":0},{"x":184,"y":-1}]},{"id":127,"x":-1879,"y":-105,"visible":true,"properties":[{"name":"layer","type":"int","value":1},{"name":"group","type":"int","value":1},{"name":"id","type":"int","value":17},{"name":"fh_layer","type":"int","value":1},{"name":"fh_group","type":"int","value":1},{"name":"fh_id","type":"int","value":17},{"name":"x1","type":"int","value":-1879},{"name":"x2","type":"int","value":-1707},{"name":"y1","type":"int","value":-105},{"name":"y2","type":"int","value":-106},{"name":"next","type":"int","value":0},{"name":"prev","type":"int","value":0}],"polyline":[{"x":0,"y":0},{"x":172,"y":-1}]},{"id":128,"x":-1850,"y":-143,"visible":true,"properties":[{"name":"layer","type":"int","value":1},{"name":"group","type":"int","value":1},{"name":"id","type":"int","value":18},{"name":"fh_layer","type":"int","value":1},{"name":"fh_group","type":"int","value":1},{"name":"fh_id","type":"int","value":18},{"name":"x1","type":"int","value":-1850},{"name":"x2","type":"int","value":-1689},{"name":"y1","type":"int","value":-143},{"name":"y2","type":"int","value":-144},{"name":"next","type":"int","value":0},{"name":"prev","type":"int","value":0}],"polyline":[{"x":0,"y":0},{"x":161,"y":-1}]},{"id":129,"x":-1832,"y":-181,"visible":true,"properties":[{"name":"layer","type":"int","value":1},{"name":"group","type":"int","value":1},{"name":"id","type":"int","value":19},{"name":"fh_layer","type":"int","value":1},{"name":"fh_group","type":"int","value":1},{"name":"fh_id","type":"int","value":19},{"name":"x1","type":"int","value":-1832},{"name":"x2","type":"int","value":-1677},{"name":"y1","type":"int","value":-181},{"name":"y2","type":"int","value":-182},{"name":"next","type":"int","value":0},{"name":"prev","type":"int","value":0}],"polyline":[{"x":0,"y":0},{"x":155,"y":-1}]},{"id":130,"x":-1816,"y":-223,"visible":true,"properties":[{"name":"layer","type":"int","value":1},{"name":"group","type":"int","value":1},{"name":"id","type":"int","value":20},{"name":"fh_layer","type":"int","value":1},{"name":"fh_group","type":"int","value":1},{"name":"fh_id","type":"int","value":20},{"name":"x1","type":"int","value":-1816},{"name":"x2","type":"int","value":-1669},{"name":"y1","type":"int","value":-223},{"name":"y2","type":"int","value":-224},{"name":"next","type":"int","value":0},{"name":"prev","type":"int","value":0}],"polyline":[{"x":0,"y":0},{"x":147,"y":-1}]},{"id":131,"x":-1803,"y":-261,"visible":true,"properties":[{"name":"layer","type":"int","value":1},{"name":"group","type":"int","value":1},{"name":"id","type":"int","value":21},{"name":"fh_layer","type":"int","value":1},{"name":"fh_group","type":"int","value":1},{"name":"fh_id","type":"int","value":21},{"name":"x1","type":"int","value":-1803},{"name":"x2","type":"int","value":-1667},{"name":"y1","type":"int","value":-261},{"name":"y2","type":"int","value":-262},{"name":"next","type":"int","value":0},{"name":"prev","type":"int","value":0}],"polyline":[{"x":0,"y":0},{"x":136,"y":-1}]},{"id":132,"x":-2189,"y":-312,"visible":true,"properties":[{"name":"layer","type":"int","value":1},{"name":"group","type":"int","value":1},{"name":"id","type":"int","value":22},{"name":"fh_layer","type":"int","value":1},{"name":"fh_group","type":"int","value":1},{"name":"fh_id","type":"int","value":22},{"name":"x1","type":"int","value":-2189},{"name":"x2","type":"int","value":-2034},{"name":"y1","type":"int","value":-312},{"name":"y2","type":"int","value":-313},{"name":"next","type":"int","value":23},{"name":"prev","type":"int","value":0}],"polyline":[{"x":0,"y":0},{"x":155,"y":-1}]},{"id":133,"x":-2034,"y":-313,"visible":true,"properties":[{"name":"layer","type":"int","value":1},{"name":"group","type":"int","value":1},{"name":"id","type":"int","value":23},{"name":"fh_layer","type":"int","value":1},{"name":"fh_group","type":"int","value":1},{"name":"fh_id","type":"int","value":23},{"name":"x1","type":"int","value":-2034},{"name":"x2","type":"int","value":-1944},{"name":"y1","type":"int","value":-313},{"name":"y2","type":"int","value":-313},{"name":"next","type":"int","value":24},{"name":"prev","type":"int","value":22}],"polyline":[{"x":0,"y":0},{"x":90,"y":0}]},{"id":134,"x":-1944,"y":-313,"visible":true,"properties":[{"name":"layer","type":"int","value":1},{"name":"group","type":"int","value":1},{"name":"id","type":"int","value":24},{"name":"fh_layer","type":"int","value":1},{"name":"fh_group","type":"int","value":1},{"name":"fh_id","type":"int","value":24},{"name":"x1","type":"int","value":-1944},{"name":"x2","type":"int","value":-1846},{"name":"y1","type":"int","value":-313},{"name":"y2","type":"int","value":-322},{"name":"next","type":"int","value":25},{"name":"prev","type":"int","value":23}],"polyline":[{"x":0,"y":0},{"x":98,"y":-9}]},{"id":135,"x":-1846,"y":-322,"visible":true,"properties":[{"name":"layer","type":"int","value":1},{"name":"group","type":"int","value":1},{"name":"id","type":"int","value":25},{"name":"fh_layer","type":"int","value":1},{"name":"fh_group","type":"int","value":1},{"name":"fh_id","type":"int","value":25},{"name":"x1","type":"int","value":-1846},{"name":"x2","type":"int","value":-1771},{"name":"y1","type":"int","value":-322},{"name":"y2","type":"int","value":-327},{"name":"next","type":"int","value":26},{"name":"prev","type":"int","value":24}],"polyline":[{"x":0,"y":0},{"x":75,"y":-5}]},{"id":136,"x":-1771,"y":-327,"visible":true,"properties":[{"name":"layer","type":"int","value":1},{"name":"group","type":"int","value":1},{"name":"id","type":"int","value":26},{"name":"fh_layer","type":"int","value":1},{"name":"fh_group","type":"int","value":1},{"name":"fh_id","type":"int","value":26},{"name":"x1","type":"int","value":-1771},{"name":"x2","type":"int","value":-1678},{"name":"y1","type":"int","value":-327},{"name":"y2","type":"int","value":-334},{"name":"next","type":"int","value":27},{"name":"prev","type":"int","value":25}],"polyline":[{"x":0,"y":0},{"x":93,"y":-7}]},{"id":137,"x":-1678,"y":-334,"visible":true,"properties":[{"name":"layer","type":"int","value":1},{"name":"group","type":"int","value":1},{"name":"id","type":"int","value":27},{"name":"fh_layer","type":"int","value":1},{"name":"fh_group","type":"int","value":1},{"name":"fh_id","type":"int","value":27},{"name":"x1","type":"int","value":-1678},{"name":"x2","type":"int","value":-1635},{"name":"y1","type":"int","value":-334},{"name":"y2","type":"int","value":-331},{"name":"next","type":"int","value":28},{"name":"prev","type":"int","value":26}],"polyline":[{"x":0,"y":0},{"x":43,"y":3}]},{"id":138,"x":-1635,"y":-331,"visible":true,"properties":[{"name":"layer","type":"int","value":1},{"name":"group","type":"int","value":1},{"name":"id","type":"int","value":28},{"name":"fh_layer","type":"int","value":1},{"name":"fh_group","type":"int","value":1},{"name":"fh_id","type":"int","value":28},{"name":"x1","type":"int","value":-1635},{"name":"x2","type":"int","value":-1616},{"name":"y1","type":"int","value":-331},{"name":"y2","type":"int","value":-328},{"name":"next","type":"int","value":0},{"name":"prev","type":"int","value":27}],"polyline":[{"x":0,"y":0},{"x":19,"y":3}]},{"id":139,"x":-1961,"y":-381,"visible":true,"properties":[{"name":"layer","type":"int","value":1},{"name":"group","type":"int","value":1},{"name":"id","type":"int","value":29},{"name":"fh_layer","type":"int","value":1},{"name":"fh_group","type":"int","value":1},{"name":"fh_id","type":"int","value":29},{"name":"x1","type":"int","value":-1961},{"name":"x2","type":"int","value":-1852},{"name":"y1","type":"int","value":-381},{"name":"y2","type":"int","value":-392},{"name":"next","type":"int","value":30},{"name":"prev","type":"int","value":0}],"polyline":[{"x":0,"y":0},{"x":109,"y":-11}]},{"id":140,"x":-1852,"y":-392,"visible":true,"properties":[{"name":"layer","type":"int","value":1},{"name":"group","type":"int","value":1},{"name":"id","type":"int","value":30},{"name":"fh_layer","type":"int","value":1},{"name":"fh_group","type":"int","value":1},{"name":"fh_id","type":"int","value":30},{"name":"x1","type":"int","value":-1852},{"name":"x2","type":"int","value":-1707},{"name":"y1","type":"int","value":-392},{"name":"y2","type":"int","value":-397},{"name":"next","type":"int","value":31},{"name":"prev","type":"int","value":29}],"polyline":[{"x":0,"y":0},{"x":145,"y":-5}]},{"id":141,"x":-1707,"y":-397,"visible":true,"properties":[{"name":"layer","type":"int","value":1},{"name":"group","type":"int","value":1},{"name":"id","type":"int","value":31},{"name":"fh_layer","type":"int","value":1},{"name":"fh_group","type":"int","value":1},{"name":"fh_id","type":"int","value":31},{"name":"x1","type":"int","value":-1707},{"name":"x2","type":"int","value":-1617},{"name":"y1","type":"int","value":-397},{"name":"y2","type":"int","value":-399},{"name":"next","type":"int","value":0},{"name":"prev","type":"int","value":30}],"polyline":[{"x":0,"y":0},{"x":90,"y":-2}]},{"id":142,"x":-1948,"y":-540,"visible":true,"properties":[{"name":"layer","type":"int","value":1},{"name":"group","type":"int","value":1},{"name":"id","type":"int","value":32},{"name":"fh_layer","type":"int","value":1},{"name":"fh_group","type":"int","value":1},{"name":"fh_id","type":"int","value":32},{"name":"x1","type":"int","value":-1948},{"name":"x2","type":"int","value":-1763},{"name":"y1","type":"int","value":-540},{"name":"y2","type":"int","value":-540},{"name":"next","type":"int","value":0},{"name":"prev","type":"int","value":0}],"polyline":[{"x":0,"y":0},{"x":185,"y":0}]},{"id":143,"x":-1970,"y":-527,"visible":true,"properties":[{"name":"layer","type":"int","value":1},{"name":"group","type":"int","value":1},{"name":"id","type":"int","value":33},{"name":"fh_layer","type":"int","value":1},{"name":"fh_group","type":"int","value":1},{"name":"fh_id","type":"int","value":33},{"name":"x1","type":"int","value":-1970},{"name":"x2","type":"int","value":-1789},{"name":"y1","type":"int","value":-527},{"name":"y2","type":"int","value":-530},{"name":"next","type":"int","value":34},{"name":"prev","type":"int","value":0}],"polyline":[{"x":0,"y":0},{"x":181,"y":-3}]},{"id":144,"x":-1789,"y":-530,"visible":true,"properties":[{"name":"layer","type":"int","value":1},{"name":"group","type":"int","value":1},{"name":"id","type":"int","value":34},{"name":"fh_layer","type":"int","value":1},{"name":"fh_group","type":"int","value":1},{"name":"fh_id","type":"int","value":34},{"name":"x1","type":"int","value":-1789},{"name":"x2","type":"int","value":-1729},{"name":"y1","type":"int","value":-530},{"name":"y2","type":"int","value":-526},{"name":"next","type":"int","value":0},{"name":"prev","type":"int","value":33}],"polyline":[{"x":0,"y":0},{"x":60,"y":4}]},{"id":145,"x":-2340,"y":88,"visible":true,"properties":[{"name":"layer","type":"int","value":3},{"name":"group","type":"int","value":0},{"name":"id","type":"int","value":1},{"name":"fh_layer","type":"int","value":3},{"name":"fh_group","type":"int","value":0},{"name":"fh_id","type":"int","value":1},{"name":"x1","type":"int","value":-2340},{"name":"x2","type":"int","value":-2250},{"name":"y1","type":"int","value":88},{"name":"y2","type":"int","value":88},{"name":"next","type":"int","value":5},{"name":"prev","type":"int","value":4}],"polyline":[{"x":0,"y":0},{"x":90,"y":0}]},{"id":146,"x":-2520,"y":88,"visible":true,"properties":[{"name":"layer","type":"int","value":3},{"name":"group","type":"int","value":0},{"name":"id","type":"int","value":2},{"name":"fh_layer","type":"int","value":3},{"name":"fh_group","type":"int","value":0},{"name":"fh_id","type":"int","value":2},{"name":"x1","type":"int","value":-2520},{"name":"x2","type":"int","value":-2430},{"name":"y1","type":"int","value":88},{"name":"y2","type":"int","value":88},{"name":"next","type":"int","value":4},{"name":"prev","type":"int","value":3}],"polyline":[{"x":0,"y":0},{"x":90,"y":0}]},{"id":147,"x":-2610,"y":88,"visible":true,"properties":[{"name":"layer","type":"int","value":3},{"name":"group","type":"int","value":0},{"name":"id","type":"int","value":3},{"name":"fh_layer","type":"int","value":3},{"name":"fh_group","type":"int","value":0},{"name":"fh_id","type":"int","value":3},{"name":"x1","type":"int","value":-2610},{"name":"x2","type":"int","value":-2520},{"name":"y1","type":"int","value":88},{"name":"y2","type":"int","value":88},{"name":"next","type":"int","value":2},{"name":"prev","type":"int","value":6}],"polyline":[{"x":0,"y":0},{"x":90,"y":0}]},{"id":148,"x":-2430,"y":88,"visible":true,"properties":[{"name":"layer","type":"int","value":3},{"name":"group","type":"int","value":0},{"name":"id","type":"int","value":4},{"name":"fh_layer","type":"int","value":3},{"name":"fh_group","type":"int","value":0},{"name":"fh_id","type":"int","value":4},{"name":"x1","type":"int","value":-2430},{"name":"x2","type":"int","value":-2340},{"name":"y1","type":"int","value":88},{"name":"y2","type":"int","value":88},{"name":"next","type":"int","value":1},{"name":"prev","type":"int","value":2}],"polyline":[{"x":0,"y":0},{"x":90,"y":0}]},{"id":149,"x":-2250,"y":88,"visible":true,"properties":[{"name":"layer","type":"int","value":3},{"name":"group","type":"int","value":0},{"name":"id","type":"int","value":5},{"name":"fh_layer","type":"int","value":3},{"name":"fh_group","type":"int","value":0},{"name":"fh_id","type":"int","value":5},{"name":"x1","type":"int","value":-2250},{"name":"x2","type":"int","value":-2160},{"name":"y1","type":"int","value":88},{"name":"y2","type":"int","value":88},{"name":"next","type":"int","value":8},{"name":"prev","type":"int","value":1}],"polyline":[{"x":0,"y":0},{"x":90,"y":0}]},{"id":150,"x":-2700,"y":88,"visible":true,"properties":[{"name":"layer","type":"int","value":3},{"name":"group","type":"int","value":0},{"name":"id","type":"int","value":6},{"name":"fh_layer","type":"int","value":3},{"name":"fh_group","type":"int","value":0},{"name":"fh_id","type":"int","value":6},{"name":"x1","type":"int","value":-2700},{"name":"x2","type":"int","value":-2610},{"name":"y1","type":"int","value":88},{"name":"y2","type":"int","value":88},{"name":"next","type":"int","value":3},{"name":"prev","type":"int","value":0}],"polyline":[{"x":0,"y":0},{"x":90,"y":0}]},{"id":151,"x":-1980,"y":88,"visible":true,"properties":[{"name":"layer","type":"int","value":3},{"name":"group","type":"int","value":0},{"name":"id","type":"int","value":7},{"name":"fh_layer","type":"int","value":3},{"name":"fh_group","type":"int","value":0},{"name":"fh_id","type":"int","value":7},{"name":"x1","type":"int","value":-1980},{"name":"x2","type":"int","value":-1890},{"name":"y1","type":"int","value":88},{"name":"y2","type":"int","value":88},{"name":"next","type":"int","value":12},{"name":"prev","type":"int","value":11}],"polyline":[{"x":0,"y":0},{"x":90,"y":0}]},{"id":152,"x":-2160,"y":88,"visible":true,"properties":[{"name":"layer","type":"int","value":3},{"name":"group","type":"int","value":0},{"name":"id","type":"int","value":8},{"name":"fh_layer","type":"int","value":3},{"name":"fh_group","type":"int","value":0},{"name":"fh_id","type":"int","value":8},{"name":"x1","type":"int","value":-2160},{"name":"x2","type":"int","value":-2070},{"name":"y1","type":"int","value":88},{"name":"y2","type":"int","value":88},{"name":"next","type":"int","value":11},{"name":"prev","type":"int","value":5}],"polyline":[{"x":0,"y":0},{"x":90,"y":0}]},{"id":153,"x":-1710,"y":88,"visible":true,"properties":[{"name":"layer","type":"int","value":3},{"name":"group","type":"int","value":0},{"name":"id","type":"int","value":9},{"name":"fh_layer","type":"int","value":3},{"name":"fh_group","type":"int","value":0},{"name":"fh_id","type":"int","value":9},{"name":"x1","type":"int","value":-1710},{"name":"x2","type":"int","value":-1620},{"name":"y1","type":"int","value":88},{"name":"y2","type":"int","value":88},{"name":"next","type":"int","value":0},{"name":"prev","type":"int","value":10}],"polyline":[{"x":0,"y":0},{"x":90,"y":0}]},{"id":154,"x":-1800,"y":88,"visible":true,"properties":[{"name":"layer","type":"int","value":3},{"name":"group","type":"int","value":0},{"name":"id","type":"int","value":10},{"name":"fh_layer","type":"int","value":3},{"name":"fh_group","type":"int","value":0},{"name":"fh_id","type":"int","value":10},{"name":"x1","type":"int","value":-1800},{"name":"x2","type":"int","value":-1710},{"name":"y1","type":"int","value":88},{"name":"y2","type":"int","value":88},{"name":"next","type":"int","value":9},{"name":"prev","type":"int","value":12}],"polyline":[{"x":0,"y":0},{"x":90,"y":0}]},{"id":155,"x":-2070,"y":88,"visible":true,"properties":[{"name":"layer","type":"int","value":3},{"name":"group","type":"int","value":0},{"name":"id","type":"int","value":11},{"name":"fh_layer","type":"int","value":3},{"name":"fh_group","type":"int","value":0},{"name":"fh_id","type":"int","value":11},{"name":"x1","type":"int","value":-2070},{"name":"x2","type":"int","value":-1980},{"name":"y1","type":"int","value":88},{"name":"y2","type":"int","value":88},{"name":"next","type":"int","value":7},{"name":"prev","type":"int","value":8}],"polyline":[{"x":0,"y":0},{"x":90,"y":0}]},{"id":156,"x":-1890,"y":88,"visible":true,"properties":[{"name":"layer","type":"int","value":3},{"name":"group","type":"int","value":0},{"name":"id","type":"int","value":12},{"name":"fh_layer","type":"int","value":3},{"name":"fh_group","type":"int","value":0},{"name":"fh_id","type":"int","value":12},{"name":"x1","type":"int","value":-1890},{"name":"x2","type":"int","value":-1800},{"name":"y1","type":"int","value":88},{"name":"y2","type":"int","value":88},{"name":"next","type":"int","value":10},{"name":"prev","type":"int","value":7}],"polyline":[{"x":0,"y":0},{"x":90,"y":0}]}],"properties":[]},{"id":41,"name":"ladderRope","type":"objectgroup","visible":true,"opacity":1,"draworder":"index","offsetx":0,"offsety":0,"parallaxx":1,"parallaxy":1,"objects":[{"id":157,"x":-1912,"y":-525,"visible":true,"properties":[{"name":"ladder_id","type":"int","value":1},{"name":"l","type":"int","value":0},{"name":"x","type":"int","value":-1912},{"name":"uf","type":"int","value":1},{"name":"y1","type":"int","value":-525},{"name":"y2","type":"int","value":-411},{"name":"page","type":"int","value":3}],"polyline":[{"x":0,"y":0},{"x":0,"y":114}]}],"properties":[]},{"id":42,"name":"miniMap","type":"objectgroup","visible":true,"opacity":1,"draworder":"index","offsetx":0,"offsety":0,"parallaxx":1,"parallaxy":1,"objects":[{"id":158,"x":2751,"y":1009,"visible":true,"properties":[{"name":"mag","type":"int","value":4},{"name":"centerX","type":"int","value":2751},{"name":"centerY","type":"int","value":1009},{"name":"canvas_path","type":"string","value":"../images/30674.png"},{"name":"canvas_width","type":"int","value":75},{"name":"canvas_height","type":"int","value":86},{"name":"canvas_origin_x","type":"int","value":0},{"name":"canvas_origin_y","type":"int","value":0}],"point":true}],"properties":[]}],"tilesets":[{"firstgid":1,"source":"../tilesets/bg_ereb.tsj"},{"firstgid":23,"source":"../tilesets/tile_fallenLeaves.tsj"},{"firstgid":42,"source":"../tilesets/obj_acc11_erebTW_ship.tsj"},{"firstgid":50,"source":"../tilesets/bg_Back_ereb.img_ani_0.tsj"},{"firstgid":52,"source":"../tilesets/bg_Back_ereb.img_ani_1.tsj"},{"firstgid":54,"source":"../tilesets/bg_Back_ereb.img_ani_2.tsj"},{"firstgid":56,"source":"../tilesets/bg_Back_ereb.img_ani_3.tsj"},{"firstgid":58,"source":"../tilesets/bg_Back_ereb.img_ani_4.tsj"},{"firstgid":60,"source":"../tilesets/bg_Back_ereb.img_ani_5.tsj"},{"firstgid":62,"source":"../tilesets/bg_Back_ereb.img_ani_6.tsj"},{"firstgid":78,"source":"../tilesets/obj_acc11_erebTW_nature.tsj"},{"firstgid":108,"source":"../tilesets/portal_MapHelper.img_portal_game_pv.tsj"}],"properties":[{"name":"bgm","type":"string","value":"Bgm18/QueensGarden"},{"name":"fly","type":"int","value":0},{"name":"swim","type":"int","value":0},{"name":"town","type":"int","value":1},{"name":"VRTop","type":"int","value":-859},{"name":"cloud","type":"int","value":0},{"name":"VRLeft","type":"int","value":-2699},{"name":"VRRight","type":"int","value":-1624},{"name":"mapMark","type":"string","value":"Ereb"},{"name":"mobRate","type":"float","value":1},{"name":"version","type":"int","value":10},{"name":"VRBottom","type":"int","value":265},{"name":"returnMap","type":"int","value":130000000},{"name":"fieldLimit","type":"int","value":0},{"name":"hideMinimap","type":"int","value":0},{"name":"onUserEnter","type":"string","value":""},{"name":"forcedReturn","type":"int","value":999999999},{"name":"onFirstUserEnter","type":"string","value":""}]}