{"type":"map","orientation":"orthogonal","renderorder":"right-down","infinite":false,"tilewidth":1,"tileheight":1,"width":1438,"height":1665,"parallaxoriginx":-400,"parallaxoriginy":80,"nextlayerid":41,"nextobjectid":187,"layers":[{"id":1,"name":"background_back_0","type":"imagelayer","visible":true,"opacity":1,"image":"../images/27592.png","imagewidth":30,"imageheight":30,"offsetx":-15,"offsety":65,"repeatx":true,"repeaty":true,"parallaxx":0,"parallaxy":0,"properties":[{"name":"a","type":"int","value":255},{"name":"f","type":"int","value":0},{"name":"x","type":"int","value":0},{"name":"y","type":"int","value":0},{"name":"bS","type":"string","value":"ereb"},{"name":"cx","type":"int","value":0},{"name":"cy","type":"int","value":0},{"name":"no","type":"int","value":0},{"name":"rx","type":"int","value":0},{"name":"ry","type":"int","value":0},{"name":"ani","type":"int","value":0},{"name":"type","type":"int","value":3},{"name":"front","type":"int","value":0}]},{"id":2,"name":"background_back_1","type":"imagelayer","visible":true,"opacity":1,"image":"../images/27593.png","imagewidth":10,"imageheight":537,"offsetx":92,"offsety":-641,"repeatx":true,"repeaty":false,"parallaxx":0,"parallaxy":1,"properties":[{"name":"a","type":"int","value":255},{"name":"f","type":"int","value":0},{"name":"x","type":"int","value":97},{"name":"y","type":"int","value":-453},{"name":"bS","type":"string","value":"ereb"},{"name":"cx","type":"int","value":0},{"name":"cy","type":"int","value":0},{"name":"no","type":"int","value":1},{"name":"rx","type":"int","value":0},{"name":"ry","type":"int","value":-100},{"name":"ani","type":"int","value":0},{"name":"type","type":"int","value":1},{"name":"front","type":"int","value":0}]},{"id":3,"name":"background_back_2","type":"imagelayer","visible":true,"opacity":1,"image":"../images/27594.png","imagewidth":331,"imageheight":175,"offsetx":-433,"offsety":-485,"repeatx":true,"repeaty":false,"parallaxx":0.03,"parallaxy":0.5,"properties":[{"name":"a","type":"int","value":255},{"name":"f","type":"int","value":0},{"name":"x","type":"int","value":-268},{"name":"y","type":"int","value":-478},{"name":"bS","type":"string","value":"ereb"},{"name":"cx","type":"int","value":1200},{"name":"cy","type":"int","value":0},{"name":"no","type":"int","value":2},{"name":"rx","type":"int","value":-3},{"name":"ry","type":"int","value":-50},{"name":"ani","type":"int","value":0},{"name":"type","type":"int","value":4},{"name":"front","type":"int","value":0}]},{"id":4,"name":"background_back_3","type":"imagelayer","visible":true,"opacity":1,"image":"../images/27595.png","imagewidth":253,"imageheight":128,"offsetx":-389,"offsety":-511,"repeatx":true,"repeaty":false,"parallaxx":0.05,"parallaxy":0.5,"properties":[{"name":"a","type":"int","value":255},{"name":"f","type":"int","value":0},{"name":"x","type":"int","value":-386},{"name":"y","type":"int","value":-495},{"name":"bS","type":"string","value":"ereb"},{"name":"cx","type":"int","value":1200},{"name":"cy","type":"int","value":0},{"name":"no","type":"int","value":3},{"name":"rx","type":"int","value":-5},{"name":"ry","type":"int","value":-50},{"name":"ani","type":"int","value":0},{"name":"type","type":"int","value":4},{"name":"front","type":"int","value":0}]},{"id":5,"name":"background_back_4","type":"imagelayer","visible":true,"opacity":1,"image":"../images/27596.png","imagewidth":333,"imageheight":141,"offsetx":84,"offsety":-394,"repeatx":true,"repeaty":false,"parallaxx":0.03,"parallaxy":0.5,"properties":[{"name":"a","type":"int","value":255},{"name":"f","type":"int","value":0},{"name":"x","type":"int","value":250},{"name":"y","type":"int","value":-404},{"name":"bS","type":"string","value":"ereb"},{"name":"cx","type":"int","value":1200},{"name":"cy","type":"int","value":0},{"name":"no","type":"int","value":4},{"name":"rx","type":"int","value":-3},{"name":"ry","type":"int","value":-50},{"name":"ani","type":"int","value":0},{"name":"type","type":"int","value":4},{"name":"front","type":"int","value":0}]},{"id":6,"name":"background_back_5","type":"imagelayer","visible":true,"opacity":1,"image":"../images/27597.png","imagewidth":281,"imageheight":102,"offsetx":230,"offsety":-325,"repeatx":true,"repeaty":false,"parallaxx":0.04,"parallaxy":0.5,"properties":[{"name":"a","type":"int","value":255},{"name":"f","type":"int","value":0},{"name":"x","type":"int","value":370},{"name":"y","type":"int","value":-354},{"name":"bS","type":"string","value":"ereb"},{"name":"cx","type":"int","value":1200},{"name":"cy","type":"int","value":0},{"name":"no","type":"int","value":5},{"name":"rx","type":"int","value":-4},{"name":"ry","type":"int","value":-50},{"name":"ani","type":"int","value":0},{"name":"type","type":"int","value":4},{"name":"front","type":"int","value":0}]},{"id":7,"name":"background_back_6","type":"imagelayer","visible":true,"opacity":1,"image":"../images/27598.png","imagewidth":176,"imageheight":116,"offsetx":-16,"offsety":-277,"repeatx":true,"repeaty":false,"parallaxx":0.04,"parallaxy":0.5,"properties":[{"name":"a","type":"int","value":255},{"name":"f","type":"int","value":0},{"name":"x","type":"int","value":23},{"name":"y","type":"int","value":-348},{"name":"bS","type":"string","value":"ereb"},{"name":"cx","type":"int","value":1200},{"name":"cy","type":"int","value":0},{"name":"no","type":"int","value":6},{"name":"rx","type":"int","value":-4},{"name":"ry","type":"int","value":-50},{"name":"ani","type":"int","value":0},{"name":"type","type":"int","value":4},{"name":"front","type":"int","value":0}]},{"id":8,"name":"background_back_7","type":"imagelayer","visible":true,"opacity":1,"image":"../images/27599.png","imagewidth":397,"imageheight":182,"offsetx":-565,"offsety":-401,"repeatx":true,"repeaty":false,"parallaxx":0.03,"parallaxy":0.5,"properties":[{"name":"a","type":"int","value":255},{"name":"f","type":"int","value":0},{"name":"x","type":"int","value":-367},{"name":"y","type":"int","value":-390},{"name":"bS","type":"string","value":"ereb"},{"name":"cx","type":"int","value":1200},{"name":"cy","type":"int","value":0},{"name":"no","type":"int","value":7},{"name":"rx","type":"int","value":-3},{"name":"ry","type":"int","value":-50},{"name":"ani","type":"int","value":0},{"name":"type","type":"int","value":4},{"name":"front","type":"int","value":0}]},{"id":9,"name":"background_back_8","type":"imagelayer","visible":true,"opacity":1,"image":"../images/27600.png","imagewidth":95,"imageheight":63,"offsetx":-320,"offsety":-265,"repeatx":true,"repeaty":false,"parallaxx":0.02,"parallaxy":0.5,"properties":[{"name":"a","type":"int","value":255},{"name":"f","type":"int","value":0},{"name":"x","type":"int","value":-278},{"name":"y","type":"int","value":-347},{"name":"bS","type":"string","value":"ereb"},{"name":"cx","type":"int","value":1200},{"name":"cy","type":"int","value":0},{"name":"no","type":"int","value":8},{"name":"rx","type":"int","value":-2},{"name":"ry","type":"int","value":-50},{"name":"ani","type":"int","value":0},{"name":"type","type":"int","value":4},{"name":"front","type":"int","value":0}]},{"id":10,"name":"background_back_9","type":"imagelayer","visible":true,"opacity":1,"image":"../images/27601.png","imagewidth":400,"imageheight":235,"offsetx":-59,"offsety":-310,"repeatx":true,"repeaty":false,"parallaxx":0.2,"parallaxy":0.6,"properties":[{"name":"a","type":"int","value":255},{"name":"f","type":"int","value":0},{"name":"x","type":"int","value":141},{"name":"y","type":"int","value":-273},{"name":"bS","type":"string","value":"ereb"},{"name":"cx","type":"int","value":0},{"name":"cy","type":"int","value":0},{"name":"no","type":"int","value":9},{"name":"rx","type":"int","value":-20},{"name":"ry","type":"int","value":-60},{"name":"ani","type":"int","value":0},{"name":"type","type":"int","value":1},{"name":"front","type":"int","value":0}]},{"id":11,"name":"background_back_10","type":"imagelayer","visible":true,"opacity":1,"image":"../images/27602.png","imagewidth":800,"imageheight":651,"offsetx":-1593,"offsety":-469,"repeatx":false,"repeaty":false,"parallaxx":0.3,"parallaxy":0.7,"properties":[{"name":"a","type":"int","value":255},{"name":"f","type":"int","value":0},{"name":"x","type":"int","value":-1193},{"name":"y","type":"int","value":-224},{"name":"bS","type":"string","value":"ereb"},{"name":"cx","type":"int","value":0},{"name":"cy","type":"int","value":0},{"name":"no","type":"int","value":10},{"name":"rx","type":"int","value":-30},{"name":"ry","type":"int","value":-70},{"name":"ani","type":"int","value":0},{"name":"type","type":"int","value":0},{"name":"front","type":"int","value":0}]},{"id":12,"name":"background_back_11","type":"imagelayer","visible":true,"opacity":1,"image":"../images/27603.png","imagewidth":800,"imageheight":441,"offsetx":-793,"offsety":-258,"repeatx":false,"repeaty":false,"parallaxx":0.3,"parallaxy":0.7,"properties":[{"name":"a","type":"int","value":255},{"name":"f","type":"int","value":0},{"name":"x","type":"int","value":-393},{"name":"y","type":"int","value":-118},{"name":"bS","type":"string","value":"ereb"},{"name":"cx","type":"int","value":0},{"name":"cy","type":"int","value":0},{"name":"no","type":"int","value":11},{"name":"rx","type":"int","value":-30},{"name":"ry","type":"int","value":-70},{"name":"ani","type":"int","value":0},{"name":"type","type":"int","value":0},{"name":"front","type":"int","value":0}]},{"id":13,"name":"background_back_12","type":"imagelayer","visible":true,"opacity":1,"image":"../images/27604.png","imagewidth":800,"imageheight":425,"offsetx":7,"offsety":-242,"repeatx":false,"repeaty":false,"parallaxx":0.3,"parallaxy":0.7,"properties":[{"name":"a","type":"int","value":255},{"name":"f","type":"int","value":0},{"name":"x","type":"int","value":407},{"name":"y","type":"int","value":-110},{"name":"bS","type":"string","value":"ereb"},{"name":"cx","type":"int","value":0},{"name":"cy","type":"int","value":0},{"name":"no","type":"int","value":12},{"name":"rx","type":"int","value":-30},{"name":"ry","type":"int","value":-70},{"name":"ani","type":"int","value":0},{"name":"type","type":"int","value":0},{"name":"front","type":"int","value":0}]},{"id":14,"name":"background_back_13","type":"imagelayer","visible":true,"opacity":1,"image":"../images/27605.png","imagewidth":800,"imageheight":444,"offsetx":807,"offsety":-261,"repeatx":false,"repeaty":false,"parallaxx":0.3,"parallaxy":0.7,"properties":[{"name":"a","type":"int","value":255},{"name":"f","type":"int","value":0},{"name":"x","type":"int","value":1207},{"name":"y","type":"int","value":-119},{"name":"bS","type":"string","value":"ereb"},{"name":"cx","type":"int","value":0},{"name":"cy","type":"int","value":0},{"name":"no","type":"int","value":13},{"name":"rx","type":"int","value":-30},{"name":"ry","type":"int","value":-70},{"name":"ani","type":"int","value":0},{"name":"type","type":"int","value":0},{"name":"front","type":"int","value":0}]},{"id":15,"name":"background_back_14","type":"imagelayer","visible":true,"opacity":1,"image":"../images/27606.png","imagewidth":800,"imageheight":257,"offsetx":-1549,"offsety":-95,"repeatx":false,"repeaty":false,"parallaxx":0.5,"parallaxy":0.8,"properties":[{"name":"a","type":"int","value":255},{"name":"f","type":"int","value":0},{"name":"x","type":"int","value":-1149},{"name":"y","type":"int","value":-47},{"name":"bS","type":"string","value":"ereb"},{"name":"cx","type":"int","value":0},{"name":"cy","type":"int","value":0},{"name":"no","type":"int","value":14},{"name":"rx","type":"int","value":-50},{"name":"ry","type":"int","value":-80},{"name":"ani","type":"int","value":0},{"name":"type","type":"int","value":0},{"name":"front","type":"int","value":0}]},{"id":16,"name":"background_back_15","type":"imagelayer","visible":true,"opacity":1,"image":"../images/27607.png","imagewidth":800,"imageheight":278,"offsetx":-749,"offsety":-116,"repeatx":false,"repeaty":false,"parallaxx":0.5,"parallaxy":0.8,"properties":[{"name":"a","type":"int","value":255},{"name":"f","type":"int","value":0},{"name":"x","type":"int","value":-349},{"name":"y","type":"int","value":-57},{"name":"bS","type":"string","value":"ereb"},{"name":"cx","type":"int","value":0},{"name":"cy","type":"int","value":0},{"name":"no","type":"int","value":15},{"name":"rx","type":"int","value":-50},{"name":"ry","type":"int","value":-80},{"name":"ani","type":"int","value":0},{"name":"type","type":"int","value":0},{"name":"front","type":"int","value":0}]},{"id":17,"name":"background_back_16","type":"imagelayer","visible":true,"opacity":1,"image":"../images/27608.png","imagewidth":800,"imageheight":242,"offsetx":51,"offsety":-80,"repeatx":false,"repeaty":false,"parallaxx":0.5,"parallaxy":0.8,"properties":[{"name":"a","type":"int","value":255},{"name":"f","type":"int","value":0},{"name":"x","type":"int","value":451},{"name":"y","type":"int","value":-39},{"name":"bS","type":"string","value":"ereb"},{"name":"cx","type":"int","value":0},{"name":"cy","type":"int","value":0},{"name":"no","type":"int","value":16},{"name":"rx","type":"int","value":-50},{"name":"ry","type":"int","value":-80},{"name":"ani","type":"int","value":0},{"name":"type","type":"int","value":0},{"name":"front","type":"int","value":0}]},{"id":18,"name":"background_back_17","type":"imagelayer","visible":true,"opacity":1,"image":"../images/27609.png","imagewidth":800,"imageheight":217,"offsetx":851,"offsety":-54,"repeatx":false,"repeaty":false,"parallaxx":0.5,"parallaxy":0.8,"properties":[{"name":"a","type":"int","value":255},{"name":"f","type":"int","value":0},{"name":"x","type":"int","value":1251},{"name":"y","type":"int","value":-26},{"name":"bS","type":"string","value":"ereb"},{"name":"cx","type":"int","value":0},{"name":"cy","type":"int","value":0},{"name":"no","type":"int","value":17},{"name":"rx","type":"int","value":-50},{"name":"ry","type":"int","value":-80},{"name":"ani","type":"int","value":0},{"name":"type","type":"int","value":0},{"name":"front","type":"int","value":0}]},{"id":19,"name":"background_back_18","type":"objectgroup","visible":true,"opacity":1,"draworder":"index","offsetx":0,"offsety":0,"parallaxx":0.5,"parallaxy":0.9,"objects":[{"id":8,"x":-348,"y":-132,"visible":true,"properties":[],"gid":97,"width":277,"height":208}],"properties":[{"name":"a","type":"int","value":255},{"name":"f","type":"int","value":0},{"name":"x","type":"int","value":-326},{"name":"y","type":"int","value":-216},{"name":"bS","type":"string","value":"ereb"},{"name":"cx","type":"int","value":0},{"name":"cy","type":"int","value":0},{"name":"no","type":"int","value":6},{"name":"rx","type":"int","value":-50},{"name":"ry","type":"int","value":-90},{"name":"ani","type":"int","value":1},{"name":"type","type":"int","value":0},{"name":"front","type":"int","value":0}]},{"id":20,"name":"background_back_19","type":"objectgroup","visible":true,"opacity":1,"draworder":"index","offsetx":0,"offsety":0,"parallaxx":0.5,"parallaxy":0.9,"objects":[{"id":9,"x":-1167,"y":-137,"visible":true,"properties":[],"gid":97,"width":277,"height":208}],"properties":[{"name":"a","type":"int","value":255},{"name":"f","type":"int","value":0},{"name":"x","type":"int","value":-1145},{"name":"y","type":"int","value":-221},{"name":"bS","type":"string","value":"ereb"},{"name":"cx","type":"int","value":0},{"name":"cy","type":"int","value":0},{"name":"no","type":"int","value":6},{"name":"rx","type":"int","value":-50},{"name":"ry","type":"int","value":-90},{"name":"ani","type":"int","value":1},{"name":"type","type":"int","value":0},{"name":"front","type":"int","value":0}]},{"id":21,"name":"background_back_20","type":"objectgroup","visible":true,"opacity":1,"draworder":"index","offsetx":0,"offsety":0,"parallaxx":0.6,"parallaxy":0.9,"objects":[{"id":10,"x":-2168,"y":-129,"visible":true,"properties":[],"gid":97,"width":277,"height":208}],"properties":[{"name":"a","type":"int","value":255},{"name":"f","type":"int","value":0},{"name":"x","type":"int","value":-2146},{"name":"y","type":"int","value":-213},{"name":"bS","type":"string","value":"ereb"},{"name":"cx","type":"int","value":0},{"name":"cy","type":"int","value":0},{"name":"no","type":"int","value":6},{"name":"rx","type":"int","value":-60},{"name":"ry","type":"int","value":-90},{"name":"ani","type":"int","value":1},{"name":"type","type":"int","value":0},{"name":"front","type":"int","value":0}]},{"id":22,"name":"background_back_21","type":"objectgroup","visible":true,"opacity":1,"draworder":"index","offsetx":0,"offsety":0,"parallaxx":0.6,"parallaxy":0.9,"objects":[{"id":11,"x":1026,"y":-112,"visible":true,"properties":[],"gid":97,"width":277,"height":208}],"properties":[{"name":"a","type":"int","value":255},{"name":"f","type":"int","value":0},{"name":"x","type":"int","value":1048},{"name":"y","type":"int","value":-196},{"name":"bS","type":"string","value":"ereb"},{"name":"cx","type":"int","value":0},{"name":"cy","type":"int","value":0},{"name":"no","type":"int","value":6},{"name":"rx","type":"int","value":-60},{"name":"ry","type":"int","value":-90},{"name":"ani","type":"int","value":1},{"name":"type","type":"int","value":0},{"name":"front","type":"int","value":0}]},{"id":23,"name":"background_back_22","type":"imagelayer","visible":true,"opacity":1,"image":"../images/27610.png","imagewidth":800,"imageheight":515,"offsetx":-1585,"offsety":-335,"repeatx":true,"repeaty":false,"parallaxx":0.6,"parallaxy":0.95,"properties":[{"name":"a","type":"int","value":255},{"name":"f","type":"int","value":0},{"name":"x","type":"int","value":-1185},{"name":"y","type":"int","value":-158},{"name":"bS","type":"string","value":"ereb"},{"name":"cx","type":"int","value":3200},{"name":"cy","type":"int","value":0},{"name":"no","type":"int","value":18},{"name":"rx","type":"int","value":-60},{"name":"ry","type":"int","value":-95},{"name":"ani","type":"int","value":0},{"name":"type","type":"int","value":1},{"name":"front","type":"int","value":0}]},{"id":24,"name":"background_back_23","type":"imagelayer","visible":true,"opacity":1,"image":"../images/27611.png","imagewidth":800,"imageheight":515,"offsetx":-785,"offsety":-335,"repeatx":true,"repeaty":false,"parallaxx":0.6,"parallaxy":0.95,"properties":[{"name":"a","type":"int","value":255},{"name":"f","type":"int","value":0},{"name":"x","type":"int","value":-385},{"name":"y","type":"int","value":-158},{"name":"bS","type":"string","value":"ereb"},{"name":"cx","type":"int","value":3200},{"name":"cy","type":"int","value":0},{"name":"no","type":"int","value":19},{"name":"rx","type":"int","value":-60},{"name":"ry","type":"int","value":-95},{"name":"ani","type":"int","value":0},{"name":"type","type":"int","value":1},{"name":"front","type":"int","value":0}]},{"id":25,"name":"background_back_24","type":"imagelayer","visible":true,"opacity":1,"image":"../images/27612.png","imagewidth":800,"imageheight":529,"offsetx":15,"offsety":-349,"repeatx":true,"repeaty":false,"parallaxx":0.6,"parallaxy":0.95,"properties":[{"name":"a","type":"int","value":255},{"name":"f","type":"int","value":0},{"name":"x","type":"int","value":415},{"name":"y","type":"int","value":-165},{"name":"bS","type":"string","value":"ereb"},{"name":"cx","type":"int","value":3200},{"name":"cy","type":"int","value":0},{"name":"no","type":"int","value":20},{"name":"rx","type":"int","value":-60},{"name":"ry","type":"int","value":-95},{"name":"ani","type":"int","value":0},{"name":"type","type":"int","value":1},{"name":"front","type":"int","value":0}]},{"id":26,"name":"background_back_25","type":"imagelayer","visible":true,"opacity":1,"image":"../images/27613.png","imagewidth":800,"imageheight":515,"offsetx":815,"offsety":-335,"repeatx":true,"repeaty":false,"parallaxx":0.6,"parallaxy":0.95,"properties":[{"name":"a","type":"int","value":255},{"name":"f","type":"int","value":0},{"name":"x","type":"int","value":1215},{"name":"y","type":"int","value":-158},{"name":"bS","type":"string","value":"ereb"},{"name":"cx","type":"int","value":3200},{"name":"cy","type":"int","value":0},{"name":"no","type":"int","value":21},{"name":"rx","type":"int","value":-60},{"name":"ry","type":"int","value":-95},{"name":"ani","type":"int","value":0},{"name":"type","type":"int","value":1},{"name":"front","type":"int","value":0}]},{"id":27,"name":"background_back_26","type":"objectgroup","visible":true,"opacity":1,"draworder":"index","offsetx":0,"offsety":0,"parallaxx":0.6,"parallaxy":0.2,"objects":[{"id":12,"x":-2149,"y":281,"visible":true,"properties":[],"gid":85,"width":516,"height":723},{"id":13,"x":-1633,"y":281,"visible":true,"properties":[],"gid":85,"width":516,"height":723},{"id":14,"x":-1117,"y":281,"visible":true,"properties":[],"gid":85,"width":516,"height":723},{"id":15,"x":-601,"y":281,"visible":true,"properties":[],"gid":85,"width":516,"height":723},{"id":16,"x":-85,"y":281,"visible":true,"properties":[],"gid":85,"width":516,"height":723},{"id":17,"x":431,"y":281,"visible":true,"properties":[],"gid":85,"width":516,"height":723}],"properties":[{"name":"a","type":"int","value":255},{"name":"f","type":"int","value":0},{"name":"x","type":"int","value":173},{"name":"y","type":"int","value":-161},{"name":"bS","type":"string","value":"ereb"},{"name":"cx","type":"int","value":3200},{"name":"cy","type":"int","value":0},{"name":"no","type":"int","value":0},{"name":"rx","type":"int","value":-60},{"name":"ry","type":"int","value":-20},{"name":"ani","type":"int","value":1},{"name":"type","type":"int","value":1},{"name":"front","type":"int","value":0}]},{"id":28,"name":"background_back_27","type":"objectgroup","visible":true,"opacity":1,"draworder":"index","offsetx":0,"offsety":0,"parallaxx":0.6,"parallaxy":0.2,"objects":[{"id":18,"x":-1995,"y":182,"visible":true,"properties":[],"gid":87,"width":529,"height":659},{"id":19,"x":-1466,"y":182,"visible":true,"properties":[],"gid":87,"width":529,"height":659},{"id":20,"x":-937,"y":182,"visible":true,"properties":[],"gid":87,"width":529,"height":659},{"id":21,"x":-408,"y":182,"visible":true,"properties":[],"gid":87,"width":529,"height":659},{"id":22,"x":121,"y":182,"visible":true,"properties":[],"gid":87,"width":529,"height":659},{"id":23,"x":650,"y":182,"visible":true,"properties":[],"gid":87,"width":529,"height":659}],"properties":[{"name":"a","type":"int","value":255},{"name":"f","type":"int","value":0},{"name":"x","type":"int","value":-144},{"name":"y","type":"int","value":-228},{"name":"bS","type":"string","value":"ereb"},{"name":"cx","type":"int","value":3200},{"name":"cy","type":"int","value":0},{"name":"no","type":"int","value":1},{"name":"rx","type":"int","value":-60},{"name":"ry","type":"int","value":-20},{"name":"ani","type":"int","value":1},{"name":"type","type":"int","value":1},{"name":"front","type":"int","value":0}]},{"id":29,"name":"background_back_28","type":"objectgroup","visible":true,"opacity":1,"draworder":"index","offsetx":0,"offsety":0,"parallaxx":0.6,"parallaxy":0.2,"objects":[{"id":24,"x":-1702,"y":4,"visible":true,"properties":[],"gid":89,"width":376,"height":443},{"id":25,"x":-1326,"y":4,"visible":true,"properties":[],"gid":89,"width":376,"height":443},{"id":26,"x":-950,"y":4,"visible":true,"properties":[],"gid":89,"width":376,"height":443},{"id":27,"x":-574,"y":4,"visible":true,"properties":[],"gid":89,"width":376,"height":443},{"id":28,"x":-198,"y":4,"visible":true,"properties":[],"gid":89,"width":376,"height":443},{"id":29,"x":178,"y":4,"visible":true,"properties":[],"gid":89,"width":376,"height":443},{"id":30,"x":554,"y":4,"visible":true,"properties":[],"gid":89,"width":376,"height":443}],"properties":[{"name":"a","type":"int","value":255},{"name":"f","type":"int","value":0},{"name":"x","type":"int","value":-762},{"name":"y","type":"int","value":-298},{"name":"bS","type":"string","value":"ereb"},{"name":"cx","type":"int","value":3200},{"name":"cy","type":"int","value":0},{"name":"no","type":"int","value":2},{"name":"rx","type":"int","value":-60},{"name":"ry","type":"int","value":-20},{"name":"ani","type":"int","value":1},{"name":"type","type":"int","value":1},{"name":"front","type":"int","value":0}]},{"id":30,"name":"background_back_29","type":"objectgroup","visible":true,"opacity":1,"draworder":"index","offsetx":0,"offsety":0,"parallaxx":0.6,"parallaxy":0.2,"objects":[{"id":31,"x":-1837,"y":145,"visible":true,"properties":[],"gid":91,"width":554,"height":619},{"id":32,"x":-1283,"y":145,"visible":true,"properties":[],"gid":91,"width":554,"height":619},{"id":33,"x":-729,"y":145,"visible":true,"properties":[],"gid":91,"width":554,"height":619},{"id":34,"x":-175,"y":145,"visible":true,"properties":[],"gid":91,"width":554,"height":619},{"id":35,"x":379,"y":145,"visible":true,"properties":[],"gid":91,"width":554,"height":619}],"properties":[{"name":"a","type":"int","value":255},{"name":"f","type":"int","value":0},{"name":"x","type":"int","value":656},{"name":"y","type":"int","value":-245},{"name":"bS","type":"string","value":"ereb"},{"name":"cx","type":"int","value":3200},{"name":"cy","type":"int","value":0},{"name":"no","type":"int","value":3},{"name":"rx","type":"int","value":-60},{"name":"ry","type":"int","value":-20},{"name":"ani","type":"int","value":1},{"name":"type","type":"int","value":1},{"name":"front","type":"int","value":0}]},{"id":31,"name":"background_back_30","type":"objectgroup","visible":true,"opacity":1,"draworder":"index","offsetx":0,"offsety":0,"parallaxx":0.6,"parallaxy":0.2,"objects":[{"id":36,"x":-2053,"y":60,"visible":true,"properties":[],"gid":93,"width":424,"height":506},{"id":37,"x":-1629,"y":60,"visible":true,"properties":[],"gid":93,"width":424,"height":506},{"id":38,"x":-1205,"y":60,"visible":true,"properties":[],"gid":93,"width":424,"height":506},{"id":39,"x":-781,"y":60,"visible":true,"properties":[],"gid":93,"width":424,"height":506},{"id":40,"x":-357,"y":60,"visible":true,"properties":[],"gid":93,"width":424,"height":506},{"id":41,"x":67,"y":60,"visible":true,"properties":[],"gid":93,"width":424,"height":506},{"id":42,"x":491,"y":60,"visible":true,"properties":[],"gid":93,"width":424,"height":506}],"properties":[{"name":"a","type":"int","value":255},{"name":"f","type":"int","value":0},{"name":"x","type":"int","value":279},{"name":"y","type":"int","value":-273},{"name":"bS","type":"string","value":"ereb"},{"name":"cx","type":"int","value":3200},{"name":"cy","type":"int","value":0},{"name":"no","type":"int","value":4},{"name":"rx","type":"int","value":-60},{"name":"ry","type":"int","value":-20},{"name":"ani","type":"int","value":1},{"name":"type","type":"int","value":1},{"name":"front","type":"int","value":0}]},{"id":32,"name":"background_back_31","type":"objectgroup","visible":true,"opacity":1,"draworder":"index","offsetx":0,"offsety":0,"parallaxx":0.6,"parallaxy":0.2,"objects":[{"id":43,"x":-1666,"y":49,"visible":true,"properties":[],"gid":95,"width":389,"height":485},{"id":44,"x":-1277,"y":49,"visible":true,"properties":[],"gid":95,"width":389,"height":485},{"id":45,"x":-888,"y":49,"visible":true,"properties":[],"gid":95,"width":389,"height":485},{"id":46,"x":-499,"y":49,"visible":true,"properties":[],"gid":95,"width":389,"height":485},{"id":47,"x":-110,"y":49,"visible":true,"properties":[],"gid":95,"width":389,"height":485},{"id":48,"x":279,"y":49,"visible":true,"properties":[],"gid":95,"width":389,"height":485}],"properties":[{"name":"a","type":"int","value":255},{"name":"f","type":"int","value":0},{"name":"x","type":"int","value":-1083},{"name":"y","type":"int","value":-274},{"name":"bS","type":"string","value":"ereb"},{"name":"cx","type":"int","value":3200},{"name":"cy","type":"int","value":0},{"name":"no","type":"int","value":5},{"name":"rx","type":"int","value":-60},{"name":"ry","type":"int","value":-20},{"name":"ani","type":"int","value":1},{"name":"type","type":"int","value":1},{"name":"front","type":"int","value":0}]},{"id":33,"name":"background_back","type":"objectgroup","visible":true,"opacity":1,"draworder":"index","offsetx":0,"offsety":0,"parallaxx":1,"parallaxy":1,"objects":[{"id":1,"x":-268,"y":-478,"visible":true,"properties":[{"name":"image_layer_name","type":"string","value":"background_back_2"},{"name":"a","type":"int","value":255},{"name":"f","type":"int","value":0},{"name":"x","type":"int","value":-268},{"name":"y","type":"int","value":-478},{"name":"bS","type":"string","value":"ereb"},{"name":"cx","type":"int","value":1200},{"name":"cy","type":"int","value":0},{"name":"no","type":"int","value":2},{"name":"rx","type":"int","value":-3},{"name":"ry","type":"int","value":-50},{"name":"ani","type":"int","value":0},{"name":"type","type":"int","value":4},{"name":"front","type":"int","value":0}],"point":true},{"id":2,"x":-386,"y":-495,"visible":true,"properties":[{"name":"image_layer_name","type":"string","value":"background_back_3"},{"name":"a","type":"int","value":255},{"name":"f","type":"int","value":0},{"name":"x","type":"int","value":-386},{"name":"y","type":"int","value":-495},{"name":"bS","type":"string","value":"ereb"},{"name":"cx","type":"int","value":1200},{"name":"cy","type":"int","value":0},{"name":"no","type":"int","value":3},{"name":"rx","type":"int","value":-5},{"name":"ry","type":"int","value":-50},{"name":"ani","type":"int","value":0},{"name":"type","type":"int","value":4},{"name":"front","type":"int","value":0}],"point":true},{"id":3,"x":250,"y":-404,"visible":true,"properties":[{"name":"image_layer_name","type":"string","value":"background_back_4"},{"name":"a","type":"int","value":255},{"name":"f","type":"int","value":0},{"name":"x","type":"int","value":250},{"name":"y","type":"int","value":-404},{"name":"bS","type":"string","value":"ereb"},{"name":"cx","type":"int","value":1200},{"name":"cy","type":"int","value":0},{"name":"no","type":"int","value":4},{"name":"rx","type":"int","value":-3},{"name":"ry","type":"int","value":-50},{"name":"ani","type":"int","value":0},{"name":"type","type":"int","value":4},{"name":"front","type":"int","value":0}],"point":true},{"id":4,"x":370,"y":-354,"visible":true,"properties":[{"name":"image_layer_name","type":"string","value":"background_back_5"},{"name":"a","type":"int","value":255},{"name":"f","type":"int","value":0},{"name":"x","type":"int","value":370},{"name":"y","type":"int","value":-354},{"name":"bS","type":"string","value":"ereb"},{"name":"cx","type":"int","value":1200},{"name":"cy","type":"int","value":0},{"name":"no","type":"int","value":5},{"name":"rx","type":"int","value":-4},{"name":"ry","type":"int","value":-50},{"name":"ani","type":"int","value":0},{"name":"type","type":"int","value":4},{"name":"front","type":"int","value":0}],"point":true},{"id":5,"x":23,"y":-348,"visible":true,"properties":[{"name":"image_layer_name","type":"string","value":"background_back_6"},{"name":"a","type":"int","value":255},{"name":"f","type":"int","value":0},{"name":"x","type":"int","value":23},{"name":"y","type":"int","value":-348},{"name":"bS","type":"string","value":"ereb"},{"name":"cx","type":"int","value":1200},{"name":"cy","type":"int","value":0},{"name":"no","type":"int","value":6},{"name":"rx","type":"int","value":-4},{"name":"ry","type":"int","value":-50},{"name":"ani","type":"int","value":0},{"name":"type","type":"int","value":4},{"name":"front","type":"int","value":0}],"point":true},{"id":6,"x":-367,"y":-390,"visible":true,"properties":[{"name":"image_layer_name","type":"string","value":"background_back_7"},{"name":"a","type":"int","value":255},{"name":"f","type":"int","value":0},{"name":"x","type":"int","value":-367},{"name":"y","type":"int","value":-390},{"name":"bS","type":"string","value":"ereb"},{"name":"cx","type":"int","value":1200},{"name":"cy","type":"int","value":0},{"name":"no","type":"int","value":7},{"name":"rx","type":"int","value":-3},{"name":"ry","type":"int","value":-50},{"name":"ani","type":"int","value":0},{"name":"type","type":"int","value":4},{"name":"front","type":"int","value":0}],"point":true},{"id":7,"x":-278,"y":-347,"visible":true,"properties":[{"name":"image_layer_name","type":"string","value":"background_back_8"},{"name":"a","type":"int","value":255},{"name":"f","type":"int","value":0},{"name":"x","type":"int","value":-278},{"name":"y","type":"int","value":-347},{"name":"bS","type":"string","value":"ereb"},{"name":"cx","type":"int","value":1200},{"name":"cy","type":"int","value":0},{"name":"no","type":"int","value":8},{"name":"rx","type":"int","value":-2},{"name":"ry","type":"int","value":-50},{"name":"ani","type":"int","value":0},{"name":"type","type":"int","value":4},{"name":"front","type":"int","value":0}],"point":true}],"properties":[]},{"id":34,"name":"layer_2_obj","type":"objectgroup","visible":true,"opacity":1,"draworder":"index","offsetx":0,"offsety":0,"parallaxx":1,"parallaxy":1,"objects":[{"id":49,"x":-1260,"y":90,"visible":true,"properties":[{"name":"layer","type":"int","value":2},{"name":"resource_index","type":"int","value":0},{"name":"oS","type":"string","value":"acc11"},{"name":"l0","type":"string","value":"erebTW"},{"name":"l1","type":"string","value":"nature"},{"name":"l2","type":"string","value":"3"},{"name":"z","type":"int","value":9},{"name":"zM","type":"int","value":0},{"name":"f","type":"int","value":0}],"gid":120,"width":377,"height":502},{"id":50,"x":-389,"y":98,"visible":true,"properties":[{"name":"layer","type":"int","value":2},{"name":"resource_index","type":"int","value":1},{"name":"oS","type":"string","value":"acc11"},{"name":"l0","type":"string","value":"erebTW"},{"name":"l1","type":"string","value":"nature"},{"name":"l2","type":"string","value":"2"},{"name":"z","type":"int","value":9},{"name":"zM","type":"int","value":0},{"name":"f","type":"int","value":0}],"gid":119,"width":569,"height":734},{"id":51,"x":-352,"y":91,"visible":true,"properties":[{"name":"layer","type":"int","value":2},{"name":"resource_index","type":"int","value":2},{"name":"oS","type":"string","value":"acc11"},{"name":"l0","type":"string","value":"erebTW"},{"name":"l1","type":"string","value":"nature"},{"name":"l2","type":"string","value":"8"},{"name":"z","type":"int","value":9},{"name":"zM","type":"int","value":0},{"name":"f","type":"int","value":0}],"gid":118,"width":185,"height":420},{"id":52,"x":-1093,"y":87,"visible":true,"properties":[{"name":"layer","type":"int","value":2},{"name":"resource_index","type":"int","value":3},{"name":"oS","type":"string","value":"acc11"},{"name":"l0","type":"string","value":"erebTW"},{"name":"l1","type":"string","value":"nature"},{"name":"l2","type":"string","value":"1"},{"name":"z","type":"int","value":9},{"name":"zM","type":"int","value":0},{"name":"f","type":"int","value":0}],"gid":114,"width":611,"height":734}],"properties":[]},{"id":35,"name":"layer_3_obj","type":"objectgroup","visible":true,"opacity":1,"draworder":"index","offsetx":0,"offsety":0,"parallaxx":1,"parallaxy":1,"objects":[{"id":143,"x":-451,"y":89,"visible":true,"properties":[{"name":"layer","type":"int","value":3},{"name":"resource_index","type":"int","value":0},{"name":"oS","type":"string","value":"acc11"},{"name":"l0","type":"string","value":"erebTW"},{"name":"l1","type":"string","value":"acc"},{"name":"l2","type":"string","value":"12"},{"name":"z","type":"int","value":9},{"name":"zM","type":"int","value":0},{"name":"f","type":"int","value":0}],"gid":76,"width":232,"height":166},{"id":144,"x":-388,"y":33,"visible":true,"properties":[{"name":"layer","type":"int","value":3},{"name":"resource_index","type":"int","value":1},{"name":"oS","type":"string","value":"acc11"},{"name":"l0","type":"string","value":"erebTW"},{"name":"l1","type":"string","value":"acc"},{"name":"l2","type":"string","value":"13"},{"name":"z","type":"int","value":9},{"name":"zM","type":"int","value":0},{"name":"f","type":"int","value":0}],"gid":77,"width":96,"height":59},{"id":145,"x":-1022,"y":91,"visible":true,"properties":[{"name":"layer","type":"int","value":3},{"name":"resource_index","type":"int","value":2},{"name":"oS","type":"string","value":"acc11"},{"name":"l0","type":"string","value":"erebTW"},{"name":"l1","type":"string","value":"nature"},{"name":"l2","type":"string","value":"18"},{"name":"z","type":"int","value":9},{"name":"zM","type":"int","value":0},{"name":"f","type":"int","value":0}],"gid":124,"width":86,"height":103},{"id":146,"x":-981,"y":99,"visible":true,"properties":[{"name":"layer","type":"int","value":3},{"name":"resource_index","type":"int","value":3},{"name":"oS","type":"string","value":"acc11"},{"name":"l0","type":"string","value":"erebTW"},{"name":"l1","type":"string","value":"nature"},{"name":"l2","type":"string","value":"18"},{"name":"z","type":"int","value":8},{"name":"zM","type":"int","value":0},{"name":"f","type":"int","value":0}],"gid":124,"width":86,"height":103},{"id":147,"x":-919,"y":90,"visible":true,"properties":[{"name":"layer","type":"int","value":3},{"name":"resource_index","type":"int","value":4},{"name":"oS","type":"string","value":"acc11"},{"name":"l0","type":"string","value":"erebTW"},{"name":"l1","type":"string","value":"nature"},{"name":"l2","type":"string","value":"22"},{"name":"z","type":"int","value":9},{"name":"zM","type":"int","value":0},{"name":"f","type":"int","value":0}],"gid":122,"width":54,"height":76},{"id":148,"x":-892,"y":88,"visible":true,"properties":[{"name":"layer","type":"int","value":3},{"name":"resource_index","type":"int","value":5},{"name":"oS","type":"string","value":"acc11"},{"name":"l0","type":"string","value":"erebTW"},{"name":"l1","type":"string","value":"nature"},{"name":"l2","type":"string","value":"22"},{"name":"z","type":"int","value":9},{"name":"zM","type":"int","value":0},{"name":"f","type":"int","value":0}],"gid":122,"width":54,"height":76},{"id":149,"x":-881,"y":92,"visible":true,"properties":[{"name":"layer","type":"int","value":3},{"name":"resource_index","type":"int","value":6},{"name":"oS","type":"string","value":"acc11"},{"name":"l0","type":"string","value":"erebTW"},{"name":"l1","type":"string","value":"nature"},{"name":"l2","type":"string","value":"28"},{"name":"z","type":"int","value":9},{"name":"zM","type":"int","value":0},{"name":"f","type":"int","value":0}],"gid":132,"width":101,"height":37},{"id":150,"x":-1066,"y":91,"visible":true,"properties":[{"name":"layer","type":"int","value":3},{"name":"resource_index","type":"int","value":7},{"name":"oS","type":"string","value":"acc11"},{"name":"l0","type":"string","value":"erebTW"},{"name":"l1","type":"string","value":"nature"},{"name":"l2","type":"string","value":"27"},{"name":"z","type":"int","value":9},{"name":"zM","type":"int","value":0},{"name":"f","type":"int","value":0}],"gid":127,"width":59,"height":36},{"id":151,"x":-1029,"y":91,"visible":true,"properties":[{"name":"layer","type":"int","value":3},{"name":"resource_index","type":"int","value":8},{"name":"oS","type":"string","value":"acc11"},{"name":"l0","type":"string","value":"erebTW"},{"name":"l1","type":"string","value":"nature"},{"name":"l2","type":"string","value":"29"},{"name":"z","type":"int","value":9},{"name":"zM","type":"int","value":0},{"name":"f","type":"int","value":0}],"gid":123,"width":84,"height":38},{"id":152,"x":-226,"y":89,"visible":true,"properties":[{"name":"layer","type":"int","value":3},{"name":"resource_index","type":"int","value":9},{"name":"oS","type":"string","value":"acc11"},{"name":"l0","type":"string","value":"erebTW"},{"name":"l1","type":"string","value":"nature"},{"name":"l2","type":"string","value":"21"},{"name":"z","type":"int","value":9},{"name":"zM","type":"int","value":0},{"name":"f","type":"int","value":0}],"gid":135,"width":51,"height":39},{"id":153,"x":-617,"y":97,"visible":true,"properties":[{"name":"layer","type":"int","value":3},{"name":"resource_index","type":"int","value":10},{"name":"oS","type":"string","value":"acc11"},{"name":"l0","type":"string","value":"erebTW"},{"name":"l1","type":"string","value":"nature"},{"name":"l2","type":"string","value":"17"},{"name":"z","type":"int","value":9},{"name":"zM","type":"int","value":0},{"name":"f","type":"int","value":0}],"gid":130,"width":212,"height":51},{"id":154,"x":-215,"y":87,"visible":true,"properties":[{"name":"layer","type":"int","value":3},{"name":"resource_index","type":"int","value":11},{"name":"oS","type":"string","value":"acc11"},{"name":"l0","type":"string","value":"erebFD"},{"name":"l1","type":"string","value":"egg"},{"name":"l2","type":"string","value":"5"},{"name":"z","type":"int","value":9},{"name":"zM","type":"int","value":0},{"name":"f","type":"int","value":0}],"gid":50,"width":147,"height":52},{"id":155,"x":55,"y":38,"visible":true,"properties":[{"name":"layer","type":"int","value":3},{"name":"resource_index","type":"int","value":12},{"name":"oS","type":"string","value":"acc11"},{"name":"l0","type":"string","value":"erebTW"},{"name":"l1","type":"string","value":"nature"},{"name":"l2","type":"string","value":"19"},{"name":"z","type":"int","value":9},{"name":"zM","type":"int","value":0},{"name":"f","type":"int","value":0}],"gid":125,"width":117,"height":87},{"id":156,"x":-941,"y":-94,"visible":true,"properties":[{"name":"layer","type":"int","value":3},{"name":"resource_index","type":"int","value":13},{"name":"oS","type":"string","value":"guide"},{"name":"l0","type":"string","value":"tutorial"},{"name":"l1","type":"string","value":"key"},{"name":"l2","type":"string","value":"5"},{"name":"z","type":"int","value":9},{"name":"zM","type":"int","value":0},{"name":"f","type":"int","value":0}],"gid":84,"width":75,"height":38}],"properties":[]},{"id":36,"name":"layer_3_tile","type":"objectgroup","visible":true,"opacity":1,"draworder":"index","offsetx":0,"offsety":0,"parallaxx":1,"parallaxy":1,"objects":[{"id":53,"x":-270,"y":120,"visible":true,"properties":[{"name":"layer","type":"int","value":3},{"name":"resource_index","type":"int","value":0},{"name":"u","type":"string","value":"enH0"},{"name":"no","type":"int","value":1},{"name":"zM","type":"int","value":0}],"gid":34,"width":90,"height":37},{"id":54,"x":-360,"y":331,"visible":true,"properties":[{"name":"layer","type":"int","value":3},{"name":"resource_index","type":"int","value":1},{"name":"u","type":"string","value":"enH1"},{"name":"no","type":"int","value":0},{"name":"zM","type":"int","value":0}],"gid":31,"width":90,"height":31},{"id":55,"x":-360,"y":180,"visible":true,"properties":[{"name":"layer","type":"int","value":3},{"name":"resource_index","type":"int","value":2},{"name":"u","type":"string","value":"bsc"},{"name":"no","type":"int","value":4},{"name":"zM","type":"int","value":0}],"gid":27,"width":90,"height":60},{"id":56,"x":-270,"y":240,"visible":true,"properties":[{"name":"layer","type":"int","value":3},{"name":"resource_index","type":"int","value":3},{"name":"u","type":"string","value":"bsc"},{"name":"no","type":"int","value":3},{"name":"zM","type":"int","value":0}],"gid":29,"width":90,"height":60},{"id":57,"x":-270,"y":180,"visible":true,"properties":[{"name":"layer","type":"int","value":3},{"name":"resource_index","type":"int","value":4},{"name":"u","type":"string","value":"bsc"},{"name":"no","type":"int","value":1},{"name":"zM","type":"int","value":0}],"gid":26,"width":90,"height":60},{"id":58,"x":-180,"y":300,"visible":true,"properties":[{"name":"layer","type":"int","value":3},{"name":"resource_index","type":"int","value":5},{"name":"u","type":"string","value":"bsc"},{"name":"no","type":"int","value":0},{"name":"zM","type":"int","value":0}],"gid":25,"width":90,"height":60},{"id":59,"x":-90,"y":180,"visible":true,"properties":[{"name":"layer","type":"int","value":3},{"name":"resource_index","type":"int","value":6},{"name":"u","type":"string","value":"bsc"},{"name":"no","type":"int","value":3},{"name":"zM","type":"int","value":0}],"gid":29,"width":90,"height":60},{"id":60,"x":-180,"y":180,"visible":true,"properties":[{"name":"layer","type":"int","value":3},{"name":"resource_index","type":"int","value":7},{"name":"u","type":"string","value":"bsc"},{"name":"no","type":"int","value":5},{"name":"zM","type":"int","value":0}],"gid":30,"width":90,"height":60},{"id":61,"x":-720,"y":180,"visible":true,"properties":[{"name":"layer","type":"int","value":3},{"name":"resource_index","type":"int","value":8},{"name":"u","type":"string","value":"bsc"},{"name":"no","type":"int","value":3},{"name":"zM","type":"int","value":0}],"gid":29,"width":90,"height":60},{"id":62,"x":0,"y":120,"visible":true,"properties":[{"name":"layer","type":"int","value":3},{"name":"resource_index","type":"int","value":9},{"name":"u","type":"string","value":"bsc"},{"name":"no","type":"int","value":0},{"name":"zM","type":"int","value":0}],"gid":25,"width":90,"height":60},{"id":63,"x":-360,"y":120,"visible":true,"properties":[{"name":"layer","type":"int","value":3},{"name":"resource_index","type":"int","value":10},{"name":"u","type":"string","value":"enH0"},{"name":"no","type":"int","value":1},{"name":"zM","type":"int","value":0}],"gid":34,"width":90,"height":37},{"id":64,"x":-270,"y":300,"visible":true,"properties":[{"name":"layer","type":"int","value":3},{"name":"resource_index","type":"int","value":11},{"name":"u","type":"string","value":"bsc"},{"name":"no","type":"int","value":2},{"name":"zM","type":"int","value":0}],"gid":28,"width":90,"height":60},{"id":65,"x":-450,"y":332,"visible":true,"properties":[{"name":"layer","type":"int","value":3},{"name":"resource_index","type":"int","value":12},{"name":"u","type":"string","value":"enH1"},{"name":"no","type":"int","value":1},{"name":"zM","type":"int","value":0}],"gid":24,"width":90,"height":32},{"id":66,"x":-900,"y":331,"visible":true,"properties":[{"name":"layer","type":"int","value":3},{"name":"resource_index","type":"int","value":13},{"name":"u","type":"string","value":"enH1"},{"name":"no","type":"int","value":0},{"name":"zM","type":"int","value":0}],"gid":31,"width":90,"height":31},{"id":67,"x":-720,"y":332,"visible":true,"properties":[{"name":"layer","type":"int","value":3},{"name":"resource_index","type":"int","value":14},{"name":"u","type":"string","value":"enH1"},{"name":"no","type":"int","value":1},{"name":"zM","type":"int","value":0}],"gid":24,"width":90,"height":32},{"id":68,"x":-1170,"y":300,"visible":true,"properties":[{"name":"layer","type":"int","value":3},{"name":"resource_index","type":"int","value":15},{"name":"u","type":"string","value":"bsc"},{"name":"no","type":"int","value":2},{"name":"zM","type":"int","value":0}],"gid":28,"width":90,"height":60},{"id":69,"x":-90,"y":240,"visible":true,"properties":[{"name":"layer","type":"int","value":3},{"name":"resource_index","type":"int","value":16},{"name":"u","type":"string","value":"bsc"},{"name":"no","type":"int","value":0},{"name":"zM","type":"int","value":0}],"gid":25,"width":90,"height":60},{"id":70,"x":-1080,"y":180,"visible":true,"properties":[{"name":"layer","type":"int","value":3},{"name":"resource_index","type":"int","value":17},{"name":"u","type":"string","value":"bsc"},{"name":"no","type":"int","value":1},{"name":"zM","type":"int","value":0}],"gid":26,"width":90,"height":60},{"id":71,"x":-180,"y":240,"visible":true,"properties":[{"name":"layer","type":"int","value":3},{"name":"resource_index","type":"int","value":18},{"name":"u","type":"string","value":"bsc"},{"name":"no","type":"int","value":2},{"name":"zM","type":"int","value":0}],"gid":28,"width":90,"height":60},{"id":72,"x":0,"y":300,"visible":true,"properties":[{"name":"layer","type":"int","value":3},{"name":"resource_index","type":"int","value":19},{"name":"u","type":"string","value":"bsc"},{"name":"no","type":"int","value":1},{"name":"zM","type":"int","value":0}],"gid":26,"width":90,"height":60},{"id":73,"x":-180,"y":120,"visible":true,"properties":[{"name":"layer","type":"int","value":3},{"name":"resource_index","type":"int","value":20},{"name":"u","type":"string","value":"enH0"},{"name":"no","type":"int","value":1},{"name":"zM","type":"int","value":0}],"gid":34,"width":90,"height":37},{"id":74,"x":-90,"y":300,"visible":true,"properties":[{"name":"layer","type":"int","value":3},{"name":"resource_index","type":"int","value":21},{"name":"u","type":"string","value":"bsc"},{"name":"no","type":"int","value":2},{"name":"zM","type":"int","value":0}],"gid":28,"width":90,"height":60},{"id":75,"x":-90,"y":120,"visible":true,"properties":[{"name":"layer","type":"int","value":3},{"name":"resource_index","type":"int","value":22},{"name":"u","type":"string","value":"enH0"},{"name":"no","type":"int","value":2},{"name":"zM","type":"int","value":0}],"gid":32,"width":90,"height":37},{"id":76,"x":-720,"y":240,"visible":true,"properties":[{"name":"layer","type":"int","value":3},{"name":"resource_index","type":"int","value":23},{"name":"u","type":"string","value":"bsc"},{"name":"no","type":"int","value":3},{"name":"zM","type":"int","value":0}],"gid":29,"width":90,"height":60},{"id":77,"x":-180,"y":332,"visible":true,"properties":[{"name":"layer","type":"int","value":3},{"name":"resource_index","type":"int","value":24},{"name":"u","type":"string","value":"enH1"},{"name":"no","type":"int","value":2},{"name":"zM","type":"int","value":0}],"gid":33,"width":90,"height":32},{"id":78,"x":-810,"y":300,"visible":true,"properties":[{"name":"layer","type":"int","value":3},{"name":"resource_index","type":"int","value":25},{"name":"u","type":"string","value":"bsc"},{"name":"no","type":"int","value":5},{"name":"zM","type":"int","value":0}],"gid":30,"width":90,"height":60},{"id":79,"x":-1080,"y":332,"visible":true,"properties":[{"name":"layer","type":"int","value":3},{"name":"resource_index","type":"int","value":26},{"name":"u","type":"string","value":"enH1"},{"name":"no","type":"int","value":2},{"name":"zM","type":"int","value":0}],"gid":33,"width":90,"height":32},{"id":80,"x":-540,"y":120,"visible":true,"properties":[{"name":"layer","type":"int","value":3},{"name":"resource_index","type":"int","value":27},{"name":"u","type":"string","value":"enH0"},{"name":"no","type":"int","value":0},{"name":"zM","type":"int","value":0}],"gid":23,"width":90,"height":36},{"id":81,"x":-630,"y":180,"visible":true,"properties":[{"name":"layer","type":"int","value":3},{"name":"resource_index","type":"int","value":28},{"name":"u","type":"string","value":"bsc"},{"name":"no","type":"int","value":0},{"name":"zM","type":"int","value":0}],"gid":25,"width":90,"height":60},{"id":82,"x":-630,"y":240,"visible":true,"properties":[{"name":"layer","type":"int","value":3},{"name":"resource_index","type":"int","value":29},{"name":"u","type":"string","value":"bsc"},{"name":"no","type":"int","value":2},{"name":"zM","type":"int","value":0}],"gid":28,"width":90,"height":60},{"id":83,"x":-810,"y":240,"visible":true,"properties":[{"name":"layer","type":"int","value":3},{"name":"resource_index","type":"int","value":30},{"name":"u","type":"string","value":"bsc"},{"name":"no","type":"int","value":2},{"name":"zM","type":"int","value":0}],"gid":28,"width":90,"height":60},{"id":84,"x":-630,"y":300,"visible":true,"properties":[{"name":"layer","type":"int","value":3},{"name":"resource_index","type":"int","value":31},{"name":"u","type":"string","value":"bsc"},{"name":"no","type":"int","value":4},{"name":"zM","type":"int","value":0}],"gid":27,"width":90,"height":60},{"id":85,"x":-30,"y":60,"visible":true,"properties":[{"name":"layer","type":"int","value":3},{"name":"resource_index","type":"int","value":32},{"name":"u","type":"string","value":"edU"},{"name":"no","type":"int","value":1},{"name":"zM","type":"int","value":0}],"gid":38,"width":61,"height":36},{"id":86,"x":-1080,"y":300,"visible":true,"properties":[{"name":"layer","type":"int","value":3},{"name":"resource_index","type":"int","value":33},{"name":"u","type":"string","value":"bsc"},{"name":"no","type":"int","value":3},{"name":"zM","type":"int","value":0}],"gid":29,"width":90,"height":60},{"id":87,"x":-720,"y":300,"visible":true,"properties":[{"name":"layer","type":"int","value":3},{"name":"resource_index","type":"int","value":34},{"name":"u","type":"string","value":"bsc"},{"name":"no","type":"int","value":3},{"name":"zM","type":"int","value":0}],"gid":29,"width":90,"height":60},{"id":88,"x":-90,"y":331,"visible":true,"properties":[{"name":"layer","type":"int","value":3},{"name":"resource_index","type":"int","value":35},{"name":"u","type":"string","value":"enH1"},{"name":"no","type":"int","value":0},{"name":"zM","type":"int","value":0}],"gid":31,"width":90,"height":31},{"id":89,"x":-900,"y":180,"visible":true,"properties":[{"name":"layer","type":"int","value":3},{"name":"resource_index","type":"int","value":36},{"name":"u","type":"string","value":"bsc"},{"name":"no","type":"int","value":4},{"name":"zM","type":"int","value":0}],"gid":27,"width":90,"height":60},{"id":90,"x":-1170,"y":240,"visible":true,"properties":[{"name":"layer","type":"int","value":3},{"name":"resource_index","type":"int","value":37},{"name":"u","type":"string","value":"bsc"},{"name":"no","type":"int","value":1},{"name":"zM","type":"int","value":0}],"gid":26,"width":90,"height":60},{"id":91,"x":-990,"y":300,"visible":true,"properties":[{"name":"layer","type":"int","value":3},{"name":"resource_index","type":"int","value":38},{"name":"u","type":"string","value":"bsc"},{"name":"no","type":"int","value":4},{"name":"zM","type":"int","value":0}],"gid":27,"width":90,"height":60},{"id":92,"x":-900,"y":300,"visible":true,"properties":[{"name":"layer","type":"int","value":3},{"name":"resource_index","type":"int","value":39},{"name":"u","type":"string","value":"bsc"},{"name":"no","type":"int","value":1},{"name":"zM","type":"int","value":0}],"gid":26,"width":90,"height":60},{"id":93,"x":-270,"y":331,"visible":true,"properties":[{"name":"layer","type":"int","value":3},{"name":"resource_index","type":"int","value":40},{"name":"u","type":"string","value":"enH1"},{"name":"no","type":"int","value":0},{"name":"zM","type":"int","value":0}],"gid":31,"width":90,"height":31},{"id":94,"x":-1080,"y":240,"visible":true,"properties":[{"name":"layer","type":"int","value":3},{"name":"resource_index","type":"int","value":41},{"name":"u","type":"string","value":"bsc"},{"name":"no","type":"int","value":2},{"name":"zM","type":"int","value":0}],"gid":28,"width":90,"height":60},{"id":95,"x":-810,"y":331,"visible":true,"properties":[{"name":"layer","type":"int","value":3},{"name":"resource_index","type":"int","value":42},{"name":"u","type":"string","value":"enH1"},{"name":"no","type":"int","value":0},{"name":"zM","type":"int","value":0}],"gid":31,"width":90,"height":31},{"id":96,"x":-990,"y":180,"visible":true,"properties":[{"name":"layer","type":"int","value":3},{"name":"resource_index","type":"int","value":43},{"name":"u","type":"string","value":"bsc"},{"name":"no","type":"int","value":4},{"name":"zM","type":"int","value":0}],"gid":27,"width":90,"height":60},{"id":97,"x":-540,"y":332,"visible":true,"properties":[{"name":"layer","type":"int","value":3},{"name":"resource_index","type":"int","value":44},{"name":"u","type":"string","value":"enH1"},{"name":"no","type":"int","value":1},{"name":"zM","type":"int","value":0}],"gid":24,"width":90,"height":32},{"id":98,"x":-990,"y":332,"visible":true,"properties":[{"name":"layer","type":"int","value":3},{"name":"resource_index","type":"int","value":45},{"name":"u","type":"string","value":"enH1"},{"name":"no","type":"int","value":2},{"name":"zM","type":"int","value":0}],"gid":33,"width":90,"height":32},{"id":99,"x":0,"y":240,"visible":true,"properties":[{"name":"layer","type":"int","value":3},{"name":"resource_index","type":"int","value":46},{"name":"u","type":"string","value":"bsc"},{"name":"no","type":"int","value":1},{"name":"zM","type":"int","value":0}],"gid":26,"width":90,"height":60},{"id":100,"x":90,"y":240,"visible":true,"properties":[{"name":"layer","type":"int","value":3},{"name":"resource_index","type":"int","value":47},{"name":"u","type":"string","value":"bsc"},{"name":"no","type":"int","value":0},{"name":"zM","type":"int","value":0}],"gid":25,"width":90,"height":60},{"id":101,"x":-810,"y":180,"visible":true,"properties":[{"name":"layer","type":"int","value":3},{"name":"resource_index","type":"int","value":48},{"name":"u","type":"string","value":"bsc"},{"name":"no","type":"int","value":2},{"name":"zM","type":"int","value":0}],"gid":28,"width":90,"height":60},{"id":102,"x":-720,"y":120,"visible":true,"properties":[{"name":"layer","type":"int","value":3},{"name":"resource_index","type":"int","value":49},{"name":"u","type":"string","value":"enH0"},{"name":"no","type":"int","value":2},{"name":"zM","type":"int","value":0}],"gid":32,"width":90,"height":37},{"id":103,"x":-990,"y":240,"visible":true,"properties":[{"name":"layer","type":"int","value":3},{"name":"resource_index","type":"int","value":50},{"name":"u","type":"string","value":"bsc"},{"name":"no","type":"int","value":4},{"name":"zM","type":"int","value":0}],"gid":27,"width":90,"height":60},{"id":104,"x":-630,"y":332,"visible":true,"properties":[{"name":"layer","type":"int","value":3},{"name":"resource_index","type":"int","value":51},{"name":"u","type":"string","value":"enH1"},{"name":"no","type":"int","value":1},{"name":"zM","type":"int","value":0}],"gid":24,"width":90,"height":32},{"id":105,"x":-630,"y":120,"visible":true,"properties":[{"name":"layer","type":"int","value":3},{"name":"resource_index","type":"int","value":52},{"name":"u","type":"string","value":"enH0"},{"name":"no","type":"int","value":2},{"name":"zM","type":"int","value":0}],"gid":32,"width":90,"height":37},{"id":106,"x":-900,"y":240,"visible":true,"properties":[{"name":"layer","type":"int","value":3},{"name":"resource_index","type":"int","value":53},{"name":"u","type":"string","value":"bsc"},{"name":"no","type":"int","value":4},{"name":"zM","type":"int","value":0}],"gid":27,"width":90,"height":60},{"id":107,"x":-810,"y":120,"visible":true,"properties":[{"name":"layer","type":"int","value":3},{"name":"resource_index","type":"int","value":54},{"name":"u","type":"string","value":"enH0"},{"name":"no","type":"int","value":1},{"name":"zM","type":"int","value":0}],"gid":34,"width":90,"height":37},{"id":108,"x":-450,"y":180,"visible":true,"properties":[{"name":"layer","type":"int","value":3},{"name":"resource_index","type":"int","value":55},{"name":"u","type":"string","value":"bsc"},{"name":"no","type":"int","value":5},{"name":"zM","type":"int","value":0}],"gid":30,"width":90,"height":60},{"id":109,"x":-450,"y":300,"visible":true,"properties":[{"name":"layer","type":"int","value":3},{"name":"resource_index","type":"int","value":56},{"name":"u","type":"string","value":"bsc"},{"name":"no","type":"int","value":2},{"name":"zM","type":"int","value":0}],"gid":28,"width":90,"height":60},{"id":110,"x":-360,"y":240,"visible":true,"properties":[{"name":"layer","type":"int","value":3},{"name":"resource_index","type":"int","value":57},{"name":"u","type":"string","value":"bsc"},{"name":"no","type":"int","value":3},{"name":"zM","type":"int","value":0}],"gid":29,"width":90,"height":60},{"id":111,"x":-360,"y":300,"visible":true,"properties":[{"name":"layer","type":"int","value":3},{"name":"resource_index","type":"int","value":58},{"name":"u","type":"string","value":"bsc"},{"name":"no","type":"int","value":4},{"name":"zM","type":"int","value":0}],"gid":27,"width":90,"height":60},{"id":112,"x":-540,"y":300,"visible":true,"properties":[{"name":"layer","type":"int","value":3},{"name":"resource_index","type":"int","value":59},{"name":"u","type":"string","value":"bsc"},{"name":"no","type":"int","value":5},{"name":"zM","type":"int","value":0}],"gid":30,"width":90,"height":60},{"id":113,"x":-1260,"y":120,"visible":true,"properties":[{"name":"layer","type":"int","value":3},{"name":"resource_index","type":"int","value":60},{"name":"u","type":"string","value":"enH0"},{"name":"no","type":"int","value":2},{"name":"zM","type":"int","value":0}],"gid":32,"width":90,"height":37},{"id":114,"x":-450,"y":120,"visible":true,"properties":[{"name":"layer","type":"int","value":3},{"name":"resource_index","type":"int","value":61},{"name":"u","type":"string","value":"enH0"},{"name":"no","type":"int","value":1},{"name":"zM","type":"int","value":0}],"gid":34,"width":90,"height":37},{"id":115,"x":-540,"y":240,"visible":true,"properties":[{"name":"layer","type":"int","value":3},{"name":"resource_index","type":"int","value":62},{"name":"u","type":"string","value":"bsc"},{"name":"no","type":"int","value":0},{"name":"zM","type":"int","value":0}],"gid":25,"width":90,"height":60},{"id":116,"x":-540,"y":180,"visible":true,"properties":[{"name":"layer","type":"int","value":3},{"name":"resource_index","type":"int","value":63},{"name":"u","type":"string","value":"bsc"},{"name":"no","type":"int","value":1},{"name":"zM","type":"int","value":0}],"gid":26,"width":90,"height":60},{"id":117,"x":-450,"y":240,"visible":true,"properties":[{"name":"layer","type":"int","value":3},{"name":"resource_index","type":"int","value":64},{"name":"u","type":"string","value":"bsc"},{"name":"no","type":"int","value":0},{"name":"zM","type":"int","value":0}],"gid":25,"width":90,"height":60},{"id":118,"x":90,"y":60,"visible":true,"properties":[{"name":"layer","type":"int","value":3},{"name":"resource_index","type":"int","value":65},{"name":"u","type":"string","value":"enH0"},{"name":"no","type":"int","value":1},{"name":"zM","type":"int","value":0}],"gid":34,"width":90,"height":37},{"id":119,"x":0,"y":180,"visible":true,"properties":[{"name":"layer","type":"int","value":3},{"name":"resource_index","type":"int","value":66},{"name":"u","type":"string","value":"bsc"},{"name":"no","type":"int","value":0},{"name":"zM","type":"int","value":0}],"gid":25,"width":90,"height":60},{"id":120,"x":-29,"y":120,"visible":true,"properties":[{"name":"layer","type":"int","value":3},{"name":"resource_index","type":"int","value":67},{"name":"u","type":"string","value":"enV0"},{"name":"no","type":"int","value":1},{"name":"zM","type":"int","value":0}],"gid":41,"width":29,"height":60},{"id":121,"x":0,"y":332,"visible":true,"properties":[{"name":"layer","type":"int","value":3},{"name":"resource_index","type":"int","value":68},{"name":"u","type":"string","value":"enH1"},{"name":"no","type":"int","value":2},{"name":"zM","type":"int","value":0}],"gid":33,"width":90,"height":32},{"id":122,"x":90,"y":180,"visible":true,"properties":[{"name":"layer","type":"int","value":3},{"name":"resource_index","type":"int","value":69},{"name":"u","type":"string","value":"bsc"},{"name":"no","type":"int","value":1},{"name":"zM","type":"int","value":0}],"gid":26,"width":90,"height":60},{"id":123,"x":0,"y":60,"visible":true,"properties":[{"name":"layer","type":"int","value":3},{"name":"resource_index","type":"int","value":70},{"name":"u","type":"string","value":"enH0"},{"name":"no","type":"int","value":1},{"name":"zM","type":"int","value":0}],"gid":34,"width":90,"height":37},{"id":124,"x":-1260,"y":300,"visible":true,"properties":[{"name":"layer","type":"int","value":3},{"name":"resource_index","type":"int","value":71},{"name":"u","type":"string","value":"bsc"},{"name":"no","type":"int","value":1},{"name":"zM","type":"int","value":0}],"gid":26,"width":90,"height":60},{"id":125,"x":-1170,"y":332,"visible":true,"properties":[{"name":"layer","type":"int","value":3},{"name":"resource_index","type":"int","value":72},{"name":"u","type":"string","value":"enH1"},{"name":"no","type":"int","value":1},{"name":"zM","type":"int","value":0}],"gid":24,"width":90,"height":32},{"id":126,"x":-1260,"y":332,"visible":true,"properties":[{"name":"layer","type":"int","value":3},{"name":"resource_index","type":"int","value":73},{"name":"u","type":"string","value":"enH1"},{"name":"no","type":"int","value":2},{"name":"zM","type":"int","value":0}],"gid":33,"width":90,"height":32},{"id":127,"x":90,"y":332,"visible":true,"properties":[{"name":"layer","type":"int","value":3},{"name":"resource_index","type":"int","value":74},{"name":"u","type":"string","value":"enH1"},{"name":"no","type":"int","value":2},{"name":"zM","type":"int","value":0}],"gid":33,"width":90,"height":32},{"id":128,"x":90,"y":300,"visible":true,"properties":[{"name":"layer","type":"int","value":3},{"name":"resource_index","type":"int","value":75},{"name":"u","type":"string","value":"bsc"},{"name":"no","type":"int","value":5},{"name":"zM","type":"int","value":0}],"gid":30,"width":90,"height":60},{"id":129,"x":90,"y":120,"visible":true,"properties":[{"name":"layer","type":"int","value":3},{"name":"resource_index","type":"int","value":76},{"name":"u","type":"string","value":"bsc"},{"name":"no","type":"int","value":5},{"name":"zM","type":"int","value":0}],"gid":30,"width":90,"height":60},{"id":130,"x":-990,"y":120,"visible":true,"properties":[{"name":"layer","type":"int","value":3},{"name":"resource_index","type":"int","value":77},{"name":"u","type":"string","value":"enH0"},{"name":"no","type":"int","value":1},{"name":"zM","type":"int","value":0}],"gid":34,"width":90,"height":37},{"id":131,"x":-1170,"y":120,"visible":true,"properties":[{"name":"layer","type":"int","value":3},{"name":"resource_index","type":"int","value":78},{"name":"u","type":"string","value":"enH0"},{"name":"no","type":"int","value":1},{"name":"zM","type":"int","value":0}],"gid":34,"width":90,"height":37},{"id":132,"x":-900,"y":120,"visible":true,"properties":[{"name":"layer","type":"int","value":3},{"name":"resource_index","type":"int","value":79},{"name":"u","type":"string","value":"enH0"},{"name":"no","type":"int","value":1},{"name":"zM","type":"int","value":0}],"gid":34,"width":90,"height":37},{"id":133,"x":-1080,"y":120,"visible":true,"properties":[{"name":"layer","type":"int","value":3},{"name":"resource_index","type":"int","value":80},{"name":"u","type":"string","value":"enH0"},{"name":"no","type":"int","value":0},{"name":"zM","type":"int","value":0}],"gid":23,"width":90,"height":36},{"id":134,"x":-1170,"y":180,"visible":true,"properties":[{"name":"layer","type":"int","value":3},{"name":"resource_index","type":"int","value":81},{"name":"u","type":"string","value":"bsc"},{"name":"no","type":"int","value":0},{"name":"zM","type":"int","value":0}],"gid":25,"width":90,"height":60},{"id":135,"x":-1260,"y":180,"visible":true,"properties":[{"name":"layer","type":"int","value":3},{"name":"resource_index","type":"int","value":82},{"name":"u","type":"string","value":"bsc"},{"name":"no","type":"int","value":5},{"name":"zM","type":"int","value":0}],"gid":30,"width":90,"height":60},{"id":136,"x":-1260,"y":240,"visible":true,"properties":[{"name":"layer","type":"int","value":3},{"name":"resource_index","type":"int","value":83},{"name":"u","type":"string","value":"bsc"},{"name":"no","type":"int","value":3},{"name":"zM","type":"int","value":0}],"gid":29,"width":90,"height":60},{"id":137,"x":-932,"y":-60,"visible":true,"properties":[{"name":"layer","type":"int","value":3},{"name":"resource_index","type":"int","value":84},{"name":"u","type":"string","value":"edU"},{"name":"no","type":"int","value":0},{"name":"zM","type":"int","value":1}],"gid":35,"width":65,"height":37},{"id":138,"x":-922,"y":-38,"visible":true,"properties":[{"name":"layer","type":"int","value":3},{"name":"resource_index","type":"int","value":85},{"name":"u","type":"string","value":"edD"},{"name":"no","type":"int","value":0},{"name":"zM","type":"int","value":1}],"gid":36,"width":44,"height":22},{"id":139,"x":-1020,"y":-60,"visible":true,"properties":[{"name":"layer","type":"int","value":3},{"name":"resource_index","type":"int","value":86},{"name":"u","type":"string","value":"edU"},{"name":"no","type":"int","value":1},{"name":"zM","type":"int","value":1}],"gid":38,"width":61,"height":36},{"id":140,"x":-1012,"y":-38,"visible":true,"properties":[{"name":"layer","type":"int","value":3},{"name":"resource_index","type":"int","value":87},{"name":"u","type":"string","value":"edD"},{"name":"no","type":"int","value":0},{"name":"zM","type":"int","value":1}],"gid":36,"width":44,"height":22},{"id":141,"x":-990,"y":-60,"visible":true,"properties":[{"name":"layer","type":"int","value":3},{"name":"resource_index","type":"int","value":88},{"name":"u","type":"string","value":"enH0"},{"name":"no","type":"int","value":0},{"name":"zM","type":"int","value":1}],"gid":23,"width":90,"height":36},{"id":142,"x":-990,"y":-28,"visible":true,"properties":[{"name":"layer","type":"int","value":3},{"name":"resource_index","type":"int","value":89},{"name":"u","type":"string","value":"enH1"},{"name":"no","type":"int","value":1},{"name":"zM","type":"int","value":1}],"gid":24,"width":90,"height":32}],"properties":[]},{"id":37,"name":"portal","type":"objectgroup","visible":true,"opacity":1,"draworder":"index","offsetx":0,"offsety":0,"parallaxx":1,"parallaxy":1,"objects":[{"id":157,"x":-63,"y":-36,"visible":true,"properties":[{"name":"x","type":"int","value":-63},{"name":"y","type":"int","value":-36},{"name":"pn","type":"string","value":"sp"},{"name":"pt","type":"int","value":0},{"name":"tm","type":"int","value":999999999},{"name":"tn","type":"string","value":""}],"point":true},{"id":158,"x":76,"y":24,"visible":true,"properties":[{"name":"x","type":"int","value":76},{"name":"y","type":"int","value":24},{"name":"pn","type":"string","value":"east00"},{"name":"pt","type":"int","value":1},{"name":"tm","type":"int","value":999999999},{"name":"tn","type":"string","value":"east00"}],"point":true},{"id":159,"x":-1158,"y":89,"visible":true,"properties":[{"name":"x","type":"int","value":-1158},{"name":"y","type":"int","value":89},{"name":"pn","type":"string","value":"west00"},{"name":"pt","type":"int","value":7},{"name":"tm","type":"int","value":999999999},{"name":"tn","type":"string","value":""},{"name":"script","type":"string","value":"tutorquest"}],"point":true},{"id":160,"x":-170,"y":41,"visible":true,"properties":[{"name":"x","type":"int","value":-170},{"name":"y","type":"int","value":41},{"name":"pn","type":"string","value":"scr00"},{"name":"pt","type":"int","value":9},{"name":"tm","type":"int","value":999999999},{"name":"tn","type":"string","value":""},{"name":"delay","type":"int","value":200},{"name":"script","type":"string","value":"tutorMinimap"},{"name":"onlyOnce","type":"int","value":0},{"name":"hideTooltip","type":"int","value":0}],"point":true}],"properties":[]},{"id":38,"name":"life","type":"objectgroup","visible":true,"opacity":1,"draworder":"index","offsetx":0,"offsety":0,"parallaxx":1,"parallaxy":1,"objects":[{"id":161,"x":-962,"y":-96,"visible":true,"properties":[{"name":"f","type":"int","value":1},{"name":"x","type":"int","value":-962},{"name":"y","type":"int","value":-96},{"name":"cy","type":"int","value":-92},{"name":"fh","type":"int","value":23},{"name":"id","type":"int","value":1102004},{"name":"rx0","type":"int","value":-1003},{"name":"rx1","type":"int","value":-912},{"name":"hide","type":"int","value":0},{"name":"type","type":"string","value":"n"},{"name":"mobTime","type":"int","value":0},{"name":"npc_aseprite","type":"file","value":"../../Npc/1102004.img/animation.aseprite"}],"point":true}],"properties":[]},{"id":39,"name":"foothold","type":"objectgroup","visible":true,"opacity":1,"draworder":"index","offsetx":0,"offsety":0,"parallaxx":1,"parallaxy":1,"objects":[{"id":162,"x":-270,"y":88,"visible":true,"properties":[{"name":"layer","type":"int","value":3},{"name":"group","type":"int","value":0},{"name":"id","type":"int","value":1},{"name":"fh_layer","type":"int","value":3},{"name":"fh_group","type":"int","value":0},{"name":"fh_id","type":"int","value":1},{"name":"x1","type":"int","value":-270},{"name":"x2","type":"int","value":-180},{"name":"y1","type":"int","value":88},{"name":"y2","type":"int","value":88},{"name":"next","type":"int","value":3},{"name":"prev","type":"int","value":2}],"polyline":[{"x":0,"y":0},{"x":90,"y":0}]},{"id":163,"x":-360,"y":88,"visible":true,"properties":[{"name":"layer","type":"int","value":3},{"name":"group","type":"int","value":0},{"name":"id","type":"int","value":2},{"name":"fh_layer","type":"int","value":3},{"name":"fh_group","type":"int","value":0},{"name":"fh_id","type":"int","value":2},{"name":"x1","type":"int","value":-360},{"name":"x2","type":"int","value":-270},{"name":"y1","type":"int","value":88},{"name":"y2","type":"int","value":88},{"name":"next","type":"int","value":1},{"name":"prev","type":"int","value":12}],"polyline":[{"x":0,"y":0},{"x":90,"y":0}]},{"id":164,"x":-180,"y":88,"visible":true,"properties":[{"name":"layer","type":"int","value":3},{"name":"group","type":"int","value":0},{"name":"id","type":"int","value":3},{"name":"fh_layer","type":"int","value":3},{"name":"fh_group","type":"int","value":0},{"name":"fh_id","type":"int","value":3},{"name":"x1","type":"int","value":-180},{"name":"x2","type":"int","value":-90},{"name":"y1","type":"int","value":88},{"name":"y2","type":"int","value":88},{"name":"next","type":"int","value":4},{"name":"prev","type":"int","value":1}],"polyline":[{"x":0,"y":0},{"x":90,"y":0}]},{"id":165,"x":-90,"y":88,"visible":true,"properties":[{"name":"layer","type":"int","value":3},{"name":"group","type":"int","value":0},{"name":"id","type":"int","value":4},{"name":"fh_layer","type":"int","value":3},{"name":"fh_group","type":"int","value":0},{"name":"fh_id","type":"int","value":4},{"name":"x1","type":"int","value":-90},{"name":"x2","type":"int","value":-33},{"name":"y1","type":"int","value":88},{"name":"y2","type":"int","value":88},{"name":"next","type":"int","value":14},{"name":"prev","type":"int","value":3}],"polyline":[{"x":0,"y":0},{"x":57,"y":0}]},{"id":166,"x":-540,"y":88,"visible":true,"properties":[{"name":"layer","type":"int","value":3},{"name":"group","type":"int","value":0},{"name":"id","type":"int","value":5},{"name":"fh_layer","type":"int","value":3},{"name":"fh_group","type":"int","value":0},{"name":"fh_id","type":"int","value":5},{"name":"x1","type":"int","value":-540},{"name":"x2","type":"int","value":-450},{"name":"y1","type":"int","value":88},{"name":"y2","type":"int","value":88},{"name":"next","type":"int","value":12},{"name":"prev","type":"int","value":9}],"polyline":[{"x":0,"y":0},{"x":90,"y":0}]},{"id":167,"x":-33,"y":60,"visible":true,"properties":[{"name":"layer","type":"int","value":3},{"name":"group","type":"int","value":0},{"name":"id","type":"int","value":6},{"name":"fh_layer","type":"int","value":3},{"name":"fh_group","type":"int","value":0},{"name":"fh_id","type":"int","value":6},{"name":"x1","type":"int","value":-33},{"name":"x2","type":"int","value":-33},{"name":"y1","type":"int","value":60},{"name":"y2","type":"int","value":28},{"name":"next","type":"int","value":7},{"name":"prev","type":"int","value":14}],"polyline":[{"x":0,"y":0},{"x":0,"y":-32}]},{"id":168,"x":-33,"y":28,"visible":true,"properties":[{"name":"layer","type":"int","value":3},{"name":"group","type":"int","value":0},{"name":"id","type":"int","value":7},{"name":"fh_layer","type":"int","value":3},{"name":"fh_group","type":"int","value":0},{"name":"fh_id","type":"int","value":7},{"name":"x1","type":"int","value":-33},{"name":"x2","type":"int","value":33},{"name":"y1","type":"int","value":28},{"name":"y2","type":"int","value":28},{"name":"next","type":"int","value":15},{"name":"prev","type":"int","value":6}],"polyline":[{"x":0,"y":0},{"x":66,"y":0}]},{"id":169,"x":-720,"y":88,"visible":true,"properties":[{"name":"layer","type":"int","value":3},{"name":"group","type":"int","value":0},{"name":"id","type":"int","value":8},{"name":"fh_layer","type":"int","value":3},{"name":"fh_group","type":"int","value":0},{"name":"fh_id","type":"int","value":8},{"name":"x1","type":"int","value":-720},{"name":"x2","type":"int","value":-630},{"name":"y1","type":"int","value":88},{"name":"y2","type":"int","value":88},{"name":"next","type":"int","value":9},{"name":"prev","type":"int","value":10}],"polyline":[{"x":0,"y":0},{"x":90,"y":0}]},{"id":170,"x":-630,"y":88,"visible":true,"properties":[{"name":"layer","type":"int","value":3},{"name":"group","type":"int","value":0},{"name":"id","type":"int","value":9},{"name":"fh_layer","type":"int","value":3},{"name":"fh_group","type":"int","value":0},{"name":"fh_id","type":"int","value":9},{"name":"x1","type":"int","value":-630},{"name":"x2","type":"int","value":-540},{"name":"y1","type":"int","value":88},{"name":"y2","type":"int","value":88},{"name":"next","type":"int","value":5},{"name":"prev","type":"int","value":8}],"polyline":[{"x":0,"y":0},{"x":90,"y":0}]},{"id":171,"x":-810,"y":88,"visible":true,"properties":[{"name":"layer","type":"int","value":3},{"name":"group","type":"int","value":0},{"name":"id","type":"int","value":10},{"name":"fh_layer","type":"int","value":3},{"name":"fh_group","type":"int","value":0},{"name":"fh_id","type":"int","value":10},{"name":"x1","type":"int","value":-810},{"name":"x2","type":"int","value":-720},{"name":"y1","type":"int","value":88},{"name":"y2","type":"int","value":88},{"name":"next","type":"int","value":8},{"name":"prev","type":"int","value":18}],"polyline":[{"x":0,"y":0},{"x":90,"y":0}]},{"id":172,"x":-1260,"y":88,"visible":true,"properties":[{"name":"layer","type":"int","value":3},{"name":"group","type":"int","value":0},{"name":"id","type":"int","value":11},{"name":"fh_layer","type":"int","value":3},{"name":"fh_group","type":"int","value":0},{"name":"fh_id","type":"int","value":11},{"name":"x1","type":"int","value":-1260},{"name":"x2","type":"int","value":-1170},{"name":"y1","type":"int","value":88},{"name":"y2","type":"int","value":88},{"name":"next","type":"int","value":17},{"name":"prev","type":"int","value":0}],"polyline":[{"x":0,"y":0},{"x":90,"y":0}]},{"id":173,"x":-450,"y":88,"visible":true,"properties":[{"name":"layer","type":"int","value":3},{"name":"group","type":"int","value":0},{"name":"id","type":"int","value":12},{"name":"fh_layer","type":"int","value":3},{"name":"fh_group","type":"int","value":0},{"name":"fh_id","type":"int","value":12},{"name":"x1","type":"int","value":-450},{"name":"x2","type":"int","value":-360},{"name":"y1","type":"int","value":88},{"name":"y2","type":"int","value":88},{"name":"next","type":"int","value":2},{"name":"prev","type":"int","value":5}],"polyline":[{"x":0,"y":0},{"x":90,"y":0}]},{"id":174,"x":90,"y":28,"visible":true,"properties":[{"name":"layer","type":"int","value":3},{"name":"group","type":"int","value":0},{"name":"id","type":"int","value":13},{"name":"fh_layer","type":"int","value":3},{"name":"fh_group","type":"int","value":0},{"name":"fh_id","type":"int","value":13},{"name":"x1","type":"int","value":90},{"name":"x2","type":"int","value":180},{"name":"y1","type":"int","value":28},{"name":"y2","type":"int","value":28},{"name":"next","type":"int","value":0},{"name":"prev","type":"int","value":15}],"polyline":[{"x":0,"y":0},{"x":90,"y":0}]},{"id":175,"x":-33,"y":88,"visible":true,"properties":[{"name":"layer","type":"int","value":3},{"name":"group","type":"int","value":0},{"name":"id","type":"int","value":14},{"name":"fh_layer","type":"int","value":3},{"name":"fh_group","type":"int","value":0},{"name":"fh_id","type":"int","value":14},{"name":"x1","type":"int","value":-33},{"name":"x2","type":"int","value":-33},{"name":"y1","type":"int","value":88},{"name":"y2","type":"int","value":60},{"name":"next","type":"int","value":6},{"name":"prev","type":"int","value":4}],"polyline":[{"x":0,"y":0},{"x":0,"y":-28}]},{"id":176,"x":33,"y":28,"visible":true,"properties":[{"name":"layer","type":"int","value":3},{"name":"group","type":"int","value":0},{"name":"id","type":"int","value":15},{"name":"fh_layer","type":"int","value":3},{"name":"fh_group","type":"int","value":0},{"name":"fh_id","type":"int","value":15},{"name":"x1","type":"int","value":33},{"name":"x2","type":"int","value":90},{"name":"y1","type":"int","value":28},{"name":"y2","type":"int","value":28},{"name":"next","type":"int","value":13},{"name":"prev","type":"int","value":7}],"polyline":[{"x":0,"y":0},{"x":57,"y":0}]},{"id":177,"x":-990,"y":88,"visible":true,"properties":[{"name":"layer","type":"int","value":3},{"name":"group","type":"int","value":0},{"name":"id","type":"int","value":16},{"name":"fh_layer","type":"int","value":3},{"name":"fh_group","type":"int","value":0},{"name":"fh_id","type":"int","value":16},{"name":"x1","type":"int","value":-990},{"name":"x2","type":"int","value":-900},{"name":"y1","type":"int","value":88},{"name":"y2","type":"int","value":88},{"name":"next","type":"int","value":18},{"name":"prev","type":"int","value":19}],"polyline":[{"x":0,"y":0},{"x":90,"y":0}]},{"id":178,"x":-1170,"y":88,"visible":true,"properties":[{"name":"layer","type":"int","value":3},{"name":"group","type":"int","value":0},{"name":"id","type":"int","value":17},{"name":"fh_layer","type":"int","value":3},{"name":"fh_group","type":"int","value":0},{"name":"fh_id","type":"int","value":17},{"name":"x1","type":"int","value":-1170},{"name":"x2","type":"int","value":-1080},{"name":"y1","type":"int","value":88},{"name":"y2","type":"int","value":88},{"name":"next","type":"int","value":19},{"name":"prev","type":"int","value":11}],"polyline":[{"x":0,"y":0},{"x":90,"y":0}]},{"id":179,"x":-900,"y":88,"visible":true,"properties":[{"name":"layer","type":"int","value":3},{"name":"group","type":"int","value":0},{"name":"id","type":"int","value":18},{"name":"fh_layer","type":"int","value":3},{"name":"fh_group","type":"int","value":0},{"name":"fh_id","type":"int","value":18},{"name":"x1","type":"int","value":-900},{"name":"x2","type":"int","value":-810},{"name":"y1","type":"int","value":88},{"name":"y2","type":"int","value":88},{"name":"next","type":"int","value":10},{"name":"prev","type":"int","value":16}],"polyline":[{"x":0,"y":0},{"x":90,"y":0}]},{"id":180,"x":-1080,"y":88,"visible":true,"properties":[{"name":"layer","type":"int","value":3},{"name":"group","type":"int","value":0},{"name":"id","type":"int","value":19},{"name":"fh_layer","type":"int","value":3},{"name":"fh_group","type":"int","value":0},{"name":"fh_id","type":"int","value":19},{"name":"x1","type":"int","value":-1080},{"name":"x2","type":"int","value":-990},{"name":"y1","type":"int","value":88},{"name":"y2","type":"int","value":88},{"name":"next","type":"int","value":16},{"name":"prev","type":"int","value":17}],"polyline":[{"x":0,"y":0},{"x":90,"y":0}]},{"id":181,"x":-933,"y":-92,"visible":true,"properties":[{"name":"layer","type":"int","value":3},{"name":"group","type":"int","value":1},{"name":"id","type":"int","value":20},{"name":"fh_layer","type":"int","value":3},{"name":"fh_group","type":"int","value":1},{"name":"fh_id","type":"int","value":20},{"name":"x1","type":"int","value":-933},{"name":"x2","type":"int","value":-867},{"name":"y1","type":"int","value":-92},{"name":"y2","type":"int","value":-92},{"name":"next","type":"int","value":21},{"name":"prev","type":"int","value":24}],"polyline":[{"x":0,"y":0},{"x":66,"y":0}]},{"id":182,"x":-867,"y":-92,"visible":true,"properties":[{"name":"layer","type":"int","value":3},{"name":"group","type":"int","value":1},{"name":"id","type":"int","value":21},{"name":"fh_layer","type":"int","value":3},{"name":"fh_group","type":"int","value":1},{"name":"fh_id","type":"int","value":21},{"name":"x1","type":"int","value":-867},{"name":"x2","type":"int","value":-867},{"name":"y1","type":"int","value":-92},{"name":"y2","type":"int","value":-60},{"name":"next","type":"int","value":0},{"name":"prev","type":"int","value":20}],"polyline":[{"x":0,"y":0},{"x":0,"y":32}]},{"id":183,"x":-1023,"y":-60,"visible":true,"properties":[{"name":"layer","type":"int","value":3},{"name":"group","type":"int","value":1},{"name":"id","type":"int","value":22},{"name":"fh_layer","type":"int","value":3},{"name":"fh_group","type":"int","value":1},{"name":"fh_id","type":"int","value":22},{"name":"x1","type":"int","value":-1023},{"name":"x2","type":"int","value":-1023},{"name":"y1","type":"int","value":-60},{"name":"y2","type":"int","value":-92},{"name":"next","type":"int","value":23},{"name":"prev","type":"int","value":0}],"polyline":[{"x":0,"y":0},{"x":0,"y":-32}]},{"id":184,"x":-1023,"y":-92,"visible":true,"properties":[{"name":"layer","type":"int","value":3},{"name":"group","type":"int","value":1},{"name":"id","type":"int","value":23},{"name":"fh_layer","type":"int","value":3},{"name":"fh_group","type":"int","value":1},{"name":"fh_id","type":"int","value":23},{"name":"x1","type":"int","value":-1023},{"name":"x2","type":"int","value":-957},{"name":"y1","type":"int","value":-92},{"name":"y2","type":"int","value":-92},{"name":"next","type":"int","value":24},{"name":"prev","type":"int","value":22}],"polyline":[{"x":0,"y":0},{"x":66,"y":0}]},{"id":185,"x":-957,"y":-92,"visible":true,"properties":[{"name":"layer","type":"int","value":3},{"name":"group","type":"int","value":1},{"name":"id","type":"int","value":24},{"name":"fh_layer","type":"int","value":3},{"name":"fh_group","type":"int","value":1},{"name":"fh_id","type":"int","value":24},{"name":"x1","type":"int","value":-957},{"name":"x2","type":"int","value":-933},{"name":"y1","type":"int","value":-92},{"name":"y2","type":"int","value":-92},{"name":"next","type":"int","value":20},{"name":"prev","type":"int","value":23}],"polyline":[{"x":0,"y":0},{"x":24,"y":0}]}],"properties":[]},{"id":40,"name":"miniMap","type":"objectgroup","visible":true,"opacity":1,"draworder":"index","offsetx":0,"offsety":0,"parallaxx":1,"parallaxy":1,"objects":[{"id":186,"x":1308,"y":797,"visible":true,"properties":[{"name":"mag","type":"int","value":4},{"name":"centerX","type":"int","value":1308},{"name":"centerY","type":"int","value":797},{"name":"canvas_path","type":"string","value":"../images/30685.png"},{"name":"canvas_width","type":"int","value":96},{"name":"canvas_height","type":"int","value":73},{"name":"canvas_origin_x","type":"int","value":0},{"name":"canvas_origin_y","type":"int","value":0}],"point":true}],"properties":[]}],"tilesets":[{"firstgid":1,"source":"../tilesets/bg_ereb.tsj"},{"firstgid":23,"source":"../tilesets/tile_fallenLeaves.tsj"},{"firstgid":46,"source":"../tilesets/obj_acc11_erebFD_egg.tsj"},{"firstgid":63,"source":"../tilesets/obj_acc11_erebTW_acc.tsj"},{"firstgid":79,"source":"../tilesets/obj_guide_tutorial_key.tsj"},{"firstgid":85,"source":"../tilesets/bg_Back_ereb.img_ani_0.tsj"},{"firstgid":87,"source":"../tilesets/bg_Back_ereb.img_ani_1.tsj"},{"firstgid":89,"source":"../tilesets/bg_Back_ereb.img_ani_2.tsj"},{"firstgid":91,"source":"../tilesets/bg_Back_ereb.img_ani_3.tsj"},{"firstgid":93,"source":"../tilesets/bg_Back_ereb.img_ani_4.tsj"},{"firstgid":95,"source":"../tilesets/bg_Back_ereb.img_ani_5.tsj"},{"firstgid":97,"source":"../tilesets/bg_Back_ereb.img_ani_6.tsj"},{"firstgid":113,"source":"../tilesets/obj_acc11_erebTW_nature.tsj"}],"properties":[{"name":"bgm","type":"string","value":"Bgm18/RaindropFlower"},{"name":"fly","type":"int","value":0},{"name":"swim","type":"int","value":0},{"name":"town","type":"int","value":0},{"name":"VRTop","type":"int","value":-1400},{"name":"cloud","type":"int","value":0},{"name":"VRLeft","type":"int","value":-1259},{"name":"VRRight","type":"int","value":179},{"name":"mapMark","type":"string","value":"Ereb"},{"name":"mobRate","type":"float","value":1},{"name":"version","type":"int","value":10},{"name":"VRBottom","type":"int","value":265},{"name":"noMapCmd","type":"int","value":0},{"name":"returnMap","type":"int","value":130030001},{"name":"fieldLimit","type":"int","value":2367596},{"name":"hideMinimap","type":"int","value":0},{"name":"onUserEnter","type":"string","value":""},{"name":"forcedReturn","type":"int","value":130030001},{"name":"onFirstUserEnter","type":"string","value":""}]}