{"type":"map","orientation":"orthogonal","renderorder":"right-down","infinite":false,"tilewidth":1,"tileheight":1,"width":1618,"height":1160,"parallaxoriginx":-400,"parallaxoriginy":80,"nextlayerid":29,"nextobjectid":182,"layers":[{"id":1,"name":"background_back_0","type":"imagelayer","visible":true,"opacity":1,"image":"../images/27305.png","imagewidth":30,"imageheight":30,"offsetx":-15,"offsety":65,"repeatx":true,"repeaty":true,"parallaxx":0,"parallaxy":0,"properties":[{"name":"a","type":"int","value":255},{"name":"f","type":"int","value":0},{"name":"x","type":"int","value":0},{"name":"y","type":"int","value":0},{"name":"bS","type":"string","value":"Rien"},{"name":"cx","type":"int","value":0},{"name":"cy","type":"int","value":0},{"name":"no","type":"int","value":0},{"name":"rx","type":"int","value":0},{"name":"ry","type":"int","value":0},{"name":"ani","type":"int","value":0},{"name":"type","type":"int","value":3},{"name":"front","type":"int","value":0}]},{"id":2,"name":"background_back_1","type":"imagelayer","visible":true,"opacity":1,"image":"../images/27306.png","imagewidth":10,"imageheight":818,"offsetx":-5,"offsety":-549,"repeatx":true,"repeaty":false,"parallaxx":0,"parallaxy":0.7,"properties":[{"name":"a","type":"int","value":255},{"name":"f","type":"int","value":0},{"name":"x","type":"int","value":0},{"name":"y","type":"int","value":-220},{"name":"bS","type":"string","value":"Rien"},{"name":"cx","type":"int","value":0},{"name":"cy","type":"int","value":0},{"name":"no","type":"int","value":1},{"name":"rx","type":"int","value":0},{"name":"ry","type":"int","value":-70},{"name":"ani","type":"int","value":0},{"name":"type","type":"int","value":1},{"name":"front","type":"int","value":0}]},{"id":3,"name":"background_back_2","type":"imagelayer","visible":true,"opacity":1,"image":"../images/27307.png","imagewidth":800,"imageheight":366,"offsetx":-768,"offsety":-549,"repeatx":true,"repeaty":false,"parallaxx":0.07,"parallaxy":0.5,"properties":[{"name":"a","type":"int","value":255},{"name":"f","type":"int","value":0},{"name":"x","type":"int","value":-368},{"name":"y","type":"int","value":-446},{"name":"bS","type":"string","value":"Rien"},{"name":"cx","type":"int","value":1600},{"name":"cy","type":"int","value":0},{"name":"no","type":"int","value":2},{"name":"rx","type":"int","value":-7},{"name":"ry","type":"int","value":-50},{"name":"ani","type":"int","value":0},{"name":"type","type":"int","value":1},{"name":"front","type":"int","value":0}]},{"id":4,"name":"background_back_3","type":"imagelayer","visible":true,"opacity":1,"image":"../images/27308.png","imagewidth":800,"imageheight":206,"offsetx":32,"offsety":-389,"repeatx":true,"repeaty":false,"parallaxx":0.07,"parallaxy":0.5,"properties":[{"name":"a","type":"int","value":255},{"name":"f","type":"int","value":0},{"name":"x","type":"int","value":432},{"name":"y","type":"int","value":-366},{"name":"bS","type":"string","value":"Rien"},{"name":"cx","type":"int","value":1600},{"name":"cy","type":"int","value":0},{"name":"no","type":"int","value":3},{"name":"rx","type":"int","value":-7},{"name":"ry","type":"int","value":-50},{"name":"ani","type":"int","value":0},{"name":"type","type":"int","value":1},{"name":"front","type":"int","value":0}]},{"id":5,"name":"background_back_4","type":"imagelayer","visible":true,"opacity":1,"image":"../images/27309.png","imagewidth":800,"imageheight":134,"offsetx":-1200,"offsety":-213,"repeatx":true,"repeaty":false,"parallaxx":0.2,"parallaxy":0.6,"properties":[{"name":"a","type":"int","value":255},{"name":"f","type":"int","value":0},{"name":"x","type":"int","value":-800},{"name":"y","type":"int","value":-226},{"name":"bS","type":"string","value":"Rien"},{"name":"cx","type":"int","value":2400},{"name":"cy","type":"int","value":0},{"name":"no","type":"int","value":4},{"name":"rx","type":"int","value":-20},{"name":"ry","type":"int","value":-60},{"name":"ani","type":"int","value":0},{"name":"type","type":"int","value":1},{"name":"front","type":"int","value":0}]},{"id":6,"name":"background_back_5","type":"imagelayer","visible":true,"opacity":1,"image":"../images/27310.png","imagewidth":800,"imageheight":161,"offsetx":-400,"offsety":-240,"repeatx":true,"repeaty":false,"parallaxx":0.2,"parallaxy":0.6,"properties":[{"name":"a","type":"int","value":255},{"name":"f","type":"int","value":0},{"name":"x","type":"int","value":0},{"name":"y","type":"int","value":-240},{"name":"bS","type":"string","value":"Rien"},{"name":"cx","type":"int","value":2400},{"name":"cy","type":"int","value":0},{"name":"no","type":"int","value":5},{"name":"rx","type":"int","value":-20},{"name":"ry","type":"int","value":-60},{"name":"ani","type":"int","value":0},{"name":"type","type":"int","value":1},{"name":"front","type":"int","value":0}]},{"id":7,"name":"background_back_6","type":"imagelayer","visible":true,"opacity":1,"image":"../images/27311.png","imagewidth":800,"imageheight":116,"offsetx":400,"offsety":-195,"repeatx":true,"repeaty":false,"parallaxx":0.2,"parallaxy":0.6,"properties":[{"name":"a","type":"int","value":255},{"name":"f","type":"int","value":0},{"name":"x","type":"int","value":800},{"name":"y","type":"int","value":-217},{"name":"bS","type":"string","value":"Rien"},{"name":"cx","type":"int","value":2400},{"name":"cy","type":"int","value":0},{"name":"no","type":"int","value":6},{"name":"rx","type":"int","value":-20},{"name":"ry","type":"int","value":-60},{"name":"ani","type":"int","value":0},{"name":"type","type":"int","value":1},{"name":"front","type":"int","value":0}]},{"id":8,"name":"background_back_7","type":"imagelayer","visible":true,"opacity":1,"image":"../images/27312.png","imagewidth":800,"imageheight":240,"offsetx":-400,"offsety":66,"repeatx":true,"repeaty":false,"parallaxx":0,"parallaxy":1,"properties":[{"name":"a","type":"int","value":255},{"name":"f","type":"int","value":0},{"name":"x","type":"int","value":0},{"name":"y","type":"int","value":106},{"name":"bS","type":"string","value":"Rien"},{"name":"cx","type":"int","value":0},{"name":"cy","type":"int","value":0},{"name":"no","type":"int","value":7},{"name":"rx","type":"int","value":0},{"name":"ry","type":"int","value":-100},{"name":"ani","type":"int","value":0},{"name":"type","type":"int","value":1},{"name":"front","type":"int","value":0}]},{"id":9,"name":"background_back_8","type":"imagelayer","visible":true,"opacity":1,"image":"../images/27313.png","imagewidth":800,"imageheight":267,"offsetx":-400,"offsety":-86,"repeatx":true,"repeaty":false,"parallaxx":0.3,"parallaxy":0.6,"properties":[{"name":"a","type":"int","value":255},{"name":"f","type":"int","value":0},{"name":"x","type":"int","value":0},{"name":"y","type":"int","value":-33},{"name":"bS","type":"string","value":"Rien"},{"name":"cx","type":"int","value":0},{"name":"cy","type":"int","value":0},{"name":"no","type":"int","value":8},{"name":"rx","type":"int","value":-30},{"name":"ry","type":"int","value":-60},{"name":"ani","type":"int","value":0},{"name":"type","type":"int","value":1},{"name":"front","type":"int","value":0}]},{"id":10,"name":"background_back_9","type":"imagelayer","visible":true,"opacity":1,"image":"../images/27314.png","imagewidth":800,"imageheight":249,"offsetx":-1200,"offsety":-130,"repeatx":true,"repeaty":false,"parallaxx":0.3,"parallaxy":0.7,"properties":[{"name":"a","type":"int","value":255},{"name":"f","type":"int","value":0},{"name":"x","type":"int","value":-800},{"name":"y","type":"int","value":-86},{"name":"bS","type":"string","value":"Rien"},{"name":"cx","type":"int","value":2400},{"name":"cy","type":"int","value":0},{"name":"no","type":"int","value":9},{"name":"rx","type":"int","value":-30},{"name":"ry","type":"int","value":-70},{"name":"ani","type":"int","value":0},{"name":"type","type":"int","value":1},{"name":"front","type":"int","value":0}]},{"id":11,"name":"background_back_10","type":"imagelayer","visible":true,"opacity":1,"image":"../images/27315.png","imagewidth":800,"imageheight":367,"offsetx":-400,"offsety":-246,"repeatx":true,"repeaty":false,"parallaxx":0.3,"parallaxy":0.7,"properties":[{"name":"a","type":"int","value":255},{"name":"f","type":"int","value":0},{"name":"x","type":"int","value":0},{"name":"y","type":"int","value":-143},{"name":"bS","type":"string","value":"Rien"},{"name":"cx","type":"int","value":2400},{"name":"cy","type":"int","value":0},{"name":"no","type":"int","value":10},{"name":"rx","type":"int","value":-30},{"name":"ry","type":"int","value":-70},{"name":"ani","type":"int","value":0},{"name":"type","type":"int","value":1},{"name":"front","type":"int","value":0}]},{"id":12,"name":"background_back_11","type":"imagelayer","visible":true,"opacity":1,"image":"../images/27316.png","imagewidth":800,"imageheight":322,"offsetx":400,"offsety":-202,"repeatx":true,"repeaty":false,"parallaxx":0.3,"parallaxy":0.7,"properties":[{"name":"a","type":"int","value":255},{"name":"f","type":"int","value":0},{"name":"x","type":"int","value":800},{"name":"y","type":"int","value":-121},{"name":"bS","type":"string","value":"Rien"},{"name":"cx","type":"int","value":2400},{"name":"cy","type":"int","value":0},{"name":"no","type":"int","value":11},{"name":"rx","type":"int","value":-30},{"name":"ry","type":"int","value":-70},{"name":"ani","type":"int","value":0},{"name":"type","type":"int","value":1},{"name":"front","type":"int","value":0}]},{"id":13,"name":"background_back_12","type":"imagelayer","visible":true,"opacity":1,"image":"../images/27317.png","imagewidth":800,"imageheight":395,"offsetx":-1200,"offsety":-204,"repeatx":true,"repeaty":false,"parallaxx":0.6,"parallaxy":1,"properties":[{"name":"a","type":"int","value":255},{"name":"f","type":"int","value":0},{"name":"x","type":"int","value":-800},{"name":"y","type":"int","value":-87},{"name":"bS","type":"string","value":"Rien"},{"name":"cx","type":"int","value":2400},{"name":"cy","type":"int","value":0},{"name":"no","type":"int","value":12},{"name":"rx","type":"int","value":-60},{"name":"ry","type":"int","value":-100},{"name":"ani","type":"int","value":0},{"name":"type","type":"int","value":1},{"name":"front","type":"int","value":0}]},{"id":14,"name":"background_back_13","type":"imagelayer","visible":true,"opacity":1,"image":"../images/27318.png","imagewidth":800,"imageheight":333,"offsetx":-400,"offsety":-157,"repeatx":true,"repeaty":false,"parallaxx":0.6,"parallaxy":1,"properties":[{"name":"a","type":"int","value":255},{"name":"f","type":"int","value":0},{"name":"x","type":"int","value":0},{"name":"y","type":"int","value":-71},{"name":"bS","type":"string","value":"Rien"},{"name":"cx","type":"int","value":2400},{"name":"cy","type":"int","value":0},{"name":"no","type":"int","value":13},{"name":"rx","type":"int","value":-60},{"name":"ry","type":"int","value":-100},{"name":"ani","type":"int","value":0},{"name":"type","type":"int","value":1},{"name":"front","type":"int","value":0}]},{"id":15,"name":"background_back_14","type":"imagelayer","visible":true,"opacity":1,"image":"../images/27319.png","imagewidth":800,"imageheight":358,"offsetx":400,"offsety":-175,"repeatx":true,"repeaty":false,"parallaxx":0.6,"parallaxy":1,"properties":[{"name":"a","type":"int","value":255},{"name":"f","type":"int","value":0},{"name":"x","type":"int","value":800},{"name":"y","type":"int","value":-76},{"name":"bS","type":"string","value":"Rien"},{"name":"cx","type":"int","value":2400},{"name":"cy","type":"int","value":0},{"name":"no","type":"int","value":14},{"name":"rx","type":"int","value":-60},{"name":"ry","type":"int","value":-100},{"name":"ani","type":"int","value":0},{"name":"type","type":"int","value":1},{"name":"front","type":"int","value":0}]},{"id":16,"name":"background_back_15","type":"objectgroup","visible":true,"opacity":1,"draworder":"index","offsetx":0,"offsety":0,"parallaxx":0.7,"parallaxy":0.2,"objects":[{"id":1,"x":-5918,"y":275,"visible":true,"properties":[],"gid":85,"width":516,"height":723},{"id":2,"x":-5402,"y":275,"visible":true,"properties":[],"gid":85,"width":516,"height":723},{"id":3,"x":-4886,"y":275,"visible":true,"properties":[],"gid":85,"width":516,"height":723},{"id":4,"x":-4370,"y":275,"visible":true,"properties":[],"gid":85,"width":516,"height":723},{"id":5,"x":-3854,"y":275,"visible":true,"properties":[],"gid":85,"width":516,"height":723},{"id":6,"x":-3338,"y":275,"visible":true,"properties":[],"gid":85,"width":516,"height":723}],"properties":[{"name":"a","type":"int","value":255},{"name":"f","type":"int","value":0},{"name":"x","type":"int","value":-500},{"name":"y","type":"int","value":-167},{"name":"bS","type":"string","value":"Rien"},{"name":"cx","type":"int","value":3000},{"name":"cy","type":"int","value":0},{"name":"no","type":"int","value":0},{"name":"rx","type":"int","value":-70},{"name":"ry","type":"int","value":-20},{"name":"ani","type":"int","value":1},{"name":"type","type":"int","value":1},{"name":"front","type":"int","value":0}]},{"id":17,"name":"background_back_16","type":"objectgroup","visible":true,"opacity":1,"draworder":"index","offsetx":0,"offsety":0,"parallaxx":0.7,"parallaxy":0.2,"objects":[{"id":7,"x":-5854,"y":211,"visible":true,"properties":[],"gid":87,"width":529,"height":659},{"id":8,"x":-5325,"y":211,"visible":true,"properties":[],"gid":87,"width":529,"height":659},{"id":9,"x":-4796,"y":211,"visible":true,"properties":[],"gid":87,"width":529,"height":659},{"id":10,"x":-4267,"y":211,"visible":true,"properties":[],"gid":87,"width":529,"height":659},{"id":11,"x":-3738,"y":211,"visible":true,"properties":[],"gid":87,"width":529,"height":659},{"id":12,"x":-3209,"y":211,"visible":true,"properties":[],"gid":87,"width":529,"height":659}],"properties":[{"name":"a","type":"int","value":255},{"name":"f","type":"int","value":0},{"name":"x","type":"int","value":-300},{"name":"y","type":"int","value":-199},{"name":"bS","type":"string","value":"Rien"},{"name":"cx","type":"int","value":3200},{"name":"cy","type":"int","value":0},{"name":"no","type":"int","value":1},{"name":"rx","type":"int","value":-70},{"name":"ry","type":"int","value":-20},{"name":"ani","type":"int","value":1},{"name":"type","type":"int","value":1},{"name":"front","type":"int","value":0}]},{"id":18,"name":"background_back_17","type":"objectgroup","visible":true,"opacity":1,"draworder":"index","offsetx":0,"offsety":0,"parallaxx":0.7,"parallaxy":0.2,"objects":[{"id":13,"x":-5724,"y":-7,"visible":true,"properties":[],"gid":89,"width":376,"height":443},{"id":14,"x":-5348,"y":-7,"visible":true,"properties":[],"gid":89,"width":376,"height":443},{"id":15,"x":-4972,"y":-7,"visible":true,"properties":[],"gid":89,"width":376,"height":443},{"id":16,"x":-4596,"y":-7,"visible":true,"properties":[],"gid":89,"width":376,"height":443},{"id":17,"x":-4220,"y":-7,"visible":true,"properties":[],"gid":89,"width":376,"height":443},{"id":18,"x":-3844,"y":-7,"visible":true,"properties":[],"gid":89,"width":376,"height":443},{"id":19,"x":-3468,"y":-7,"visible":true,"properties":[],"gid":89,"width":376,"height":443}],"properties":[{"name":"a","type":"int","value":255},{"name":"f","type":"int","value":0},{"name":"x","type":"int","value":-1400},{"name":"y","type":"int","value":-309},{"name":"bS","type":"string","value":"Rien"},{"name":"cx","type":"int","value":3400},{"name":"cy","type":"int","value":0},{"name":"no","type":"int","value":2},{"name":"rx","type":"int","value":-70},{"name":"ry","type":"int","value":-20},{"name":"ani","type":"int","value":1},{"name":"type","type":"int","value":1},{"name":"front","type":"int","value":0}]},{"id":19,"name":"background_back_18","type":"objectgroup","visible":true,"opacity":1,"draworder":"index","offsetx":0,"offsety":0,"parallaxx":0.7,"parallaxy":0.2,"objects":[{"id":20,"x":-6125,"y":172,"visible":true,"properties":[],"gid":91,"width":554,"height":619},{"id":21,"x":-5571,"y":172,"visible":true,"properties":[],"gid":91,"width":554,"height":619},{"id":22,"x":-5017,"y":172,"visible":true,"properties":[],"gid":91,"width":554,"height":619},{"id":23,"x":-4463,"y":172,"visible":true,"properties":[],"gid":91,"width":554,"height":619},{"id":24,"x":-3909,"y":172,"visible":true,"properties":[],"gid":91,"width":554,"height":619},{"id":25,"x":-3355,"y":172,"visible":true,"properties":[],"gid":91,"width":554,"height":619}],"properties":[{"name":"a","type":"int","value":255},{"name":"f","type":"int","value":0},{"name":"x","type":"int","value":800},{"name":"y","type":"int","value":-218},{"name":"bS","type":"string","value":"Rien"},{"name":"cx","type":"int","value":3600},{"name":"cy","type":"int","value":0},{"name":"no","type":"int","value":3},{"name":"rx","type":"int","value":-70},{"name":"ry","type":"int","value":-20},{"name":"ani","type":"int","value":1},{"name":"type","type":"int","value":1},{"name":"front","type":"int","value":0}]},{"id":20,"name":"background_back_19","type":"objectgroup","visible":true,"opacity":1,"draworder":"index","offsetx":0,"offsety":0,"parallaxx":0.7,"parallaxy":0.2,"objects":[{"id":26,"x":-5929,"y":58,"visible":true,"properties":[],"gid":93,"width":424,"height":506},{"id":27,"x":-5505,"y":58,"visible":true,"properties":[],"gid":93,"width":424,"height":506},{"id":28,"x":-5081,"y":58,"visible":true,"properties":[],"gid":93,"width":424,"height":506},{"id":29,"x":-4657,"y":58,"visible":true,"properties":[],"gid":93,"width":424,"height":506},{"id":30,"x":-4233,"y":58,"visible":true,"properties":[],"gid":93,"width":424,"height":506},{"id":31,"x":-3809,"y":58,"visible":true,"properties":[],"gid":93,"width":424,"height":506},{"id":32,"x":-3385,"y":58,"visible":true,"properties":[],"gid":93,"width":424,"height":506}],"properties":[{"name":"a","type":"int","value":255},{"name":"f","type":"int","value":0},{"name":"x","type":"int","value":-1901},{"name":"y","type":"int","value":-275},{"name":"bS","type":"string","value":"Rien"},{"name":"cx","type":"int","value":3800},{"name":"cy","type":"int","value":0},{"name":"no","type":"int","value":4},{"name":"rx","type":"int","value":-70},{"name":"ry","type":"int","value":-20},{"name":"ani","type":"int","value":1},{"name":"type","type":"int","value":1},{"name":"front","type":"int","value":0}]},{"id":21,"name":"layer_2_obj","type":"objectgroup","visible":true,"opacity":1,"draworder":"index","offsetx":0,"offsety":0,"parallaxx":1,"parallaxy":1,"objects":[{"id":33,"x":-3984,"y":90,"visible":true,"properties":[{"name":"layer","type":"int","value":2},{"name":"resource_index","type":"int","value":0},{"name":"oS","type":"string","value":"acc12"},{"name":"l0","type":"string","value":"rienFD"},{"name":"l1","type":"string","value":"nature1"},{"name":"l2","type":"string","value":"8"},{"name":"z","type":"int","value":9},{"name":"zM","type":"int","value":3},{"name":"f","type":"int","value":0}],"gid":95,"width":349,"height":531},{"id":34,"x":-4540,"y":86,"visible":true,"properties":[{"name":"layer","type":"int","value":2},{"name":"resource_index","type":"int","value":1},{"name":"oS","type":"string","value":"acc12"},{"name":"l0","type":"string","value":"rienTW"},{"name":"l1","type":"string","value":"acc"},{"name":"l2","type":"string","value":"2"},{"name":"z","type":"int","value":9},{"name":"zM","type":"int","value":6},{"name":"f","type":"int","value":0}],"gid":83,"width":22,"height":40},{"id":35,"x":-4595,"y":46,"visible":true,"properties":[{"name":"layer","type":"int","value":2},{"name":"resource_index","type":"int","value":2},{"name":"oS","type":"string","value":"acc12"},{"name":"l0","type":"string","value":"rienTW"},{"name":"l1","type":"string","value":"acc"},{"name":"l2","type":"string","value":"1"},{"name":"z","type":"int","value":9},{"name":"zM","type":"int","value":4},{"name":"f","type":"int","value":0}],"gid":82,"width":138,"height":74},{"id":36,"x":-4500,"y":89,"visible":true,"properties":[{"name":"layer","type":"int","value":2},{"name":"resource_index","type":"int","value":3},{"name":"oS","type":"string","value":"acc12"},{"name":"l0","type":"string","value":"rienFD"},{"name":"l1","type":"string","value":"nature1"},{"name":"l2","type":"string","value":"17"},{"name":"z","type":"int","value":10},{"name":"zM","type":"int","value":4},{"name":"f","type":"int","value":0}],"gid":105,"width":122,"height":93},{"id":37,"x":-4650,"y":88,"visible":true,"properties":[{"name":"layer","type":"int","value":2},{"name":"resource_index","type":"int","value":4},{"name":"oS","type":"string","value":"acc12"},{"name":"l0","type":"string","value":"rienFD"},{"name":"l1","type":"string","value":"nature1"},{"name":"l2","type":"string","value":"18"},{"name":"z","type":"int","value":8},{"name":"zM","type":"int","value":4},{"name":"f","type":"int","value":0}],"gid":110,"width":82,"height":79},{"id":38,"x":-4076,"y":25,"visible":true,"properties":[{"name":"layer","type":"int","value":2},{"name":"resource_index","type":"int","value":5},{"name":"oS","type":"string","value":"acc12"},{"name":"l0","type":"string","value":"rienFD"},{"name":"l1","type":"string","value":"nature1"},{"name":"l2","type":"string","value":"16"},{"name":"z","type":"int","value":9},{"name":"zM","type":"int","value":3},{"name":"f","type":"int","value":0}],"gid":112,"width":209,"height":87},{"id":39,"x":-5307,"y":92,"visible":true,"properties":[{"name":"layer","type":"int","value":2},{"name":"resource_index","type":"int","value":6},{"name":"oS","type":"string","value":"acc12"},{"name":"l0","type":"string","value":"rienFD"},{"name":"l1","type":"string","value":"nature1"},{"name":"l2","type":"string","value":"5"},{"name":"z","type":"int","value":9},{"name":"zM","type":"int","value":2},{"name":"f","type":"int","value":0}],"gid":104,"width":252,"height":514},{"id":40,"x":-4619,"y":-28,"visible":true,"properties":[{"name":"layer","type":"int","value":2},{"name":"resource_index","type":"int","value":7},{"name":"oS","type":"string","value":"acc12"},{"name":"l0","type":"string","value":"rienTW"},{"name":"l1","type":"string","value":"acc"},{"name":"l2","type":"string","value":"0"},{"name":"z","type":"int","value":9},{"name":"zM","type":"int","value":8},{"name":"f","type":"int","value":0}],"gid":81,"width":185,"height":73},{"id":41,"x":-4577,"y":23,"visible":true,"properties":[{"name":"layer","type":"int","value":2},{"name":"resource_index","type":"int","value":8},{"name":"oS","type":"string","value":"acc12"},{"name":"l0","type":"string","value":"rienTW"},{"name":"l1","type":"string","value":"acc"},{"name":"l2","type":"string","value":"3"},{"name":"z","type":"int","value":9},{"name":"zM","type":"int","value":4},{"name":"f","type":"int","value":0}],"gid":84,"width":100,"height":63},{"id":42,"x":-4222,"y":84,"visible":true,"properties":[{"name":"layer","type":"int","value":2},{"name":"resource_index","type":"int","value":9},{"name":"oS","type":"string","value":"acc12"},{"name":"l0","type":"string","value":"rienFD"},{"name":"l1","type":"string","value":"nature1"},{"name":"l2","type":"string","value":"10"},{"name":"z","type":"int","value":9},{"name":"zM","type":"int","value":7},{"name":"f","type":"int","value":0}],"gid":115,"width":132,"height":99},{"id":43,"x":-4335,"y":-153,"visible":true,"properties":[{"name":"layer","type":"int","value":2},{"name":"resource_index","type":"int","value":10},{"name":"oS","type":"string","value":"acc12"},{"name":"l0","type":"string","value":"rienFD"},{"name":"l1","type":"string","value":"nature1"},{"name":"l2","type":"string","value":"17"},{"name":"z","type":"int","value":9},{"name":"zM","type":"int","value":11},{"name":"f","type":"int","value":0}],"gid":105,"width":122,"height":93},{"id":44,"x":-4178,"y":-152,"visible":true,"properties":[{"name":"layer","type":"int","value":2},{"name":"resource_index","type":"int","value":11},{"name":"oS","type":"string","value":"acc12"},{"name":"l0","type":"string","value":"rienFD"},{"name":"l1","type":"string","value":"nature1"},{"name":"l2","type":"string","value":"19"},{"name":"z","type":"int","value":9},{"name":"zM","type":"int","value":10},{"name":"f","type":"int","value":0}],"gid":103,"width":60,"height":46}],"properties":[]},{"id":22,"name":"layer_3_obj","type":"objectgroup","visible":true,"opacity":1,"draworder":"index","offsetx":0,"offsety":0,"parallaxx":1,"parallaxy":1,"objects":[{"id":53,"x":-4092,"y":87,"visible":true,"properties":[{"name":"layer","type":"int","value":3},{"name":"resource_index","type":"int","value":0},{"name":"oS","type":"string","value":"acc12"},{"name":"l0","type":"string","value":"rienFD"},{"name":"l1","type":"string","value":"acc"},{"name":"l2","type":"string","value":"4"},{"name":"z","type":"int","value":7},{"name":"zM","type":"int","value":5},{"name":"f","type":"int","value":0}],"gid":56,"width":154,"height":180},{"id":54,"x":-4014,"y":85,"visible":true,"properties":[{"name":"layer","type":"int","value":3},{"name":"resource_index","type":"int","value":1},{"name":"oS","type":"string","value":"acc12"},{"name":"l0","type":"string","value":"rienFD"},{"name":"l1","type":"string","value":"ice"},{"name":"l2","type":"string","value":"2"},{"name":"z","type":"int","value":9},{"name":"zM","type":"int","value":5},{"name":"f","type":"int","value":0}],"gid":66,"width":183,"height":88},{"id":55,"x":-3991,"y":75,"visible":true,"properties":[{"name":"layer","type":"int","value":3},{"name":"resource_index","type":"int","value":2},{"name":"oS","type":"string","value":"acc12"},{"name":"l0","type":"string","value":"rienFD"},{"name":"l1","type":"string","value":"ice"},{"name":"l2","type":"string","value":"7"},{"name":"z","type":"int","value":10},{"name":"zM","type":"int","value":5},{"name":"f","type":"int","value":0}],"gid":71,"width":104,"height":34},{"id":56,"x":-4828,"y":89,"visible":true,"properties":[{"name":"layer","type":"int","value":3},{"name":"resource_index","type":"int","value":3},{"name":"oS","type":"string","value":"acc12"},{"name":"l0","type":"string","value":"rienFD"},{"name":"l1","type":"string","value":"acc"},{"name":"l2","type":"string","value":"8"},{"name":"z","type":"int","value":10},{"name":"zM","type":"int","value":1},{"name":"f","type":"int","value":0}],"gid":50,"width":205,"height":130},{"id":57,"x":-5125,"y":103,"visible":true,"properties":[{"name":"layer","type":"int","value":3},{"name":"resource_index","type":"int","value":4},{"name":"oS","type":"string","value":"acc12"},{"name":"l0","type":"string","value":"rienFD"},{"name":"l1","type":"string","value":"acc"},{"name":"l2","type":"string","value":"6"},{"name":"z","type":"int","value":9},{"name":"zM","type":"int","value":1},{"name":"f","type":"int","value":0}],"gid":65,"width":336,"height":275},{"id":58,"x":-4926,"y":-36,"visible":true,"properties":[{"name":"layer","type":"int","value":3},{"name":"resource_index","type":"int","value":5},{"name":"oS","type":"string","value":"acc12"},{"name":"l0","type":"string","value":"rienFD"},{"name":"l1","type":"string","value":"pengiun"},{"name":"l2","type":"string","value":"2"},{"name":"z","type":"int","value":9},{"name":"zM","type":"int","value":1},{"name":"f","type":"int","value":0}],"gid":119,"width":60,"height":61}],"properties":[]},{"id":23,"name":"layer_3_tile","type":"objectgroup","visible":true,"opacity":1,"draworder":"index","offsetx":0,"offsety":0,"parallaxx":1,"parallaxy":1,"objects":[{"id":45,"x":-4353,"y":-120,"visible":true,"properties":[{"name":"layer","type":"int","value":3},{"name":"resource_index","type":"int","value":0},{"name":"u","type":"string","value":"edU"},{"name":"no","type":"int","value":0},{"name":"zM","type":"int","value":9}],"gid":44,"width":65,"height":40},{"id":46,"x":-4338,"y":-96,"visible":true,"properties":[{"name":"layer","type":"int","value":3},{"name":"resource_index","type":"int","value":1},{"name":"u","type":"string","value":"edD"},{"name":"no","type":"int","value":0},{"name":"zM","type":"int","value":9}],"gid":43,"width":41,"height":24},{"id":47,"x":-4320,"y":-83,"visible":true,"properties":[{"name":"layer","type":"int","value":3},{"name":"resource_index","type":"int","value":2},{"name":"u","type":"string","value":"enH1"},{"name":"no","type":"int","value":2},{"name":"zM","type":"int","value":9}],"gid":40,"width":90,"height":37},{"id":48,"x":-4320,"y":-120,"visible":true,"properties":[{"name":"layer","type":"int","value":3},{"name":"resource_index","type":"int","value":3},{"name":"u","type":"string","value":"enH0"},{"name":"no","type":"int","value":2},{"name":"zM","type":"int","value":9}],"gid":32,"width":90,"height":39},{"id":49,"x":-4173,"y":-120,"visible":true,"properties":[{"name":"layer","type":"int","value":3},{"name":"resource_index","type":"int","value":4},{"name":"u","type":"string","value":"edU"},{"name":"no","type":"int","value":0},{"name":"zM","type":"int","value":9}],"gid":44,"width":65,"height":40},{"id":50,"x":-4158,"y":-96,"visible":true,"properties":[{"name":"layer","type":"int","value":3},{"name":"resource_index","type":"int","value":5},{"name":"u","type":"string","value":"edD"},{"name":"no","type":"int","value":0},{"name":"zM","type":"int","value":9}],"gid":43,"width":41,"height":24},{"id":51,"x":-4230,"y":-83,"visible":true,"properties":[{"name":"layer","type":"int","value":3},{"name":"resource_index","type":"int","value":6},{"name":"u","type":"string","value":"enH1"},{"name":"no","type":"int","value":2},{"name":"zM","type":"int","value":9}],"gid":40,"width":90,"height":37},{"id":52,"x":-4230,"y":-120,"visible":true,"properties":[{"name":"layer","type":"int","value":3},{"name":"resource_index","type":"int","value":7},{"name":"u","type":"string","value":"enH0"},{"name":"no","type":"int","value":1},{"name":"zM","type":"int","value":9}],"gid":34,"width":90,"height":40}],"properties":[]},{"id":24,"name":"layer_5_tile","type":"objectgroup","visible":true,"opacity":1,"draworder":"index","offsetx":0,"offsety":0,"parallaxx":1,"parallaxy":1,"objects":[{"id":59,"x":-4770,"y":334,"visible":true,"properties":[{"name":"layer","type":"int","value":5},{"name":"resource_index","type":"int","value":0},{"name":"u","type":"string","value":"enH1"},{"name":"no","type":"int","value":1},{"name":"zM","type":"int","value":0}],"gid":39,"width":90,"height":34},{"id":60,"x":-5220,"y":120,"visible":true,"properties":[{"name":"layer","type":"int","value":5},{"name":"resource_index","type":"int","value":1},{"name":"u","type":"string","value":"enH0"},{"name":"no","type":"int","value":1},{"name":"zM","type":"int","value":0}],"gid":34,"width":90,"height":40},{"id":61,"x":-3780,"y":180,"visible":true,"properties":[{"name":"layer","type":"int","value":5},{"name":"resource_index","type":"int","value":2},{"name":"u","type":"string","value":"bsc"},{"name":"no","type":"int","value":1},{"name":"zM","type":"int","value":0}],"gid":33,"width":90,"height":60},{"id":62,"x":-3960,"y":240,"visible":true,"properties":[{"name":"layer","type":"int","value":5},{"name":"resource_index","type":"int","value":3},{"name":"u","type":"string","value":"bsc"},{"name":"no","type":"int","value":2},{"name":"zM","type":"int","value":0}],"gid":35,"width":90,"height":60},{"id":63,"x":-3870,"y":337,"visible":true,"properties":[{"name":"layer","type":"int","value":5},{"name":"resource_index","type":"int","value":4},{"name":"u","type":"string","value":"enH1"},{"name":"no","type":"int","value":2},{"name":"zM","type":"int","value":0}],"gid":40,"width":90,"height":37},{"id":64,"x":-3870,"y":300,"visible":true,"properties":[{"name":"layer","type":"int","value":5},{"name":"resource_index","type":"int","value":5},{"name":"u","type":"string","value":"bsc"},{"name":"no","type":"int","value":3},{"name":"zM","type":"int","value":0}],"gid":29,"width":90,"height":60},{"id":65,"x":-3780,"y":300,"visible":true,"properties":[{"name":"layer","type":"int","value":5},{"name":"resource_index","type":"int","value":6},{"name":"u","type":"string","value":"bsc"},{"name":"no","type":"int","value":3},{"name":"zM","type":"int","value":0}],"gid":29,"width":90,"height":60},{"id":66,"x":-3780,"y":337,"visible":true,"properties":[{"name":"layer","type":"int","value":5},{"name":"resource_index","type":"int","value":7},{"name":"u","type":"string","value":"enH1"},{"name":"no","type":"int","value":2},{"name":"zM","type":"int","value":0}],"gid":40,"width":90,"height":37},{"id":67,"x":-3870,"y":180,"visible":true,"properties":[{"name":"layer","type":"int","value":5},{"name":"resource_index","type":"int","value":8},{"name":"u","type":"string","value":"bsc"},{"name":"no","type":"int","value":2},{"name":"zM","type":"int","value":0}],"gid":35,"width":90,"height":60},{"id":68,"x":-3780,"y":240,"visible":true,"properties":[{"name":"layer","type":"int","value":5},{"name":"resource_index","type":"int","value":9},{"name":"u","type":"string","value":"bsc"},{"name":"no","type":"int","value":4},{"name":"zM","type":"int","value":0}],"gid":30,"width":90,"height":60},{"id":69,"x":-3960,"y":180,"visible":true,"properties":[{"name":"layer","type":"int","value":5},{"name":"resource_index","type":"int","value":10},{"name":"u","type":"string","value":"bsc"},{"name":"no","type":"int","value":0},{"name":"zM","type":"int","value":0}],"gid":36,"width":90,"height":60},{"id":70,"x":-3870,"y":240,"visible":true,"properties":[{"name":"layer","type":"int","value":5},{"name":"resource_index","type":"int","value":11},{"name":"u","type":"string","value":"bsc"},{"name":"no","type":"int","value":3},{"name":"zM","type":"int","value":0}],"gid":29,"width":90,"height":60},{"id":71,"x":-3780,"y":120,"visible":true,"properties":[{"name":"layer","type":"int","value":5},{"name":"resource_index","type":"int","value":12},{"name":"u","type":"string","value":"enH0"},{"name":"no","type":"int","value":2},{"name":"zM","type":"int","value":0}],"gid":32,"width":90,"height":39},{"id":72,"x":-4140,"y":300,"visible":true,"properties":[{"name":"layer","type":"int","value":5},{"name":"resource_index","type":"int","value":13},{"name":"u","type":"string","value":"bsc"},{"name":"no","type":"int","value":0},{"name":"zM","type":"int","value":0}],"gid":36,"width":90,"height":60},{"id":73,"x":-4140,"y":180,"visible":true,"properties":[{"name":"layer","type":"int","value":5},{"name":"resource_index","type":"int","value":14},{"name":"u","type":"string","value":"bsc"},{"name":"no","type":"int","value":4},{"name":"zM","type":"int","value":0}],"gid":30,"width":90,"height":60},{"id":74,"x":-4050,"y":180,"visible":true,"properties":[{"name":"layer","type":"int","value":5},{"name":"resource_index","type":"int","value":15},{"name":"u","type":"string","value":"bsc"},{"name":"no","type":"int","value":5},{"name":"zM","type":"int","value":0}],"gid":31,"width":90,"height":60},{"id":75,"x":-3960,"y":300,"visible":true,"properties":[{"name":"layer","type":"int","value":5},{"name":"resource_index","type":"int","value":16},{"name":"u","type":"string","value":"bsc"},{"name":"no","type":"int","value":0},{"name":"zM","type":"int","value":0}],"gid":36,"width":90,"height":60},{"id":76,"x":-4050,"y":240,"visible":true,"properties":[{"name":"layer","type":"int","value":5},{"name":"resource_index","type":"int","value":17},{"name":"u","type":"string","value":"bsc"},{"name":"no","type":"int","value":0},{"name":"zM","type":"int","value":0}],"gid":36,"width":90,"height":60},{"id":77,"x":-3960,"y":337,"visible":true,"properties":[{"name":"layer","type":"int","value":5},{"name":"resource_index","type":"int","value":18},{"name":"u","type":"string","value":"enH1"},{"name":"no","type":"int","value":2},{"name":"zM","type":"int","value":0}],"gid":40,"width":90,"height":37},{"id":78,"x":-4050,"y":300,"visible":true,"properties":[{"name":"layer","type":"int","value":5},{"name":"resource_index","type":"int","value":19},{"name":"u","type":"string","value":"bsc"},{"name":"no","type":"int","value":5},{"name":"zM","type":"int","value":0}],"gid":31,"width":90,"height":60},{"id":79,"x":-4230,"y":180,"visible":true,"properties":[{"name":"layer","type":"int","value":5},{"name":"resource_index","type":"int","value":20},{"name":"u","type":"string","value":"bsc"},{"name":"no","type":"int","value":1},{"name":"zM","type":"int","value":0}],"gid":33,"width":90,"height":60},{"id":80,"x":-3870,"y":120,"visible":true,"properties":[{"name":"layer","type":"int","value":5},{"name":"resource_index","type":"int","value":21},{"name":"u","type":"string","value":"enH0"},{"name":"no","type":"int","value":2},{"name":"zM","type":"int","value":0}],"gid":32,"width":90,"height":39},{"id":81,"x":-4050,"y":337,"visible":true,"properties":[{"name":"layer","type":"int","value":5},{"name":"resource_index","type":"int","value":22},{"name":"u","type":"string","value":"enH1"},{"name":"no","type":"int","value":0},{"name":"zM","type":"int","value":0}],"gid":38,"width":90,"height":37},{"id":82,"x":-4140,"y":334,"visible":true,"properties":[{"name":"layer","type":"int","value":5},{"name":"resource_index","type":"int","value":23},{"name":"u","type":"string","value":"enH1"},{"name":"no","type":"int","value":1},{"name":"zM","type":"int","value":0}],"gid":39,"width":90,"height":34},{"id":83,"x":-4140,"y":240,"visible":true,"properties":[{"name":"layer","type":"int","value":5},{"name":"resource_index","type":"int","value":24},{"name":"u","type":"string","value":"bsc"},{"name":"no","type":"int","value":5},{"name":"zM","type":"int","value":0}],"gid":31,"width":90,"height":60},{"id":84,"x":-4230,"y":120,"visible":true,"properties":[{"name":"layer","type":"int","value":5},{"name":"resource_index","type":"int","value":25},{"name":"u","type":"string","value":"enH0"},{"name":"no","type":"int","value":1},{"name":"zM","type":"int","value":0}],"gid":34,"width":90,"height":40},{"id":85,"x":-5310,"y":120,"visible":true,"properties":[{"name":"layer","type":"int","value":5},{"name":"resource_index","type":"int","value":26},{"name":"u","type":"string","value":"enH0"},{"name":"no","type":"int","value":0},{"name":"zM","type":"int","value":0}],"gid":37,"width":90,"height":39},{"id":86,"x":-4230,"y":240,"visible":true,"properties":[{"name":"layer","type":"int","value":5},{"name":"resource_index","type":"int","value":27},{"name":"u","type":"string","value":"bsc"},{"name":"no","type":"int","value":3},{"name":"zM","type":"int","value":0}],"gid":29,"width":90,"height":60},{"id":87,"x":-4320,"y":120,"visible":true,"properties":[{"name":"layer","type":"int","value":5},{"name":"resource_index","type":"int","value":28},{"name":"u","type":"string","value":"enH0"},{"name":"no","type":"int","value":0},{"name":"zM","type":"int","value":0}],"gid":37,"width":90,"height":39},{"id":88,"x":-4230,"y":300,"visible":true,"properties":[{"name":"layer","type":"int","value":5},{"name":"resource_index","type":"int","value":29},{"name":"u","type":"string","value":"bsc"},{"name":"no","type":"int","value":5},{"name":"zM","type":"int","value":0}],"gid":31,"width":90,"height":60},{"id":89,"x":-4680,"y":120,"visible":true,"properties":[{"name":"layer","type":"int","value":5},{"name":"resource_index","type":"int","value":30},{"name":"u","type":"string","value":"enH0"},{"name":"no","type":"int","value":1},{"name":"zM","type":"int","value":0}],"gid":34,"width":90,"height":40},{"id":90,"x":-4230,"y":337,"visible":true,"properties":[{"name":"layer","type":"int","value":5},{"name":"resource_index","type":"int","value":31},{"name":"u","type":"string","value":"enH1"},{"name":"no","type":"int","value":2},{"name":"zM","type":"int","value":0}],"gid":40,"width":90,"height":37},{"id":91,"x":-4590,"y":240,"visible":true,"properties":[{"name":"layer","type":"int","value":5},{"name":"resource_index","type":"int","value":32},{"name":"u","type":"string","value":"bsc"},{"name":"no","type":"int","value":1},{"name":"zM","type":"int","value":0}],"gid":33,"width":90,"height":60},{"id":92,"x":-4590,"y":334,"visible":true,"properties":[{"name":"layer","type":"int","value":5},{"name":"resource_index","type":"int","value":33},{"name":"u","type":"string","value":"enH1"},{"name":"no","type":"int","value":1},{"name":"zM","type":"int","value":0}],"gid":39,"width":90,"height":34},{"id":93,"x":-4320,"y":180,"visible":true,"properties":[{"name":"layer","type":"int","value":5},{"name":"resource_index","type":"int","value":34},{"name":"u","type":"string","value":"bsc"},{"name":"no","type":"int","value":4},{"name":"zM","type":"int","value":0}],"gid":30,"width":90,"height":60},{"id":94,"x":-4410,"y":180,"visible":true,"properties":[{"name":"layer","type":"int","value":5},{"name":"resource_index","type":"int","value":35},{"name":"u","type":"string","value":"bsc"},{"name":"no","type":"int","value":5},{"name":"zM","type":"int","value":0}],"gid":31,"width":90,"height":60},{"id":95,"x":-4320,"y":240,"visible":true,"properties":[{"name":"layer","type":"int","value":5},{"name":"resource_index","type":"int","value":36},{"name":"u","type":"string","value":"bsc"},{"name":"no","type":"int","value":0},{"name":"zM","type":"int","value":0}],"gid":36,"width":90,"height":60},{"id":96,"x":-4410,"y":120,"visible":true,"properties":[{"name":"layer","type":"int","value":5},{"name":"resource_index","type":"int","value":37},{"name":"u","type":"string","value":"enH0"},{"name":"no","type":"int","value":2},{"name":"zM","type":"int","value":0}],"gid":32,"width":90,"height":39},{"id":97,"x":-4320,"y":300,"visible":true,"properties":[{"name":"layer","type":"int","value":5},{"name":"resource_index","type":"int","value":38},{"name":"u","type":"string","value":"bsc"},{"name":"no","type":"int","value":0},{"name":"zM","type":"int","value":0}],"gid":36,"width":90,"height":60},{"id":98,"x":-4590,"y":120,"visible":true,"properties":[{"name":"layer","type":"int","value":5},{"name":"resource_index","type":"int","value":39},{"name":"u","type":"string","value":"enH0"},{"name":"no","type":"int","value":2},{"name":"zM","type":"int","value":0}],"gid":32,"width":90,"height":39},{"id":99,"x":-4320,"y":334,"visible":true,"properties":[{"name":"layer","type":"int","value":5},{"name":"resource_index","type":"int","value":40},{"name":"u","type":"string","value":"enH1"},{"name":"no","type":"int","value":1},{"name":"zM","type":"int","value":0}],"gid":39,"width":90,"height":34},{"id":100,"x":-4500,"y":240,"visible":true,"properties":[{"name":"layer","type":"int","value":5},{"name":"resource_index","type":"int","value":41},{"name":"u","type":"string","value":"bsc"},{"name":"no","type":"int","value":5},{"name":"zM","type":"int","value":0}],"gid":31,"width":90,"height":60},{"id":101,"x":-4590,"y":180,"visible":true,"properties":[{"name":"layer","type":"int","value":5},{"name":"resource_index","type":"int","value":42},{"name":"u","type":"string","value":"bsc"},{"name":"no","type":"int","value":3},{"name":"zM","type":"int","value":0}],"gid":29,"width":90,"height":60},{"id":102,"x":-4500,"y":180,"visible":true,"properties":[{"name":"layer","type":"int","value":5},{"name":"resource_index","type":"int","value":43},{"name":"u","type":"string","value":"bsc"},{"name":"no","type":"int","value":5},{"name":"zM","type":"int","value":0}],"gid":31,"width":90,"height":60},{"id":103,"x":-4410,"y":240,"visible":true,"properties":[{"name":"layer","type":"int","value":5},{"name":"resource_index","type":"int","value":44},{"name":"u","type":"string","value":"bsc"},{"name":"no","type":"int","value":0},{"name":"zM","type":"int","value":0}],"gid":36,"width":90,"height":60},{"id":104,"x":-4500,"y":120,"visible":true,"properties":[{"name":"layer","type":"int","value":5},{"name":"resource_index","type":"int","value":45},{"name":"u","type":"string","value":"enH0"},{"name":"no","type":"int","value":1},{"name":"zM","type":"int","value":0}],"gid":34,"width":90,"height":40},{"id":105,"x":-4410,"y":300,"visible":true,"properties":[{"name":"layer","type":"int","value":5},{"name":"resource_index","type":"int","value":46},{"name":"u","type":"string","value":"bsc"},{"name":"no","type":"int","value":0},{"name":"zM","type":"int","value":0}],"gid":36,"width":90,"height":60},{"id":106,"x":-4590,"y":300,"visible":true,"properties":[{"name":"layer","type":"int","value":5},{"name":"resource_index","type":"int","value":47},{"name":"u","type":"string","value":"bsc"},{"name":"no","type":"int","value":2},{"name":"zM","type":"int","value":0}],"gid":35,"width":90,"height":60},{"id":107,"x":-4410,"y":337,"visible":true,"properties":[{"name":"layer","type":"int","value":5},{"name":"resource_index","type":"int","value":48},{"name":"u","type":"string","value":"enH1"},{"name":"no","type":"int","value":0},{"name":"zM","type":"int","value":0}],"gid":38,"width":90,"height":37},{"id":108,"x":-4500,"y":300,"visible":true,"properties":[{"name":"layer","type":"int","value":5},{"name":"resource_index","type":"int","value":49},{"name":"u","type":"string","value":"bsc"},{"name":"no","type":"int","value":1},{"name":"zM","type":"int","value":0}],"gid":33,"width":90,"height":60},{"id":109,"x":-4500,"y":337,"visible":true,"properties":[{"name":"layer","type":"int","value":5},{"name":"resource_index","type":"int","value":50},{"name":"u","type":"string","value":"enH1"},{"name":"no","type":"int","value":0},{"name":"zM","type":"int","value":0}],"gid":38,"width":90,"height":37},{"id":110,"x":-4950,"y":120,"visible":true,"properties":[{"name":"layer","type":"int","value":5},{"name":"resource_index","type":"int","value":51},{"name":"u","type":"string","value":"enH0"},{"name":"no","type":"int","value":2},{"name":"zM","type":"int","value":0}],"gid":32,"width":90,"height":39},{"id":111,"x":-5310,"y":240,"visible":true,"properties":[{"name":"layer","type":"int","value":5},{"name":"resource_index","type":"int","value":52},{"name":"u","type":"string","value":"bsc"},{"name":"no","type":"int","value":3},{"name":"zM","type":"int","value":0}],"gid":29,"width":90,"height":60},{"id":112,"x":-4860,"y":240,"visible":true,"properties":[{"name":"layer","type":"int","value":5},{"name":"resource_index","type":"int","value":53},{"name":"u","type":"string","value":"bsc"},{"name":"no","type":"int","value":1},{"name":"zM","type":"int","value":0}],"gid":33,"width":90,"height":60},{"id":113,"x":-5310,"y":300,"visible":true,"properties":[{"name":"layer","type":"int","value":5},{"name":"resource_index","type":"int","value":54},{"name":"u","type":"string","value":"bsc"},{"name":"no","type":"int","value":2},{"name":"zM","type":"int","value":0}],"gid":35,"width":90,"height":60},{"id":114,"x":-4860,"y":300,"visible":true,"properties":[{"name":"layer","type":"int","value":5},{"name":"resource_index","type":"int","value":55},{"name":"u","type":"string","value":"bsc"},{"name":"no","type":"int","value":1},{"name":"zM","type":"int","value":0}],"gid":33,"width":90,"height":60},{"id":115,"x":-5310,"y":334,"visible":true,"properties":[{"name":"layer","type":"int","value":5},{"name":"resource_index","type":"int","value":56},{"name":"u","type":"string","value":"enH1"},{"name":"no","type":"int","value":1},{"name":"zM","type":"int","value":0}],"gid":39,"width":90,"height":34},{"id":116,"x":-5040,"y":337,"visible":true,"properties":[{"name":"layer","type":"int","value":5},{"name":"resource_index","type":"int","value":57},{"name":"u","type":"string","value":"enH1"},{"name":"no","type":"int","value":2},{"name":"zM","type":"int","value":0}],"gid":40,"width":90,"height":37},{"id":117,"x":-4950,"y":180,"visible":true,"properties":[{"name":"layer","type":"int","value":5},{"name":"resource_index","type":"int","value":58},{"name":"u","type":"string","value":"bsc"},{"name":"no","type":"int","value":4},{"name":"zM","type":"int","value":0}],"gid":30,"width":90,"height":60},{"id":118,"x":-3960,"y":120,"visible":true,"properties":[{"name":"layer","type":"int","value":5},{"name":"resource_index","type":"int","value":59},{"name":"u","type":"string","value":"enH0"},{"name":"no","type":"int","value":0},{"name":"zM","type":"int","value":0}],"gid":37,"width":90,"height":39},{"id":119,"x":-5220,"y":300,"visible":true,"properties":[{"name":"layer","type":"int","value":5},{"name":"resource_index","type":"int","value":60},{"name":"u","type":"string","value":"bsc"},{"name":"no","type":"int","value":3},{"name":"zM","type":"int","value":0}],"gid":29,"width":90,"height":60},{"id":120,"x":-4680,"y":240,"visible":true,"properties":[{"name":"layer","type":"int","value":5},{"name":"resource_index","type":"int","value":61},{"name":"u","type":"string","value":"bsc"},{"name":"no","type":"int","value":5},{"name":"zM","type":"int","value":0}],"gid":31,"width":90,"height":60},{"id":121,"x":-5220,"y":337,"visible":true,"properties":[{"name":"layer","type":"int","value":5},{"name":"resource_index","type":"int","value":62},{"name":"u","type":"string","value":"enH1"},{"name":"no","type":"int","value":2},{"name":"zM","type":"int","value":0}],"gid":40,"width":90,"height":37},{"id":122,"x":-4680,"y":180,"visible":true,"properties":[{"name":"layer","type":"int","value":5},{"name":"resource_index","type":"int","value":63},{"name":"u","type":"string","value":"bsc"},{"name":"no","type":"int","value":3},{"name":"zM","type":"int","value":0}],"gid":29,"width":90,"height":60},{"id":123,"x":-4770,"y":120,"visible":true,"properties":[{"name":"layer","type":"int","value":5},{"name":"resource_index","type":"int","value":64},{"name":"u","type":"string","value":"enH0"},{"name":"no","type":"int","value":1},{"name":"zM","type":"int","value":0}],"gid":34,"width":90,"height":40},{"id":124,"x":-5310,"y":180,"visible":true,"properties":[{"name":"layer","type":"int","value":5},{"name":"resource_index","type":"int","value":65},{"name":"u","type":"string","value":"bsc"},{"name":"no","type":"int","value":5},{"name":"zM","type":"int","value":0}],"gid":31,"width":90,"height":60},{"id":125,"x":-5220,"y":240,"visible":true,"properties":[{"name":"layer","type":"int","value":5},{"name":"resource_index","type":"int","value":66},{"name":"u","type":"string","value":"bsc"},{"name":"no","type":"int","value":2},{"name":"zM","type":"int","value":0}],"gid":35,"width":90,"height":60},{"id":126,"x":-5220,"y":180,"visible":true,"properties":[{"name":"layer","type":"int","value":5},{"name":"resource_index","type":"int","value":67},{"name":"u","type":"string","value":"bsc"},{"name":"no","type":"int","value":2},{"name":"zM","type":"int","value":0}],"gid":35,"width":90,"height":60},{"id":127,"x":-5130,"y":240,"visible":true,"properties":[{"name":"layer","type":"int","value":5},{"name":"resource_index","type":"int","value":68},{"name":"u","type":"string","value":"bsc"},{"name":"no","type":"int","value":4},{"name":"zM","type":"int","value":0}],"gid":30,"width":90,"height":60},{"id":128,"x":-4050,"y":120,"visible":true,"properties":[{"name":"layer","type":"int","value":5},{"name":"resource_index","type":"int","value":69},{"name":"u","type":"string","value":"enH0"},{"name":"no","type":"int","value":1},{"name":"zM","type":"int","value":0}],"gid":34,"width":90,"height":40},{"id":129,"x":-5130,"y":300,"visible":true,"properties":[{"name":"layer","type":"int","value":5},{"name":"resource_index","type":"int","value":70},{"name":"u","type":"string","value":"bsc"},{"name":"no","type":"int","value":0},{"name":"zM","type":"int","value":0}],"gid":36,"width":90,"height":60},{"id":130,"x":-4770,"y":240,"visible":true,"properties":[{"name":"layer","type":"int","value":5},{"name":"resource_index","type":"int","value":71},{"name":"u","type":"string","value":"bsc"},{"name":"no","type":"int","value":1},{"name":"zM","type":"int","value":0}],"gid":33,"width":90,"height":60},{"id":131,"x":-5130,"y":334,"visible":true,"properties":[{"name":"layer","type":"int","value":5},{"name":"resource_index","type":"int","value":72},{"name":"u","type":"string","value":"enH1"},{"name":"no","type":"int","value":1},{"name":"zM","type":"int","value":0}],"gid":39,"width":90,"height":34},{"id":132,"x":-4860,"y":180,"visible":true,"properties":[{"name":"layer","type":"int","value":5},{"name":"resource_index","type":"int","value":73},{"name":"u","type":"string","value":"bsc"},{"name":"no","type":"int","value":3},{"name":"zM","type":"int","value":0}],"gid":29,"width":90,"height":60},{"id":133,"x":-4770,"y":180,"visible":true,"properties":[{"name":"layer","type":"int","value":5},{"name":"resource_index","type":"int","value":74},{"name":"u","type":"string","value":"bsc"},{"name":"no","type":"int","value":5},{"name":"zM","type":"int","value":0}],"gid":31,"width":90,"height":60},{"id":134,"x":-5130,"y":180,"visible":true,"properties":[{"name":"layer","type":"int","value":5},{"name":"resource_index","type":"int","value":75},{"name":"u","type":"string","value":"bsc"},{"name":"no","type":"int","value":1},{"name":"zM","type":"int","value":0}],"gid":33,"width":90,"height":60},{"id":135,"x":-5040,"y":240,"visible":true,"properties":[{"name":"layer","type":"int","value":5},{"name":"resource_index","type":"int","value":76},{"name":"u","type":"string","value":"bsc"},{"name":"no","type":"int","value":1},{"name":"zM","type":"int","value":0}],"gid":33,"width":90,"height":60},{"id":136,"x":-5130,"y":120,"visible":true,"properties":[{"name":"layer","type":"int","value":5},{"name":"resource_index","type":"int","value":77},{"name":"u","type":"string","value":"enH0"},{"name":"no","type":"int","value":2},{"name":"zM","type":"int","value":0}],"gid":32,"width":90,"height":39},{"id":137,"x":-5040,"y":300,"visible":true,"properties":[{"name":"layer","type":"int","value":5},{"name":"resource_index","type":"int","value":78},{"name":"u","type":"string","value":"bsc"},{"name":"no","type":"int","value":2},{"name":"zM","type":"int","value":0}],"gid":35,"width":90,"height":60},{"id":138,"x":-4680,"y":337,"visible":true,"properties":[{"name":"layer","type":"int","value":5},{"name":"resource_index","type":"int","value":79},{"name":"u","type":"string","value":"enH1"},{"name":"no","type":"int","value":0},{"name":"zM","type":"int","value":0}],"gid":38,"width":90,"height":37},{"id":139,"x":-4680,"y":300,"visible":true,"properties":[{"name":"layer","type":"int","value":5},{"name":"resource_index","type":"int","value":80},{"name":"u","type":"string","value":"bsc"},{"name":"no","type":"int","value":5},{"name":"zM","type":"int","value":0}],"gid":31,"width":90,"height":60},{"id":140,"x":-4770,"y":300,"visible":true,"properties":[{"name":"layer","type":"int","value":5},{"name":"resource_index","type":"int","value":81},{"name":"u","type":"string","value":"bsc"},{"name":"no","type":"int","value":1},{"name":"zM","type":"int","value":0}],"gid":33,"width":90,"height":60},{"id":141,"x":-4860,"y":120,"visible":true,"properties":[{"name":"layer","type":"int","value":5},{"name":"resource_index","type":"int","value":82},{"name":"u","type":"string","value":"enH0"},{"name":"no","type":"int","value":0},{"name":"zM","type":"int","value":0}],"gid":37,"width":90,"height":39},{"id":142,"x":-5040,"y":180,"visible":true,"properties":[{"name":"layer","type":"int","value":5},{"name":"resource_index","type":"int","value":83},{"name":"u","type":"string","value":"bsc"},{"name":"no","type":"int","value":2},{"name":"zM","type":"int","value":0}],"gid":35,"width":90,"height":60},{"id":143,"x":-4950,"y":240,"visible":true,"properties":[{"name":"layer","type":"int","value":5},{"name":"resource_index","type":"int","value":84},{"name":"u","type":"string","value":"bsc"},{"name":"no","type":"int","value":2},{"name":"zM","type":"int","value":0}],"gid":35,"width":90,"height":60},{"id":144,"x":-5040,"y":120,"visible":true,"properties":[{"name":"layer","type":"int","value":5},{"name":"resource_index","type":"int","value":85},{"name":"u","type":"string","value":"enH0"},{"name":"no","type":"int","value":2},{"name":"zM","type":"int","value":0}],"gid":32,"width":90,"height":39},{"id":145,"x":-4950,"y":300,"visible":true,"properties":[{"name":"layer","type":"int","value":5},{"name":"resource_index","type":"int","value":86},{"name":"u","type":"string","value":"bsc"},{"name":"no","type":"int","value":0},{"name":"zM","type":"int","value":0}],"gid":36,"width":90,"height":60},{"id":146,"x":-4860,"y":334,"visible":true,"properties":[{"name":"layer","type":"int","value":5},{"name":"resource_index","type":"int","value":87},{"name":"u","type":"string","value":"enH1"},{"name":"no","type":"int","value":1},{"name":"zM","type":"int","value":0}],"gid":39,"width":90,"height":34},{"id":147,"x":-4950,"y":334,"visible":true,"properties":[{"name":"layer","type":"int","value":5},{"name":"resource_index","type":"int","value":88},{"name":"u","type":"string","value":"enH1"},{"name":"no","type":"int","value":1},{"name":"zM","type":"int","value":0}],"gid":39,"width":90,"height":34},{"id":148,"x":-4140,"y":120,"visible":true,"properties":[{"name":"layer","type":"int","value":5},{"name":"resource_index","type":"int","value":89},{"name":"u","type":"string","value":"enH0"},{"name":"no","type":"int","value":0},{"name":"zM","type":"int","value":0}],"gid":37,"width":90,"height":39}],"properties":[]},{"id":25,"name":"portal","type":"objectgroup","visible":true,"opacity":1,"draworder":"index","offsetx":0,"offsety":0,"parallaxx":1,"parallaxy":1,"objects":[{"id":149,"x":-3929,"y":-91,"visible":true,"properties":[{"name":"x","type":"int","value":-3929},{"name":"y","type":"int","value":-91},{"name":"pn","type":"string","value":"sp"},{"name":"pt","type":"int","value":0},{"name":"tm","type":"int","value":999999999},{"name":"tn","type":"string","value":""},{"name":"horizontalImpact","type":"int","value":0}],"point":true},{"id":150,"x":-3805,"y":88,"visible":true,"properties":[{"name":"x","type":"int","value":-3805},{"name":"y","type":"int","value":88},{"name":"pn","type":"string","value":"east00"},{"name":"pt","type":"int","value":1},{"name":"tm","type":"int","value":999999999},{"name":"tn","type":"string","value":"east00"},{"name":"horizontalImpact","type":"int","value":0}],"point":true},{"id":151,"x":-5209,"y":84,"visible":true,"properties":[{"name":"x","type":"int","value":-5209},{"name":"y","type":"int","value":84},{"name":"pn","type":"string","value":"west00"},{"name":"pt","type":"int","value":7},{"name":"tm","type":"int","value":999999999},{"name":"tn","type":"string","value":""},{"name":"script","type":"string","value":"rienTutor3"},{"name":"horizontalImpact","type":"int","value":0}],"point":true}],"properties":[]},{"id":26,"name":"life","type":"objectgroup","visible":true,"opacity":1,"draworder":"index","offsetx":0,"offsety":0,"parallaxx":1,"parallaxy":1,"objects":[{"id":152,"x":-4954,"y":77,"visible":true,"properties":[{"name":"f","type":"int","value":0},{"name":"x","type":"int","value":-4954},{"name":"y","type":"int","value":77},{"name":"cy","type":"int","value":86},{"name":"fh","type":"int","value":23},{"name":"id","type":"int","value":9300383},{"name":"rx0","type":"int","value":-5290},{"name":"rx1","type":"int","value":-3710},{"name":"hide","type":"int","value":0},{"name":"type","type":"string","value":"m"},{"name":"mobTime","type":"int","value":0}],"point":true},{"id":153,"x":-4799,"y":77,"visible":true,"properties":[{"name":"f","type":"int","value":1},{"name":"x","type":"int","value":-4799},{"name":"y","type":"int","value":77},{"name":"cy","type":"int","value":86},{"name":"fh","type":"int","value":22},{"name":"id","type":"int","value":9300383},{"name":"rx0","type":"int","value":-5290},{"name":"rx1","type":"int","value":-3710},{"name":"hide","type":"int","value":0},{"name":"type","type":"string","value":"m"},{"name":"mobTime","type":"int","value":0}],"point":true},{"id":154,"x":-4656,"y":71,"visible":true,"properties":[{"name":"f","type":"int","value":0},{"name":"x","type":"int","value":-4656},{"name":"y","type":"int","value":71},{"name":"cy","type":"int","value":86},{"name":"fh","type":"int","value":13},{"name":"id","type":"int","value":9300383},{"name":"rx0","type":"int","value":-5290},{"name":"rx1","type":"int","value":-3710},{"name":"hide","type":"int","value":0},{"name":"type","type":"string","value":"m"},{"name":"mobTime","type":"int","value":0}],"point":true},{"id":155,"x":-4496,"y":75,"visible":true,"properties":[{"name":"f","type":"int","value":1},{"name":"x","type":"int","value":-4496},{"name":"y","type":"int","value":75},{"name":"cy","type":"int","value":86},{"name":"fh","type":"int","value":16},{"name":"id","type":"int","value":9300383},{"name":"rx0","type":"int","value":-5290},{"name":"rx1","type":"int","value":-3710},{"name":"hide","type":"int","value":0},{"name":"type","type":"string","value":"m"},{"name":"mobTime","type":"int","value":0}],"point":true},{"id":156,"x":-4213,"y":-162,"visible":true,"properties":[{"name":"f","type":"int","value":1},{"name":"x","type":"int","value":-4213},{"name":"y","type":"int","value":-162},{"name":"cy","type":"int","value":-154},{"name":"fh","type":"int","value":6},{"name":"id","type":"int","value":1202004},{"name":"rx0","type":"int","value":-4263},{"name":"rx1","type":"int","value":-4163},{"name":"hide","type":"int","value":0},{"name":"type","type":"string","value":"n"},{"name":"mobTime","type":"int","value":0},{"name":"npc_aseprite","type":"file","value":"../../Npc/1202004.img/animation.aseprite"}],"point":true}],"properties":[]},{"id":27,"name":"foothold","type":"objectgroup","visible":true,"opacity":1,"draworder":"index","offsetx":0,"offsety":0,"parallaxx":1,"parallaxy":1,"objects":[{"id":157,"x":-4352,"y":-120,"visible":true,"properties":[{"name":"layer","type":"int","value":3},{"name":"group","type":"int","value":9},{"name":"id","type":"int","value":1},{"name":"fh_layer","type":"int","value":3},{"name":"fh_group","type":"int","value":9},{"name":"fh_id","type":"int","value":1},{"name":"x1","type":"int","value":-4352},{"name":"x2","type":"int","value":-4352},{"name":"y1","type":"int","value":-120},{"name":"y2","type":"int","value":-154},{"name":"next","type":"int","value":2},{"name":"prev","type":"int","value":0}],"polyline":[{"x":0,"y":0},{"x":0,"y":-34}]},{"id":158,"x":-4352,"y":-154,"visible":true,"properties":[{"name":"layer","type":"int","value":3},{"name":"group","type":"int","value":9},{"name":"id","type":"int","value":2},{"name":"fh_layer","type":"int","value":3},{"name":"fh_group","type":"int","value":9},{"name":"fh_id","type":"int","value":2},{"name":"x1","type":"int","value":-4352},{"name":"x2","type":"int","value":-4288},{"name":"y1","type":"int","value":-154},{"name":"y2","type":"int","value":-154},{"name":"next","type":"int","value":3},{"name":"prev","type":"int","value":1}],"polyline":[{"x":0,"y":0},{"x":64,"y":0}]},{"id":159,"x":-4288,"y":-154,"visible":true,"properties":[{"name":"layer","type":"int","value":3},{"name":"group","type":"int","value":9},{"name":"id","type":"int","value":3},{"name":"fh_layer","type":"int","value":3},{"name":"fh_group","type":"int","value":9},{"name":"fh_id","type":"int","value":3},{"name":"x1","type":"int","value":-4288},{"name":"x2","type":"int","value":-4230},{"name":"y1","type":"int","value":-154},{"name":"y2","type":"int","value":-154},{"name":"next","type":"int","value":6},{"name":"prev","type":"int","value":2}],"polyline":[{"x":0,"y":0},{"x":58,"y":0}]},{"id":160,"x":-4172,"y":-154,"visible":true,"properties":[{"name":"layer","type":"int","value":3},{"name":"group","type":"int","value":9},{"name":"id","type":"int","value":4},{"name":"fh_layer","type":"int","value":3},{"name":"fh_group","type":"int","value":9},{"name":"fh_id","type":"int","value":4},{"name":"x1","type":"int","value":-4172},{"name":"x2","type":"int","value":-4108},{"name":"y1","type":"int","value":-154},{"name":"y2","type":"int","value":-154},{"name":"next","type":"int","value":5},{"name":"prev","type":"int","value":6}],"polyline":[{"x":0,"y":0},{"x":64,"y":0}]},{"id":161,"x":-4108,"y":-154,"visible":true,"properties":[{"name":"layer","type":"int","value":3},{"name":"group","type":"int","value":9},{"name":"id","type":"int","value":5},{"name":"fh_layer","type":"int","value":3},{"name":"fh_group","type":"int","value":9},{"name":"fh_id","type":"int","value":5},{"name":"x1","type":"int","value":-4108},{"name":"x2","type":"int","value":-4108},{"name":"y1","type":"int","value":-154},{"name":"y2","type":"int","value":-120},{"name":"next","type":"int","value":0},{"name":"prev","type":"int","value":4}],"polyline":[{"x":0,"y":0},{"x":0,"y":34}]},{"id":162,"x":-4230,"y":-154,"visible":true,"properties":[{"name":"layer","type":"int","value":3},{"name":"group","type":"int","value":9},{"name":"id","type":"int","value":6},{"name":"fh_layer","type":"int","value":3},{"name":"fh_group","type":"int","value":9},{"name":"fh_id","type":"int","value":6},{"name":"x1","type":"int","value":-4230},{"name":"x2","type":"int","value":-4172},{"name":"y1","type":"int","value":-154},{"name":"y2","type":"int","value":-154},{"name":"next","type":"int","value":4},{"name":"prev","type":"int","value":3}],"polyline":[{"x":0,"y":0},{"x":58,"y":0}]},{"id":163,"x":-5220,"y":86,"visible":true,"properties":[{"name":"layer","type":"int","value":5},{"name":"group","type":"int","value":0},{"name":"id","type":"int","value":7},{"name":"fh_layer","type":"int","value":5},{"name":"fh_group","type":"int","value":0},{"name":"fh_id","type":"int","value":7},{"name":"x1","type":"int","value":-5220},{"name":"x2","type":"int","value":-5130},{"name":"y1","type":"int","value":86},{"name":"y2","type":"int","value":86},{"name":"next","type":"int","value":21},{"name":"prev","type":"int","value":11}],"polyline":[{"x":0,"y":0},{"x":90,"y":0}]},{"id":164,"x":-3780,"y":86,"visible":true,"properties":[{"name":"layer","type":"int","value":5},{"name":"group","type":"int","value":0},{"name":"id","type":"int","value":8},{"name":"fh_layer","type":"int","value":5},{"name":"fh_group","type":"int","value":0},{"name":"fh_id","type":"int","value":8},{"name":"x1","type":"int","value":-3780},{"name":"x2","type":"int","value":-3690},{"name":"y1","type":"int","value":86},{"name":"y2","type":"int","value":86},{"name":"next","type":"int","value":0},{"name":"prev","type":"int","value":9}],"polyline":[{"x":0,"y":0},{"x":90,"y":0}]},{"id":165,"x":-3870,"y":86,"visible":true,"properties":[{"name":"layer","type":"int","value":5},{"name":"group","type":"int","value":0},{"name":"id","type":"int","value":9},{"name":"fh_layer","type":"int","value":5},{"name":"fh_group","type":"int","value":0},{"name":"fh_id","type":"int","value":9},{"name":"x1","type":"int","value":-3870},{"name":"x2","type":"int","value":-3780},{"name":"y1","type":"int","value":86},{"name":"y2","type":"int","value":86},{"name":"next","type":"int","value":8},{"name":"prev","type":"int","value":18}],"polyline":[{"x":0,"y":0},{"x":90,"y":0}]},{"id":166,"x":-4230,"y":86,"visible":true,"properties":[{"name":"layer","type":"int","value":5},{"name":"group","type":"int","value":0},{"name":"id","type":"int","value":10},{"name":"fh_layer","type":"int","value":5},{"name":"fh_group","type":"int","value":0},{"name":"fh_id","type":"int","value":10},{"name":"x1","type":"int","value":-4230},{"name":"x2","type":"int","value":-4140},{"name":"y1","type":"int","value":86},{"name":"y2","type":"int","value":86},{"name":"next","type":"int","value":24},{"name":"prev","type":"int","value":12}],"polyline":[{"x":0,"y":0},{"x":90,"y":0}]},{"id":167,"x":-5310,"y":86,"visible":true,"properties":[{"name":"layer","type":"int","value":5},{"name":"group","type":"int","value":0},{"name":"id","type":"int","value":11},{"name":"fh_layer","type":"int","value":5},{"name":"fh_group","type":"int","value":0},{"name":"fh_id","type":"int","value":11},{"name":"x1","type":"int","value":-5310},{"name":"x2","type":"int","value":-5220},{"name":"y1","type":"int","value":86},{"name":"y2","type":"int","value":86},{"name":"next","type":"int","value":7},{"name":"prev","type":"int","value":0}],"polyline":[{"x":0,"y":0},{"x":90,"y":0}]},{"id":168,"x":-4320,"y":86,"visible":true,"properties":[{"name":"layer","type":"int","value":5},{"name":"group","type":"int","value":0},{"name":"id","type":"int","value":12},{"name":"fh_layer","type":"int","value":5},{"name":"fh_group","type":"int","value":0},{"name":"fh_id","type":"int","value":12},{"name":"x1","type":"int","value":-4320},{"name":"x2","type":"int","value":-4230},{"name":"y1","type":"int","value":86},{"name":"y2","type":"int","value":86},{"name":"next","type":"int","value":10},{"name":"prev","type":"int","value":14}],"polyline":[{"x":0,"y":0},{"x":90,"y":0}]},{"id":169,"x":-4680,"y":86,"visible":true,"properties":[{"name":"layer","type":"int","value":5},{"name":"group","type":"int","value":0},{"name":"id","type":"int","value":13},{"name":"fh_layer","type":"int","value":5},{"name":"fh_group","type":"int","value":0},{"name":"fh_id","type":"int","value":13},{"name":"x1","type":"int","value":-4680},{"name":"x2","type":"int","value":-4590},{"name":"y1","type":"int","value":86},{"name":"y2","type":"int","value":86},{"name":"next","type":"int","value":15},{"name":"prev","type":"int","value":19}],"polyline":[{"x":0,"y":0},{"x":90,"y":0}]},{"id":170,"x":-4410,"y":86,"visible":true,"properties":[{"name":"layer","type":"int","value":5},{"name":"group","type":"int","value":0},{"name":"id","type":"int","value":14},{"name":"fh_layer","type":"int","value":5},{"name":"fh_group","type":"int","value":0},{"name":"fh_id","type":"int","value":14},{"name":"x1","type":"int","value":-4410},{"name":"x2","type":"int","value":-4320},{"name":"y1","type":"int","value":86},{"name":"y2","type":"int","value":86},{"name":"next","type":"int","value":12},{"name":"prev","type":"int","value":16}],"polyline":[{"x":0,"y":0},{"x":90,"y":0}]},{"id":171,"x":-4590,"y":86,"visible":true,"properties":[{"name":"layer","type":"int","value":5},{"name":"group","type":"int","value":0},{"name":"id","type":"int","value":15},{"name":"fh_layer","type":"int","value":5},{"name":"fh_group","type":"int","value":0},{"name":"fh_id","type":"int","value":15},{"name":"x1","type":"int","value":-4590},{"name":"x2","type":"int","value":-4500},{"name":"y1","type":"int","value":86},{"name":"y2","type":"int","value":86},{"name":"next","type":"int","value":16},{"name":"prev","type":"int","value":13}],"polyline":[{"x":0,"y":0},{"x":90,"y":0}]},{"id":172,"x":-4500,"y":86,"visible":true,"properties":[{"name":"layer","type":"int","value":5},{"name":"group","type":"int","value":0},{"name":"id","type":"int","value":16},{"name":"fh_layer","type":"int","value":5},{"name":"fh_group","type":"int","value":0},{"name":"fh_id","type":"int","value":16},{"name":"x1","type":"int","value":-4500},{"name":"x2","type":"int","value":-4410},{"name":"y1","type":"int","value":86},{"name":"y2","type":"int","value":86},{"name":"next","type":"int","value":14},{"name":"prev","type":"int","value":15}],"polyline":[{"x":0,"y":0},{"x":90,"y":0}]},{"id":173,"x":-4950,"y":86,"visible":true,"properties":[{"name":"layer","type":"int","value":5},{"name":"group","type":"int","value":0},{"name":"id","type":"int","value":17},{"name":"fh_layer","type":"int","value":5},{"name":"fh_group","type":"int","value":0},{"name":"fh_id","type":"int","value":17},{"name":"x1","type":"int","value":-4950},{"name":"x2","type":"int","value":-4860},{"name":"y1","type":"int","value":86},{"name":"y2","type":"int","value":86},{"name":"next","type":"int","value":22},{"name":"prev","type":"int","value":23}],"polyline":[{"x":0,"y":0},{"x":90,"y":0}]},{"id":174,"x":-3960,"y":86,"visible":true,"properties":[{"name":"layer","type":"int","value":5},{"name":"group","type":"int","value":0},{"name":"id","type":"int","value":18},{"name":"fh_layer","type":"int","value":5},{"name":"fh_group","type":"int","value":0},{"name":"fh_id","type":"int","value":18},{"name":"x1","type":"int","value":-3960},{"name":"x2","type":"int","value":-3870},{"name":"y1","type":"int","value":86},{"name":"y2","type":"int","value":86},{"name":"next","type":"int","value":9},{"name":"prev","type":"int","value":20}],"polyline":[{"x":0,"y":0},{"x":90,"y":0}]},{"id":175,"x":-4770,"y":86,"visible":true,"properties":[{"name":"layer","type":"int","value":5},{"name":"group","type":"int","value":0},{"name":"id","type":"int","value":19},{"name":"fh_layer","type":"int","value":5},{"name":"fh_group","type":"int","value":0},{"name":"fh_id","type":"int","value":19},{"name":"x1","type":"int","value":-4770},{"name":"x2","type":"int","value":-4680},{"name":"y1","type":"int","value":86},{"name":"y2","type":"int","value":86},{"name":"next","type":"int","value":13},{"name":"prev","type":"int","value":22}],"polyline":[{"x":0,"y":0},{"x":90,"y":0}]},{"id":176,"x":-4050,"y":86,"visible":true,"properties":[{"name":"layer","type":"int","value":5},{"name":"group","type":"int","value":0},{"name":"id","type":"int","value":20},{"name":"fh_layer","type":"int","value":5},{"name":"fh_group","type":"int","value":0},{"name":"fh_id","type":"int","value":20},{"name":"x1","type":"int","value":-4050},{"name":"x2","type":"int","value":-3960},{"name":"y1","type":"int","value":86},{"name":"y2","type":"int","value":86},{"name":"next","type":"int","value":18},{"name":"prev","type":"int","value":24}],"polyline":[{"x":0,"y":0},{"x":90,"y":0}]},{"id":177,"x":-5130,"y":86,"visible":true,"properties":[{"name":"layer","type":"int","value":5},{"name":"group","type":"int","value":0},{"name":"id","type":"int","value":21},{"name":"fh_layer","type":"int","value":5},{"name":"fh_group","type":"int","value":0},{"name":"fh_id","type":"int","value":21},{"name":"x1","type":"int","value":-5130},{"name":"x2","type":"int","value":-5040},{"name":"y1","type":"int","value":86},{"name":"y2","type":"int","value":86},{"name":"next","type":"int","value":23},{"name":"prev","type":"int","value":7}],"polyline":[{"x":0,"y":0},{"x":90,"y":0}]},{"id":178,"x":-4860,"y":86,"visible":true,"properties":[{"name":"layer","type":"int","value":5},{"name":"group","type":"int","value":0},{"name":"id","type":"int","value":22},{"name":"fh_layer","type":"int","value":5},{"name":"fh_group","type":"int","value":0},{"name":"fh_id","type":"int","value":22},{"name":"x1","type":"int","value":-4860},{"name":"x2","type":"int","value":-4770},{"name":"y1","type":"int","value":86},{"name":"y2","type":"int","value":86},{"name":"next","type":"int","value":19},{"name":"prev","type":"int","value":17}],"polyline":[{"x":0,"y":0},{"x":90,"y":0}]},{"id":179,"x":-5040,"y":86,"visible":true,"properties":[{"name":"layer","type":"int","value":5},{"name":"group","type":"int","value":0},{"name":"id","type":"int","value":23},{"name":"fh_layer","type":"int","value":5},{"name":"fh_group","type":"int","value":0},{"name":"fh_id","type":"int","value":23},{"name":"x1","type":"int","value":-5040},{"name":"x2","type":"int","value":-4950},{"name":"y1","type":"int","value":86},{"name":"y2","type":"int","value":86},{"name":"next","type":"int","value":17},{"name":"prev","type":"int","value":21}],"polyline":[{"x":0,"y":0},{"x":90,"y":0}]},{"id":180,"x":-4140,"y":86,"visible":true,"properties":[{"name":"layer","type":"int","value":5},{"name":"group","type":"int","value":0},{"name":"id","type":"int","value":24},{"name":"fh_layer","type":"int","value":5},{"name":"fh_group","type":"int","value":0},{"name":"fh_id","type":"int","value":24},{"name":"x1","type":"int","value":-4140},{"name":"x2","type":"int","value":-4050},{"name":"y1","type":"int","value":86},{"name":"y2","type":"int","value":86},{"name":"next","type":"int","value":20},{"name":"prev","type":"int","value":10}],"polyline":[{"x":0,"y":0},{"x":90,"y":0}]}],"properties":[]},{"id":28,"name":"miniMap","type":"objectgroup","visible":true,"opacity":1,"draworder":"index","offsetx":0,"offsety":0,"parallaxx":1,"parallaxy":1,"objects":[{"id":181,"x":5358,"y":591,"visible":true,"properties":[{"name":"mag","type":"int","value":4},{"name":"centerX","type":"int","value":5358},{"name":"centerY","type":"int","value":591},{"name":"canvas_path","type":"string","value":"../images/30881.png"},{"name":"canvas_width","type":"int","value":110},{"name":"canvas_height","type":"int","value":61},{"name":"canvas_origin_x","type":"int","value":0},{"name":"canvas_origin_y","type":"int","value":0}],"point":true}],"properties":[]}],"tilesets":[{"firstgid":1,"source":"../tilesets/bg_Rien.tsj"},{"firstgid":29,"source":"../tilesets/tile_snowyRord.tsj"},{"firstgid":48,"source":"../tilesets/obj_acc12_rienFD_acc.tsj"},{"firstgid":66,"source":"../tilesets/obj_acc12_rienFD_ice.tsj"},{"firstgid":78,"source":"../tilesets/obj_acc12_rienTW_acc.tsj"},{"firstgid":85,"source":"../tilesets/bg_Back_Rien.img_ani_0.tsj"},{"firstgid":87,"source":"../tilesets/bg_Back_Rien.img_ani_1.tsj"},{"firstgid":89,"source":"../tilesets/bg_Back_Rien.img_ani_2.tsj"},{"firstgid":91,"source":"../tilesets/bg_Back_Rien.img_ani_3.tsj"},{"firstgid":93,"source":"../tilesets/bg_Back_Rien.img_ani_4.tsj"},{"firstgid":95,"source":"../tilesets/obj_acc12_rienFD_nature1.tsj"},{"firstgid":116,"source":"../tilesets/obj_acc12_rienFD_pengiun.tsj"}],"properties":[{"name":"bgm","type":"string","value":"Bgm19/SnowDrop"},{"name":"fly","type":"int","value":0},{"name":"swim","type":"int","value":0},{"name":"town","type":"int","value":0},{"name":"VRTop","type":"int","value":-900},{"name":"cloud","type":"int","value":0},{"name":"VRLeft","type":"int","value":-5309},{"name":"VRRight","type":"int","value":-3691},{"name":"mapMark","type":"string","value":"Rien"},{"name":"mobRate","type":"float","value":1},{"name":"version","type":"int","value":10},{"name":"VRBottom","type":"int","value":260},{"name":"noMapCmd","type":"int","value":0},{"name":"returnMap","type":"int","value":140090300},{"name":"fieldLimit","type":"int","value":2632300},{"name":"hideMinimap","type":"int","value":0},{"name":"onUserEnter","type":"string","value":""},{"name":"forcedReturn","type":"int","value":140090300},{"name":"onFirstUserEnter","type":"string","value":""}]}