{"type":"map","orientation":"orthogonal","renderorder":"right-down","infinite":false,"tilewidth":1,"tileheight":1,"width":993,"height":600,"parallaxoriginx":-400,"parallaxoriginy":80,"nextlayerid":17,"nextobjectid":10,"layers":[{"id":1,"name":"background_back_0","type":"imagelayer","visible":true,"opacity":1,"image":"../images/27323.png","imagewidth":1000,"imageheight":632,"offsetx":-500,"offsety":-236,"repeatx":false,"repeaty":false,"parallaxx":0.5,"parallaxy":1,"properties":[{"name":"a","type":"int","value":255},{"name":"f","type":"int","value":0},{"name":"x","type":"int","value":0},{"name":"y","type":"int","value":0},{"name":"bS","type":"string","value":"Rien"},{"name":"cx","type":"int","value":0},{"name":"cy","type":"int","value":0},{"name":"no","type":"int","value":18},{"name":"rx","type":"int","value":-50},{"name":"ry","type":"int","value":-100},{"name":"ani","type":"int","value":0},{"name":"type","type":"int","value":0},{"name":"front","type":"int","value":0}]},{"id":2,"name":"background_back_1","type":"imagelayer","visible":true,"opacity":1,"image":"../images/27324.png","imagewidth":170,"imageheight":373,"offsetx":-246,"offsety":-231,"repeatx":false,"repeaty":false,"parallaxx":0.6,"parallaxy":1,"properties":[{"name":"a","type":"int","value":255},{"name":"f","type":"int","value":0},{"name":"x","type":"int","value":-161},{"name":"y","type":"int","value":-125},{"name":"bS","type":"string","value":"Rien"},{"name":"cx","type":"int","value":0},{"name":"cy","type":"int","value":0},{"name":"no","type":"int","value":19},{"name":"rx","type":"int","value":-60},{"name":"ry","type":"int","value":-100},{"name":"ani","type":"int","value":0},{"name":"type","type":"int","value":0},{"name":"front","type":"int","value":0}]},{"id":3,"name":"background_back_2","type":"imagelayer","visible":true,"opacity":1,"image":"../images/27325.png","imagewidth":263,"imageheight":437,"offsetx":-147,"offsety":-253,"repeatx":false,"repeaty":false,"parallaxx":0.6,"parallaxy":1,"properties":[{"name":"a","type":"int","value":255},{"name":"f","type":"int","value":0},{"name":"x","type":"int","value":-16},{"name":"y","type":"int","value":-115},{"name":"bS","type":"string","value":"Rien"},{"name":"cx","type":"int","value":0},{"name":"cy","type":"int","value":0},{"name":"no","type":"int","value":20},{"name":"rx","type":"int","value":-60},{"name":"ry","type":"int","value":-100},{"name":"ani","type":"int","value":0},{"name":"type","type":"int","value":0},{"name":"front","type":"int","value":0}]},{"id":4,"name":"background_back_3","type":"imagelayer","visible":true,"opacity":1,"image":"../images/27326.png","imagewidth":949,"imageheight":541,"offsetx":-415,"offsety":-302,"repeatx":false,"repeaty":false,"parallaxx":1,"parallaxy":1,"properties":[{"name":"a","type":"int","value":255},{"name":"f","type":"int","value":0},{"name":"x","type":"int","value":59},{"name":"y","type":"int","value":-112},{"name":"bS","type":"string","value":"Rien"},{"name":"cx","type":"int","value":0},{"name":"cy","type":"int","value":0},{"name":"no","type":"int","value":21},{"name":"rx","type":"int","value":-100},{"name":"ry","type":"int","value":-100},{"name":"ani","type":"int","value":0},{"name":"type","type":"int","value":0},{"name":"front","type":"int","value":0}]},{"id":5,"name":"background_back_4","type":"objectgroup","visible":true,"opacity":1,"draworder":"index","offsetx":0,"offsety":0,"parallaxx":0.8,"parallaxy":1,"objects":[{"id":1,"x":-202,"y":289,"visible":true,"properties":[],"gid":30,"width":402,"height":591}],"properties":[{"name":"a","type":"int","value":255},{"name":"f","type":"int","value":0},{"name":"x","type":"int","value":-1},{"name":"y","type":"int","value":-87},{"name":"bS","type":"string","value":"nightDesert"},{"name":"cx","type":"int","value":0},{"name":"cy","type":"int","value":0},{"name":"no","type":"int","value":3},{"name":"rx","type":"int","value":-80},{"name":"ry","type":"int","value":-100},{"name":"ani","type":"int","value":1},{"name":"type","type":"int","value":0},{"name":"front","type":"int","value":0}]},{"id":6,"name":"background_back_5","type":"objectgroup","visible":true,"opacity":1,"draworder":"index","offsetx":0,"offsety":0,"parallaxx":0.8,"parallaxy":1,"objects":[{"id":2,"x":-243,"y":143,"visible":true,"properties":[],"gid":32,"width":264,"height":445}],"properties":[{"name":"a","type":"int","value":255},{"name":"f","type":"int","value":0},{"name":"x","type":"int","value":-111},{"name":"y","type":"int","value":-160},{"name":"bS","type":"string","value":"nightDesert"},{"name":"cx","type":"int","value":0},{"name":"cy","type":"int","value":0},{"name":"no","type":"int","value":4},{"name":"rx","type":"int","value":-80},{"name":"ry","type":"int","value":-100},{"name":"ani","type":"int","value":1},{"name":"type","type":"int","value":0},{"name":"front","type":"int","value":0}]},{"id":7,"name":"background_back_6","type":"objectgroup","visible":true,"opacity":1,"draworder":"index","offsetx":0,"offsety":0,"parallaxx":0.8,"parallaxy":1,"objects":[{"id":3,"x":-333,"y":268,"visible":true,"properties":[],"gid":34,"width":375,"height":570}],"properties":[{"name":"a","type":"int","value":255},{"name":"f","type":"int","value":0},{"name":"x","type":"int","value":-146},{"name":"y","type":"int","value":-97},{"name":"bS","type":"string","value":"nightDesert"},{"name":"cx","type":"int","value":0},{"name":"cy","type":"int","value":0},{"name":"no","type":"int","value":5},{"name":"rx","type":"int","value":-80},{"name":"ry","type":"int","value":-100},{"name":"ani","type":"int","value":1},{"name":"type","type":"int","value":0},{"name":"front","type":"int","value":0}]},{"id":8,"name":"background_back_7","type":"objectgroup","visible":true,"opacity":1,"draworder":"index","offsetx":0,"offsety":0,"parallaxx":0.8,"parallaxy":1,"objects":[{"id":4,"x":-307,"y":261,"visible":true,"properties":[],"gid":36,"width":337,"height":563}],"properties":[{"name":"a","type":"int","value":255},{"name":"f","type":"int","value":0},{"name":"x","type":"int","value":-139},{"name":"y","type":"int","value":-101},{"name":"bS","type":"string","value":"nightDesert"},{"name":"cx","type":"int","value":0},{"name":"cy","type":"int","value":0},{"name":"no","type":"int","value":6},{"name":"rx","type":"int","value":-80},{"name":"ry","type":"int","value":-100},{"name":"ani","type":"int","value":1},{"name":"type","type":"int","value":0},{"name":"front","type":"int","value":0}]},{"id":9,"name":"background_back_8","type":"objectgroup","visible":true,"opacity":1,"draworder":"index","offsetx":0,"offsety":0,"parallaxx":0.8,"parallaxy":1,"objects":[{"id":5,"x":-203,"y":157,"visible":true,"properties":[],"gid":38,"width":291,"height":459}],"properties":[{"name":"a","type":"int","value":255},{"name":"f","type":"int","value":0},{"name":"x","type":"int","value":-58},{"name":"y","type":"int","value":-153},{"name":"bS","type":"string","value":"nightDesert"},{"name":"cx","type":"int","value":0},{"name":"cy","type":"int","value":0},{"name":"no","type":"int","value":7},{"name":"rx","type":"int","value":-80},{"name":"ry","type":"int","value":-100},{"name":"ani","type":"int","value":1},{"name":"type","type":"int","value":0},{"name":"front","type":"int","value":0}]},{"id":10,"name":"background_back_9","type":"imagelayer","visible":true,"opacity":1,"image":"../images/27327.png","imagewidth":276,"imageheight":582,"offsetx":-455,"offsety":-302,"repeatx":false,"repeaty":false,"parallaxx":1,"parallaxy":1,"properties":[{"name":"a","type":"int","value":255},{"name":"f","type":"int","value":0},{"name":"x","type":"int","value":-317},{"name":"y","type":"int","value":-91},{"name":"bS","type":"string","value":"Rien"},{"name":"cx","type":"int","value":0},{"name":"cy","type":"int","value":0},{"name":"no","type":"int","value":22},{"name":"rx","type":"int","value":-100},{"name":"ry","type":"int","value":-100},{"name":"ani","type":"int","value":0},{"name":"type","type":"int","value":0},{"name":"front","type":"int","value":0}]},{"id":11,"name":"background_back_10","type":"imagelayer","visible":true,"opacity":1,"image":"../images/27328.png","imagewidth":432,"imageheight":153,"offsetx":-179,"offsety":-303,"repeatx":false,"repeaty":false,"parallaxx":1,"parallaxy":1,"properties":[{"name":"a","type":"int","value":255},{"name":"f","type":"int","value":0},{"name":"x","type":"int","value":37},{"name":"y","type":"int","value":-307},{"name":"bS","type":"string","value":"Rien"},{"name":"cx","type":"int","value":0},{"name":"cy","type":"int","value":0},{"name":"no","type":"int","value":23},{"name":"rx","type":"int","value":-100},{"name":"ry","type":"int","value":-100},{"name":"ani","type":"int","value":0},{"name":"type","type":"int","value":0},{"name":"front","type":"int","value":0}]},{"id":12,"name":"background_back_11","type":"imagelayer","visible":true,"opacity":1,"image":"../images/27329.png","imagewidth":292,"imageheight":582,"offsetx":253,"offsety":-303,"repeatx":false,"repeaty":false,"parallaxx":1,"parallaxy":1,"properties":[{"name":"a","type":"int","value":255},{"name":"f","type":"int","value":0},{"name":"x","type":"int","value":399},{"name":"y","type":"int","value":-92},{"name":"bS","type":"string","value":"Rien"},{"name":"cx","type":"int","value":0},{"name":"cy","type":"int","value":0},{"name":"no","type":"int","value":24},{"name":"rx","type":"int","value":-100},{"name":"ry","type":"int","value":-100},{"name":"ani","type":"int","value":0},{"name":"type","type":"int","value":0},{"name":"front","type":"int","value":0}]},{"id":13,"name":"layer_5_obj","type":"objectgroup","visible":true,"opacity":1,"draworder":"index","offsetx":0,"offsety":0,"parallaxx":1,"parallaxy":1,"objects":[{"id":6,"x":-456,"y":219,"visible":true,"properties":[{"name":"layer","type":"int","value":5},{"name":"resource_index","type":"int","value":0},{"name":"oS","type":"string","value":"acc12"},{"name":"l0","type":"string","value":"rienFD"},{"name":"l1","type":"string","value":"cave0"},{"name":"l2","type":"string","value":"0"},{"name":"z","type":"int","value":9},{"name":"zM","type":"int","value":0},{"name":"f","type":"int","value":0}],"gid":29,"width":1000,"height":101}],"properties":[]},{"id":14,"name":"portal","type":"objectgroup","visible":true,"opacity":1,"draworder":"index","offsetx":0,"offsety":0,"parallaxx":1,"parallaxy":1,"objects":[{"id":7,"x":241,"y":-7,"visible":true,"properties":[{"name":"x","type":"int","value":241},{"name":"y","type":"int","value":-7},{"name":"pn","type":"string","value":"sp"},{"name":"pt","type":"int","value":0},{"name":"tm","type":"int","value":999999999},{"name":"tn","type":"string","value":""},{"name":"horizontalImpact","type":"int","value":0}],"point":true}],"properties":[]},{"id":15,"name":"life","type":"objectgroup","visible":true,"opacity":1,"draworder":"index","offsetx":0,"offsety":0,"parallaxx":1,"parallaxy":1,"objects":[{"id":8,"x":-193,"y":115,"visible":true,"properties":[{"name":"f","type":"int","value":1},{"name":"x","type":"int","value":-193},{"name":"y","type":"int","value":115},{"name":"cy","type":"int","value":122},{"name":"fh","type":"int","value":1},{"name":"id","type":"int","value":1202000},{"name":"rx0","type":"int","value":-243},{"name":"rx1","type":"int","value":-143},{"name":"hide","type":"int","value":0},{"name":"type","type":"string","value":"n"},{"name":"mobTime","type":"int","value":0},{"name":"npc_aseprite","type":"file","value":"../../Npc/1202000.img/animation.aseprite"}],"point":true}],"properties":[]},{"id":16,"name":"foothold","type":"objectgroup","visible":true,"opacity":1,"draworder":"index","offsetx":0,"offsety":0,"parallaxx":1,"parallaxy":1,"objects":[{"id":9,"x":-460,"y":122,"visible":true,"properties":[{"name":"layer","type":"int","value":5},{"name":"group","type":"int","value":0},{"name":"id","type":"int","value":1},{"name":"fh_layer","type":"int","value":5},{"name":"fh_group","type":"int","value":0},{"name":"fh_id","type":"int","value":1},{"name":"x1","type":"int","value":-460},{"name":"x2","type":"int","value":548},{"name":"y1","type":"int","value":122},{"name":"y2","type":"int","value":122},{"name":"next","type":"int","value":0},{"name":"prev","type":"int","value":0}],"polyline":[{"x":0,"y":0},{"x":1008,"y":0}]}],"properties":[]}],"tilesets":[{"firstgid":1,"source":"../tilesets/bg_Rien.tsj"},{"firstgid":29,"source":"../tilesets/obj_acc12_rienFD_cave0.tsj"},{"firstgid":30,"source":"../tilesets/bg_Back_nightDesert.img_ani_3.tsj"},{"firstgid":32,"source":"../tilesets/bg_Back_nightDesert.img_ani_4.tsj"},{"firstgid":34,"source":"../tilesets/bg_Back_nightDesert.img_ani_5.tsj"},{"firstgid":36,"source":"../tilesets/bg_Back_nightDesert.img_ani_6.tsj"},{"firstgid":38,"source":"../tilesets/bg_Back_nightDesert.img_ani_7.tsj"}],"properties":[{"name":"bgm","type":"string","value":"Bgm19/CrystalCave"},{"name":"fly","type":"int","value":0},{"name":"swim","type":"int","value":0},{"name":"town","type":"int","value":0},{"name":"VRTop","type":"int","value":-385},{"name":"cloud","type":"int","value":0},{"name":"VRLeft","type":"int","value":-454},{"name":"VRRight","type":"int","value":539},{"name":"mapMark","type":"string","value":"Rien"},{"name":"mobRate","type":"float","value":1},{"name":"version","type":"int","value":10},{"name":"VRBottom","type":"int","value":215},{"name":"noMapCmd","type":"int","value":0},{"name":"returnMap","type":"int","value":140090000},{"name":"fieldLimit","type":"int","value":3009276},{"name":"hideMinimap","type":"int","value":0},{"name":"onUserEnter","type":"string","value":"iceCave"},{"name":"forcedReturn","type":"int","value":140090000},{"name":"onFirstUserEnter","type":"string","value":""}]}