{"type":"map","orientation":"orthogonal","renderorder":"right-down","infinite":false,"tilewidth":1,"tileheight":1,"width":990,"height":600,"parallaxoriginx":-400,"parallaxoriginy":80,"nextlayerid":16,"nextobjectid":19,"layers":[{"id":1,"name":"background_back_0","type":"imagelayer","visible":true,"opacity":1,"image":"../images/27323.png","imagewidth":1000,"imageheight":632,"offsetx":-500,"offsety":-236,"repeatx":false,"repeaty":false,"parallaxx":0.5,"parallaxy":1,"properties":[{"name":"a","type":"int","value":255},{"name":"f","type":"int","value":0},{"name":"x","type":"int","value":0},{"name":"y","type":"int","value":0},{"name":"bS","type":"string","value":"Rien"},{"name":"cx","type":"int","value":0},{"name":"cy","type":"int","value":0},{"name":"no","type":"int","value":18},{"name":"rx","type":"int","value":-50},{"name":"ry","type":"int","value":-100},{"name":"ani","type":"int","value":0},{"name":"type","type":"int","value":0},{"name":"front","type":"int","value":0}]},{"id":2,"name":"background_back_1","type":"imagelayer","visible":true,"opacity":1,"image":"../images/27324.png","imagewidth":170,"imageheight":373,"offsetx":-157,"offsety":-125,"repeatx":false,"repeaty":false,"parallaxx":0.8,"parallaxy":1,"properties":[{"name":"a","type":"int","value":255},{"name":"f","type":"int","value":0},{"name":"x","type":"int","value":-72},{"name":"y","type":"int","value":-19},{"name":"bS","type":"string","value":"Rien"},{"name":"cx","type":"int","value":0},{"name":"cy","type":"int","value":0},{"name":"no","type":"int","value":19},{"name":"rx","type":"int","value":-80},{"name":"ry","type":"int","value":-100},{"name":"ani","type":"int","value":0},{"name":"type","type":"int","value":0},{"name":"front","type":"int","value":0}]},{"id":3,"name":"background_back_2","type":"imagelayer","visible":true,"opacity":1,"image":"../images/27325.png","imagewidth":263,"imageheight":437,"offsetx":-40,"offsety":-158,"repeatx":false,"repeaty":false,"parallaxx":0.8,"parallaxy":1,"properties":[{"name":"a","type":"int","value":255},{"name":"f","type":"int","value":0},{"name":"x","type":"int","value":91},{"name":"y","type":"int","value":-20},{"name":"bS","type":"string","value":"Rien"},{"name":"cx","type":"int","value":0},{"name":"cy","type":"int","value":0},{"name":"no","type":"int","value":20},{"name":"rx","type":"int","value":-80},{"name":"ry","type":"int","value":-100},{"name":"ani","type":"int","value":0},{"name":"type","type":"int","value":0},{"name":"front","type":"int","value":0}]},{"id":4,"name":"background_back_3","type":"imagelayer","visible":true,"opacity":1,"image":"../images/27330.png","imagewidth":949,"imageheight":502,"offsetx":-470,"offsety":-302,"repeatx":false,"repeaty":false,"parallaxx":0.9,"parallaxy":1,"properties":[{"name":"a","type":"int","value":255},{"name":"f","type":"int","value":0},{"name":"x","type":"int","value":4},{"name":"y","type":"int","value":-131},{"name":"bS","type":"string","value":"Rien"},{"name":"cx","type":"int","value":0},{"name":"cy","type":"int","value":0},{"name":"no","type":"int","value":25},{"name":"rx","type":"int","value":-90},{"name":"ry","type":"int","value":-100},{"name":"ani","type":"int","value":0},{"name":"type","type":"int","value":0},{"name":"front","type":"int","value":0}]},{"id":5,"name":"background_back_4","type":"objectgroup","visible":true,"opacity":1,"draworder":"index","offsetx":0,"offsety":0,"parallaxx":0.95,"parallaxy":1,"objects":[{"id":1,"x":-24,"y":229,"visible":true,"properties":[],"gid":34,"width":142,"height":617}],"properties":[{"name":"a","type":"int","value":255},{"name":"f","type":"int","value":0},{"name":"x","type":"int","value":47},{"name":"y","type":"int","value":-160},{"name":"bS","type":"string","value":"Rien"},{"name":"cx","type":"int","value":0},{"name":"cy","type":"int","value":0},{"name":"no","type":"int","value":6},{"name":"rx","type":"int","value":-95},{"name":"ry","type":"int","value":-100},{"name":"ani","type":"int","value":1},{"name":"type","type":"int","value":0},{"name":"front","type":"int","value":0}]},{"id":6,"name":"background_back_5","type":"objectgroup","visible":true,"opacity":1,"draworder":"index","offsetx":0,"offsety":0,"parallaxx":0.95,"parallaxy":1,"objects":[{"id":2,"x":46,"y":150,"visible":true,"properties":[],"gid":36,"width":91,"height":468}],"properties":[{"name":"a","type":"int","value":255},{"name":"f","type":"int","value":0},{"name":"x","type":"int","value":91},{"name":"y","type":"int","value":-164},{"name":"bS","type":"string","value":"Rien"},{"name":"cx","type":"int","value":0},{"name":"cy","type":"int","value":0},{"name":"no","type":"int","value":7},{"name":"rx","type":"int","value":-95},{"name":"ry","type":"int","value":-100},{"name":"ani","type":"int","value":1},{"name":"type","type":"int","value":0},{"name":"front","type":"int","value":0}]},{"id":7,"name":"background_back_6","type":"objectgroup","visible":true,"opacity":1,"draworder":"index","offsetx":0,"offsety":0,"parallaxx":0.95,"parallaxy":1,"objects":[{"id":3,"x":-67,"y":154,"visible":true,"properties":[],"gid":38,"width":130,"height":583}],"properties":[{"name":"a","type":"int","value":255},{"name":"f","type":"int","value":0},{"name":"x","type":"int","value":-2},{"name":"y","type":"int","value":-218},{"name":"bS","type":"string","value":"Rien"},{"name":"cx","type":"int","value":0},{"name":"cy","type":"int","value":0},{"name":"no","type":"int","value":8},{"name":"rx","type":"int","value":-95},{"name":"ry","type":"int","value":-100},{"name":"ani","type":"int","value":1},{"name":"type","type":"int","value":0},{"name":"front","type":"int","value":0}]},{"id":8,"name":"background_back_7","type":"objectgroup","visible":true,"opacity":1,"draworder":"index","offsetx":0,"offsety":0,"parallaxx":0.95,"parallaxy":1,"objects":[{"id":4,"x":-181,"y":80,"visible":true,"properties":[],"gid":40,"width":158,"height":509}],"properties":[{"name":"a","type":"int","value":255},{"name":"f","type":"int","value":0},{"name":"x","type":"int","value":-102},{"name":"y","type":"int","value":-255},{"name":"bS","type":"string","value":"Rien"},{"name":"cx","type":"int","value":0},{"name":"cy","type":"int","value":0},{"name":"no","type":"int","value":9},{"name":"rx","type":"int","value":-95},{"name":"ry","type":"int","value":-100},{"name":"ani","type":"int","value":1},{"name":"type","type":"int","value":0},{"name":"front","type":"int","value":0}]},{"id":9,"name":"background_back_8","type":"objectgroup","visible":true,"opacity":1,"draworder":"index","offsetx":0,"offsety":0,"parallaxx":0.95,"parallaxy":1,"objects":[{"id":5,"x":-46,"y":80,"visible":true,"properties":[],"gid":42,"width":93,"height":450}],"properties":[{"name":"a","type":"int","value":255},{"name":"f","type":"int","value":0},{"name":"x","type":"int","value":0},{"name":"y","type":"int","value":-225},{"name":"bS","type":"string","value":"Rien"},{"name":"cx","type":"int","value":0},{"name":"cy","type":"int","value":0},{"name":"no","type":"int","value":10},{"name":"rx","type":"int","value":-95},{"name":"ry","type":"int","value":-100},{"name":"ani","type":"int","value":1},{"name":"type","type":"int","value":0},{"name":"front","type":"int","value":0}]},{"id":10,"name":"background_back_9","type":"imagelayer","visible":true,"opacity":1,"image":"../images/27331.png","imagewidth":244,"imageheight":515,"offsetx":-496,"offsety":-304,"repeatx":false,"repeaty":false,"parallaxx":1,"parallaxy":1,"properties":[{"name":"a","type":"int","value":255},{"name":"f","type":"int","value":0},{"name":"x","type":"int","value":-374},{"name":"y","type":"int","value":-127},{"name":"bS","type":"string","value":"Rien"},{"name":"cx","type":"int","value":0},{"name":"cy","type":"int","value":0},{"name":"no","type":"int","value":26},{"name":"rx","type":"int","value":-100},{"name":"ry","type":"int","value":-100},{"name":"ani","type":"int","value":0},{"name":"type","type":"int","value":0},{"name":"front","type":"int","value":0}]},{"id":11,"name":"background_back_10","type":"imagelayer","visible":true,"opacity":1,"image":"../images/27332.png","imagewidth":530,"imageheight":152,"offsetx":-252,"offsety":-304,"repeatx":false,"repeaty":false,"parallaxx":1,"parallaxy":1,"properties":[{"name":"a","type":"int","value":255},{"name":"f","type":"int","value":0},{"name":"x","type":"int","value":13},{"name":"y","type":"int","value":-308},{"name":"bS","type":"string","value":"Rien"},{"name":"cx","type":"int","value":0},{"name":"cy","type":"int","value":0},{"name":"no","type":"int","value":27},{"name":"rx","type":"int","value":-100},{"name":"ry","type":"int","value":-100},{"name":"ani","type":"int","value":0},{"name":"type","type":"int","value":0},{"name":"front","type":"int","value":0}]},{"id":12,"name":"background_back_11","type":"imagelayer","visible":true,"opacity":1,"image":"../images/27333.png","imagewidth":226,"imageheight":515,"offsetx":278,"offsety":-304,"repeatx":false,"repeaty":false,"parallaxx":1,"parallaxy":1,"properties":[{"name":"a","type":"int","value":255},{"name":"f","type":"int","value":0},{"name":"x","type":"int","value":391},{"name":"y","type":"int","value":-127},{"name":"bS","type":"string","value":"Rien"},{"name":"cx","type":"int","value":0},{"name":"cy","type":"int","value":0},{"name":"no","type":"int","value":28},{"name":"rx","type":"int","value":-100},{"name":"ry","type":"int","value":-100},{"name":"ani","type":"int","value":0},{"name":"type","type":"int","value":0},{"name":"front","type":"int","value":0}]},{"id":13,"name":"layer_5_obj","type":"objectgroup","visible":true,"opacity":1,"draworder":"index","offsetx":0,"offsety":0,"parallaxx":1,"parallaxy":1,"objects":[{"id":6,"x":-498,"y":219,"visible":true,"properties":[{"name":"layer","type":"int","value":5},{"name":"resource_index","type":"int","value":0},{"name":"oS","type":"string","value":"acc12"},{"name":"l0","type":"string","value":"rienFD"},{"name":"l1","type":"string","value":"cave0"},{"name":"l2","type":"string","value":"0"},{"name":"z","type":"int","value":9},{"name":"zM","type":"int","value":0},{"name":"f","type":"int","value":0}],"gid":25,"width":1000,"height":101},{"id":7,"x":-296,"y":123,"visible":true,"properties":[{"name":"layer","type":"int","value":5},{"name":"resource_index","type":"int","value":1},{"name":"oS","type":"string","value":"acc12"},{"name":"l0","type":"string","value":"rienFD"},{"name":"l1","type":"string","value":"cave1"},{"name":"l2","type":"string","value":"0"},{"name":"z","type":"int","value":6},{"name":"zM","type":"int","value":0},{"name":"f","type":"int","value":0}],"gid":27,"width":154,"height":199},{"id":8,"x":-142,"y":123,"visible":true,"properties":[{"name":"layer","type":"int","value":5},{"name":"resource_index","type":"int","value":2},{"name":"oS","type":"string","value":"acc12"},{"name":"l0","type":"string","value":"rienFD"},{"name":"l1","type":"string","value":"cave1"},{"name":"l2","type":"string","value":"1"},{"name":"z","type":"int","value":6},{"name":"zM","type":"int","value":0},{"name":"f","type":"int","value":0}],"gid":28,"width":286,"height":335},{"id":9,"x":144,"y":122,"visible":true,"properties":[{"name":"layer","type":"int","value":5},{"name":"resource_index","type":"int","value":3},{"name":"oS","type":"string","value":"acc12"},{"name":"l0","type":"string","value":"rienFD"},{"name":"l1","type":"string","value":"cave1"},{"name":"l2","type":"string","value":"2"},{"name":"z","type":"int","value":6},{"name":"zM","type":"int","value":0},{"name":"f","type":"int","value":0}],"gid":29,"width":159,"height":204},{"id":10,"x":-64,"y":134,"visible":true,"properties":[{"name":"layer","type":"int","value":5},{"name":"resource_index","type":"int","value":4},{"name":"oS","type":"string","value":"acc12"},{"name":"l0","type":"string","value":"rienFD"},{"name":"l1","type":"string","value":"cave1"},{"name":"l2","type":"string","value":"3"},{"name":"z","type":"int","value":9},{"name":"zM","type":"int","value":0},{"name":"f","type":"int","value":0}],"gid":26,"width":127,"height":178},{"id":11,"x":-259,"y":121,"visible":true,"properties":[{"name":"layer","type":"int","value":5},{"name":"resource_index","type":"int","value":5},{"name":"oS","type":"string","value":"acc12"},{"name":"l0","type":"string","value":"rienFD"},{"name":"l1","type":"string","value":"cave1"},{"name":"l2","type":"string","value":"4"},{"name":"z","type":"int","value":10},{"name":"zM","type":"int","value":0},{"name":"f","type":"int","value":0}],"gid":30,"width":151,"height":143},{"id":12,"x":76,"y":124,"visible":true,"properties":[{"name":"layer","type":"int","value":5},{"name":"resource_index","type":"int","value":6},{"name":"oS","type":"string","value":"acc12"},{"name":"l0","type":"string","value":"rienFD"},{"name":"l1","type":"string","value":"cave1"},{"name":"l2","type":"string","value":"5"},{"name":"z","type":"int","value":10},{"name":"zM","type":"int","value":0},{"name":"f","type":"int","value":0}],"gid":31,"width":37,"height":77},{"id":13,"x":173,"y":113,"visible":true,"properties":[{"name":"layer","type":"int","value":5},{"name":"resource_index","type":"int","value":7},{"name":"oS","type":"string","value":"acc12"},{"name":"l0","type":"string","value":"rienFD"},{"name":"l1","type":"string","value":"cave1"},{"name":"l2","type":"string","value":"6"},{"name":"z","type":"int","value":10},{"name":"zM","type":"int","value":0},{"name":"f","type":"int","value":0}],"gid":32,"width":77,"height":126},{"id":14,"x":47,"y":-32,"visible":true,"properties":[{"name":"layer","type":"int","value":5},{"name":"resource_index","type":"int","value":8},{"name":"oS","type":"string","value":"acc12"},{"name":"l0","type":"string","value":"rienFD"},{"name":"l1","type":"string","value":"cave1"},{"name":"l2","type":"string","value":"7"},{"name":"z","type":"int","value":10},{"name":"zM","type":"int","value":0},{"name":"f","type":"int","value":0}],"gid":33,"width":67,"height":96}],"properties":[]},{"id":14,"name":"portal","type":"objectgroup","visible":true,"opacity":1,"draworder":"index","offsetx":0,"offsety":0,"parallaxx":1,"parallaxy":1,"objects":[{"id":15,"x":14,"y":-64,"visible":true,"properties":[{"name":"x","type":"int","value":14},{"name":"y","type":"int","value":-64},{"name":"pn","type":"string","value":"sp"},{"name":"pt","type":"int","value":0},{"name":"tm","type":"int","value":999999999},{"name":"tn","type":"string","value":""},{"name":"horizontalImpact","type":"int","value":0}],"point":true},{"id":16,"x":-452,"y":130,"visible":true,"properties":[{"name":"x","type":"int","value":-408},{"name":"y","type":"int","value":121},{"name":"pn","type":"string","value":"out00"},{"name":"pt","type":"int","value":2},{"name":"tm","type":"int","value":140010200},{"name":"tn","type":"string","value":"in00"},{"name":"horizontalImpact","type":"int","value":0}],"gid":44,"width":89,"height":257},{"id":17,"x":-3,"y":122,"visible":true,"properties":[{"name":"x","type":"int","value":-3},{"name":"y","type":"int","value":122},{"name":"pn","type":"string","value":"in00"},{"name":"pt","type":"int","value":8},{"name":"tm","type":"int","value":999999999},{"name":"tn","type":"string","value":""},{"name":"script","type":"string","value":"enterMCave"},{"name":"horizontalImpact","type":"int","value":0}],"point":true}],"properties":[]},{"id":15,"name":"foothold","type":"objectgroup","visible":true,"opacity":1,"draworder":"index","offsetx":0,"offsety":0,"parallaxx":1,"parallaxy":1,"objects":[{"id":18,"x":-502,"y":122,"visible":true,"properties":[{"name":"layer","type":"int","value":5},{"name":"group","type":"int","value":0},{"name":"id","type":"int","value":1},{"name":"fh_layer","type":"int","value":5},{"name":"fh_group","type":"int","value":0},{"name":"fh_id","type":"int","value":1},{"name":"x1","type":"int","value":-502},{"name":"x2","type":"int","value":506},{"name":"y1","type":"int","value":122},{"name":"y2","type":"int","value":122},{"name":"next","type":"int","value":0},{"name":"prev","type":"int","value":0}],"polyline":[{"x":0,"y":0},{"x":1008,"y":0}]}],"properties":[]}],"tilesets":[{"firstgid":1,"source":"../tilesets/bg_Rien.tsj"},{"firstgid":25,"source":"../tilesets/obj_acc12_rienFD_cave0.tsj"},{"firstgid":26,"source":"../tilesets/obj_acc12_rienFD_cave1.tsj"},{"firstgid":34,"source":"../tilesets/bg_Back_Rien.img_ani_6.tsj"},{"firstgid":36,"source":"../tilesets/bg_Back_Rien.img_ani_7.tsj"},{"firstgid":38,"source":"../tilesets/bg_Back_Rien.img_ani_8.tsj"},{"firstgid":40,"source":"../tilesets/bg_Back_Rien.img_ani_9.tsj"},{"firstgid":42,"source":"../tilesets/bg_Back_Rien.img_ani_10.tsj"},{"firstgid":44,"source":"../tilesets/portal_MapHelper.img_portal_game_pv.tsj"}],"properties":[{"name":"bgm","type":"string","value":"Bgm19/CrystalCave"},{"name":"fly","type":"int","value":0},{"name":"swim","type":"int","value":0},{"name":"town","type":"int","value":0},{"name":"VRTop","type":"int","value":-385},{"name":"cloud","type":"int","value":0},{"name":"VRLeft","type":"int","value":-495},{"name":"VRRight","type":"int","value":495},{"name":"mapMark","type":"string","value":"Rien"},{"name":"mobRate","type":"float","value":1},{"name":"version","type":"int","value":10},{"name":"VRBottom","type":"int","value":215},{"name":"noMapCmd","type":"int","value":0},{"name":"returnMap","type":"int","value":140000000},{"name":"fieldLimit","type":"int","value":0},{"name":"hideMinimap","type":"int","value":0},{"name":"onUserEnter","type":"string","value":"mirrorCave"},{"name":"forcedReturn","type":"int","value":999999999},{"name":"onFirstUserEnter","type":"string","value":""}]}