{"type":"map","orientation":"orthogonal","renderorder":"right-down","infinite":false,"tilewidth":1,"tileheight":1,"width":1798,"height":980,"parallaxoriginx":-400,"parallaxoriginy":80,"nextlayerid":31,"nextobjectid":225,"layers":[{"id":1,"name":"background_back_0","type":"imagelayer","visible":true,"opacity":1,"image":"../images/27305.png","imagewidth":30,"imageheight":30,"offsetx":-15,"offsety":65,"repeatx":true,"repeaty":true,"parallaxx":0,"parallaxy":0,"properties":[{"name":"a","type":"int","value":255},{"name":"f","type":"int","value":0},{"name":"x","type":"int","value":0},{"name":"y","type":"int","value":0},{"name":"bS","type":"string","value":"Rien"},{"name":"cx","type":"int","value":0},{"name":"cy","type":"int","value":0},{"name":"no","type":"int","value":0},{"name":"rx","type":"int","value":0},{"name":"ry","type":"int","value":0},{"name":"ani","type":"int","value":0},{"name":"type","type":"int","value":3},{"name":"front","type":"int","value":0}]},{"id":2,"name":"background_back_1","type":"imagelayer","visible":true,"opacity":1,"image":"../images/27306.png","imagewidth":10,"imageheight":818,"offsetx":-5,"offsety":-549,"repeatx":true,"repeaty":false,"parallaxx":0,"parallaxy":0.7,"properties":[{"name":"a","type":"int","value":255},{"name":"f","type":"int","value":0},{"name":"x","type":"int","value":0},{"name":"y","type":"int","value":-220},{"name":"bS","type":"string","value":"Rien"},{"name":"cx","type":"int","value":0},{"name":"cy","type":"int","value":0},{"name":"no","type":"int","value":1},{"name":"rx","type":"int","value":0},{"name":"ry","type":"int","value":-70},{"name":"ani","type":"int","value":0},{"name":"type","type":"int","value":1},{"name":"front","type":"int","value":0}]},{"id":3,"name":"background_back_2","type":"imagelayer","visible":true,"opacity":1,"image":"../images/27307.png","imagewidth":800,"imageheight":366,"offsetx":-768,"offsety":-549,"repeatx":true,"repeaty":false,"parallaxx":0.07,"parallaxy":0.5,"properties":[{"name":"a","type":"int","value":255},{"name":"f","type":"int","value":0},{"name":"x","type":"int","value":-368},{"name":"y","type":"int","value":-446},{"name":"bS","type":"string","value":"Rien"},{"name":"cx","type":"int","value":1600},{"name":"cy","type":"int","value":0},{"name":"no","type":"int","value":2},{"name":"rx","type":"int","value":-7},{"name":"ry","type":"int","value":-50},{"name":"ani","type":"int","value":0},{"name":"type","type":"int","value":1},{"name":"front","type":"int","value":0}]},{"id":4,"name":"background_back_3","type":"imagelayer","visible":true,"opacity":1,"image":"../images/27308.png","imagewidth":800,"imageheight":206,"offsetx":32,"offsety":-389,"repeatx":true,"repeaty":false,"parallaxx":0.07,"parallaxy":0.5,"properties":[{"name":"a","type":"int","value":255},{"name":"f","type":"int","value":0},{"name":"x","type":"int","value":432},{"name":"y","type":"int","value":-366},{"name":"bS","type":"string","value":"Rien"},{"name":"cx","type":"int","value":1600},{"name":"cy","type":"int","value":0},{"name":"no","type":"int","value":3},{"name":"rx","type":"int","value":-7},{"name":"ry","type":"int","value":-50},{"name":"ani","type":"int","value":0},{"name":"type","type":"int","value":1},{"name":"front","type":"int","value":0}]},{"id":5,"name":"background_back_4","type":"imagelayer","visible":true,"opacity":1,"image":"../images/27309.png","imagewidth":800,"imageheight":134,"offsetx":-1200,"offsety":-213,"repeatx":true,"repeaty":false,"parallaxx":0.2,"parallaxy":0.6,"properties":[{"name":"a","type":"int","value":255},{"name":"f","type":"int","value":0},{"name":"x","type":"int","value":-800},{"name":"y","type":"int","value":-226},{"name":"bS","type":"string","value":"Rien"},{"name":"cx","type":"int","value":2400},{"name":"cy","type":"int","value":0},{"name":"no","type":"int","value":4},{"name":"rx","type":"int","value":-20},{"name":"ry","type":"int","value":-60},{"name":"ani","type":"int","value":0},{"name":"type","type":"int","value":1},{"name":"front","type":"int","value":0}]},{"id":6,"name":"background_back_5","type":"imagelayer","visible":true,"opacity":1,"image":"../images/27310.png","imagewidth":800,"imageheight":161,"offsetx":-400,"offsety":-240,"repeatx":true,"repeaty":false,"parallaxx":0.2,"parallaxy":0.6,"properties":[{"name":"a","type":"int","value":255},{"name":"f","type":"int","value":0},{"name":"x","type":"int","value":0},{"name":"y","type":"int","value":-240},{"name":"bS","type":"string","value":"Rien"},{"name":"cx","type":"int","value":2400},{"name":"cy","type":"int","value":0},{"name":"no","type":"int","value":5},{"name":"rx","type":"int","value":-20},{"name":"ry","type":"int","value":-60},{"name":"ani","type":"int","value":0},{"name":"type","type":"int","value":1},{"name":"front","type":"int","value":0}]},{"id":7,"name":"background_back_6","type":"imagelayer","visible":true,"opacity":1,"image":"../images/27311.png","imagewidth":800,"imageheight":116,"offsetx":400,"offsety":-195,"repeatx":true,"repeaty":false,"parallaxx":0.2,"parallaxy":0.6,"properties":[{"name":"a","type":"int","value":255},{"name":"f","type":"int","value":0},{"name":"x","type":"int","value":800},{"name":"y","type":"int","value":-217},{"name":"bS","type":"string","value":"Rien"},{"name":"cx","type":"int","value":2400},{"name":"cy","type":"int","value":0},{"name":"no","type":"int","value":6},{"name":"rx","type":"int","value":-20},{"name":"ry","type":"int","value":-60},{"name":"ani","type":"int","value":0},{"name":"type","type":"int","value":1},{"name":"front","type":"int","value":0}]},{"id":8,"name":"background_back_7","type":"imagelayer","visible":true,"opacity":1,"image":"../images/27312.png","imagewidth":800,"imageheight":240,"offsetx":-400,"offsety":66,"repeatx":true,"repeaty":false,"parallaxx":0,"parallaxy":1,"properties":[{"name":"a","type":"int","value":255},{"name":"f","type":"int","value":0},{"name":"x","type":"int","value":0},{"name":"y","type":"int","value":106},{"name":"bS","type":"string","value":"Rien"},{"name":"cx","type":"int","value":0},{"name":"cy","type":"int","value":0},{"name":"no","type":"int","value":7},{"name":"rx","type":"int","value":0},{"name":"ry","type":"int","value":-100},{"name":"ani","type":"int","value":0},{"name":"type","type":"int","value":1},{"name":"front","type":"int","value":0}]},{"id":9,"name":"background_back_8","type":"imagelayer","visible":true,"opacity":1,"image":"../images/27313.png","imagewidth":800,"imageheight":267,"offsetx":-400,"offsety":-86,"repeatx":true,"repeaty":false,"parallaxx":0.3,"parallaxy":0.6,"properties":[{"name":"a","type":"int","value":255},{"name":"f","type":"int","value":0},{"name":"x","type":"int","value":0},{"name":"y","type":"int","value":-33},{"name":"bS","type":"string","value":"Rien"},{"name":"cx","type":"int","value":0},{"name":"cy","type":"int","value":0},{"name":"no","type":"int","value":8},{"name":"rx","type":"int","value":-30},{"name":"ry","type":"int","value":-60},{"name":"ani","type":"int","value":0},{"name":"type","type":"int","value":1},{"name":"front","type":"int","value":0}]},{"id":10,"name":"background_back_9","type":"imagelayer","visible":true,"opacity":1,"image":"../images/27314.png","imagewidth":800,"imageheight":249,"offsetx":-1200,"offsety":-130,"repeatx":true,"repeaty":false,"parallaxx":0.3,"parallaxy":0.7,"properties":[{"name":"a","type":"int","value":255},{"name":"f","type":"int","value":0},{"name":"x","type":"int","value":-800},{"name":"y","type":"int","value":-86},{"name":"bS","type":"string","value":"Rien"},{"name":"cx","type":"int","value":2400},{"name":"cy","type":"int","value":0},{"name":"no","type":"int","value":9},{"name":"rx","type":"int","value":-30},{"name":"ry","type":"int","value":-70},{"name":"ani","type":"int","value":0},{"name":"type","type":"int","value":1},{"name":"front","type":"int","value":0}]},{"id":11,"name":"background_back_10","type":"imagelayer","visible":true,"opacity":1,"image":"../images/27315.png","imagewidth":800,"imageheight":367,"offsetx":-400,"offsety":-246,"repeatx":true,"repeaty":false,"parallaxx":0.3,"parallaxy":0.7,"properties":[{"name":"a","type":"int","value":255},{"name":"f","type":"int","value":0},{"name":"x","type":"int","value":0},{"name":"y","type":"int","value":-143},{"name":"bS","type":"string","value":"Rien"},{"name":"cx","type":"int","value":2400},{"name":"cy","type":"int","value":0},{"name":"no","type":"int","value":10},{"name":"rx","type":"int","value":-30},{"name":"ry","type":"int","value":-70},{"name":"ani","type":"int","value":0},{"name":"type","type":"int","value":1},{"name":"front","type":"int","value":0}]},{"id":12,"name":"background_back_11","type":"imagelayer","visible":true,"opacity":1,"image":"../images/27316.png","imagewidth":800,"imageheight":322,"offsetx":400,"offsety":-202,"repeatx":true,"repeaty":false,"parallaxx":0.3,"parallaxy":0.7,"properties":[{"name":"a","type":"int","value":255},{"name":"f","type":"int","value":0},{"name":"x","type":"int","value":800},{"name":"y","type":"int","value":-121},{"name":"bS","type":"string","value":"Rien"},{"name":"cx","type":"int","value":2400},{"name":"cy","type":"int","value":0},{"name":"no","type":"int","value":11},{"name":"rx","type":"int","value":-30},{"name":"ry","type":"int","value":-70},{"name":"ani","type":"int","value":0},{"name":"type","type":"int","value":1},{"name":"front","type":"int","value":0}]},{"id":13,"name":"background_back_12","type":"imagelayer","visible":true,"opacity":1,"image":"../images/27317.png","imagewidth":800,"imageheight":395,"offsetx":-1200,"offsety":-204,"repeatx":true,"repeaty":false,"parallaxx":0.6,"parallaxy":1,"properties":[{"name":"a","type":"int","value":255},{"name":"f","type":"int","value":0},{"name":"x","type":"int","value":-800},{"name":"y","type":"int","value":-87},{"name":"bS","type":"string","value":"Rien"},{"name":"cx","type":"int","value":2400},{"name":"cy","type":"int","value":0},{"name":"no","type":"int","value":12},{"name":"rx","type":"int","value":-60},{"name":"ry","type":"int","value":-100},{"name":"ani","type":"int","value":0},{"name":"type","type":"int","value":1},{"name":"front","type":"int","value":0}]},{"id":14,"name":"background_back_13","type":"imagelayer","visible":true,"opacity":1,"image":"../images/27318.png","imagewidth":800,"imageheight":333,"offsetx":-400,"offsety":-157,"repeatx":true,"repeaty":false,"parallaxx":0.6,"parallaxy":1,"properties":[{"name":"a","type":"int","value":255},{"name":"f","type":"int","value":0},{"name":"x","type":"int","value":0},{"name":"y","type":"int","value":-71},{"name":"bS","type":"string","value":"Rien"},{"name":"cx","type":"int","value":2400},{"name":"cy","type":"int","value":0},{"name":"no","type":"int","value":13},{"name":"rx","type":"int","value":-60},{"name":"ry","type":"int","value":-100},{"name":"ani","type":"int","value":0},{"name":"type","type":"int","value":1},{"name":"front","type":"int","value":0}]},{"id":15,"name":"background_back_14","type":"imagelayer","visible":true,"opacity":1,"image":"../images/27319.png","imagewidth":800,"imageheight":358,"offsetx":400,"offsety":-175,"repeatx":true,"repeaty":false,"parallaxx":0.6,"parallaxy":1,"properties":[{"name":"a","type":"int","value":255},{"name":"f","type":"int","value":0},{"name":"x","type":"int","value":800},{"name":"y","type":"int","value":-76},{"name":"bS","type":"string","value":"Rien"},{"name":"cx","type":"int","value":2400},{"name":"cy","type":"int","value":0},{"name":"no","type":"int","value":14},{"name":"rx","type":"int","value":-60},{"name":"ry","type":"int","value":-100},{"name":"ani","type":"int","value":0},{"name":"type","type":"int","value":1},{"name":"front","type":"int","value":0}]},{"id":16,"name":"background_back_15","type":"objectgroup","visible":true,"opacity":1,"draworder":"index","offsetx":0,"offsety":0,"parallaxx":0.7,"parallaxy":0.2,"objects":[{"id":1,"x":-3854,"y":275,"visible":true,"properties":[],"gid":51,"width":516,"height":723},{"id":2,"x":-3338,"y":275,"visible":true,"properties":[],"gid":51,"width":516,"height":723},{"id":3,"x":-2822,"y":275,"visible":true,"properties":[],"gid":51,"width":516,"height":723},{"id":4,"x":-2306,"y":275,"visible":true,"properties":[],"gid":51,"width":516,"height":723},{"id":5,"x":-1790,"y":275,"visible":true,"properties":[],"gid":51,"width":516,"height":723},{"id":6,"x":-1274,"y":275,"visible":true,"properties":[],"gid":51,"width":516,"height":723}],"properties":[{"name":"a","type":"int","value":255},{"name":"f","type":"int","value":0},{"name":"x","type":"int","value":-500},{"name":"y","type":"int","value":-167},{"name":"bS","type":"string","value":"Rien"},{"name":"cx","type":"int","value":3000},{"name":"cy","type":"int","value":0},{"name":"no","type":"int","value":0},{"name":"rx","type":"int","value":-70},{"name":"ry","type":"int","value":-20},{"name":"ani","type":"int","value":1},{"name":"type","type":"int","value":1},{"name":"front","type":"int","value":0}]},{"id":17,"name":"background_back_16","type":"objectgroup","visible":true,"opacity":1,"draworder":"index","offsetx":0,"offsety":0,"parallaxx":0.7,"parallaxy":0.2,"objects":[{"id":7,"x":-4267,"y":211,"visible":true,"properties":[],"gid":53,"width":529,"height":659},{"id":8,"x":-3738,"y":211,"visible":true,"properties":[],"gid":53,"width":529,"height":659},{"id":9,"x":-3209,"y":211,"visible":true,"properties":[],"gid":53,"width":529,"height":659},{"id":10,"x":-2680,"y":211,"visible":true,"properties":[],"gid":53,"width":529,"height":659},{"id":11,"x":-2151,"y":211,"visible":true,"properties":[],"gid":53,"width":529,"height":659},{"id":12,"x":-1622,"y":211,"visible":true,"properties":[],"gid":53,"width":529,"height":659},{"id":13,"x":-1093,"y":211,"visible":true,"properties":[],"gid":53,"width":529,"height":659}],"properties":[{"name":"a","type":"int","value":255},{"name":"f","type":"int","value":0},{"name":"x","type":"int","value":-300},{"name":"y","type":"int","value":-199},{"name":"bS","type":"string","value":"Rien"},{"name":"cx","type":"int","value":3200},{"name":"cy","type":"int","value":0},{"name":"no","type":"int","value":1},{"name":"rx","type":"int","value":-70},{"name":"ry","type":"int","value":-20},{"name":"ani","type":"int","value":1},{"name":"type","type":"int","value":1},{"name":"front","type":"int","value":0}]},{"id":18,"name":"background_back_17","type":"objectgroup","visible":true,"opacity":1,"draworder":"index","offsetx":0,"offsety":0,"parallaxx":0.7,"parallaxy":0.2,"objects":[{"id":14,"x":-3844,"y":-7,"visible":true,"properties":[],"gid":55,"width":376,"height":443},{"id":15,"x":-3468,"y":-7,"visible":true,"properties":[],"gid":55,"width":376,"height":443},{"id":16,"x":-3092,"y":-7,"visible":true,"properties":[],"gid":55,"width":376,"height":443},{"id":17,"x":-2716,"y":-7,"visible":true,"properties":[],"gid":55,"width":376,"height":443},{"id":18,"x":-2340,"y":-7,"visible":true,"properties":[],"gid":55,"width":376,"height":443},{"id":19,"x":-1964,"y":-7,"visible":true,"properties":[],"gid":55,"width":376,"height":443},{"id":20,"x":-1588,"y":-7,"visible":true,"properties":[],"gid":55,"width":376,"height":443},{"id":21,"x":-1212,"y":-7,"visible":true,"properties":[],"gid":55,"width":376,"height":443}],"properties":[{"name":"a","type":"int","value":255},{"name":"f","type":"int","value":0},{"name":"x","type":"int","value":-1400},{"name":"y","type":"int","value":-309},{"name":"bS","type":"string","value":"Rien"},{"name":"cx","type":"int","value":3400},{"name":"cy","type":"int","value":0},{"name":"no","type":"int","value":2},{"name":"rx","type":"int","value":-70},{"name":"ry","type":"int","value":-20},{"name":"ani","type":"int","value":1},{"name":"type","type":"int","value":1},{"name":"front","type":"int","value":0}]},{"id":19,"name":"background_back_18","type":"objectgroup","visible":true,"opacity":1,"draworder":"index","offsetx":0,"offsety":0,"parallaxx":0.7,"parallaxy":0.2,"objects":[{"id":22,"x":-3909,"y":172,"visible":true,"properties":[],"gid":57,"width":554,"height":619},{"id":23,"x":-3355,"y":172,"visible":true,"properties":[],"gid":57,"width":554,"height":619},{"id":24,"x":-2801,"y":172,"visible":true,"properties":[],"gid":57,"width":554,"height":619},{"id":25,"x":-2247,"y":172,"visible":true,"properties":[],"gid":57,"width":554,"height":619},{"id":26,"x":-1693,"y":172,"visible":true,"properties":[],"gid":57,"width":554,"height":619},{"id":27,"x":-1139,"y":172,"visible":true,"properties":[],"gid":57,"width":554,"height":619}],"properties":[{"name":"a","type":"int","value":255},{"name":"f","type":"int","value":0},{"name":"x","type":"int","value":800},{"name":"y","type":"int","value":-218},{"name":"bS","type":"string","value":"Rien"},{"name":"cx","type":"int","value":3600},{"name":"cy","type":"int","value":0},{"name":"no","type":"int","value":3},{"name":"rx","type":"int","value":-70},{"name":"ry","type":"int","value":-20},{"name":"ani","type":"int","value":1},{"name":"type","type":"int","value":1},{"name":"front","type":"int","value":0}]},{"id":20,"name":"background_back_19","type":"objectgroup","visible":true,"opacity":1,"draworder":"index","offsetx":0,"offsety":0,"parallaxx":0.7,"parallaxy":0.2,"objects":[{"id":28,"x":-3809,"y":58,"visible":true,"properties":[],"gid":59,"width":424,"height":506},{"id":29,"x":-3385,"y":58,"visible":true,"properties":[],"gid":59,"width":424,"height":506},{"id":30,"x":-2961,"y":58,"visible":true,"properties":[],"gid":59,"width":424,"height":506},{"id":31,"x":-2537,"y":58,"visible":true,"properties":[],"gid":59,"width":424,"height":506},{"id":32,"x":-2113,"y":58,"visible":true,"properties":[],"gid":59,"width":424,"height":506},{"id":33,"x":-1689,"y":58,"visible":true,"properties":[],"gid":59,"width":424,"height":506},{"id":34,"x":-1265,"y":58,"visible":true,"properties":[],"gid":59,"width":424,"height":506}],"properties":[{"name":"a","type":"int","value":255},{"name":"f","type":"int","value":0},{"name":"x","type":"int","value":-1901},{"name":"y","type":"int","value":-275},{"name":"bS","type":"string","value":"Rien"},{"name":"cx","type":"int","value":3800},{"name":"cy","type":"int","value":0},{"name":"no","type":"int","value":4},{"name":"rx","type":"int","value":-70},{"name":"ry","type":"int","value":-20},{"name":"ani","type":"int","value":1},{"name":"type","type":"int","value":1},{"name":"front","type":"int","value":0}]},{"id":21,"name":"layer_2_obj","type":"objectgroup","visible":true,"opacity":1,"draworder":"index","offsetx":0,"offsety":0,"parallaxx":1,"parallaxy":1,"objects":[{"id":35,"x":-2739,"y":88,"visible":true,"properties":[{"name":"layer","type":"int","value":2},{"name":"resource_index","type":"int","value":0},{"name":"oS","type":"string","value":"acc12"},{"name":"l0","type":"string","value":"rienFD"},{"name":"l1","type":"string","value":"ice"},{"name":"l2","type":"string","value":"1"},{"name":"z","type":"int","value":9},{"name":"zM","type":"int","value":3},{"name":"f","type":"int","value":0}],"gid":43,"width":289,"height":158},{"id":36,"x":-1787,"y":90,"visible":true,"properties":[{"name":"layer","type":"int","value":2},{"name":"resource_index","type":"int","value":1},{"name":"oS","type":"string","value":"acc12"},{"name":"l0","type":"string","value":"rienFD"},{"name":"l1","type":"string","value":"nature1"},{"name":"l2","type":"string","value":"8"},{"name":"z","type":"int","value":9},{"name":"zM","type":"int","value":1},{"name":"f","type":"int","value":0}],"gid":61,"width":349,"height":531},{"id":37,"x":-1881,"y":102,"visible":true,"properties":[{"name":"layer","type":"int","value":2},{"name":"resource_index","type":"int","value":2},{"name":"oS","type":"string","value":"acc12"},{"name":"l0","type":"string","value":"rienFD"},{"name":"l1","type":"string","value":"nature1"},{"name":"l2","type":"string","value":"5"},{"name":"z","type":"int","value":8},{"name":"zM","type":"int","value":1},{"name":"f","type":"int","value":0}],"gid":70,"width":252,"height":514},{"id":38,"x":-3256,"y":92,"visible":true,"properties":[{"name":"layer","type":"int","value":2},{"name":"resource_index","type":"int","value":3},{"name":"oS","type":"string","value":"acc12"},{"name":"l0","type":"string","value":"rienFD"},{"name":"l1","type":"string","value":"nature1"},{"name":"l2","type":"string","value":"5"},{"name":"z","type":"int","value":9},{"name":"zM","type":"int","value":2},{"name":"f","type":"int","value":0}],"gid":70,"width":252,"height":514},{"id":39,"x":-3151,"y":95,"visible":true,"properties":[{"name":"layer","type":"int","value":2},{"name":"resource_index","type":"int","value":4},{"name":"oS","type":"string","value":"acc12"},{"name":"l0","type":"string","value":"rienFD"},{"name":"l1","type":"string","value":"nature1"},{"name":"l2","type":"string","value":"6"},{"name":"z","type":"int","value":9},{"name":"zM","type":"int","value":2},{"name":"f","type":"int","value":0}],"gid":63,"width":232,"height":393},{"id":40,"x":-2362,"y":85,"visible":true,"properties":[{"name":"layer","type":"int","value":2},{"name":"resource_index","type":"int","value":5},{"name":"oS","type":"string","value":"acc12"},{"name":"l0","type":"string","value":"rienFD"},{"name":"l1","type":"string","value":"nature1"},{"name":"l2","type":"string","value":"6"},{"name":"z","type":"int","value":9},{"name":"zM","type":"int","value":6},{"name":"f","type":"int","value":0}],"gid":63,"width":232,"height":393},{"id":41,"x":-2596,"y":87,"visible":true,"properties":[{"name":"layer","type":"int","value":2},{"name":"resource_index","type":"int","value":6},{"name":"oS","type":"string","value":"acc12"},{"name":"l0","type":"string","value":"rienFD"},{"name":"l1","type":"string","value":"nature1"},{"name":"l2","type":"string","value":"8"},{"name":"z","type":"int","value":9},{"name":"zM","type":"int","value":3},{"name":"f","type":"int","value":0}],"gid":61,"width":349,"height":531},{"id":42,"x":-2923,"y":87,"visible":true,"properties":[{"name":"layer","type":"int","value":2},{"name":"resource_index","type":"int","value":7},{"name":"oS","type":"string","value":"acc12"},{"name":"l0","type":"string","value":"rienFD"},{"name":"l1","type":"string","value":"acc"},{"name":"l2","type":"string","value":"7"},{"name":"z","type":"int","value":9},{"name":"zM","type":"int","value":3},{"name":"f","type":"int","value":0}],"gid":40,"width":354,"height":190}],"properties":[]},{"id":22,"name":"layer_3_obj","type":"objectgroup","visible":true,"opacity":1,"draworder":"index","offsetx":0,"offsety":0,"parallaxx":1,"parallaxy":1,"objects":[{"id":57,"x":-2148,"y":-215,"visible":true,"properties":[{"name":"layer","type":"int","value":3},{"name":"resource_index","type":"int","value":0},{"name":"oS","type":"string","value":"acc12"},{"name":"l0","type":"string","value":"rienTR"},{"name":"l1","type":"string","value":"door"},{"name":"l2","type":"string","value":"0"},{"name":"z","type":"int","value":9},{"name":"zM","type":"int","value":12},{"name":"f","type":"int","value":0}],"gid":48,"width":315,"height":125},{"id":58,"x":-2197,"y":-140,"visible":true,"properties":[{"name":"layer","type":"int","value":3},{"name":"resource_index","type":"int","value":1},{"name":"oS","type":"string","value":"acc12"},{"name":"l0","type":"string","value":"rienTR"},{"name":"l1","type":"string","value":"door"},{"name":"l2","type":"string","value":"1"},{"name":"z","type":"int","value":9},{"name":"zM","type":"int","value":10},{"name":"f","type":"int","value":0}],"gid":49,"width":408,"height":75},{"id":59,"x":-2390,"y":85,"visible":true,"properties":[{"name":"layer","type":"int","value":3},{"name":"resource_index","type":"int","value":2},{"name":"oS","type":"string","value":"acc12"},{"name":"l0","type":"string","value":"rienTR"},{"name":"l1","type":"string","value":"door"},{"name":"l2","type":"string","value":"2"},{"name":"z","type":"int","value":9},{"name":"zM","type":"int","value":4},{"name":"f","type":"int","value":0}],"gid":50,"width":950,"height":225},{"id":60,"x":-2410,"y":87,"visible":true,"properties":[{"name":"layer","type":"int","value":3},{"name":"resource_index","type":"int","value":3},{"name":"oS","type":"string","value":"acc12"},{"name":"l0","type":"string","value":"rienFD"},{"name":"l1","type":"string","value":"nature1"},{"name":"l2","type":"string","value":"17"},{"name":"z","type":"int","value":10},{"name":"zM","type":"int","value":4},{"name":"f","type":"int","value":0}],"gid":71,"width":122,"height":93},{"id":61,"x":-2668,"y":87,"visible":true,"properties":[{"name":"layer","type":"int","value":3},{"name":"resource_index","type":"int","value":4},{"name":"oS","type":"string","value":"acc12"},{"name":"l0","type":"string","value":"rienFD"},{"name":"l1","type":"string","value":"nature1"},{"name":"l2","type":"string","value":"20"},{"name":"z","type":"int","value":9},{"name":"zM","type":"int","value":5},{"name":"f","type":"int","value":0}],"gid":72,"width":64,"height":40},{"id":62,"x":-1494,"y":85,"visible":true,"properties":[{"name":"layer","type":"int","value":3},{"name":"resource_index","type":"int","value":5},{"name":"oS","type":"string","value":"acc12"},{"name":"l0","type":"string","value":"rienFD"},{"name":"l1","type":"string","value":"nature1"},{"name":"l2","type":"string","value":"14"},{"name":"z","type":"int","value":9},{"name":"zM","type":"int","value":4},{"name":"f","type":"int","value":0}],"gid":64,"width":44,"height":41},{"id":63,"x":-1674,"y":86,"visible":true,"properties":[{"name":"layer","type":"int","value":3},{"name":"resource_index","type":"int","value":6},{"name":"oS","type":"string","value":"acc12"},{"name":"l0","type":"string","value":"rienFD"},{"name":"l1","type":"string","value":"nature1"},{"name":"l2","type":"string","value":"13"},{"name":"z","type":"int","value":9},{"name":"zM","type":"int","value":4},{"name":"f","type":"int","value":0}],"gid":73,"width":39,"height":72},{"id":64,"x":-2542,"y":83,"visible":true,"properties":[{"name":"layer","type":"int","value":3},{"name":"resource_index","type":"int","value":7},{"name":"oS","type":"string","value":"acc12"},{"name":"l0","type":"string","value":"rienFD"},{"name":"l1","type":"string","value":"acc"},{"name":"l2","type":"string","value":"19"},{"name":"z","type":"int","value":9},{"name":"zM","type":"int","value":7},{"name":"f","type":"int","value":0}],"gid":41,"width":55,"height":68},{"id":65,"x":-2636,"y":69,"visible":true,"properties":[{"name":"layer","type":"int","value":3},{"name":"resource_index","type":"int","value":8},{"name":"oS","type":"string","value":"acc12"},{"name":"l0","type":"string","value":"rienFD"},{"name":"l1","type":"string","value":"ice"},{"name":"l2","type":"string","value":"11"},{"name":"z","type":"int","value":10},{"name":"zM","type":"int","value":5},{"name":"f","type":"int","value":0}],"gid":44,"width":37,"height":28},{"id":66,"x":-2912,"y":-472,"visible":true,"properties":[{"name":"layer","type":"int","value":3},{"name":"resource_index","type":"int","value":9},{"name":"oS","type":"string","value":"acc12"},{"name":"l0","type":"string","value":"rienTW"},{"name":"l1","type":"string","value":"acc"},{"name":"l2","type":"string","value":"5"},{"name":"z","type":"int","value":9},{"name":"zM","type":"int","value":15},{"name":"f","type":"int","value":0}],"gid":45,"width":304,"height":210},{"id":67,"x":-2953,"y":-332,"visible":true,"properties":[{"name":"layer","type":"int","value":3},{"name":"resource_index","type":"int","value":10},{"name":"oS","type":"string","value":"acc12"},{"name":"l0","type":"string","value":"rienTW"},{"name":"l1","type":"string","value":"acc"},{"name":"l2","type":"string","value":"6"},{"name":"z","type":"int","value":9},{"name":"zM","type":"int","value":13},{"name":"f","type":"int","value":0}],"gid":46,"width":416,"height":140},{"id":68,"x":-2778,"y":-682,"visible":true,"properties":[{"name":"layer","type":"int","value":3},{"name":"resource_index","type":"int","value":11},{"name":"oS","type":"string","value":"acc12"},{"name":"l0","type":"string","value":"rienTW"},{"name":"l1","type":"string","value":"acc"},{"name":"l2","type":"string","value":"4"},{"name":"z","type":"int","value":9},{"name":"zM","type":"int","value":16},{"name":"f","type":"int","value":0}],"gid":47,"width":32,"height":36}],"properties":[]},{"id":23,"name":"layer_3_tile","type":"objectgroup","visible":true,"opacity":1,"draworder":"index","offsetx":0,"offsety":0,"parallaxx":1,"parallaxy":1,"objects":[{"id":43,"x":-2790,"y":-263,"visible":true,"properties":[{"name":"layer","type":"int","value":3},{"name":"resource_index","type":"int","value":0},{"name":"u","type":"string","value":"enH1"},{"name":"no","type":"int","value":2},{"name":"zM","type":"int","value":13}],"gid":29,"width":90,"height":37},{"id":44,"x":-2790,"y":-300,"visible":true,"properties":[{"name":"layer","type":"int","value":3},{"name":"resource_index","type":"int","value":1},{"name":"u","type":"string","value":"enH0"},{"name":"no","type":"int","value":0},{"name":"zM","type":"int","value":13}],"gid":26,"width":90,"height":39},{"id":45,"x":-2880,"y":-263,"visible":true,"properties":[{"name":"layer","type":"int","value":3},{"name":"resource_index","type":"int","value":2},{"name":"u","type":"string","value":"enH1"},{"name":"no","type":"int","value":2},{"name":"zM","type":"int","value":13}],"gid":29,"width":90,"height":37},{"id":46,"x":-2880,"y":-300,"visible":true,"properties":[{"name":"layer","type":"int","value":3},{"name":"resource_index","type":"int","value":3},{"name":"u","type":"string","value":"enH0"},{"name":"no","type":"int","value":2},{"name":"zM","type":"int","value":13}],"gid":21,"width":90,"height":39},{"id":47,"x":-2700,"y":-263,"visible":true,"properties":[{"name":"layer","type":"int","value":3},{"name":"resource_index","type":"int","value":4},{"name":"u","type":"string","value":"enH1"},{"name":"no","type":"int","value":2},{"name":"zM","type":"int","value":13}],"gid":29,"width":90,"height":37},{"id":48,"x":-2700,"y":-300,"visible":true,"properties":[{"name":"layer","type":"int","value":3},{"name":"resource_index","type":"int","value":5},{"name":"u","type":"string","value":"enH0"},{"name":"no","type":"int","value":1},{"name":"zM","type":"int","value":13}],"gid":23,"width":90,"height":40},{"id":49,"x":-2970,"y":-266,"visible":true,"properties":[{"name":"layer","type":"int","value":3},{"name":"resource_index","type":"int","value":6},{"name":"u","type":"string","value":"enH1"},{"name":"no","type":"int","value":1},{"name":"zM","type":"int","value":13}],"gid":28,"width":90,"height":34},{"id":50,"x":-2970,"y":-300,"visible":true,"properties":[{"name":"layer","type":"int","value":3},{"name":"resource_index","type":"int","value":7},{"name":"u","type":"string","value":"enH0"},{"name":"no","type":"int","value":0},{"name":"zM","type":"int","value":13}],"gid":26,"width":90,"height":39},{"id":51,"x":-2610,"y":-300,"visible":true,"properties":[{"name":"layer","type":"int","value":3},{"name":"resource_index","type":"int","value":8},{"name":"u","type":"string","value":"enH0"},{"name":"no","type":"int","value":2},{"name":"zM","type":"int","value":13}],"gid":21,"width":90,"height":39},{"id":52,"x":-2610,"y":-266,"visible":true,"properties":[{"name":"layer","type":"int","value":3},{"name":"resource_index","type":"int","value":9},{"name":"u","type":"string","value":"enH1"},{"name":"no","type":"int","value":1},{"name":"zM","type":"int","value":13}],"gid":28,"width":90,"height":34},{"id":53,"x":-3001,"y":-300,"visible":true,"properties":[{"name":"layer","type":"int","value":3},{"name":"resource_index","type":"int","value":10},{"name":"u","type":"string","value":"edU"},{"name":"no","type":"int","value":1},{"name":"zM","type":"int","value":13}],"gid":30,"width":63,"height":39},{"id":54,"x":-2990,"y":-273,"visible":true,"properties":[{"name":"layer","type":"int","value":3},{"name":"resource_index","type":"int","value":11},{"name":"u","type":"string","value":"edD"},{"name":"no","type":"int","value":1},{"name":"zM","type":"int","value":13}],"gid":31,"width":42,"height":27},{"id":55,"x":-2553,"y":-300,"visible":true,"properties":[{"name":"layer","type":"int","value":3},{"name":"resource_index","type":"int","value":12},{"name":"u","type":"string","value":"edU"},{"name":"no","type":"int","value":0},{"name":"zM","type":"int","value":13}],"gid":33,"width":65,"height":40},{"id":56,"x":-2540,"y":-273,"visible":true,"properties":[{"name":"layer","type":"int","value":3},{"name":"resource_index","type":"int","value":13},{"name":"u","type":"string","value":"edD"},{"name":"no","type":"int","value":1},{"name":"zM","type":"int","value":13}],"gid":31,"width":42,"height":27}],"properties":[]},{"id":24,"name":"layer_5_tile","type":"objectgroup","visible":true,"opacity":1,"draworder":"index","offsetx":0,"offsety":0,"parallaxx":1,"parallaxy":1,"objects":[{"id":69,"x":-2880,"y":180,"visible":true,"properties":[{"name":"layer","type":"int","value":5},{"name":"resource_index","type":"int","value":0},{"name":"u","type":"string","value":"bsc"},{"name":"no","type":"int","value":1},{"name":"zM","type":"int","value":0}],"gid":22,"width":90,"height":60},{"id":70,"x":-2790,"y":240,"visible":true,"properties":[{"name":"layer","type":"int","value":5},{"name":"resource_index","type":"int","value":1},{"name":"u","type":"string","value":"bsc"},{"name":"no","type":"int","value":3},{"name":"zM","type":"int","value":0}],"gid":18,"width":90,"height":60},{"id":71,"x":-2880,"y":120,"visible":true,"properties":[{"name":"layer","type":"int","value":5},{"name":"resource_index","type":"int","value":2},{"name":"u","type":"string","value":"enH0"},{"name":"no","type":"int","value":1},{"name":"zM","type":"int","value":0}],"gid":23,"width":90,"height":40},{"id":72,"x":-2790,"y":300,"visible":true,"properties":[{"name":"layer","type":"int","value":5},{"name":"resource_index","type":"int","value":3},{"name":"u","type":"string","value":"bsc"},{"name":"no","type":"int","value":4},{"name":"zM","type":"int","value":0}],"gid":19,"width":90,"height":60},{"id":73,"x":-2880,"y":300,"visible":true,"properties":[{"name":"layer","type":"int","value":5},{"name":"resource_index","type":"int","value":4},{"name":"u","type":"string","value":"bsc"},{"name":"no","type":"int","value":2},{"name":"zM","type":"int","value":0}],"gid":24,"width":90,"height":60},{"id":74,"x":-2790,"y":337,"visible":true,"properties":[{"name":"layer","type":"int","value":5},{"name":"resource_index","type":"int","value":5},{"name":"u","type":"string","value":"enH1"},{"name":"no","type":"int","value":0},{"name":"zM","type":"int","value":0}],"gid":27,"width":90,"height":37},{"id":75,"x":-2880,"y":240,"visible":true,"properties":[{"name":"layer","type":"int","value":5},{"name":"resource_index","type":"int","value":6},{"name":"u","type":"string","value":"bsc"},{"name":"no","type":"int","value":0},{"name":"zM","type":"int","value":0}],"gid":25,"width":90,"height":60},{"id":76,"x":-2880,"y":337,"visible":true,"properties":[{"name":"layer","type":"int","value":5},{"name":"resource_index","type":"int","value":7},{"name":"u","type":"string","value":"enH1"},{"name":"no","type":"int","value":0},{"name":"zM","type":"int","value":0}],"gid":27,"width":90,"height":37},{"id":77,"x":-2700,"y":180,"visible":true,"properties":[{"name":"layer","type":"int","value":5},{"name":"resource_index","type":"int","value":8},{"name":"u","type":"string","value":"bsc"},{"name":"no","type":"int","value":4},{"name":"zM","type":"int","value":0}],"gid":19,"width":90,"height":60},{"id":78,"x":-2700,"y":120,"visible":true,"properties":[{"name":"layer","type":"int","value":5},{"name":"resource_index","type":"int","value":9},{"name":"u","type":"string","value":"enH0"},{"name":"no","type":"int","value":2},{"name":"zM","type":"int","value":0}],"gid":21,"width":90,"height":39},{"id":79,"x":-2790,"y":180,"visible":true,"properties":[{"name":"layer","type":"int","value":5},{"name":"resource_index","type":"int","value":10},{"name":"u","type":"string","value":"bsc"},{"name":"no","type":"int","value":1},{"name":"zM","type":"int","value":0}],"gid":22,"width":90,"height":60},{"id":80,"x":-1710,"y":300,"visible":true,"properties":[{"name":"layer","type":"int","value":5},{"name":"resource_index","type":"int","value":11},{"name":"u","type":"string","value":"bsc"},{"name":"no","type":"int","value":5},{"name":"zM","type":"int","value":0}],"gid":20,"width":90,"height":60},{"id":81,"x":-1890,"y":300,"visible":true,"properties":[{"name":"layer","type":"int","value":5},{"name":"resource_index","type":"int","value":12},{"name":"u","type":"string","value":"bsc"},{"name":"no","type":"int","value":5},{"name":"zM","type":"int","value":0}],"gid":20,"width":90,"height":60},{"id":82,"x":-1980,"y":300,"visible":true,"properties":[{"name":"layer","type":"int","value":5},{"name":"resource_index","type":"int","value":13},{"name":"u","type":"string","value":"bsc"},{"name":"no","type":"int","value":0},{"name":"zM","type":"int","value":0}],"gid":25,"width":90,"height":60},{"id":83,"x":-2790,"y":120,"visible":true,"properties":[{"name":"layer","type":"int","value":5},{"name":"resource_index","type":"int","value":14},{"name":"u","type":"string","value":"enH0"},{"name":"no","type":"int","value":1},{"name":"zM","type":"int","value":0}],"gid":23,"width":90,"height":40},{"id":84,"x":-1710,"y":180,"visible":true,"properties":[{"name":"layer","type":"int","value":5},{"name":"resource_index","type":"int","value":15},{"name":"u","type":"string","value":"bsc"},{"name":"no","type":"int","value":2},{"name":"zM","type":"int","value":0}],"gid":24,"width":90,"height":60},{"id":85,"x":-2610,"y":180,"visible":true,"properties":[{"name":"layer","type":"int","value":5},{"name":"resource_index","type":"int","value":16},{"name":"u","type":"string","value":"bsc"},{"name":"no","type":"int","value":5},{"name":"zM","type":"int","value":0}],"gid":20,"width":90,"height":60},{"id":86,"x":-2700,"y":240,"visible":true,"properties":[{"name":"layer","type":"int","value":5},{"name":"resource_index","type":"int","value":17},{"name":"u","type":"string","value":"bsc"},{"name":"no","type":"int","value":5},{"name":"zM","type":"int","value":0}],"gid":20,"width":90,"height":60},{"id":87,"x":-2610,"y":120,"visible":true,"properties":[{"name":"layer","type":"int","value":5},{"name":"resource_index","type":"int","value":18},{"name":"u","type":"string","value":"enH0"},{"name":"no","type":"int","value":1},{"name":"zM","type":"int","value":0}],"gid":23,"width":90,"height":40},{"id":88,"x":-2700,"y":300,"visible":true,"properties":[{"name":"layer","type":"int","value":5},{"name":"resource_index","type":"int","value":19},{"name":"u","type":"string","value":"bsc"},{"name":"no","type":"int","value":3},{"name":"zM","type":"int","value":0}],"gid":18,"width":90,"height":60},{"id":89,"x":-1800,"y":120,"visible":true,"properties":[{"name":"layer","type":"int","value":5},{"name":"resource_index","type":"int","value":20},{"name":"u","type":"string","value":"enH0"},{"name":"no","type":"int","value":2},{"name":"zM","type":"int","value":0}],"gid":21,"width":90,"height":39},{"id":90,"x":-2700,"y":337,"visible":true,"properties":[{"name":"layer","type":"int","value":5},{"name":"resource_index","type":"int","value":21},{"name":"u","type":"string","value":"enH1"},{"name":"no","type":"int","value":2},{"name":"zM","type":"int","value":0}],"gid":29,"width":90,"height":37},{"id":91,"x":-1620,"y":240,"visible":true,"properties":[{"name":"layer","type":"int","value":5},{"name":"resource_index","type":"int","value":22},{"name":"u","type":"string","value":"bsc"},{"name":"no","type":"int","value":2},{"name":"zM","type":"int","value":0}],"gid":24,"width":90,"height":60},{"id":92,"x":-2520,"y":300,"visible":true,"properties":[{"name":"layer","type":"int","value":5},{"name":"resource_index","type":"int","value":23},{"name":"u","type":"string","value":"bsc"},{"name":"no","type":"int","value":3},{"name":"zM","type":"int","value":0}],"gid":18,"width":90,"height":60},{"id":93,"x":-2430,"y":120,"visible":true,"properties":[{"name":"layer","type":"int","value":5},{"name":"resource_index","type":"int","value":24},{"name":"u","type":"string","value":"enH0"},{"name":"no","type":"int","value":1},{"name":"zM","type":"int","value":0}],"gid":23,"width":90,"height":40},{"id":94,"x":-2610,"y":240,"visible":true,"properties":[{"name":"layer","type":"int","value":5},{"name":"resource_index","type":"int","value":25},{"name":"u","type":"string","value":"bsc"},{"name":"no","type":"int","value":1},{"name":"zM","type":"int","value":0}],"gid":22,"width":90,"height":60},{"id":95,"x":-2520,"y":180,"visible":true,"properties":[{"name":"layer","type":"int","value":5},{"name":"resource_index","type":"int","value":26},{"name":"u","type":"string","value":"bsc"},{"name":"no","type":"int","value":2},{"name":"zM","type":"int","value":0}],"gid":24,"width":90,"height":60},{"id":96,"x":-2610,"y":300,"visible":true,"properties":[{"name":"layer","type":"int","value":5},{"name":"resource_index","type":"int","value":27},{"name":"u","type":"string","value":"bsc"},{"name":"no","type":"int","value":0},{"name":"zM","type":"int","value":0}],"gid":25,"width":90,"height":60},{"id":97,"x":-2520,"y":240,"visible":true,"properties":[{"name":"layer","type":"int","value":5},{"name":"resource_index","type":"int","value":28},{"name":"u","type":"string","value":"bsc"},{"name":"no","type":"int","value":3},{"name":"zM","type":"int","value":0}],"gid":18,"width":90,"height":60},{"id":98,"x":-2610,"y":337,"visible":true,"properties":[{"name":"layer","type":"int","value":5},{"name":"resource_index","type":"int","value":29},{"name":"u","type":"string","value":"enH1"},{"name":"no","type":"int","value":0},{"name":"zM","type":"int","value":0}],"gid":27,"width":90,"height":37},{"id":99,"x":-1890,"y":334,"visible":true,"properties":[{"name":"layer","type":"int","value":5},{"name":"resource_index","type":"int","value":30},{"name":"u","type":"string","value":"enH1"},{"name":"no","type":"int","value":1},{"name":"zM","type":"int","value":0}],"gid":28,"width":90,"height":34},{"id":100,"x":-2520,"y":337,"visible":true,"properties":[{"name":"layer","type":"int","value":5},{"name":"resource_index","type":"int","value":31},{"name":"u","type":"string","value":"enH1"},{"name":"no","type":"int","value":2},{"name":"zM","type":"int","value":0}],"gid":29,"width":90,"height":37},{"id":101,"x":-2430,"y":180,"visible":true,"properties":[{"name":"layer","type":"int","value":5},{"name":"resource_index","type":"int","value":32},{"name":"u","type":"string","value":"bsc"},{"name":"no","type":"int","value":1},{"name":"zM","type":"int","value":0}],"gid":22,"width":90,"height":60},{"id":102,"x":-2520,"y":120,"visible":true,"properties":[{"name":"layer","type":"int","value":5},{"name":"resource_index","type":"int","value":33},{"name":"u","type":"string","value":"enH0"},{"name":"no","type":"int","value":2},{"name":"zM","type":"int","value":0}],"gid":21,"width":90,"height":39},{"id":103,"x":-1620,"y":180,"visible":true,"properties":[{"name":"layer","type":"int","value":5},{"name":"resource_index","type":"int","value":34},{"name":"u","type":"string","value":"bsc"},{"name":"no","type":"int","value":5},{"name":"zM","type":"int","value":0}],"gid":20,"width":90,"height":60},{"id":104,"x":-1620,"y":120,"visible":true,"properties":[{"name":"layer","type":"int","value":5},{"name":"resource_index","type":"int","value":35},{"name":"u","type":"string","value":"enH0"},{"name":"no","type":"int","value":1},{"name":"zM","type":"int","value":0}],"gid":23,"width":90,"height":40},{"id":105,"x":-1620,"y":300,"visible":true,"properties":[{"name":"layer","type":"int","value":5},{"name":"resource_index","type":"int","value":36},{"name":"u","type":"string","value":"bsc"},{"name":"no","type":"int","value":0},{"name":"zM","type":"int","value":0}],"gid":25,"width":90,"height":60},{"id":106,"x":-1980,"y":120,"visible":true,"properties":[{"name":"layer","type":"int","value":5},{"name":"resource_index","type":"int","value":37},{"name":"u","type":"string","value":"enH0"},{"name":"no","type":"int","value":2},{"name":"zM","type":"int","value":0}],"gid":21,"width":90,"height":39},{"id":107,"x":-1890,"y":180,"visible":true,"properties":[{"name":"layer","type":"int","value":5},{"name":"resource_index","type":"int","value":38},{"name":"u","type":"string","value":"bsc"},{"name":"no","type":"int","value":0},{"name":"zM","type":"int","value":0}],"gid":25,"width":90,"height":60},{"id":108,"x":-2340,"y":300,"visible":true,"properties":[{"name":"layer","type":"int","value":5},{"name":"resource_index","type":"int","value":39},{"name":"u","type":"string","value":"bsc"},{"name":"no","type":"int","value":5},{"name":"zM","type":"int","value":0}],"gid":20,"width":90,"height":60},{"id":109,"x":-2250,"y":120,"visible":true,"properties":[{"name":"layer","type":"int","value":5},{"name":"resource_index","type":"int","value":40},{"name":"u","type":"string","value":"enH0"},{"name":"no","type":"int","value":2},{"name":"zM","type":"int","value":0}],"gid":21,"width":90,"height":39},{"id":110,"x":-2430,"y":240,"visible":true,"properties":[{"name":"layer","type":"int","value":5},{"name":"resource_index","type":"int","value":41},{"name":"u","type":"string","value":"bsc"},{"name":"no","type":"int","value":3},{"name":"zM","type":"int","value":0}],"gid":18,"width":90,"height":60},{"id":111,"x":-2340,"y":180,"visible":true,"properties":[{"name":"layer","type":"int","value":5},{"name":"resource_index","type":"int","value":42},{"name":"u","type":"string","value":"bsc"},{"name":"no","type":"int","value":2},{"name":"zM","type":"int","value":0}],"gid":24,"width":90,"height":60},{"id":112,"x":-2430,"y":300,"visible":true,"properties":[{"name":"layer","type":"int","value":5},{"name":"resource_index","type":"int","value":43},{"name":"u","type":"string","value":"bsc"},{"name":"no","type":"int","value":4},{"name":"zM","type":"int","value":0}],"gid":19,"width":90,"height":60},{"id":113,"x":-1530,"y":334,"visible":true,"properties":[{"name":"layer","type":"int","value":5},{"name":"resource_index","type":"int","value":44},{"name":"u","type":"string","value":"enH1"},{"name":"no","type":"int","value":1},{"name":"zM","type":"int","value":0}],"gid":28,"width":90,"height":34},{"id":114,"x":-2430,"y":337,"visible":true,"properties":[{"name":"layer","type":"int","value":5},{"name":"resource_index","type":"int","value":45},{"name":"u","type":"string","value":"enH1"},{"name":"no","type":"int","value":2},{"name":"zM","type":"int","value":0}],"gid":29,"width":90,"height":37},{"id":115,"x":-1710,"y":240,"visible":true,"properties":[{"name":"layer","type":"int","value":5},{"name":"resource_index","type":"int","value":46},{"name":"u","type":"string","value":"bsc"},{"name":"no","type":"int","value":3},{"name":"zM","type":"int","value":0}],"gid":18,"width":90,"height":60},{"id":116,"x":-1890,"y":240,"visible":true,"properties":[{"name":"layer","type":"int","value":5},{"name":"resource_index","type":"int","value":47},{"name":"u","type":"string","value":"bsc"},{"name":"no","type":"int","value":3},{"name":"zM","type":"int","value":0}],"gid":18,"width":90,"height":60},{"id":117,"x":-2250,"y":180,"visible":true,"properties":[{"name":"layer","type":"int","value":5},{"name":"resource_index","type":"int","value":48},{"name":"u","type":"string","value":"bsc"},{"name":"no","type":"int","value":2},{"name":"zM","type":"int","value":0}],"gid":24,"width":90,"height":60},{"id":118,"x":-2340,"y":120,"visible":true,"properties":[{"name":"layer","type":"int","value":5},{"name":"resource_index","type":"int","value":49},{"name":"u","type":"string","value":"enH0"},{"name":"no","type":"int","value":0},{"name":"zM","type":"int","value":0}],"gid":26,"width":90,"height":39},{"id":119,"x":-1620,"y":334,"visible":true,"properties":[{"name":"layer","type":"int","value":5},{"name":"resource_index","type":"int","value":50},{"name":"u","type":"string","value":"enH1"},{"name":"no","type":"int","value":1},{"name":"zM","type":"int","value":0}],"gid":28,"width":90,"height":34},{"id":120,"x":-2340,"y":334,"visible":true,"properties":[{"name":"layer","type":"int","value":5},{"name":"resource_index","type":"int","value":51},{"name":"u","type":"string","value":"enH1"},{"name":"no","type":"int","value":1},{"name":"zM","type":"int","value":0}],"gid":28,"width":90,"height":34},{"id":121,"x":-1530,"y":240,"visible":true,"properties":[{"name":"layer","type":"int","value":5},{"name":"resource_index","type":"int","value":52},{"name":"u","type":"string","value":"bsc"},{"name":"no","type":"int","value":4},{"name":"zM","type":"int","value":0}],"gid":19,"width":90,"height":60},{"id":122,"x":-2160,"y":300,"visible":true,"properties":[{"name":"layer","type":"int","value":5},{"name":"resource_index","type":"int","value":53},{"name":"u","type":"string","value":"bsc"},{"name":"no","type":"int","value":2},{"name":"zM","type":"int","value":0}],"gid":24,"width":90,"height":60},{"id":123,"x":-2340,"y":240,"visible":true,"properties":[{"name":"layer","type":"int","value":5},{"name":"resource_index","type":"int","value":54},{"name":"u","type":"string","value":"bsc"},{"name":"no","type":"int","value":3},{"name":"zM","type":"int","value":0}],"gid":18,"width":90,"height":60},{"id":124,"x":-1710,"y":334,"visible":true,"properties":[{"name":"layer","type":"int","value":5},{"name":"resource_index","type":"int","value":55},{"name":"u","type":"string","value":"enH1"},{"name":"no","type":"int","value":1},{"name":"zM","type":"int","value":0}],"gid":28,"width":90,"height":34},{"id":125,"x":-2070,"y":120,"visible":true,"properties":[{"name":"layer","type":"int","value":5},{"name":"resource_index","type":"int","value":56},{"name":"u","type":"string","value":"enH0"},{"name":"no","type":"int","value":2},{"name":"zM","type":"int","value":0}],"gid":21,"width":90,"height":39},{"id":126,"x":-2250,"y":240,"visible":true,"properties":[{"name":"layer","type":"int","value":5},{"name":"resource_index","type":"int","value":57},{"name":"u","type":"string","value":"bsc"},{"name":"no","type":"int","value":1},{"name":"zM","type":"int","value":0}],"gid":22,"width":90,"height":60},{"id":127,"x":-2160,"y":180,"visible":true,"properties":[{"name":"layer","type":"int","value":5},{"name":"resource_index","type":"int","value":58},{"name":"u","type":"string","value":"bsc"},{"name":"no","type":"int","value":3},{"name":"zM","type":"int","value":0}],"gid":18,"width":90,"height":60},{"id":128,"x":-2250,"y":300,"visible":true,"properties":[{"name":"layer","type":"int","value":5},{"name":"resource_index","type":"int","value":59},{"name":"u","type":"string","value":"bsc"},{"name":"no","type":"int","value":0},{"name":"zM","type":"int","value":0}],"gid":25,"width":90,"height":60},{"id":129,"x":-2160,"y":240,"visible":true,"properties":[{"name":"layer","type":"int","value":5},{"name":"resource_index","type":"int","value":60},{"name":"u","type":"string","value":"bsc"},{"name":"no","type":"int","value":5},{"name":"zM","type":"int","value":0}],"gid":20,"width":90,"height":60},{"id":130,"x":-2250,"y":334,"visible":true,"properties":[{"name":"layer","type":"int","value":5},{"name":"resource_index","type":"int","value":61},{"name":"u","type":"string","value":"enH1"},{"name":"no","type":"int","value":1},{"name":"zM","type":"int","value":0}],"gid":28,"width":90,"height":34},{"id":131,"x":-1710,"y":120,"visible":true,"properties":[{"name":"layer","type":"int","value":5},{"name":"resource_index","type":"int","value":62},{"name":"u","type":"string","value":"enH0"},{"name":"no","type":"int","value":0},{"name":"zM","type":"int","value":0}],"gid":26,"width":90,"height":39},{"id":132,"x":-2160,"y":334,"visible":true,"properties":[{"name":"layer","type":"int","value":5},{"name":"resource_index","type":"int","value":63},{"name":"u","type":"string","value":"enH1"},{"name":"no","type":"int","value":1},{"name":"zM","type":"int","value":0}],"gid":28,"width":90,"height":34},{"id":133,"x":-2070,"y":180,"visible":true,"properties":[{"name":"layer","type":"int","value":5},{"name":"resource_index","type":"int","value":64},{"name":"u","type":"string","value":"bsc"},{"name":"no","type":"int","value":5},{"name":"zM","type":"int","value":0}],"gid":20,"width":90,"height":60},{"id":134,"x":-2160,"y":120,"visible":true,"properties":[{"name":"layer","type":"int","value":5},{"name":"resource_index","type":"int","value":65},{"name":"u","type":"string","value":"enH0"},{"name":"no","type":"int","value":0},{"name":"zM","type":"int","value":0}],"gid":26,"width":90,"height":39},{"id":135,"x":-1800,"y":240,"visible":true,"properties":[{"name":"layer","type":"int","value":5},{"name":"resource_index","type":"int","value":66},{"name":"u","type":"string","value":"bsc"},{"name":"no","type":"int","value":3},{"name":"zM","type":"int","value":0}],"gid":18,"width":90,"height":60},{"id":136,"x":-1800,"y":180,"visible":true,"properties":[{"name":"layer","type":"int","value":5},{"name":"resource_index","type":"int","value":67},{"name":"u","type":"string","value":"bsc"},{"name":"no","type":"int","value":1},{"name":"zM","type":"int","value":0}],"gid":22,"width":90,"height":60},{"id":137,"x":-1530,"y":120,"visible":true,"properties":[{"name":"layer","type":"int","value":5},{"name":"resource_index","type":"int","value":68},{"name":"u","type":"string","value":"enH0"},{"name":"no","type":"int","value":0},{"name":"zM","type":"int","value":0}],"gid":26,"width":90,"height":39},{"id":138,"x":-1980,"y":337,"visible":true,"properties":[{"name":"layer","type":"int","value":5},{"name":"resource_index","type":"int","value":69},{"name":"u","type":"string","value":"enH1"},{"name":"no","type":"int","value":2},{"name":"zM","type":"int","value":0}],"gid":29,"width":90,"height":37},{"id":139,"x":-1800,"y":300,"visible":true,"properties":[{"name":"layer","type":"int","value":5},{"name":"resource_index","type":"int","value":70},{"name":"u","type":"string","value":"bsc"},{"name":"no","type":"int","value":5},{"name":"zM","type":"int","value":0}],"gid":20,"width":90,"height":60},{"id":140,"x":-1890,"y":120,"visible":true,"properties":[{"name":"layer","type":"int","value":5},{"name":"resource_index","type":"int","value":71},{"name":"u","type":"string","value":"enH0"},{"name":"no","type":"int","value":0},{"name":"zM","type":"int","value":0}],"gid":26,"width":90,"height":39},{"id":141,"x":-1980,"y":240,"visible":true,"properties":[{"name":"layer","type":"int","value":5},{"name":"resource_index","type":"int","value":72},{"name":"u","type":"string","value":"bsc"},{"name":"no","type":"int","value":1},{"name":"zM","type":"int","value":0}],"gid":22,"width":90,"height":60},{"id":142,"x":-1800,"y":334,"visible":true,"properties":[{"name":"layer","type":"int","value":5},{"name":"resource_index","type":"int","value":73},{"name":"u","type":"string","value":"enH1"},{"name":"no","type":"int","value":1},{"name":"zM","type":"int","value":0}],"gid":28,"width":90,"height":34},{"id":143,"x":-1980,"y":180,"visible":true,"properties":[{"name":"layer","type":"int","value":5},{"name":"resource_index","type":"int","value":74},{"name":"u","type":"string","value":"bsc"},{"name":"no","type":"int","value":0},{"name":"zM","type":"int","value":0}],"gid":25,"width":90,"height":60},{"id":144,"x":-2070,"y":240,"visible":true,"properties":[{"name":"layer","type":"int","value":5},{"name":"resource_index","type":"int","value":75},{"name":"u","type":"string","value":"bsc"},{"name":"no","type":"int","value":2},{"name":"zM","type":"int","value":0}],"gid":24,"width":90,"height":60},{"id":145,"x":-1530,"y":300,"visible":true,"properties":[{"name":"layer","type":"int","value":5},{"name":"resource_index","type":"int","value":76},{"name":"u","type":"string","value":"bsc"},{"name":"no","type":"int","value":0},{"name":"zM","type":"int","value":0}],"gid":25,"width":90,"height":60},{"id":146,"x":-2070,"y":300,"visible":true,"properties":[{"name":"layer","type":"int","value":5},{"name":"resource_index","type":"int","value":77},{"name":"u","type":"string","value":"bsc"},{"name":"no","type":"int","value":1},{"name":"zM","type":"int","value":0}],"gid":22,"width":90,"height":60},{"id":147,"x":-1530,"y":180,"visible":true,"properties":[{"name":"layer","type":"int","value":5},{"name":"resource_index","type":"int","value":78},{"name":"u","type":"string","value":"bsc"},{"name":"no","type":"int","value":3},{"name":"zM","type":"int","value":0}],"gid":18,"width":90,"height":60},{"id":148,"x":-2070,"y":337,"visible":true,"properties":[{"name":"layer","type":"int","value":5},{"name":"resource_index","type":"int","value":79},{"name":"u","type":"string","value":"enH1"},{"name":"no","type":"int","value":0},{"name":"zM","type":"int","value":0}],"gid":27,"width":90,"height":37},{"id":149,"x":-3060,"y":180,"visible":true,"properties":[{"name":"layer","type":"int","value":5},{"name":"resource_index","type":"int","value":80},{"name":"u","type":"string","value":"bsc"},{"name":"no","type":"int","value":5},{"name":"zM","type":"int","value":0}],"gid":20,"width":90,"height":60},{"id":150,"x":-3060,"y":120,"visible":true,"properties":[{"name":"layer","type":"int","value":5},{"name":"resource_index","type":"int","value":81},{"name":"u","type":"string","value":"enH0"},{"name":"no","type":"int","value":0},{"name":"zM","type":"int","value":0}],"gid":26,"width":90,"height":39},{"id":151,"x":-2970,"y":120,"visible":true,"properties":[{"name":"layer","type":"int","value":5},{"name":"resource_index","type":"int","value":82},{"name":"u","type":"string","value":"enH0"},{"name":"no","type":"int","value":2},{"name":"zM","type":"int","value":0}],"gid":21,"width":90,"height":39},{"id":152,"x":-2970,"y":180,"visible":true,"properties":[{"name":"layer","type":"int","value":5},{"name":"resource_index","type":"int","value":83},{"name":"u","type":"string","value":"bsc"},{"name":"no","type":"int","value":3},{"name":"zM","type":"int","value":0}],"gid":18,"width":90,"height":60},{"id":153,"x":-3150,"y":180,"visible":true,"properties":[{"name":"layer","type":"int","value":5},{"name":"resource_index","type":"int","value":84},{"name":"u","type":"string","value":"bsc"},{"name":"no","type":"int","value":3},{"name":"zM","type":"int","value":0}],"gid":18,"width":90,"height":60},{"id":154,"x":-3150,"y":120,"visible":true,"properties":[{"name":"layer","type":"int","value":5},{"name":"resource_index","type":"int","value":85},{"name":"u","type":"string","value":"enH0"},{"name":"no","type":"int","value":2},{"name":"zM","type":"int","value":0}],"gid":21,"width":90,"height":39},{"id":155,"x":-3150,"y":337,"visible":true,"properties":[{"name":"layer","type":"int","value":5},{"name":"resource_index","type":"int","value":86},{"name":"u","type":"string","value":"enH1"},{"name":"no","type":"int","value":0},{"name":"zM","type":"int","value":0}],"gid":27,"width":90,"height":37},{"id":156,"x":-3150,"y":300,"visible":true,"properties":[{"name":"layer","type":"int","value":5},{"name":"resource_index","type":"int","value":87},{"name":"u","type":"string","value":"bsc"},{"name":"no","type":"int","value":1},{"name":"zM","type":"int","value":0}],"gid":22,"width":90,"height":60},{"id":157,"x":-3060,"y":240,"visible":true,"properties":[{"name":"layer","type":"int","value":5},{"name":"resource_index","type":"int","value":88},{"name":"u","type":"string","value":"bsc"},{"name":"no","type":"int","value":3},{"name":"zM","type":"int","value":0}],"gid":18,"width":90,"height":60},{"id":158,"x":-2970,"y":240,"visible":true,"properties":[{"name":"layer","type":"int","value":5},{"name":"resource_index","type":"int","value":89},{"name":"u","type":"string","value":"bsc"},{"name":"no","type":"int","value":3},{"name":"zM","type":"int","value":0}],"gid":18,"width":90,"height":60},{"id":159,"x":-2970,"y":300,"visible":true,"properties":[{"name":"layer","type":"int","value":5},{"name":"resource_index","type":"int","value":90},{"name":"u","type":"string","value":"bsc"},{"name":"no","type":"int","value":4},{"name":"zM","type":"int","value":0}],"gid":19,"width":90,"height":60},{"id":160,"x":-3060,"y":337,"visible":true,"properties":[{"name":"layer","type":"int","value":5},{"name":"resource_index","type":"int","value":91},{"name":"u","type":"string","value":"enH1"},{"name":"no","type":"int","value":2},{"name":"zM","type":"int","value":0}],"gid":29,"width":90,"height":37},{"id":161,"x":-2970,"y":334,"visible":true,"properties":[{"name":"layer","type":"int","value":5},{"name":"resource_index","type":"int","value":92},{"name":"u","type":"string","value":"enH1"},{"name":"no","type":"int","value":1},{"name":"zM","type":"int","value":0}],"gid":28,"width":90,"height":34},{"id":162,"x":-3060,"y":300,"visible":true,"properties":[{"name":"layer","type":"int","value":5},{"name":"resource_index","type":"int","value":93},{"name":"u","type":"string","value":"bsc"},{"name":"no","type":"int","value":2},{"name":"zM","type":"int","value":0}],"gid":24,"width":90,"height":60},{"id":163,"x":-3240,"y":120,"visible":true,"properties":[{"name":"layer","type":"int","value":5},{"name":"resource_index","type":"int","value":94},{"name":"u","type":"string","value":"enH0"},{"name":"no","type":"int","value":0},{"name":"zM","type":"int","value":0}],"gid":26,"width":90,"height":39},{"id":164,"x":-3240,"y":240,"visible":true,"properties":[{"name":"layer","type":"int","value":5},{"name":"resource_index","type":"int","value":95},{"name":"u","type":"string","value":"bsc"},{"name":"no","type":"int","value":2},{"name":"zM","type":"int","value":0}],"gid":24,"width":90,"height":60},{"id":165,"x":-3240,"y":300,"visible":true,"properties":[{"name":"layer","type":"int","value":5},{"name":"resource_index","type":"int","value":96},{"name":"u","type":"string","value":"bsc"},{"name":"no","type":"int","value":5},{"name":"zM","type":"int","value":0}],"gid":20,"width":90,"height":60},{"id":166,"x":-3150,"y":240,"visible":true,"properties":[{"name":"layer","type":"int","value":5},{"name":"resource_index","type":"int","value":97},{"name":"u","type":"string","value":"bsc"},{"name":"no","type":"int","value":2},{"name":"zM","type":"int","value":0}],"gid":24,"width":90,"height":60},{"id":167,"x":-3240,"y":180,"visible":true,"properties":[{"name":"layer","type":"int","value":5},{"name":"resource_index","type":"int","value":98},{"name":"u","type":"string","value":"bsc"},{"name":"no","type":"int","value":5},{"name":"zM","type":"int","value":0}],"gid":20,"width":90,"height":60},{"id":168,"x":-3240,"y":337,"visible":true,"properties":[{"name":"layer","type":"int","value":5},{"name":"resource_index","type":"int","value":99},{"name":"u","type":"string","value":"enH1"},{"name":"no","type":"int","value":2},{"name":"zM","type":"int","value":0}],"gid":29,"width":90,"height":37}],"properties":[]},{"id":25,"name":"layer_7_obj","type":"objectgroup","visible":true,"opacity":1,"draworder":"index","offsetx":0,"offsety":0,"parallaxx":1,"parallaxy":1,"objects":[{"id":169,"x":-2923,"y":-321,"visible":true,"properties":[{"name":"layer","type":"int","value":7},{"name":"resource_index","type":"int","value":0},{"name":"oS","type":"string","value":"connect"},{"name":"l0","type":"string","value":"rope"},{"name":"l1","type":"string","value":"43"},{"name":"l2","type":"string","value":"0"},{"name":"z","type":"int","value":9},{"name":"zM","type":"int","value":14},{"name":"f","type":"int","value":0}],"gid":34,"width":18,"height":27},{"id":170,"x":-2920,"y":-177,"visible":true,"properties":[{"name":"layer","type":"int","value":7},{"name":"resource_index","type":"int","value":1},{"name":"oS","type":"string","value":"connect"},{"name":"l0","type":"string","value":"rope"},{"name":"l1","type":"string","value":"43"},{"name":"l2","type":"string","value":"3"},{"name":"z","type":"int","value":9},{"name":"zM","type":"int","value":11},{"name":"f","type":"int","value":0}],"gid":35,"width":8,"height":144},{"id":171,"x":-2920,"y":-33,"visible":true,"properties":[{"name":"layer","type":"int","value":7},{"name":"resource_index","type":"int","value":2},{"name":"oS","type":"string","value":"connect"},{"name":"l0","type":"string","value":"rope"},{"name":"l1","type":"string","value":"43"},{"name":"l2","type":"string","value":"3"},{"name":"z","type":"int","value":10},{"name":"zM","type":"int","value":9},{"name":"f","type":"int","value":0}],"gid":35,"width":8,"height":144},{"id":172,"x":-2922,"y":-3,"visible":true,"properties":[{"name":"layer","type":"int","value":7},{"name":"resource_index","type":"int","value":3},{"name":"oS","type":"string","value":"connect"},{"name":"l0","type":"string","value":"rope"},{"name":"l1","type":"string","value":"43"},{"name":"l2","type":"string","value":"2"},{"name":"z","type":"int","value":9},{"name":"zM","type":"int","value":8},{"name":"f","type":"int","value":0}],"gid":36,"width":13,"height":30}],"properties":[]},{"id":26,"name":"portal","type":"objectgroup","visible":true,"opacity":1,"draworder":"index","offsetx":0,"offsety":0,"parallaxx":1,"parallaxy":1,"objects":[{"id":173,"x":-1761,"y":-33,"visible":true,"properties":[{"name":"x","type":"int","value":-1761},{"name":"y","type":"int","value":-33},{"name":"pn","type":"string","value":"sp"},{"name":"pt","type":"int","value":0},{"name":"tm","type":"int","value":999999999},{"name":"tn","type":"string","value":""},{"name":"horizontalImpact","type":"int","value":0}],"point":true},{"id":174,"x":-3134,"y":94,"visible":true,"properties":[{"name":"x","type":"int","value":-3090},{"name":"y","type":"int","value":85},{"name":"pn","type":"string","value":"west00"},{"name":"pt","type":"int","value":2},{"name":"tm","type":"int","value":140010200},{"name":"tn","type":"string","value":"east00"},{"name":"horizontalImpact","type":"int","value":0}],"gid":74,"width":89,"height":257},{"id":175,"x":-1578,"y":93,"visible":true,"properties":[{"name":"x","type":"int","value":-1534},{"name":"y","type":"int","value":84},{"name":"pn","type":"string","value":"east00"},{"name":"pt","type":"int","value":2},{"name":"tm","type":"int","value":140010000},{"name":"tn","type":"string","value":"west00"},{"name":"horizontalImpact","type":"int","value":0}],"gid":74,"width":89,"height":257},{"id":176,"x":-1999,"y":86,"visible":true,"properties":[{"name":"x","type":"int","value":-1999},{"name":"y","type":"int","value":86},{"name":"pn","type":"string","value":"in00"},{"name":"pt","type":"int","value":7},{"name":"tm","type":"int","value":999999999},{"name":"tn","type":"string","value":""},{"name":"script","type":"string","value":"enterGym"},{"name":"horizontalImpact","type":"int","value":0}],"point":true},{"id":177,"x":-2763,"y":-375,"visible":true,"properties":[{"name":"x","type":"int","value":-2763},{"name":"y","type":"int","value":-375},{"name":"pn","type":"string","value":"in01"},{"name":"pt","type":"int","value":7},{"name":"tm","type":"int","value":999999999},{"name":"tn","type":"string","value":""},{"name":"script","type":"string","value":"rankRoom"},{"name":"horizontalImpact","type":"int","value":0}],"point":true}],"properties":[]},{"id":27,"name":"life","type":"objectgroup","visible":true,"opacity":1,"draworder":"index","offsetx":0,"offsety":0,"parallaxx":1,"parallaxy":1,"objects":[{"id":178,"x":-2810,"y":72,"visible":true,"properties":[{"name":"f","type":"int","value":0},{"name":"x","type":"int","value":-2810},{"name":"y","type":"int","value":72},{"name":"cy","type":"int","value":86},{"name":"fh","type":"int","value":22},{"name":"id","type":"int","value":100130},{"name":"rx0","type":"int","value":-3220},{"name":"rx1","type":"int","value":-1460},{"name":"hide","type":"int","value":0},{"name":"type","type":"string","value":"m"},{"name":"mobTime","type":"int","value":0}],"point":true},{"id":179,"x":-2621,"y":74,"visible":true,"properties":[{"name":"f","type":"int","value":0},{"name":"x","type":"int","value":-2621},{"name":"y","type":"int","value":74},{"name":"cy","type":"int","value":86},{"name":"fh","type":"int","value":23},{"name":"id","type":"int","value":100130},{"name":"rx0","type":"int","value":-3220},{"name":"rx1","type":"int","value":-1460},{"name":"hide","type":"int","value":0},{"name":"type","type":"string","value":"m"},{"name":"mobTime","type":"int","value":0}],"point":true},{"id":180,"x":-2458,"y":77,"visible":true,"properties":[{"name":"f","type":"int","value":0},{"name":"x","type":"int","value":-2458},{"name":"y","type":"int","value":77},{"name":"cy","type":"int","value":86},{"name":"fh","type":"int","value":28},{"name":"id","type":"int","value":100130},{"name":"rx0","type":"int","value":-3220},{"name":"rx1","type":"int","value":-1460},{"name":"hide","type":"int","value":0},{"name":"type","type":"string","value":"m"},{"name":"mobTime","type":"int","value":0}],"point":true},{"id":181,"x":-2079,"y":81,"visible":true,"properties":[{"name":"f","type":"int","value":0},{"name":"x","type":"int","value":-2079},{"name":"y","type":"int","value":81},{"name":"cy","type":"int","value":86},{"name":"fh","type":"int","value":35},{"name":"id","type":"int","value":1202006},{"name":"rx0","type":"int","value":-2129},{"name":"rx1","type":"int","value":-2029},{"name":"hide","type":"int","value":0},{"name":"type","type":"string","value":"n"},{"name":"mobTime","type":"int","value":0},{"name":"npc_aseprite","type":"file","value":"../../Npc/1202006.img/animation.aseprite"}],"point":true}],"properties":[]},{"id":28,"name":"foothold","type":"objectgroup","visible":true,"opacity":1,"draworder":"index","offsetx":0,"offsety":0,"parallaxx":1,"parallaxy":1,"objects":[{"id":182,"x":-2790,"y":-334,"visible":true,"properties":[{"name":"layer","type":"int","value":3},{"name":"group","type":"int","value":13},{"name":"id","type":"int","value":1},{"name":"fh_layer","type":"int","value":3},{"name":"fh_group","type":"int","value":13},{"name":"fh_id","type":"int","value":1},{"name":"x1","type":"int","value":-2790},{"name":"x2","type":"int","value":-2700},{"name":"y1","type":"int","value":-334},{"name":"y2","type":"int","value":-334},{"name":"next","type":"int","value":3},{"name":"prev","type":"int","value":2}],"polyline":[{"x":0,"y":0},{"x":90,"y":0}]},{"id":183,"x":-2880,"y":-334,"visible":true,"properties":[{"name":"layer","type":"int","value":3},{"name":"group","type":"int","value":13},{"name":"id","type":"int","value":2},{"name":"fh_layer","type":"int","value":3},{"name":"fh_group","type":"int","value":13},{"name":"fh_id","type":"int","value":2},{"name":"x1","type":"int","value":-2880},{"name":"x2","type":"int","value":-2790},{"name":"y1","type":"int","value":-334},{"name":"y2","type":"int","value":-334},{"name":"next","type":"int","value":1},{"name":"prev","type":"int","value":8}],"polyline":[{"x":0,"y":0},{"x":90,"y":0}]},{"id":184,"x":-2700,"y":-334,"visible":true,"properties":[{"name":"layer","type":"int","value":3},{"name":"group","type":"int","value":13},{"name":"id","type":"int","value":3},{"name":"fh_layer","type":"int","value":3},{"name":"fh_group","type":"int","value":13},{"name":"fh_id","type":"int","value":3},{"name":"x1","type":"int","value":-2700},{"name":"x2","type":"int","value":-2610},{"name":"y1","type":"int","value":-334},{"name":"y2","type":"int","value":-334},{"name":"next","type":"int","value":5},{"name":"prev","type":"int","value":1}],"polyline":[{"x":0,"y":0},{"x":90,"y":0}]},{"id":185,"x":-2970,"y":-334,"visible":true,"properties":[{"name":"layer","type":"int","value":3},{"name":"group","type":"int","value":13},{"name":"id","type":"int","value":4},{"name":"fh_layer","type":"int","value":3},{"name":"fh_group","type":"int","value":13},{"name":"fh_id","type":"int","value":4},{"name":"x1","type":"int","value":-2970},{"name":"x2","type":"int","value":-2938},{"name":"y1","type":"int","value":-334},{"name":"y2","type":"int","value":-334},{"name":"next","type":"int","value":8},{"name":"prev","type":"int","value":7}],"polyline":[{"x":0,"y":0},{"x":32,"y":0}]},{"id":186,"x":-2610,"y":-334,"visible":true,"properties":[{"name":"layer","type":"int","value":3},{"name":"group","type":"int","value":13},{"name":"id","type":"int","value":5},{"name":"fh_layer","type":"int","value":3},{"name":"fh_group","type":"int","value":13},{"name":"fh_id","type":"int","value":5},{"name":"x1","type":"int","value":-2610},{"name":"x2","type":"int","value":-2552},{"name":"y1","type":"int","value":-334},{"name":"y2","type":"int","value":-334},{"name":"next","type":"int","value":9},{"name":"prev","type":"int","value":3}],"polyline":[{"x":0,"y":0},{"x":58,"y":0}]},{"id":187,"x":-3002,"y":-300,"visible":true,"properties":[{"name":"layer","type":"int","value":3},{"name":"group","type":"int","value":13},{"name":"id","type":"int","value":6},{"name":"fh_layer","type":"int","value":3},{"name":"fh_group","type":"int","value":13},{"name":"fh_id","type":"int","value":6},{"name":"x1","type":"int","value":-3002},{"name":"x2","type":"int","value":-3002},{"name":"y1","type":"int","value":-300},{"name":"y2","type":"int","value":-334},{"name":"next","type":"int","value":7},{"name":"prev","type":"int","value":0}],"polyline":[{"x":0,"y":0},{"x":0,"y":-34}]},{"id":188,"x":-3002,"y":-334,"visible":true,"properties":[{"name":"layer","type":"int","value":3},{"name":"group","type":"int","value":13},{"name":"id","type":"int","value":7},{"name":"fh_layer","type":"int","value":3},{"name":"fh_group","type":"int","value":13},{"name":"fh_id","type":"int","value":7},{"name":"x1","type":"int","value":-3002},{"name":"x2","type":"int","value":-2970},{"name":"y1","type":"int","value":-334},{"name":"y2","type":"int","value":-334},{"name":"next","type":"int","value":4},{"name":"prev","type":"int","value":6}],"polyline":[{"x":0,"y":0},{"x":32,"y":0}]},{"id":189,"x":-2938,"y":-334,"visible":true,"properties":[{"name":"layer","type":"int","value":3},{"name":"group","type":"int","value":13},{"name":"id","type":"int","value":8},{"name":"fh_layer","type":"int","value":3},{"name":"fh_group","type":"int","value":13},{"name":"fh_id","type":"int","value":8},{"name":"x1","type":"int","value":-2938},{"name":"x2","type":"int","value":-2880},{"name":"y1","type":"int","value":-334},{"name":"y2","type":"int","value":-334},{"name":"next","type":"int","value":2},{"name":"prev","type":"int","value":4}],"polyline":[{"x":0,"y":0},{"x":58,"y":0}]},{"id":190,"x":-2552,"y":-334,"visible":true,"properties":[{"name":"layer","type":"int","value":3},{"name":"group","type":"int","value":13},{"name":"id","type":"int","value":9},{"name":"fh_layer","type":"int","value":3},{"name":"fh_group","type":"int","value":13},{"name":"fh_id","type":"int","value":9},{"name":"x1","type":"int","value":-2552},{"name":"x2","type":"int","value":-2520},{"name":"y1","type":"int","value":-334},{"name":"y2","type":"int","value":-334},{"name":"next","type":"int","value":10},{"name":"prev","type":"int","value":5}],"polyline":[{"x":0,"y":0},{"x":32,"y":0}]},{"id":191,"x":-2520,"y":-334,"visible":true,"properties":[{"name":"layer","type":"int","value":3},{"name":"group","type":"int","value":13},{"name":"id","type":"int","value":10},{"name":"fh_layer","type":"int","value":3},{"name":"fh_group","type":"int","value":13},{"name":"fh_id","type":"int","value":10},{"name":"x1","type":"int","value":-2520},{"name":"x2","type":"int","value":-2488},{"name":"y1","type":"int","value":-334},{"name":"y2","type":"int","value":-334},{"name":"next","type":"int","value":11},{"name":"prev","type":"int","value":9}],"polyline":[{"x":0,"y":0},{"x":32,"y":0}]},{"id":192,"x":-2488,"y":-334,"visible":true,"properties":[{"name":"layer","type":"int","value":3},{"name":"group","type":"int","value":13},{"name":"id","type":"int","value":11},{"name":"fh_layer","type":"int","value":3},{"name":"fh_group","type":"int","value":13},{"name":"fh_id","type":"int","value":11},{"name":"x1","type":"int","value":-2488},{"name":"x2","type":"int","value":-2488},{"name":"y1","type":"int","value":-334},{"name":"y2","type":"int","value":-300},{"name":"next","type":"int","value":0},{"name":"prev","type":"int","value":10}],"polyline":[{"x":0,"y":0},{"x":0,"y":34}]},{"id":193,"x":-2880,"y":-371,"visible":true,"properties":[{"name":"layer","type":"int","value":3},{"name":"group","type":"int","value":13},{"name":"id","type":"int","value":12},{"name":"fh_layer","type":"int","value":3},{"name":"fh_group","type":"int","value":13},{"name":"fh_id","type":"int","value":12},{"name":"x1","type":"int","value":-2880},{"name":"x2","type":"int","value":-2837},{"name":"y1","type":"int","value":-371},{"name":"y2","type":"int","value":-371},{"name":"next","type":"int","value":13},{"name":"prev","type":"int","value":0}],"polyline":[{"x":0,"y":0},{"x":43,"y":0}]},{"id":194,"x":-2837,"y":-371,"visible":true,"properties":[{"name":"layer","type":"int","value":3},{"name":"group","type":"int","value":13},{"name":"id","type":"int","value":13},{"name":"fh_layer","type":"int","value":3},{"name":"fh_group","type":"int","value":13},{"name":"fh_id","type":"int","value":13},{"name":"x1","type":"int","value":-2837},{"name":"x2","type":"int","value":-2833},{"name":"y1","type":"int","value":-371},{"name":"y2","type":"int","value":-377},{"name":"next","type":"int","value":14},{"name":"prev","type":"int","value":12}],"polyline":[{"x":0,"y":0},{"x":4,"y":-6}]},{"id":195,"x":-2833,"y":-377,"visible":true,"properties":[{"name":"layer","type":"int","value":3},{"name":"group","type":"int","value":13},{"name":"id","type":"int","value":14},{"name":"fh_layer","type":"int","value":3},{"name":"fh_group","type":"int","value":13},{"name":"fh_id","type":"int","value":14},{"name":"x1","type":"int","value":-2833},{"name":"x2","type":"int","value":-2808},{"name":"y1","type":"int","value":-377},{"name":"y2","type":"int","value":-377},{"name":"next","type":"int","value":15},{"name":"prev","type":"int","value":13}],"polyline":[{"x":0,"y":0},{"x":25,"y":0}]},{"id":196,"x":-2808,"y":-377,"visible":true,"properties":[{"name":"layer","type":"int","value":3},{"name":"group","type":"int","value":13},{"name":"id","type":"int","value":15},{"name":"fh_layer","type":"int","value":3},{"name":"fh_group","type":"int","value":13},{"name":"fh_id","type":"int","value":15},{"name":"x1","type":"int","value":-2808},{"name":"x2","type":"int","value":-2806},{"name":"y1","type":"int","value":-377},{"name":"y2","type":"int","value":-371},{"name":"next","type":"int","value":16},{"name":"prev","type":"int","value":14}],"polyline":[{"x":0,"y":0},{"x":2,"y":6}]},{"id":197,"x":-2806,"y":-371,"visible":true,"properties":[{"name":"layer","type":"int","value":3},{"name":"group","type":"int","value":13},{"name":"id","type":"int","value":16},{"name":"fh_layer","type":"int","value":3},{"name":"fh_group","type":"int","value":13},{"name":"fh_id","type":"int","value":16},{"name":"x1","type":"int","value":-2806},{"name":"x2","type":"int","value":-2763},{"name":"y1","type":"int","value":-371},{"name":"y2","type":"int","value":-371},{"name":"next","type":"int","value":17},{"name":"prev","type":"int","value":15}],"polyline":[{"x":0,"y":0},{"x":43,"y":0}]},{"id":198,"x":-2763,"y":-371,"visible":true,"properties":[{"name":"layer","type":"int","value":3},{"name":"group","type":"int","value":13},{"name":"id","type":"int","value":17},{"name":"fh_layer","type":"int","value":3},{"name":"fh_group","type":"int","value":13},{"name":"fh_id","type":"int","value":17},{"name":"x1","type":"int","value":-2763},{"name":"x2","type":"int","value":-2760},{"name":"y1","type":"int","value":-371},{"name":"y2","type":"int","value":-377},{"name":"next","type":"int","value":18},{"name":"prev","type":"int","value":16}],"polyline":[{"x":0,"y":0},{"x":3,"y":-6}]},{"id":199,"x":-2760,"y":-377,"visible":true,"properties":[{"name":"layer","type":"int","value":3},{"name":"group","type":"int","value":13},{"name":"id","type":"int","value":18},{"name":"fh_layer","type":"int","value":3},{"name":"fh_group","type":"int","value":13},{"name":"fh_id","type":"int","value":18},{"name":"x1","type":"int","value":-2760},{"name":"x2","type":"int","value":-2730},{"name":"y1","type":"int","value":-377},{"name":"y2","type":"int","value":-377},{"name":"next","type":"int","value":19},{"name":"prev","type":"int","value":17}],"polyline":[{"x":0,"y":0},{"x":30,"y":0}]},{"id":200,"x":-2730,"y":-377,"visible":true,"properties":[{"name":"layer","type":"int","value":3},{"name":"group","type":"int","value":13},{"name":"id","type":"int","value":19},{"name":"fh_layer","type":"int","value":3},{"name":"fh_group","type":"int","value":13},{"name":"fh_id","type":"int","value":19},{"name":"x1","type":"int","value":-2730},{"name":"x2","type":"int","value":-2727},{"name":"y1","type":"int","value":-377},{"name":"y2","type":"int","value":-371},{"name":"next","type":"int","value":20},{"name":"prev","type":"int","value":18}],"polyline":[{"x":0,"y":0},{"x":3,"y":6}]},{"id":201,"x":-2727,"y":-371,"visible":true,"properties":[{"name":"layer","type":"int","value":3},{"name":"group","type":"int","value":13},{"name":"id","type":"int","value":20},{"name":"fh_layer","type":"int","value":3},{"name":"fh_group","type":"int","value":13},{"name":"fh_id","type":"int","value":20},{"name":"x1","type":"int","value":-2727},{"name":"x2","type":"int","value":-2651},{"name":"y1","type":"int","value":-371},{"name":"y2","type":"int","value":-371},{"name":"next","type":"int","value":0},{"name":"prev","type":"int","value":19}],"polyline":[{"x":0,"y":0},{"x":76,"y":0}]},{"id":202,"x":-2821,"y":-353,"visible":true,"properties":[{"name":"layer","type":"int","value":3},{"name":"group","type":"int","value":13},{"name":"id","type":"int","value":21},{"name":"fh_layer","type":"int","value":3},{"name":"fh_group","type":"int","value":13},{"name":"fh_id","type":"int","value":21},{"name":"x1","type":"int","value":-2821},{"name":"x2","type":"int","value":-2777},{"name":"y1","type":"int","value":-353},{"name":"y2","type":"int","value":-353},{"name":"next","type":"int","value":0},{"name":"prev","type":"int","value":0}],"polyline":[{"x":0,"y":0},{"x":44,"y":0}]},{"id":203,"x":-2880,"y":86,"visible":true,"properties":[{"name":"layer","type":"int","value":5},{"name":"group","type":"int","value":0},{"name":"id","type":"int","value":22},{"name":"fh_layer","type":"int","value":5},{"name":"fh_group","type":"int","value":0},{"name":"fh_id","type":"int","value":22},{"name":"x1","type":"int","value":-2880},{"name":"x2","type":"int","value":-2790},{"name":"y1","type":"int","value":86},{"name":"y2","type":"int","value":86},{"name":"next","type":"int","value":24},{"name":"prev","type":"int","value":39}],"polyline":[{"x":0,"y":0},{"x":90,"y":0}]},{"id":204,"x":-2700,"y":86,"visible":true,"properties":[{"name":"layer","type":"int","value":5},{"name":"group","type":"int","value":0},{"name":"id","type":"int","value":23},{"name":"fh_layer","type":"int","value":5},{"name":"fh_group","type":"int","value":0},{"name":"fh_id","type":"int","value":23},{"name":"x1","type":"int","value":-2700},{"name":"x2","type":"int","value":-2610},{"name":"y1","type":"int","value":86},{"name":"y2","type":"int","value":86},{"name":"next","type":"int","value":25},{"name":"prev","type":"int","value":24}],"polyline":[{"x":0,"y":0},{"x":90,"y":0}]},{"id":205,"x":-2790,"y":86,"visible":true,"properties":[{"name":"layer","type":"int","value":5},{"name":"group","type":"int","value":0},{"name":"id","type":"int","value":24},{"name":"fh_layer","type":"int","value":5},{"name":"fh_group","type":"int","value":0},{"name":"fh_id","type":"int","value":24},{"name":"x1","type":"int","value":-2790},{"name":"x2","type":"int","value":-2700},{"name":"y1","type":"int","value":86},{"name":"y2","type":"int","value":86},{"name":"next","type":"int","value":23},{"name":"prev","type":"int","value":22}],"polyline":[{"x":0,"y":0},{"x":90,"y":0}]},{"id":206,"x":-2610,"y":86,"visible":true,"properties":[{"name":"layer","type":"int","value":5},{"name":"group","type":"int","value":0},{"name":"id","type":"int","value":25},{"name":"fh_layer","type":"int","value":5},{"name":"fh_group","type":"int","value":0},{"name":"fh_id","type":"int","value":25},{"name":"x1","type":"int","value":-2610},{"name":"x2","type":"int","value":-2520},{"name":"y1","type":"int","value":86},{"name":"y2","type":"int","value":86},{"name":"next","type":"int","value":28},{"name":"prev","type":"int","value":23}],"polyline":[{"x":0,"y":0},{"x":90,"y":0}]},{"id":207,"x":-1800,"y":86,"visible":true,"properties":[{"name":"layer","type":"int","value":5},{"name":"group","type":"int","value":0},{"name":"id","type":"int","value":26},{"name":"fh_layer","type":"int","value":5},{"name":"fh_group","type":"int","value":0},{"name":"fh_id","type":"int","value":26},{"name":"x1","type":"int","value":-1800},{"name":"x2","type":"int","value":-1710},{"name":"y1","type":"int","value":86},{"name":"y2","type":"int","value":86},{"name":"next","type":"int","value":34},{"name":"prev","type":"int","value":37}],"polyline":[{"x":0,"y":0},{"x":90,"y":0}]},{"id":208,"x":-2430,"y":86,"visible":true,"properties":[{"name":"layer","type":"int","value":5},{"name":"group","type":"int","value":0},{"name":"id","type":"int","value":27},{"name":"fh_layer","type":"int","value":5},{"name":"fh_group","type":"int","value":0},{"name":"fh_id","type":"int","value":27},{"name":"x1","type":"int","value":-2430},{"name":"x2","type":"int","value":-2340},{"name":"y1","type":"int","value":86},{"name":"y2","type":"int","value":86},{"name":"next","type":"int","value":32},{"name":"prev","type":"int","value":28}],"polyline":[{"x":0,"y":0},{"x":90,"y":0}]},{"id":209,"x":-2520,"y":86,"visible":true,"properties":[{"name":"layer","type":"int","value":5},{"name":"group","type":"int","value":0},{"name":"id","type":"int","value":28},{"name":"fh_layer","type":"int","value":5},{"name":"fh_group","type":"int","value":0},{"name":"fh_id","type":"int","value":28},{"name":"x1","type":"int","value":-2520},{"name":"x2","type":"int","value":-2430},{"name":"y1","type":"int","value":86},{"name":"y2","type":"int","value":86},{"name":"next","type":"int","value":27},{"name":"prev","type":"int","value":25}],"polyline":[{"x":0,"y":0},{"x":90,"y":0}]},{"id":210,"x":-1620,"y":86,"visible":true,"properties":[{"name":"layer","type":"int","value":5},{"name":"group","type":"int","value":0},{"name":"id","type":"int","value":29},{"name":"fh_layer","type":"int","value":5},{"name":"fh_group","type":"int","value":0},{"name":"fh_id","type":"int","value":29},{"name":"x1","type":"int","value":-1620},{"name":"x2","type":"int","value":-1530},{"name":"y1","type":"int","value":86},{"name":"y2","type":"int","value":86},{"name":"next","type":"int","value":36},{"name":"prev","type":"int","value":34}],"polyline":[{"x":0,"y":0},{"x":90,"y":0}]},{"id":211,"x":-1980,"y":86,"visible":true,"properties":[{"name":"layer","type":"int","value":5},{"name":"group","type":"int","value":0},{"name":"id","type":"int","value":30},{"name":"fh_layer","type":"int","value":5},{"name":"fh_group","type":"int","value":0},{"name":"fh_id","type":"int","value":30},{"name":"x1","type":"int","value":-1980},{"name":"x2","type":"int","value":-1890},{"name":"y1","type":"int","value":86},{"name":"y2","type":"int","value":86},{"name":"next","type":"int","value":37},{"name":"prev","type":"int","value":33}],"polyline":[{"x":0,"y":0},{"x":90,"y":0}]},{"id":212,"x":-2250,"y":86,"visible":true,"properties":[{"name":"layer","type":"int","value":5},{"name":"group","type":"int","value":0},{"name":"id","type":"int","value":31},{"name":"fh_layer","type":"int","value":5},{"name":"fh_group","type":"int","value":0},{"name":"fh_id","type":"int","value":31},{"name":"x1","type":"int","value":-2250},{"name":"x2","type":"int","value":-2160},{"name":"y1","type":"int","value":86},{"name":"y2","type":"int","value":86},{"name":"next","type":"int","value":35},{"name":"prev","type":"int","value":32}],"polyline":[{"x":0,"y":0},{"x":90,"y":0}]},{"id":213,"x":-2340,"y":86,"visible":true,"properties":[{"name":"layer","type":"int","value":5},{"name":"group","type":"int","value":0},{"name":"id","type":"int","value":32},{"name":"fh_layer","type":"int","value":5},{"name":"fh_group","type":"int","value":0},{"name":"fh_id","type":"int","value":32},{"name":"x1","type":"int","value":-2340},{"name":"x2","type":"int","value":-2250},{"name":"y1","type":"int","value":86},{"name":"y2","type":"int","value":86},{"name":"next","type":"int","value":31},{"name":"prev","type":"int","value":27}],"polyline":[{"x":0,"y":0},{"x":90,"y":0}]},{"id":214,"x":-2070,"y":86,"visible":true,"properties":[{"name":"layer","type":"int","value":5},{"name":"group","type":"int","value":0},{"name":"id","type":"int","value":33},{"name":"fh_layer","type":"int","value":5},{"name":"fh_group","type":"int","value":0},{"name":"fh_id","type":"int","value":33},{"name":"x1","type":"int","value":-2070},{"name":"x2","type":"int","value":-1980},{"name":"y1","type":"int","value":86},{"name":"y2","type":"int","value":86},{"name":"next","type":"int","value":30},{"name":"prev","type":"int","value":35}],"polyline":[{"x":0,"y":0},{"x":90,"y":0}]},{"id":215,"x":-1710,"y":86,"visible":true,"properties":[{"name":"layer","type":"int","value":5},{"name":"group","type":"int","value":0},{"name":"id","type":"int","value":34},{"name":"fh_layer","type":"int","value":5},{"name":"fh_group","type":"int","value":0},{"name":"fh_id","type":"int","value":34},{"name":"x1","type":"int","value":-1710},{"name":"x2","type":"int","value":-1620},{"name":"y1","type":"int","value":86},{"name":"y2","type":"int","value":86},{"name":"next","type":"int","value":29},{"name":"prev","type":"int","value":26}],"polyline":[{"x":0,"y":0},{"x":90,"y":0}]},{"id":216,"x":-2160,"y":86,"visible":true,"properties":[{"name":"layer","type":"int","value":5},{"name":"group","type":"int","value":0},{"name":"id","type":"int","value":35},{"name":"fh_layer","type":"int","value":5},{"name":"fh_group","type":"int","value":0},{"name":"fh_id","type":"int","value":35},{"name":"x1","type":"int","value":-2160},{"name":"x2","type":"int","value":-2070},{"name":"y1","type":"int","value":86},{"name":"y2","type":"int","value":86},{"name":"next","type":"int","value":33},{"name":"prev","type":"int","value":31}],"polyline":[{"x":0,"y":0},{"x":90,"y":0}]},{"id":217,"x":-1530,"y":86,"visible":true,"properties":[{"name":"layer","type":"int","value":5},{"name":"group","type":"int","value":0},{"name":"id","type":"int","value":36},{"name":"fh_layer","type":"int","value":5},{"name":"fh_group","type":"int","value":0},{"name":"fh_id","type":"int","value":36},{"name":"x1","type":"int","value":-1530},{"name":"x2","type":"int","value":-1440},{"name":"y1","type":"int","value":86},{"name":"y2","type":"int","value":86},{"name":"next","type":"int","value":0},{"name":"prev","type":"int","value":29}],"polyline":[{"x":0,"y":0},{"x":90,"y":0}]},{"id":218,"x":-1890,"y":86,"visible":true,"properties":[{"name":"layer","type":"int","value":5},{"name":"group","type":"int","value":0},{"name":"id","type":"int","value":37},{"name":"fh_layer","type":"int","value":5},{"name":"fh_group","type":"int","value":0},{"name":"fh_id","type":"int","value":37},{"name":"x1","type":"int","value":-1890},{"name":"x2","type":"int","value":-1800},{"name":"y1","type":"int","value":86},{"name":"y2","type":"int","value":86},{"name":"next","type":"int","value":26},{"name":"prev","type":"int","value":30}],"polyline":[{"x":0,"y":0},{"x":90,"y":0}]},{"id":219,"x":-3060,"y":86,"visible":true,"properties":[{"name":"layer","type":"int","value":5},{"name":"group","type":"int","value":0},{"name":"id","type":"int","value":38},{"name":"fh_layer","type":"int","value":5},{"name":"fh_group","type":"int","value":0},{"name":"fh_id","type":"int","value":38},{"name":"x1","type":"int","value":-3060},{"name":"x2","type":"int","value":-2970},{"name":"y1","type":"int","value":86},{"name":"y2","type":"int","value":86},{"name":"next","type":"int","value":39},{"name":"prev","type":"int","value":40}],"polyline":[{"x":0,"y":0},{"x":90,"y":0}]},{"id":220,"x":-2970,"y":86,"visible":true,"properties":[{"name":"layer","type":"int","value":5},{"name":"group","type":"int","value":0},{"name":"id","type":"int","value":39},{"name":"fh_layer","type":"int","value":5},{"name":"fh_group","type":"int","value":0},{"name":"fh_id","type":"int","value":39},{"name":"x1","type":"int","value":-2970},{"name":"x2","type":"int","value":-2880},{"name":"y1","type":"int","value":86},{"name":"y2","type":"int","value":86},{"name":"next","type":"int","value":22},{"name":"prev","type":"int","value":38}],"polyline":[{"x":0,"y":0},{"x":90,"y":0}]},{"id":221,"x":-3150,"y":86,"visible":true,"properties":[{"name":"layer","type":"int","value":5},{"name":"group","type":"int","value":0},{"name":"id","type":"int","value":40},{"name":"fh_layer","type":"int","value":5},{"name":"fh_group","type":"int","value":0},{"name":"fh_id","type":"int","value":40},{"name":"x1","type":"int","value":-3150},{"name":"x2","type":"int","value":-3060},{"name":"y1","type":"int","value":86},{"name":"y2","type":"int","value":86},{"name":"next","type":"int","value":38},{"name":"prev","type":"int","value":41}],"polyline":[{"x":0,"y":0},{"x":90,"y":0}]},{"id":222,"x":-3240,"y":86,"visible":true,"properties":[{"name":"layer","type":"int","value":5},{"name":"group","type":"int","value":0},{"name":"id","type":"int","value":41},{"name":"fh_layer","type":"int","value":5},{"name":"fh_group","type":"int","value":0},{"name":"fh_id","type":"int","value":41},{"name":"x1","type":"int","value":-3240},{"name":"x2","type":"int","value":-3150},{"name":"y1","type":"int","value":86},{"name":"y2","type":"int","value":86},{"name":"next","type":"int","value":40},{"name":"prev","type":"int","value":0}],"polyline":[{"x":0,"y":0},{"x":90,"y":0}]}],"properties":[]},{"id":29,"name":"ladderRope","type":"objectgroup","visible":true,"opacity":1,"draworder":"index","offsetx":0,"offsety":0,"parallaxx":1,"parallaxy":1,"objects":[{"id":223,"x":-2916,"y":-332,"visible":true,"properties":[{"name":"ladder_id","type":"int","value":1},{"name":"l","type":"int","value":0},{"name":"x","type":"int","value":-2916},{"name":"uf","type":"int","value":1},{"name":"y1","type":"int","value":-332},{"name":"y2","type":"int","value":26},{"name":"page","type":"int","value":7}],"polyline":[{"x":0,"y":0},{"x":0,"y":358}]}],"properties":[]},{"id":30,"name":"miniMap","type":"objectgroup","visible":true,"opacity":1,"draworder":"index","offsetx":0,"offsety":0,"parallaxx":1,"parallaxy":1,"objects":[{"id":224,"x":3304,"y":868,"visible":true,"properties":[{"name":"mag","type":"int","value":4},{"name":"centerX","type":"int","value":3304},{"name":"centerY","type":"int","value":868},{"name":"canvas_path","type":"string","value":"../images/30845.png"},{"name":"canvas_width","type":"int","value":119},{"name":"canvas_height","type":"int","value":78},{"name":"canvas_origin_x","type":"int","value":0},{"name":"canvas_origin_y","type":"int","value":0}],"point":true}],"properties":[]}],"tilesets":[{"firstgid":1,"source":"../tilesets/bg_Rien.tsj"},{"firstgid":18,"source":"../tilesets/tile_snowyRord.tsj"},{"firstgid":34,"source":"../tilesets/obj_connect_rope_43.tsj"},{"firstgid":37,"source":"../tilesets/obj_acc12_rienFD_acc.tsj"},{"firstgid":42,"source":"../tilesets/obj_acc12_rienFD_ice.tsj"},{"firstgid":45,"source":"../tilesets/obj_acc12_rienTW_acc.tsj"},{"firstgid":48,"source":"../tilesets/obj_acc12_rienTR_door.tsj"},{"firstgid":51,"source":"../tilesets/bg_Back_Rien.img_ani_0.tsj"},{"firstgid":53,"source":"../tilesets/bg_Back_Rien.img_ani_1.tsj"},{"firstgid":55,"source":"../tilesets/bg_Back_Rien.img_ani_2.tsj"},{"firstgid":57,"source":"../tilesets/bg_Back_Rien.img_ani_3.tsj"},{"firstgid":59,"source":"../tilesets/bg_Back_Rien.img_ani_4.tsj"},{"firstgid":61,"source":"../tilesets/obj_acc12_rienFD_nature1.tsj"},{"firstgid":74,"source":"../tilesets/portal_MapHelper.img_portal_game_pv.tsj"}],"properties":[{"name":"bgm","type":"string","value":"Bgm19/RienVillage"},{"name":"fly","type":"int","value":0},{"name":"swim","type":"int","value":0},{"name":"town","type":"int","value":0},{"name":"VRTop","type":"int","value":-720},{"name":"cloud","type":"int","value":0},{"name":"VRLeft","type":"int","value":-3239},{"name":"VRRight","type":"int","value":-1441},{"name":"mapMark","type":"string","value":"Rien"},{"name":"mobRate","type":"float","value":1},{"name":"version","type":"int","value":10},{"name":"VRBottom","type":"int","value":260},{"name":"noMapCmd","type":"int","value":0},{"name":"returnMap","type":"int","value":140000000},{"name":"fieldLimit","type":"int","value":0},{"name":"hideMinimap","type":"int","value":0},{"name":"onUserEnter","type":"string","value":""},{"name":"forcedReturn","type":"int","value":999999999},{"name":"onFirstUserEnter","type":"string","value":""}]}