{"type":"map","orientation":"orthogonal","renderorder":"right-down","infinite":false,"tilewidth":1,"tileheight":1,"width":1969,"height":959,"parallaxoriginx":-400,"parallaxoriginy":80,"nextlayerid":30,"nextobjectid":177,"layers":[{"id":1,"name":"background_back_0","type":"imagelayer","visible":true,"opacity":1,"image":"../images/27305.png","imagewidth":30,"imageheight":30,"offsetx":-15,"offsety":65,"repeatx":true,"repeaty":true,"parallaxx":0,"parallaxy":0,"properties":[{"name":"a","type":"int","value":255},{"name":"f","type":"int","value":0},{"name":"x","type":"int","value":0},{"name":"y","type":"int","value":0},{"name":"bS","type":"string","value":"Rien"},{"name":"cx","type":"int","value":0},{"name":"cy","type":"int","value":0},{"name":"no","type":"int","value":0},{"name":"rx","type":"int","value":0},{"name":"ry","type":"int","value":0},{"name":"ani","type":"int","value":0},{"name":"type","type":"int","value":3},{"name":"front","type":"int","value":0}]},{"id":2,"name":"background_back_1","type":"imagelayer","visible":true,"opacity":1,"image":"../images/27306.png","imagewidth":10,"imageheight":818,"offsetx":-5,"offsety":-549,"repeatx":true,"repeaty":false,"parallaxx":0,"parallaxy":0.7,"properties":[{"name":"a","type":"int","value":255},{"name":"f","type":"int","value":0},{"name":"x","type":"int","value":0},{"name":"y","type":"int","value":-220},{"name":"bS","type":"string","value":"Rien"},{"name":"cx","type":"int","value":0},{"name":"cy","type":"int","value":0},{"name":"no","type":"int","value":1},{"name":"rx","type":"int","value":0},{"name":"ry","type":"int","value":-70},{"name":"ani","type":"int","value":0},{"name":"type","type":"int","value":1},{"name":"front","type":"int","value":0}]},{"id":3,"name":"background_back_2","type":"imagelayer","visible":true,"opacity":1,"image":"../images/27307.png","imagewidth":800,"imageheight":366,"offsetx":-768,"offsety":-549,"repeatx":true,"repeaty":false,"parallaxx":0.07,"parallaxy":0.5,"properties":[{"name":"a","type":"int","value":255},{"name":"f","type":"int","value":0},{"name":"x","type":"int","value":-368},{"name":"y","type":"int","value":-446},{"name":"bS","type":"string","value":"Rien"},{"name":"cx","type":"int","value":1600},{"name":"cy","type":"int","value":0},{"name":"no","type":"int","value":2},{"name":"rx","type":"int","value":-7},{"name":"ry","type":"int","value":-50},{"name":"ani","type":"int","value":0},{"name":"type","type":"int","value":1},{"name":"front","type":"int","value":0}]},{"id":4,"name":"background_back_3","type":"imagelayer","visible":true,"opacity":1,"image":"../images/27308.png","imagewidth":800,"imageheight":206,"offsetx":32,"offsety":-389,"repeatx":true,"repeaty":false,"parallaxx":0.07,"parallaxy":0.5,"properties":[{"name":"a","type":"int","value":255},{"name":"f","type":"int","value":0},{"name":"x","type":"int","value":432},{"name":"y","type":"int","value":-366},{"name":"bS","type":"string","value":"Rien"},{"name":"cx","type":"int","value":1600},{"name":"cy","type":"int","value":0},{"name":"no","type":"int","value":3},{"name":"rx","type":"int","value":-7},{"name":"ry","type":"int","value":-50},{"name":"ani","type":"int","value":0},{"name":"type","type":"int","value":1},{"name":"front","type":"int","value":0}]},{"id":5,"name":"background_back_4","type":"imagelayer","visible":true,"opacity":1,"image":"../images/27309.png","imagewidth":800,"imageheight":134,"offsetx":-1200,"offsety":-213,"repeatx":true,"repeaty":false,"parallaxx":0.2,"parallaxy":0.6,"properties":[{"name":"a","type":"int","value":255},{"name":"f","type":"int","value":0},{"name":"x","type":"int","value":-800},{"name":"y","type":"int","value":-226},{"name":"bS","type":"string","value":"Rien"},{"name":"cx","type":"int","value":2400},{"name":"cy","type":"int","value":0},{"name":"no","type":"int","value":4},{"name":"rx","type":"int","value":-20},{"name":"ry","type":"int","value":-60},{"name":"ani","type":"int","value":0},{"name":"type","type":"int","value":1},{"name":"front","type":"int","value":0}]},{"id":6,"name":"background_back_5","type":"imagelayer","visible":true,"opacity":1,"image":"../images/27310.png","imagewidth":800,"imageheight":161,"offsetx":-400,"offsety":-240,"repeatx":true,"repeaty":false,"parallaxx":0.2,"parallaxy":0.6,"properties":[{"name":"a","type":"int","value":255},{"name":"f","type":"int","value":0},{"name":"x","type":"int","value":0},{"name":"y","type":"int","value":-240},{"name":"bS","type":"string","value":"Rien"},{"name":"cx","type":"int","value":2400},{"name":"cy","type":"int","value":0},{"name":"no","type":"int","value":5},{"name":"rx","type":"int","value":-20},{"name":"ry","type":"int","value":-60},{"name":"ani","type":"int","value":0},{"name":"type","type":"int","value":1},{"name":"front","type":"int","value":0}]},{"id":7,"name":"background_back_6","type":"imagelayer","visible":true,"opacity":1,"image":"../images/27311.png","imagewidth":800,"imageheight":116,"offsetx":400,"offsety":-195,"repeatx":true,"repeaty":false,"parallaxx":0.2,"parallaxy":0.6,"properties":[{"name":"a","type":"int","value":255},{"name":"f","type":"int","value":0},{"name":"x","type":"int","value":800},{"name":"y","type":"int","value":-217},{"name":"bS","type":"string","value":"Rien"},{"name":"cx","type":"int","value":2400},{"name":"cy","type":"int","value":0},{"name":"no","type":"int","value":6},{"name":"rx","type":"int","value":-20},{"name":"ry","type":"int","value":-60},{"name":"ani","type":"int","value":0},{"name":"type","type":"int","value":1},{"name":"front","type":"int","value":0}]},{"id":8,"name":"background_back_7","type":"imagelayer","visible":true,"opacity":1,"image":"../images/27312.png","imagewidth":800,"imageheight":240,"offsetx":-404,"offsety":181,"repeatx":true,"repeaty":false,"parallaxx":0.2,"parallaxy":0.6,"properties":[{"name":"a","type":"int","value":255},{"name":"f","type":"int","value":0},{"name":"x","type":"int","value":-4},{"name":"y","type":"int","value":221},{"name":"bS","type":"string","value":"Rien"},{"name":"cx","type":"int","value":0},{"name":"cy","type":"int","value":0},{"name":"no","type":"int","value":7},{"name":"rx","type":"int","value":-20},{"name":"ry","type":"int","value":-60},{"name":"ani","type":"int","value":0},{"name":"type","type":"int","value":1},{"name":"front","type":"int","value":0}]},{"id":9,"name":"background_back_8","type":"imagelayer","visible":true,"opacity":1,"image":"../images/27313.png","imagewidth":800,"imageheight":267,"offsetx":-400,"offsety":-86,"repeatx":true,"repeaty":false,"parallaxx":0.3,"parallaxy":0.6,"properties":[{"name":"a","type":"int","value":255},{"name":"f","type":"int","value":0},{"name":"x","type":"int","value":0},{"name":"y","type":"int","value":-33},{"name":"bS","type":"string","value":"Rien"},{"name":"cx","type":"int","value":0},{"name":"cy","type":"int","value":0},{"name":"no","type":"int","value":8},{"name":"rx","type":"int","value":-30},{"name":"ry","type":"int","value":-60},{"name":"ani","type":"int","value":0},{"name":"type","type":"int","value":1},{"name":"front","type":"int","value":0}]},{"id":10,"name":"background_back_9","type":"imagelayer","visible":true,"opacity":1,"image":"../images/27314.png","imagewidth":800,"imageheight":249,"offsetx":-1200,"offsety":-130,"repeatx":true,"repeaty":false,"parallaxx":0.3,"parallaxy":0.7,"properties":[{"name":"a","type":"int","value":255},{"name":"f","type":"int","value":0},{"name":"x","type":"int","value":-800},{"name":"y","type":"int","value":-86},{"name":"bS","type":"string","value":"Rien"},{"name":"cx","type":"int","value":2400},{"name":"cy","type":"int","value":0},{"name":"no","type":"int","value":9},{"name":"rx","type":"int","value":-30},{"name":"ry","type":"int","value":-70},{"name":"ani","type":"int","value":0},{"name":"type","type":"int","value":1},{"name":"front","type":"int","value":0}]},{"id":11,"name":"background_back_10","type":"imagelayer","visible":true,"opacity":1,"image":"../images/27315.png","imagewidth":800,"imageheight":367,"offsetx":-400,"offsety":-246,"repeatx":true,"repeaty":false,"parallaxx":0.3,"parallaxy":0.7,"properties":[{"name":"a","type":"int","value":255},{"name":"f","type":"int","value":0},{"name":"x","type":"int","value":0},{"name":"y","type":"int","value":-143},{"name":"bS","type":"string","value":"Rien"},{"name":"cx","type":"int","value":2400},{"name":"cy","type":"int","value":0},{"name":"no","type":"int","value":10},{"name":"rx","type":"int","value":-30},{"name":"ry","type":"int","value":-70},{"name":"ani","type":"int","value":0},{"name":"type","type":"int","value":1},{"name":"front","type":"int","value":0}]},{"id":12,"name":"background_back_11","type":"imagelayer","visible":true,"opacity":1,"image":"../images/27316.png","imagewidth":800,"imageheight":322,"offsetx":400,"offsety":-202,"repeatx":true,"repeaty":false,"parallaxx":0.3,"parallaxy":0.7,"properties":[{"name":"a","type":"int","value":255},{"name":"f","type":"int","value":0},{"name":"x","type":"int","value":800},{"name":"y","type":"int","value":-121},{"name":"bS","type":"string","value":"Rien"},{"name":"cx","type":"int","value":2400},{"name":"cy","type":"int","value":0},{"name":"no","type":"int","value":11},{"name":"rx","type":"int","value":-30},{"name":"ry","type":"int","value":-70},{"name":"ani","type":"int","value":0},{"name":"type","type":"int","value":1},{"name":"front","type":"int","value":0}]},{"id":13,"name":"background_back_12","type":"objectgroup","visible":true,"opacity":1,"draworder":"index","offsetx":0,"offsety":0,"parallaxx":0.7,"parallaxy":0.2,"objects":[{"id":1,"x":-758,"y":275,"visible":true,"properties":[],"gid":36,"width":516,"height":723},{"id":2,"x":-242,"y":275,"visible":true,"properties":[],"gid":36,"width":516,"height":723},{"id":3,"x":274,"y":275,"visible":true,"properties":[],"gid":36,"width":516,"height":723},{"id":4,"x":790,"y":275,"visible":true,"properties":[],"gid":36,"width":516,"height":723},{"id":5,"x":1306,"y":275,"visible":true,"properties":[],"gid":36,"width":516,"height":723},{"id":6,"x":1822,"y":275,"visible":true,"properties":[],"gid":36,"width":516,"height":723},{"id":7,"x":2338,"y":275,"visible":true,"properties":[],"gid":36,"width":516,"height":723},{"id":8,"x":2854,"y":275,"visible":true,"properties":[],"gid":36,"width":516,"height":723},{"id":9,"x":3370,"y":275,"visible":true,"properties":[],"gid":36,"width":516,"height":723},{"id":10,"x":3886,"y":275,"visible":true,"properties":[],"gid":36,"width":516,"height":723}],"properties":[{"name":"a","type":"int","value":255},{"name":"f","type":"int","value":0},{"name":"x","type":"int","value":-500},{"name":"y","type":"int","value":-167},{"name":"bS","type":"string","value":"Rien"},{"name":"cx","type":"int","value":3000},{"name":"cy","type":"int","value":0},{"name":"no","type":"int","value":0},{"name":"rx","type":"int","value":-70},{"name":"ry","type":"int","value":-20},{"name":"ani","type":"int","value":1},{"name":"type","type":"int","value":1},{"name":"front","type":"int","value":0}]},{"id":14,"name":"background_back_13","type":"objectgroup","visible":true,"opacity":1,"draworder":"index","offsetx":0,"offsety":0,"parallaxx":0.7,"parallaxy":0.2,"objects":[{"id":11,"x":-564,"y":211,"visible":true,"properties":[],"gid":38,"width":529,"height":659},{"id":12,"x":-35,"y":211,"visible":true,"properties":[],"gid":38,"width":529,"height":659},{"id":13,"x":494,"y":211,"visible":true,"properties":[],"gid":38,"width":529,"height":659},{"id":14,"x":1023,"y":211,"visible":true,"properties":[],"gid":38,"width":529,"height":659},{"id":15,"x":1552,"y":211,"visible":true,"properties":[],"gid":38,"width":529,"height":659},{"id":16,"x":2081,"y":211,"visible":true,"properties":[],"gid":38,"width":529,"height":659},{"id":17,"x":2610,"y":211,"visible":true,"properties":[],"gid":38,"width":529,"height":659},{"id":18,"x":3139,"y":211,"visible":true,"properties":[],"gid":38,"width":529,"height":659},{"id":19,"x":3668,"y":211,"visible":true,"properties":[],"gid":38,"width":529,"height":659}],"properties":[{"name":"a","type":"int","value":255},{"name":"f","type":"int","value":0},{"name":"x","type":"int","value":-300},{"name":"y","type":"int","value":-199},{"name":"bS","type":"string","value":"Rien"},{"name":"cx","type":"int","value":3200},{"name":"cy","type":"int","value":0},{"name":"no","type":"int","value":1},{"name":"rx","type":"int","value":-70},{"name":"ry","type":"int","value":-20},{"name":"ani","type":"int","value":1},{"name":"type","type":"int","value":1},{"name":"front","type":"int","value":0}]},{"id":15,"name":"background_back_14","type":"objectgroup","visible":true,"opacity":1,"draworder":"index","offsetx":0,"offsety":0,"parallaxx":0.7,"parallaxy":0.2,"objects":[{"id":20,"x":-1588,"y":-7,"visible":true,"properties":[],"gid":40,"width":376,"height":443},{"id":21,"x":-1212,"y":-7,"visible":true,"properties":[],"gid":40,"width":376,"height":443},{"id":22,"x":-836,"y":-7,"visible":true,"properties":[],"gid":40,"width":376,"height":443},{"id":23,"x":-460,"y":-7,"visible":true,"properties":[],"gid":40,"width":376,"height":443},{"id":24,"x":-84,"y":-7,"visible":true,"properties":[],"gid":40,"width":376,"height":443},{"id":25,"x":292,"y":-7,"visible":true,"properties":[],"gid":40,"width":376,"height":443},{"id":26,"x":668,"y":-7,"visible":true,"properties":[],"gid":40,"width":376,"height":443},{"id":27,"x":1044,"y":-7,"visible":true,"properties":[],"gid":40,"width":376,"height":443},{"id":28,"x":1420,"y":-7,"visible":true,"properties":[],"gid":40,"width":376,"height":443},{"id":29,"x":1796,"y":-7,"visible":true,"properties":[],"gid":40,"width":376,"height":443},{"id":30,"x":2172,"y":-7,"visible":true,"properties":[],"gid":40,"width":376,"height":443},{"id":31,"x":2548,"y":-7,"visible":true,"properties":[],"gid":40,"width":376,"height":443},{"id":32,"x":2924,"y":-7,"visible":true,"properties":[],"gid":40,"width":376,"height":443},{"id":33,"x":3300,"y":-7,"visible":true,"properties":[],"gid":40,"width":376,"height":443},{"id":34,"x":3676,"y":-7,"visible":true,"properties":[],"gid":40,"width":376,"height":443}],"properties":[{"name":"a","type":"int","value":255},{"name":"f","type":"int","value":0},{"name":"x","type":"int","value":-1400},{"name":"y","type":"int","value":-309},{"name":"bS","type":"string","value":"Rien"},{"name":"cx","type":"int","value":3400},{"name":"cy","type":"int","value":0},{"name":"no","type":"int","value":2},{"name":"rx","type":"int","value":-70},{"name":"ry","type":"int","value":-20},{"name":"ani","type":"int","value":1},{"name":"type","type":"int","value":1},{"name":"front","type":"int","value":0}]},{"id":16,"name":"background_back_15","type":"objectgroup","visible":true,"opacity":1,"draworder":"index","offsetx":0,"offsety":0,"parallaxx":0.7,"parallaxy":0.2,"objects":[{"id":35,"x":523,"y":172,"visible":true,"properties":[],"gid":42,"width":554,"height":619},{"id":36,"x":1077,"y":172,"visible":true,"properties":[],"gid":42,"width":554,"height":619},{"id":37,"x":1631,"y":172,"visible":true,"properties":[],"gid":42,"width":554,"height":619},{"id":38,"x":2185,"y":172,"visible":true,"properties":[],"gid":42,"width":554,"height":619},{"id":39,"x":2739,"y":172,"visible":true,"properties":[],"gid":42,"width":554,"height":619},{"id":40,"x":3293,"y":172,"visible":true,"properties":[],"gid":42,"width":554,"height":619},{"id":41,"x":3847,"y":172,"visible":true,"properties":[],"gid":42,"width":554,"height":619}],"properties":[{"name":"a","type":"int","value":255},{"name":"f","type":"int","value":0},{"name":"x","type":"int","value":800},{"name":"y","type":"int","value":-218},{"name":"bS","type":"string","value":"Rien"},{"name":"cx","type":"int","value":3600},{"name":"cy","type":"int","value":0},{"name":"no","type":"int","value":3},{"name":"rx","type":"int","value":-70},{"name":"ry","type":"int","value":-20},{"name":"ani","type":"int","value":1},{"name":"type","type":"int","value":1},{"name":"front","type":"int","value":0}]},{"id":17,"name":"background_back_16","type":"objectgroup","visible":true,"opacity":1,"draworder":"index","offsetx":0,"offsety":0,"parallaxx":0.7,"parallaxy":0.2,"objects":[{"id":42,"x":-2113,"y":58,"visible":true,"properties":[],"gid":44,"width":424,"height":506},{"id":43,"x":-1689,"y":58,"visible":true,"properties":[],"gid":44,"width":424,"height":506},{"id":44,"x":-1265,"y":58,"visible":true,"properties":[],"gid":44,"width":424,"height":506},{"id":45,"x":-841,"y":58,"visible":true,"properties":[],"gid":44,"width":424,"height":506},{"id":46,"x":-417,"y":58,"visible":true,"properties":[],"gid":44,"width":424,"height":506},{"id":47,"x":7,"y":58,"visible":true,"properties":[],"gid":44,"width":424,"height":506},{"id":48,"x":431,"y":58,"visible":true,"properties":[],"gid":44,"width":424,"height":506},{"id":49,"x":855,"y":58,"visible":true,"properties":[],"gid":44,"width":424,"height":506},{"id":50,"x":1279,"y":58,"visible":true,"properties":[],"gid":44,"width":424,"height":506},{"id":51,"x":1703,"y":58,"visible":true,"properties":[],"gid":44,"width":424,"height":506},{"id":52,"x":2127,"y":58,"visible":true,"properties":[],"gid":44,"width":424,"height":506},{"id":53,"x":2551,"y":58,"visible":true,"properties":[],"gid":44,"width":424,"height":506},{"id":54,"x":2975,"y":58,"visible":true,"properties":[],"gid":44,"width":424,"height":506},{"id":55,"x":3399,"y":58,"visible":true,"properties":[],"gid":44,"width":424,"height":506},{"id":56,"x":3823,"y":58,"visible":true,"properties":[],"gid":44,"width":424,"height":506}],"properties":[{"name":"a","type":"int","value":255},{"name":"f","type":"int","value":0},{"name":"x","type":"int","value":-1901},{"name":"y","type":"int","value":-275},{"name":"bS","type":"string","value":"Rien"},{"name":"cx","type":"int","value":3800},{"name":"cy","type":"int","value":0},{"name":"no","type":"int","value":4},{"name":"rx","type":"int","value":-70},{"name":"ry","type":"int","value":-20},{"name":"ani","type":"int","value":1},{"name":"type","type":"int","value":1},{"name":"front","type":"int","value":0}]},{"id":21,"name":"layer_2_obj","type":"objectgroup","visible":true,"opacity":1,"draworder":"index","offsetx":0,"offsety":0,"parallaxx":1,"parallaxy":1,"objects":[{"id":58,"x":2034,"y":2,"visible":true,"properties":[{"name":"layer","type":"int","value":2},{"name":"resource_index","type":"int","value":0},{"name":"oS","type":"string","value":"acc12"},{"name":"l0","type":"string","value":"rienTW"},{"name":"l1","type":"string","value":"ship"},{"name":"l2","type":"string","value":"6"},{"name":"z","type":"int","value":9},{"name":"zM","type":"int","value":2},{"name":"f","type":"int","value":0}],"gid":28,"width":903,"height":209},{"id":59,"x":1831,"y":89,"visible":true,"properties":[{"name":"layer","type":"int","value":2},{"name":"resource_index","type":"int","value":1},{"name":"oS","type":"string","value":"acc12"},{"name":"l0","type":"string","value":"rienFD"},{"name":"l1","type":"string","value":"nature0"},{"name":"l2","type":"string","value":"3"},{"name":"z","type":"int","value":9},{"name":"zM","type":"int","value":2},{"name":"f","type":"int","value":0}],"gid":46,"width":232,"height":389},{"id":60,"x":1615,"y":92,"visible":true,"properties":[{"name":"layer","type":"int","value":2},{"name":"resource_index","type":"int","value":2},{"name":"oS","type":"string","value":"acc12"},{"name":"l0","type":"string","value":"rienFD"},{"name":"l1","type":"string","value":"nature0"},{"name":"l2","type":"string","value":"5"},{"name":"z","type":"int","value":7},{"name":"zM","type":"int","value":2},{"name":"f","type":"int","value":0}],"gid":47,"width":349,"height":531},{"id":61,"x":1632,"y":91,"visible":true,"properties":[{"name":"layer","type":"int","value":2},{"name":"resource_index","type":"int","value":3},{"name":"oS","type":"string","value":"acc12"},{"name":"l0","type":"string","value":"rienFD"},{"name":"l1","type":"string","value":"nature0"},{"name":"l2","type":"string","value":"19"},{"name":"z","type":"int","value":10},{"name":"zM","type":"int","value":2},{"name":"f","type":"int","value":0}],"gid":48,"width":109,"height":38}],"properties":[]},{"id":22,"name":"layer_3_obj","type":"objectgroup","visible":true,"opacity":1,"draworder":"index","offsetx":0,"offsety":0,"parallaxx":1,"parallaxy":1,"objects":[{"id":62,"x":2039,"y":5,"visible":true,"properties":[{"name":"layer","type":"int","value":3},{"name":"resource_index","type":"int","value":0},{"name":"oS","type":"string","value":"acc12"},{"name":"l0","type":"string","value":"rienTW"},{"name":"l1","type":"string","value":"ship"},{"name":"l2","type":"string","value":"4"},{"name":"z","type":"int","value":9},{"name":"zM","type":"int","value":4},{"name":"f","type":"int","value":0}],"gid":29,"width":393,"height":270},{"id":63,"x":2658,"y":4,"visible":true,"properties":[{"name":"layer","type":"int","value":3},{"name":"resource_index","type":"int","value":1},{"name":"oS","type":"string","value":"acc12"},{"name":"l0","type":"string","value":"rienTW"},{"name":"l1","type":"string","value":"ship"},{"name":"l2","type":"string","value":"5"},{"name":"z","type":"int","value":9},{"name":"zM","type":"int","value":3},{"name":"f","type":"int","value":0}],"gid":30,"width":292,"height":552},{"id":64,"x":2454,"y":5,"visible":true,"properties":[{"name":"layer","type":"int","value":3},{"name":"resource_index","type":"int","value":2},{"name":"oS","type":"string","value":"acc12"},{"name":"l0","type":"string","value":"rienTW"},{"name":"l1","type":"string","value":"ship"},{"name":"l2","type":"string","value":"7"},{"name":"z","type":"int","value":8},{"name":"zM","type":"int","value":3},{"name":"f","type":"int","value":0}],"gid":31,"width":257,"height":114},{"id":65,"x":2819,"y":-254,"visible":true,"properties":[{"name":"layer","type":"int","value":3},{"name":"resource_index","type":"int","value":3},{"name":"oS","type":"string","value":"connect"},{"name":"l0","type":"string","value":"ladder"},{"name":"l1","type":"string","value":"6"},{"name":"l2","type":"string","value":"0"},{"name":"z","type":"int","value":9},{"name":"zM","type":"int","value":3},{"name":"f","type":"int","value":0}],"gid":25,"width":1,"height":1},{"id":66,"x":2819,"y":-186,"visible":true,"properties":[{"name":"layer","type":"int","value":3},{"name":"resource_index","type":"int","value":4},{"name":"oS","type":"string","value":"connect"},{"name":"l0","type":"string","value":"ladder"},{"name":"l1","type":"string","value":"6"},{"name":"l2","type":"string","value":"0"},{"name":"z","type":"int","value":9},{"name":"zM","type":"int","value":3},{"name":"f","type":"int","value":0}],"gid":25,"width":1,"height":1},{"id":67,"x":2294,"y":-115,"visible":true,"properties":[{"name":"layer","type":"int","value":3},{"name":"resource_index","type":"int","value":5},{"name":"oS","type":"string","value":"connect"},{"name":"l0","type":"string","value":"ladder"},{"name":"l1","type":"string","value":"6"},{"name":"l2","type":"string","value":"0"},{"name":"z","type":"int","value":9},{"name":"zM","type":"int","value":4},{"name":"f","type":"int","value":0}],"gid":25,"width":1,"height":1},{"id":68,"x":2085,"y":-103,"visible":true,"properties":[{"name":"layer","type":"int","value":3},{"name":"resource_index","type":"int","value":6},{"name":"oS","type":"string","value":"connect"},{"name":"l0","type":"string","value":"ladder"},{"name":"l1","type":"string","value":"6"},{"name":"l2","type":"string","value":"0"},{"name":"z","type":"int","value":9},{"name":"zM","type":"int","value":4},{"name":"f","type":"int","value":0}],"gid":25,"width":1,"height":1}],"properties":[]},{"id":23,"name":"layer_5_obj","type":"objectgroup","visible":true,"opacity":1,"draworder":"index","offsetx":0,"offsety":0,"parallaxx":1,"parallaxy":1,"objects":[{"id":107,"x":1794,"y":360,"visible":true,"properties":[{"name":"layer","type":"int","value":5},{"name":"resource_index","type":"int","value":0},{"name":"oS","type":"string","value":"acc12"},{"name":"l0","type":"string","value":"rienTW"},{"name":"l1","type":"string","value":"ship"},{"name":"l2","type":"string","value":"0"},{"name":"z","type":"int","value":9},{"name":"zM","type":"int","value":0},{"name":"f","type":"int","value":0}],"gid":32,"width":455,"height":363},{"id":108,"x":2249,"y":360,"visible":true,"properties":[{"name":"layer","type":"int","value":5},{"name":"resource_index","type":"int","value":1},{"name":"oS","type":"string","value":"acc12"},{"name":"l0","type":"string","value":"rienTW"},{"name":"l1","type":"string","value":"ship"},{"name":"l2","type":"string","value":"1"},{"name":"z","type":"int","value":9},{"name":"zM","type":"int","value":0},{"name":"f","type":"int","value":0}],"gid":33,"width":259,"height":361},{"id":109,"x":2508,"y":360,"visible":true,"properties":[{"name":"layer","type":"int","value":5},{"name":"resource_index","type":"int","value":2},{"name":"oS","type":"string","value":"acc12"},{"name":"l0","type":"string","value":"rienTW"},{"name":"l1","type":"string","value":"ship"},{"name":"l2","type":"string","value":"2"},{"name":"z","type":"int","value":9},{"name":"zM","type":"int","value":0},{"name":"f","type":"int","value":0}],"gid":34,"width":259,"height":361},{"id":110,"x":2767,"y":360,"visible":true,"properties":[{"name":"layer","type":"int","value":5},{"name":"resource_index","type":"int","value":3},{"name":"oS","type":"string","value":"acc12"},{"name":"l0","type":"string","value":"rienTW"},{"name":"l1","type":"string","value":"ship"},{"name":"l2","type":"string","value":"3"},{"name":"z","type":"int","value":9},{"name":"zM","type":"int","value":0},{"name":"f","type":"int","value":0}],"gid":35,"width":202,"height":362},{"id":111,"x":3018,"y":256,"visible":true,"properties":[{"name":"layer","type":"int","value":5},{"name":"resource_index","type":"int","value":4},{"name":"oS","type":"string","value":"acc12"},{"name":"l0","type":"string","value":"rienTW"},{"name":"l1","type":"string","value":"ship"},{"name":"l2","type":"string","value":"12"},{"name":"z","type":"int","value":9},{"name":"zM","type":"int","value":1},{"name":"f","type":"int","value":0}],"gid":27,"width":469,"height":316},{"id":112,"x":3019,"y":-60,"visible":true,"properties":[{"name":"layer","type":"int","value":5},{"name":"resource_index","type":"int","value":5},{"name":"oS","type":"string","value":"acc12"},{"name":"l0","type":"string","value":"rienTW"},{"name":"l1","type":"string","value":"ship"},{"name":"l2","type":"string","value":"13"},{"name":"z","type":"int","value":9},{"name":"zM","type":"int","value":5},{"name":"f","type":"int","value":0}],"gid":26,"width":240,"height":199}],"properties":[]},{"id":24,"name":"layer_5_tile","type":"objectgroup","visible":true,"opacity":1,"draworder":"index","offsetx":0,"offsety":0,"parallaxx":1,"parallaxy":1,"objects":[{"id":69,"x":1890,"y":325,"visible":true,"properties":[{"name":"layer","type":"int","value":5},{"name":"resource_index","type":"int","value":0},{"name":"u","type":"string","value":"enH1"},{"name":"no","type":"int","value":0},{"name":"zM","type":"int","value":0}],"gid":18,"width":90,"height":25},{"id":70,"x":1890,"y":300,"visible":true,"properties":[{"name":"layer","type":"int","value":5},{"name":"resource_index","type":"int","value":1},{"name":"u","type":"string","value":"enH0"},{"name":"no","type":"int","value":0},{"name":"zM","type":"int","value":0}],"gid":19,"width":90,"height":25},{"id":71,"x":2070,"y":325,"visible":true,"properties":[{"name":"layer","type":"int","value":5},{"name":"resource_index","type":"int","value":2},{"name":"u","type":"string","value":"enH1"},{"name":"no","type":"int","value":0},{"name":"zM","type":"int","value":0}],"gid":18,"width":90,"height":25},{"id":72,"x":2070,"y":300,"visible":true,"properties":[{"name":"layer","type":"int","value":5},{"name":"resource_index","type":"int","value":3},{"name":"u","type":"string","value":"enH0"},{"name":"no","type":"int","value":0},{"name":"zM","type":"int","value":0}],"gid":19,"width":90,"height":25},{"id":73,"x":1980,"y":300,"visible":true,"properties":[{"name":"layer","type":"int","value":5},{"name":"resource_index","type":"int","value":4},{"name":"u","type":"string","value":"enH0"},{"name":"no","type":"int","value":0},{"name":"zM","type":"int","value":0}],"gid":19,"width":90,"height":25},{"id":74,"x":1980,"y":325,"visible":true,"properties":[{"name":"layer","type":"int","value":5},{"name":"resource_index","type":"int","value":5},{"name":"u","type":"string","value":"enH1"},{"name":"no","type":"int","value":0},{"name":"zM","type":"int","value":0}],"gid":18,"width":90,"height":25},{"id":75,"x":2250,"y":325,"visible":true,"properties":[{"name":"layer","type":"int","value":5},{"name":"resource_index","type":"int","value":6},{"name":"u","type":"string","value":"enH1"},{"name":"no","type":"int","value":0},{"name":"zM","type":"int","value":0}],"gid":18,"width":90,"height":25},{"id":76,"x":2250,"y":300,"visible":true,"properties":[{"name":"layer","type":"int","value":5},{"name":"resource_index","type":"int","value":7},{"name":"u","type":"string","value":"enH0"},{"name":"no","type":"int","value":0},{"name":"zM","type":"int","value":0}],"gid":19,"width":90,"height":25},{"id":77,"x":2430,"y":300,"visible":true,"properties":[{"name":"layer","type":"int","value":5},{"name":"resource_index","type":"int","value":8},{"name":"u","type":"string","value":"enH0"},{"name":"no","type":"int","value":0},{"name":"zM","type":"int","value":0}],"gid":19,"width":90,"height":25},{"id":78,"x":2430,"y":325,"visible":true,"properties":[{"name":"layer","type":"int","value":5},{"name":"resource_index","type":"int","value":9},{"name":"u","type":"string","value":"enH1"},{"name":"no","type":"int","value":0},{"name":"zM","type":"int","value":0}],"gid":18,"width":90,"height":25},{"id":79,"x":2160,"y":300,"visible":true,"properties":[{"name":"layer","type":"int","value":5},{"name":"resource_index","type":"int","value":10},{"name":"u","type":"string","value":"enH0"},{"name":"no","type":"int","value":0},{"name":"zM","type":"int","value":0}],"gid":19,"width":90,"height":25},{"id":80,"x":2160,"y":325,"visible":true,"properties":[{"name":"layer","type":"int","value":5},{"name":"resource_index","type":"int","value":11},{"name":"u","type":"string","value":"enH1"},{"name":"no","type":"int","value":0},{"name":"zM","type":"int","value":0}],"gid":18,"width":90,"height":25},{"id":81,"x":2340,"y":325,"visible":true,"properties":[{"name":"layer","type":"int","value":5},{"name":"resource_index","type":"int","value":12},{"name":"u","type":"string","value":"enH1"},{"name":"no","type":"int","value":0},{"name":"zM","type":"int","value":0}],"gid":18,"width":90,"height":25},{"id":82,"x":2340,"y":300,"visible":true,"properties":[{"name":"layer","type":"int","value":5},{"name":"resource_index","type":"int","value":13},{"name":"u","type":"string","value":"enH0"},{"name":"no","type":"int","value":0},{"name":"zM","type":"int","value":0}],"gid":19,"width":90,"height":25},{"id":83,"x":2520,"y":325,"visible":true,"properties":[{"name":"layer","type":"int","value":5},{"name":"resource_index","type":"int","value":14},{"name":"u","type":"string","value":"enH1"},{"name":"no","type":"int","value":0},{"name":"zM","type":"int","value":0}],"gid":18,"width":90,"height":25},{"id":84,"x":2520,"y":300,"visible":true,"properties":[{"name":"layer","type":"int","value":5},{"name":"resource_index","type":"int","value":15},{"name":"u","type":"string","value":"enH0"},{"name":"no","type":"int","value":0},{"name":"zM","type":"int","value":0}],"gid":19,"width":90,"height":25},{"id":85,"x":2700,"y":325,"visible":true,"properties":[{"name":"layer","type":"int","value":5},{"name":"resource_index","type":"int","value":16},{"name":"u","type":"string","value":"enH1"},{"name":"no","type":"int","value":0},{"name":"zM","type":"int","value":0}],"gid":18,"width":90,"height":25},{"id":86,"x":2700,"y":300,"visible":true,"properties":[{"name":"layer","type":"int","value":5},{"name":"resource_index","type":"int","value":17},{"name":"u","type":"string","value":"enH0"},{"name":"no","type":"int","value":0},{"name":"zM","type":"int","value":0}],"gid":19,"width":90,"height":25},{"id":87,"x":2610,"y":325,"visible":true,"properties":[{"name":"layer","type":"int","value":5},{"name":"resource_index","type":"int","value":18},{"name":"u","type":"string","value":"enH1"},{"name":"no","type":"int","value":0},{"name":"zM","type":"int","value":0}],"gid":18,"width":90,"height":25},{"id":88,"x":2610,"y":300,"visible":true,"properties":[{"name":"layer","type":"int","value":5},{"name":"resource_index","type":"int","value":19},{"name":"u","type":"string","value":"enH0"},{"name":"no","type":"int","value":0},{"name":"zM","type":"int","value":0}],"gid":19,"width":90,"height":25},{"id":89,"x":2790,"y":325,"visible":true,"properties":[{"name":"layer","type":"int","value":5},{"name":"resource_index","type":"int","value":20},{"name":"u","type":"string","value":"enH1"},{"name":"no","type":"int","value":0},{"name":"zM","type":"int","value":0}],"gid":18,"width":90,"height":25},{"id":90,"x":2790,"y":300,"visible":true,"properties":[{"name":"layer","type":"int","value":5},{"name":"resource_index","type":"int","value":21},{"name":"u","type":"string","value":"enH0"},{"name":"no","type":"int","value":0},{"name":"zM","type":"int","value":0}],"gid":19,"width":90,"height":25},{"id":91,"x":2970,"y":325,"visible":true,"properties":[{"name":"layer","type":"int","value":5},{"name":"resource_index","type":"int","value":22},{"name":"u","type":"string","value":"enH1"},{"name":"no","type":"int","value":0},{"name":"zM","type":"int","value":0}],"gid":18,"width":90,"height":25},{"id":92,"x":2970,"y":300,"visible":true,"properties":[{"name":"layer","type":"int","value":5},{"name":"resource_index","type":"int","value":23},{"name":"u","type":"string","value":"enH0"},{"name":"no","type":"int","value":0},{"name":"zM","type":"int","value":0}],"gid":19,"width":90,"height":25},{"id":93,"x":2880,"y":325,"visible":true,"properties":[{"name":"layer","type":"int","value":5},{"name":"resource_index","type":"int","value":24},{"name":"u","type":"string","value":"enH1"},{"name":"no","type":"int","value":0},{"name":"zM","type":"int","value":0}],"gid":18,"width":90,"height":25},{"id":94,"x":2880,"y":300,"visible":true,"properties":[{"name":"layer","type":"int","value":5},{"name":"resource_index","type":"int","value":25},{"name":"u","type":"string","value":"enH0"},{"name":"no","type":"int","value":0},{"name":"zM","type":"int","value":0}],"gid":19,"width":90,"height":25},{"id":95,"x":3060,"y":325,"visible":true,"properties":[{"name":"layer","type":"int","value":5},{"name":"resource_index","type":"int","value":26},{"name":"u","type":"string","value":"enH1"},{"name":"no","type":"int","value":0},{"name":"zM","type":"int","value":0}],"gid":18,"width":90,"height":25},{"id":96,"x":3060,"y":300,"visible":true,"properties":[{"name":"layer","type":"int","value":5},{"name":"resource_index","type":"int","value":27},{"name":"u","type":"string","value":"enH0"},{"name":"no","type":"int","value":0},{"name":"zM","type":"int","value":0}],"gid":19,"width":90,"height":25},{"id":97,"x":3150,"y":325,"visible":true,"properties":[{"name":"layer","type":"int","value":5},{"name":"resource_index","type":"int","value":28},{"name":"u","type":"string","value":"enH1"},{"name":"no","type":"int","value":0},{"name":"zM","type":"int","value":0}],"gid":18,"width":90,"height":25},{"id":98,"x":3150,"y":300,"visible":true,"properties":[{"name":"layer","type":"int","value":5},{"name":"resource_index","type":"int","value":29},{"name":"u","type":"string","value":"enH0"},{"name":"no","type":"int","value":0},{"name":"zM","type":"int","value":0}],"gid":19,"width":90,"height":25},{"id":99,"x":3330,"y":325,"visible":true,"properties":[{"name":"layer","type":"int","value":5},{"name":"resource_index","type":"int","value":30},{"name":"u","type":"string","value":"enH1"},{"name":"no","type":"int","value":0},{"name":"zM","type":"int","value":0}],"gid":18,"width":90,"height":25},{"id":100,"x":3330,"y":300,"visible":true,"properties":[{"name":"layer","type":"int","value":5},{"name":"resource_index","type":"int","value":31},{"name":"u","type":"string","value":"enH0"},{"name":"no","type":"int","value":0},{"name":"zM","type":"int","value":0}],"gid":19,"width":90,"height":25},{"id":101,"x":3240,"y":325,"visible":true,"properties":[{"name":"layer","type":"int","value":5},{"name":"resource_index","type":"int","value":32},{"name":"u","type":"string","value":"enH1"},{"name":"no","type":"int","value":0},{"name":"zM","type":"int","value":0}],"gid":18,"width":90,"height":25},{"id":102,"x":3240,"y":300,"visible":true,"properties":[{"name":"layer","type":"int","value":5},{"name":"resource_index","type":"int","value":33},{"name":"u","type":"string","value":"enH0"},{"name":"no","type":"int","value":0},{"name":"zM","type":"int","value":0}],"gid":19,"width":90,"height":25},{"id":103,"x":3420,"y":325,"visible":true,"properties":[{"name":"layer","type":"int","value":5},{"name":"resource_index","type":"int","value":34},{"name":"u","type":"string","value":"enH1"},{"name":"no","type":"int","value":0},{"name":"zM","type":"int","value":0}],"gid":18,"width":90,"height":25},{"id":104,"x":3420,"y":300,"visible":true,"properties":[{"name":"layer","type":"int","value":5},{"name":"resource_index","type":"int","value":35},{"name":"u","type":"string","value":"enH0"},{"name":"no","type":"int","value":0},{"name":"zM","type":"int","value":0}],"gid":19,"width":90,"height":25},{"id":105,"x":3510,"y":300,"visible":true,"properties":[{"name":"layer","type":"int","value":5},{"name":"resource_index","type":"int","value":36},{"name":"u","type":"string","value":"enH0"},{"name":"no","type":"int","value":0},{"name":"zM","type":"int","value":0}],"gid":19,"width":90,"height":25},{"id":106,"x":3510,"y":325,"visible":true,"properties":[{"name":"layer","type":"int","value":5},{"name":"resource_index","type":"int","value":37},{"name":"u","type":"string","value":"enH1"},{"name":"no","type":"int","value":0},{"name":"zM","type":"int","value":0}],"gid":18,"width":90,"height":25}],"properties":[]},{"id":25,"name":"portal","type":"objectgroup","visible":true,"opacity":1,"draworder":"index","offsetx":0,"offsety":0,"parallaxx":1,"parallaxy":1,"objects":[{"id":113,"x":2758,"y":-97,"visible":true,"properties":[{"name":"x","type":"int","value":2758},{"name":"y","type":"int","value":-97},{"name":"pn","type":"string","value":"sp"},{"name":"pt","type":"int","value":0},{"name":"tm","type":"int","value":999999999},{"name":"tn","type":"string","value":""},{"name":"horizontalImpact","type":"int","value":0}],"point":true},{"id":114,"x":1667,"y":92,"visible":true,"properties":[{"name":"x","type":"int","value":1711},{"name":"y","type":"int","value":83},{"name":"pn","type":"string","value":"west00"},{"name":"pt","type":"int","value":2},{"name":"tm","type":"int","value":140020200},{"name":"tn","type":"string","value":"east00"},{"name":"horizontalImpact","type":"int","value":0}],"gid":73,"width":89,"height":257}],"properties":[]},{"id":26,"name":"life","type":"objectgroup","visible":true,"opacity":1,"draworder":"index","offsetx":0,"offsety":0,"parallaxx":1,"parallaxy":1,"objects":[{"id":115,"x":2918,"y":-5,"visible":true,"properties":[{"name":"f","type":"int","value":0},{"name":"x","type":"int","value":2918},{"name":"y","type":"int","value":-5},{"name":"cy","type":"int","value":3},{"name":"fh","type":"int","value":57},{"name":"id","type":"int","value":1200003},{"name":"rx0","type":"int","value":2868},{"name":"rx1","type":"int","value":2968},{"name":"hide","type":"int","value":0},{"name":"type","type":"string","value":"n"},{"name":"mobTime","type":"int","value":0},{"name":"npc_aseprite","type":"file","value":"../../Npc/1200003.img/animation.aseprite"}],"point":true}],"properties":[]},{"id":27,"name":"foothold","type":"objectgroup","visible":true,"opacity":1,"draworder":"index","offsetx":0,"offsety":0,"parallaxx":1,"parallaxy":1,"objects":[{"id":116,"x":2686,"y":-6,"visible":true,"properties":[{"name":"layer","type":"int","value":3},{"name":"group","type":"int","value":3},{"name":"id","type":"int","value":27},{"name":"fh_layer","type":"int","value":3},{"name":"fh_group","type":"int","value":3},{"name":"fh_id","type":"int","value":27},{"name":"x1","type":"int","value":2686},{"name":"x2","type":"int","value":2738},{"name":"y1","type":"int","value":-6},{"name":"y2","type":"int","value":-2},{"name":"next","type":"int","value":0},{"name":"prev","type":"int","value":0}],"polyline":[{"x":0,"y":0},{"x":52,"y":4}]},{"id":117,"x":2700,"y":-42,"visible":true,"properties":[{"name":"layer","type":"int","value":3},{"name":"group","type":"int","value":3},{"name":"id","type":"int","value":28},{"name":"fh_layer","type":"int","value":3},{"name":"fh_group","type":"int","value":3},{"name":"fh_id","type":"int","value":28},{"name":"x1","type":"int","value":2700},{"name":"x2","type":"int","value":2752},{"name":"y1","type":"int","value":-42},{"name":"y2","type":"int","value":-38},{"name":"next","type":"int","value":0},{"name":"prev","type":"int","value":0}],"polyline":[{"x":0,"y":0},{"x":52,"y":4}]},{"id":118,"x":2717,"y":-72,"visible":true,"properties":[{"name":"layer","type":"int","value":3},{"name":"group","type":"int","value":3},{"name":"id","type":"int","value":29},{"name":"fh_layer","type":"int","value":3},{"name":"fh_group","type":"int","value":3},{"name":"fh_id","type":"int","value":29},{"name":"x1","type":"int","value":2717},{"name":"x2","type":"int","value":2769},{"name":"y1","type":"int","value":-72},{"name":"y2","type":"int","value":-72},{"name":"next","type":"int","value":0},{"name":"prev","type":"int","value":0}],"polyline":[{"x":0,"y":0},{"x":52,"y":0}]},{"id":119,"x":2729,"y":-99,"visible":true,"properties":[{"name":"layer","type":"int","value":3},{"name":"group","type":"int","value":3},{"name":"id","type":"int","value":30},{"name":"fh_layer","type":"int","value":3},{"name":"fh_group","type":"int","value":3},{"name":"fh_id","type":"int","value":30},{"name":"x1","type":"int","value":2729},{"name":"x2","type":"int","value":2781},{"name":"y1","type":"int","value":-99},{"name":"y2","type":"int","value":-101},{"name":"next","type":"int","value":0},{"name":"prev","type":"int","value":0}],"polyline":[{"x":0,"y":0},{"x":52,"y":-2}]},{"id":120,"x":2742,"y":-122,"visible":true,"properties":[{"name":"layer","type":"int","value":3},{"name":"group","type":"int","value":3},{"name":"id","type":"int","value":31},{"name":"fh_layer","type":"int","value":3},{"name":"fh_group","type":"int","value":3},{"name":"fh_id","type":"int","value":31},{"name":"x1","type":"int","value":2742},{"name":"x2","type":"int","value":2794},{"name":"y1","type":"int","value":-122},{"name":"y2","type":"int","value":-126},{"name":"next","type":"int","value":0},{"name":"prev","type":"int","value":0}],"polyline":[{"x":0,"y":0},{"x":52,"y":-4}]},{"id":121,"x":2687,"y":-133,"visible":true,"properties":[{"name":"layer","type":"int","value":3},{"name":"group","type":"int","value":3},{"name":"id","type":"int","value":32},{"name":"fh_layer","type":"int","value":3},{"name":"fh_group","type":"int","value":3},{"name":"fh_id","type":"int","value":32},{"name":"x1","type":"int","value":2687},{"name":"x2","type":"int","value":2744},{"name":"y1","type":"int","value":-133},{"name":"y2","type":"int","value":-136},{"name":"next","type":"int","value":33},{"name":"prev","type":"int","value":0}],"polyline":[{"x":0,"y":0},{"x":57,"y":-3}]},{"id":122,"x":2744,"y":-136,"visible":true,"properties":[{"name":"layer","type":"int","value":3},{"name":"group","type":"int","value":3},{"name":"id","type":"int","value":33},{"name":"fh_layer","type":"int","value":3},{"name":"fh_group","type":"int","value":3},{"name":"fh_id","type":"int","value":33},{"name":"x1","type":"int","value":2744},{"name":"x2","type":"int","value":2778},{"name":"y1","type":"int","value":-136},{"name":"y2","type":"int","value":-136},{"name":"next","type":"int","value":34},{"name":"prev","type":"int","value":32}],"polyline":[{"x":0,"y":0},{"x":34,"y":0}]},{"id":123,"x":2778,"y":-136,"visible":true,"properties":[{"name":"layer","type":"int","value":3},{"name":"group","type":"int","value":3},{"name":"id","type":"int","value":34},{"name":"fh_layer","type":"int","value":3},{"name":"fh_group","type":"int","value":3},{"name":"fh_id","type":"int","value":34},{"name":"x1","type":"int","value":2778},{"name":"x2","type":"int","value":2789},{"name":"y1","type":"int","value":-136},{"name":"y2","type":"int","value":-142},{"name":"next","type":"int","value":35},{"name":"prev","type":"int","value":33}],"polyline":[{"x":0,"y":0},{"x":11,"y":-6}]},{"id":124,"x":2789,"y":-142,"visible":true,"properties":[{"name":"layer","type":"int","value":3},{"name":"group","type":"int","value":3},{"name":"id","type":"int","value":35},{"name":"fh_layer","type":"int","value":3},{"name":"fh_group","type":"int","value":3},{"name":"fh_id","type":"int","value":35},{"name":"x1","type":"int","value":2789},{"name":"x2","type":"int","value":2801},{"name":"y1","type":"int","value":-142},{"name":"y2","type":"int","value":-140},{"name":"next","type":"int","value":36},{"name":"prev","type":"int","value":34}],"polyline":[{"x":0,"y":0},{"x":12,"y":2}]},{"id":125,"x":2801,"y":-140,"visible":true,"properties":[{"name":"layer","type":"int","value":3},{"name":"group","type":"int","value":3},{"name":"id","type":"int","value":36},{"name":"fh_layer","type":"int","value":3},{"name":"fh_group","type":"int","value":3},{"name":"fh_id","type":"int","value":36},{"name":"x1","type":"int","value":2801},{"name":"x2","type":"int","value":2808},{"name":"y1","type":"int","value":-140},{"name":"y2","type":"int","value":-135},{"name":"next","type":"int","value":37},{"name":"prev","type":"int","value":35}],"polyline":[{"x":0,"y":0},{"x":7,"y":5}]},{"id":126,"x":2808,"y":-135,"visible":true,"properties":[{"name":"layer","type":"int","value":3},{"name":"group","type":"int","value":3},{"name":"id","type":"int","value":37},{"name":"fh_layer","type":"int","value":3},{"name":"fh_group","type":"int","value":3},{"name":"fh_id","type":"int","value":37},{"name":"x1","type":"int","value":2808},{"name":"x2","type":"int","value":2818},{"name":"y1","type":"int","value":-135},{"name":"y2","type":"int","value":-133},{"name":"next","type":"int","value":38},{"name":"prev","type":"int","value":36}],"polyline":[{"x":0,"y":0},{"x":10,"y":2}]},{"id":127,"x":2818,"y":-133,"visible":true,"properties":[{"name":"layer","type":"int","value":3},{"name":"group","type":"int","value":3},{"name":"id","type":"int","value":38},{"name":"fh_layer","type":"int","value":3},{"name":"fh_group","type":"int","value":3},{"name":"fh_id","type":"int","value":38},{"name":"x1","type":"int","value":2818},{"name":"x2","type":"int","value":2906},{"name":"y1","type":"int","value":-133},{"name":"y2","type":"int","value":-125},{"name":"next","type":"int","value":39},{"name":"prev","type":"int","value":37}],"polyline":[{"x":0,"y":0},{"x":88,"y":8}]},{"id":128,"x":2906,"y":-125,"visible":true,"properties":[{"name":"layer","type":"int","value":3},{"name":"group","type":"int","value":3},{"name":"id","type":"int","value":39},{"name":"fh_layer","type":"int","value":3},{"name":"fh_group","type":"int","value":3},{"name":"fh_id","type":"int","value":39},{"name":"x1","type":"int","value":2906},{"name":"x2","type":"int","value":2915},{"name":"y1","type":"int","value":-125},{"name":"y2","type":"int","value":-123},{"name":"next","type":"int","value":0},{"name":"prev","type":"int","value":38}],"polyline":[{"x":0,"y":0},{"x":9,"y":2}]},{"id":129,"x":2714,"y":-284,"visible":true,"properties":[{"name":"layer","type":"int","value":3},{"name":"group","type":"int","value":3},{"name":"id","type":"int","value":40},{"name":"fh_layer","type":"int","value":3},{"name":"fh_group","type":"int","value":3},{"name":"fh_id","type":"int","value":40},{"name":"x1","type":"int","value":2714},{"name":"x2","type":"int","value":2817},{"name":"y1","type":"int","value":-284},{"name":"y2","type":"int","value":-302},{"name":"next","type":"int","value":41},{"name":"prev","type":"int","value":0}],"polyline":[{"x":0,"y":0},{"x":103,"y":-18}]},{"id":130,"x":2817,"y":-302,"visible":true,"properties":[{"name":"layer","type":"int","value":3},{"name":"group","type":"int","value":3},{"name":"id","type":"int","value":41},{"name":"fh_layer","type":"int","value":3},{"name":"fh_group","type":"int","value":3},{"name":"fh_id","type":"int","value":41},{"name":"x1","type":"int","value":2817},{"name":"x2","type":"int","value":2901},{"name":"y1","type":"int","value":-302},{"name":"y2","type":"int","value":-276},{"name":"next","type":"int","value":0},{"name":"prev","type":"int","value":40}],"polyline":[{"x":0,"y":0},{"x":84,"y":26}]},{"id":131,"x":2676,"y":-409,"visible":true,"properties":[{"name":"layer","type":"int","value":3},{"name":"group","type":"int","value":3},{"name":"id","type":"int","value":42},{"name":"fh_layer","type":"int","value":3},{"name":"fh_group","type":"int","value":3},{"name":"fh_id","type":"int","value":42},{"name":"x1","type":"int","value":2676},{"name":"x2","type":"int","value":2712},{"name":"y1","type":"int","value":-409},{"name":"y2","type":"int","value":-427},{"name":"next","type":"int","value":43},{"name":"prev","type":"int","value":0}],"polyline":[{"x":0,"y":0},{"x":36,"y":-18}]},{"id":132,"x":2712,"y":-427,"visible":true,"properties":[{"name":"layer","type":"int","value":3},{"name":"group","type":"int","value":3},{"name":"id","type":"int","value":43},{"name":"fh_layer","type":"int","value":3},{"name":"fh_group","type":"int","value":3},{"name":"fh_id","type":"int","value":43},{"name":"x1","type":"int","value":2712},{"name":"x2","type":"int","value":2760},{"name":"y1","type":"int","value":-427},{"name":"y2","type":"int","value":-442},{"name":"next","type":"int","value":44},{"name":"prev","type":"int","value":42}],"polyline":[{"x":0,"y":0},{"x":48,"y":-15}]},{"id":133,"x":2760,"y":-442,"visible":true,"properties":[{"name":"layer","type":"int","value":3},{"name":"group","type":"int","value":3},{"name":"id","type":"int","value":44},{"name":"fh_layer","type":"int","value":3},{"name":"fh_group","type":"int","value":3},{"name":"fh_id","type":"int","value":44},{"name":"x1","type":"int","value":2760},{"name":"x2","type":"int","value":2813},{"name":"y1","type":"int","value":-442},{"name":"y2","type":"int","value":-449},{"name":"next","type":"int","value":45},{"name":"prev","type":"int","value":43}],"polyline":[{"x":0,"y":0},{"x":53,"y":-7}]},{"id":134,"x":2813,"y":-449,"visible":true,"properties":[{"name":"layer","type":"int","value":3},{"name":"group","type":"int","value":3},{"name":"id","type":"int","value":45},{"name":"fh_layer","type":"int","value":3},{"name":"fh_group","type":"int","value":3},{"name":"fh_id","type":"int","value":45},{"name":"x1","type":"int","value":2813},{"name":"x2","type":"int","value":2861},{"name":"y1","type":"int","value":-449},{"name":"y2","type":"int","value":-440},{"name":"next","type":"int","value":46},{"name":"prev","type":"int","value":44}],"polyline":[{"x":0,"y":0},{"x":48,"y":9}]},{"id":135,"x":2861,"y":-440,"visible":true,"properties":[{"name":"layer","type":"int","value":3},{"name":"group","type":"int","value":3},{"name":"id","type":"int","value":46},{"name":"fh_layer","type":"int","value":3},{"name":"fh_group","type":"int","value":3},{"name":"fh_id","type":"int","value":46},{"name":"x1","type":"int","value":2861},{"name":"x2","type":"int","value":2908},{"name":"y1","type":"int","value":-440},{"name":"y2","type":"int","value":-423},{"name":"next","type":"int","value":47},{"name":"prev","type":"int","value":45}],"polyline":[{"x":0,"y":0},{"x":47,"y":17}]},{"id":136,"x":2908,"y":-423,"visible":true,"properties":[{"name":"layer","type":"int","value":3},{"name":"group","type":"int","value":3},{"name":"id","type":"int","value":47},{"name":"fh_layer","type":"int","value":3},{"name":"fh_group","type":"int","value":3},{"name":"fh_id","type":"int","value":47},{"name":"x1","type":"int","value":2908},{"name":"x2","type":"int","value":2937},{"name":"y1","type":"int","value":-423},{"name":"y2","type":"int","value":-403},{"name":"next","type":"int","value":0},{"name":"prev","type":"int","value":46}],"polyline":[{"x":0,"y":0},{"x":29,"y":20}]},{"id":137,"x":2130,"y":-258,"visible":true,"properties":[{"name":"layer","type":"int","value":3},{"name":"group","type":"int","value":4},{"name":"id","type":"int","value":19},{"name":"fh_layer","type":"int","value":3},{"name":"fh_group","type":"int","value":4},{"name":"fh_id","type":"int","value":19},{"name":"x1","type":"int","value":2130},{"name":"x2","type":"int","value":2303},{"name":"y1","type":"int","value":-258},{"name":"y2","type":"int","value":-257},{"name":"next","type":"int","value":20},{"name":"prev","type":"int","value":0}],"polyline":[{"x":0,"y":0},{"x":173,"y":1}]},{"id":138,"x":2303,"y":-257,"visible":true,"properties":[{"name":"layer","type":"int","value":3},{"name":"group","type":"int","value":4},{"name":"id","type":"int","value":20},{"name":"fh_layer","type":"int","value":3},{"name":"fh_group","type":"int","value":4},{"name":"fh_id","type":"int","value":20},{"name":"x1","type":"int","value":2303},{"name":"x2","type":"int","value":2380},{"name":"y1","type":"int","value":-257},{"name":"y2","type":"int","value":-256},{"name":"next","type":"int","value":0},{"name":"prev","type":"int","value":19}],"polyline":[{"x":0,"y":0},{"x":77,"y":1}]},{"id":139,"x":2069,"y":-160,"visible":true,"properties":[{"name":"layer","type":"int","value":3},{"name":"group","type":"int","value":4},{"name":"id","type":"int","value":21},{"name":"fh_layer","type":"int","value":3},{"name":"fh_group","type":"int","value":4},{"name":"fh_id","type":"int","value":21},{"name":"x1","type":"int","value":2069},{"name":"x2","type":"int","value":2124},{"name":"y1","type":"int","value":-160},{"name":"y2","type":"int","value":-164},{"name":"next","type":"int","value":22},{"name":"prev","type":"int","value":0}],"polyline":[{"x":0,"y":0},{"x":55,"y":-4}]},{"id":140,"x":2124,"y":-164,"visible":true,"properties":[{"name":"layer","type":"int","value":3},{"name":"group","type":"int","value":4},{"name":"id","type":"int","value":22},{"name":"fh_layer","type":"int","value":3},{"name":"fh_group","type":"int","value":4},{"name":"fh_id","type":"int","value":22},{"name":"x1","type":"int","value":2124},{"name":"x2","type":"int","value":2203},{"name":"y1","type":"int","value":-164},{"name":"y2","type":"int","value":-162},{"name":"next","type":"int","value":23},{"name":"prev","type":"int","value":21}],"polyline":[{"x":0,"y":0},{"x":79,"y":2}]},{"id":141,"x":2203,"y":-162,"visible":true,"properties":[{"name":"layer","type":"int","value":3},{"name":"group","type":"int","value":4},{"name":"id","type":"int","value":23},{"name":"fh_layer","type":"int","value":3},{"name":"fh_group","type":"int","value":4},{"name":"fh_id","type":"int","value":23},{"name":"x1","type":"int","value":2203},{"name":"x2","type":"int","value":2273},{"name":"y1","type":"int","value":-162},{"name":"y2","type":"int","value":-160},{"name":"next","type":"int","value":24},{"name":"prev","type":"int","value":22}],"polyline":[{"x":0,"y":0},{"x":70,"y":2}]},{"id":142,"x":2273,"y":-160,"visible":true,"properties":[{"name":"layer","type":"int","value":3},{"name":"group","type":"int","value":4},{"name":"id","type":"int","value":24},{"name":"fh_layer","type":"int","value":3},{"name":"fh_group","type":"int","value":4},{"name":"fh_id","type":"int","value":24},{"name":"x1","type":"int","value":2273},{"name":"x2","type":"int","value":2315},{"name":"y1","type":"int","value":-160},{"name":"y2","type":"int","value":-160},{"name":"next","type":"int","value":0},{"name":"prev","type":"int","value":23}],"polyline":[{"x":0,"y":0},{"x":42,"y":0}]},{"id":143,"x":2072,"y":-56,"visible":true,"properties":[{"name":"layer","type":"int","value":3},{"name":"group","type":"int","value":4},{"name":"id","type":"int","value":25},{"name":"fh_layer","type":"int","value":3},{"name":"fh_group","type":"int","value":4},{"name":"fh_id","type":"int","value":25},{"name":"x1","type":"int","value":2072},{"name":"x2","type":"int","value":2083},{"name":"y1","type":"int","value":-56},{"name":"y2","type":"int","value":-56},{"name":"next","type":"int","value":26},{"name":"prev","type":"int","value":0}],"polyline":[{"x":0,"y":0},{"x":11,"y":0}]},{"id":144,"x":2083,"y":-56,"visible":true,"properties":[{"name":"layer","type":"int","value":3},{"name":"group","type":"int","value":4},{"name":"id","type":"int","value":26},{"name":"fh_layer","type":"int","value":3},{"name":"fh_group","type":"int","value":4},{"name":"fh_id","type":"int","value":26},{"name":"x1","type":"int","value":2083},{"name":"x2","type":"int","value":2317},{"name":"y1","type":"int","value":-56},{"name":"y2","type":"int","value":-51},{"name":"next","type":"int","value":0},{"name":"prev","type":"int","value":25}],"polyline":[{"x":0,"y":0},{"x":234,"y":5}]},{"id":145,"x":2070,"y":275,"visible":true,"properties":[{"name":"layer","type":"int","value":5},{"name":"group","type":"int","value":0},{"name":"id","type":"int","value":1},{"name":"fh_layer","type":"int","value":5},{"name":"fh_group","type":"int","value":0},{"name":"fh_id","type":"int","value":1},{"name":"x1","type":"int","value":2070},{"name":"x2","type":"int","value":2160},{"name":"y1","type":"int","value":275},{"name":"y2","type":"int","value":275},{"name":"next","type":"int","value":5},{"name":"prev","type":"int","value":2}],"polyline":[{"x":0,"y":0},{"x":90,"y":0}]},{"id":146,"x":1980,"y":275,"visible":true,"properties":[{"name":"layer","type":"int","value":5},{"name":"group","type":"int","value":0},{"name":"id","type":"int","value":2},{"name":"fh_layer","type":"int","value":5},{"name":"fh_group","type":"int","value":0},{"name":"fh_id","type":"int","value":2},{"name":"x1","type":"int","value":1980},{"name":"x2","type":"int","value":2070},{"name":"y1","type":"int","value":275},{"name":"y2","type":"int","value":275},{"name":"next","type":"int","value":1},{"name":"prev","type":"int","value":54}],"polyline":[{"x":0,"y":0},{"x":90,"y":0}]},{"id":147,"x":2250,"y":275,"visible":true,"properties":[{"name":"layer","type":"int","value":5},{"name":"group","type":"int","value":0},{"name":"id","type":"int","value":3},{"name":"fh_layer","type":"int","value":5},{"name":"fh_group","type":"int","value":0},{"name":"fh_id","type":"int","value":3},{"name":"x1","type":"int","value":2250},{"name":"x2","type":"int","value":2340},{"name":"y1","type":"int","value":275},{"name":"y2","type":"int","value":275},{"name":"next","type":"int","value":6},{"name":"prev","type":"int","value":5}],"polyline":[{"x":0,"y":0},{"x":90,"y":0}]},{"id":148,"x":2430,"y":275,"visible":true,"properties":[{"name":"layer","type":"int","value":5},{"name":"group","type":"int","value":0},{"name":"id","type":"int","value":4},{"name":"fh_layer","type":"int","value":5},{"name":"fh_group","type":"int","value":0},{"name":"fh_id","type":"int","value":4},{"name":"x1","type":"int","value":2430},{"name":"x2","type":"int","value":2520},{"name":"y1","type":"int","value":275},{"name":"y2","type":"int","value":275},{"name":"next","type":"int","value":7},{"name":"prev","type":"int","value":6}],"polyline":[{"x":0,"y":0},{"x":90,"y":0}]},{"id":149,"x":2160,"y":275,"visible":true,"properties":[{"name":"layer","type":"int","value":5},{"name":"group","type":"int","value":0},{"name":"id","type":"int","value":5},{"name":"fh_layer","type":"int","value":5},{"name":"fh_group","type":"int","value":0},{"name":"fh_id","type":"int","value":5},{"name":"x1","type":"int","value":2160},{"name":"x2","type":"int","value":2250},{"name":"y1","type":"int","value":275},{"name":"y2","type":"int","value":275},{"name":"next","type":"int","value":3},{"name":"prev","type":"int","value":1}],"polyline":[{"x":0,"y":0},{"x":90,"y":0}]},{"id":150,"x":2340,"y":275,"visible":true,"properties":[{"name":"layer","type":"int","value":5},{"name":"group","type":"int","value":0},{"name":"id","type":"int","value":6},{"name":"fh_layer","type":"int","value":5},{"name":"fh_group","type":"int","value":0},{"name":"fh_id","type":"int","value":6},{"name":"x1","type":"int","value":2340},{"name":"x2","type":"int","value":2430},{"name":"y1","type":"int","value":275},{"name":"y2","type":"int","value":275},{"name":"next","type":"int","value":4},{"name":"prev","type":"int","value":3}],"polyline":[{"x":0,"y":0},{"x":90,"y":0}]},{"id":151,"x":2520,"y":275,"visible":true,"properties":[{"name":"layer","type":"int","value":5},{"name":"group","type":"int","value":0},{"name":"id","type":"int","value":7},{"name":"fh_layer","type":"int","value":5},{"name":"fh_group","type":"int","value":0},{"name":"fh_id","type":"int","value":7},{"name":"x1","type":"int","value":2520},{"name":"x2","type":"int","value":2610},{"name":"y1","type":"int","value":275},{"name":"y2","type":"int","value":275},{"name":"next","type":"int","value":9},{"name":"prev","type":"int","value":4}],"polyline":[{"x":0,"y":0},{"x":90,"y":0}]},{"id":152,"x":2700,"y":275,"visible":true,"properties":[{"name":"layer","type":"int","value":5},{"name":"group","type":"int","value":0},{"name":"id","type":"int","value":8},{"name":"fh_layer","type":"int","value":5},{"name":"fh_group","type":"int","value":0},{"name":"fh_id","type":"int","value":8},{"name":"x1","type":"int","value":2700},{"name":"x2","type":"int","value":2790},{"name":"y1","type":"int","value":275},{"name":"y2","type":"int","value":275},{"name":"next","type":"int","value":10},{"name":"prev","type":"int","value":9}],"polyline":[{"x":0,"y":0},{"x":90,"y":0}]},{"id":153,"x":2610,"y":275,"visible":true,"properties":[{"name":"layer","type":"int","value":5},{"name":"group","type":"int","value":0},{"name":"id","type":"int","value":9},{"name":"fh_layer","type":"int","value":5},{"name":"fh_group","type":"int","value":0},{"name":"fh_id","type":"int","value":9},{"name":"x1","type":"int","value":2610},{"name":"x2","type":"int","value":2700},{"name":"y1","type":"int","value":275},{"name":"y2","type":"int","value":275},{"name":"next","type":"int","value":8},{"name":"prev","type":"int","value":7}],"polyline":[{"x":0,"y":0},{"x":90,"y":0}]},{"id":154,"x":2790,"y":275,"visible":true,"properties":[{"name":"layer","type":"int","value":5},{"name":"group","type":"int","value":0},{"name":"id","type":"int","value":10},{"name":"fh_layer","type":"int","value":5},{"name":"fh_group","type":"int","value":0},{"name":"fh_id","type":"int","value":10},{"name":"x1","type":"int","value":2790},{"name":"x2","type":"int","value":2880},{"name":"y1","type":"int","value":275},{"name":"y2","type":"int","value":275},{"name":"next","type":"int","value":12},{"name":"prev","type":"int","value":8}],"polyline":[{"x":0,"y":0},{"x":90,"y":0}]},{"id":155,"x":2970,"y":275,"visible":true,"properties":[{"name":"layer","type":"int","value":5},{"name":"group","type":"int","value":0},{"name":"id","type":"int","value":11},{"name":"fh_layer","type":"int","value":5},{"name":"fh_group","type":"int","value":0},{"name":"fh_id","type":"int","value":11},{"name":"x1","type":"int","value":2970},{"name":"x2","type":"int","value":3060},{"name":"y1","type":"int","value":275},{"name":"y2","type":"int","value":275},{"name":"next","type":"int","value":13},{"name":"prev","type":"int","value":12}],"polyline":[{"x":0,"y":0},{"x":90,"y":0}]},{"id":156,"x":2880,"y":275,"visible":true,"properties":[{"name":"layer","type":"int","value":5},{"name":"group","type":"int","value":0},{"name":"id","type":"int","value":12},{"name":"fh_layer","type":"int","value":5},{"name":"fh_group","type":"int","value":0},{"name":"fh_id","type":"int","value":12},{"name":"x1","type":"int","value":2880},{"name":"x2","type":"int","value":2970},{"name":"y1","type":"int","value":275},{"name":"y2","type":"int","value":275},{"name":"next","type":"int","value":11},{"name":"prev","type":"int","value":10}],"polyline":[{"x":0,"y":0},{"x":90,"y":0}]},{"id":157,"x":3060,"y":275,"visible":true,"properties":[{"name":"layer","type":"int","value":5},{"name":"group","type":"int","value":0},{"name":"id","type":"int","value":13},{"name":"fh_layer","type":"int","value":5},{"name":"fh_group","type":"int","value":0},{"name":"fh_id","type":"int","value":13},{"name":"x1","type":"int","value":3060},{"name":"x2","type":"int","value":3150},{"name":"y1","type":"int","value":275},{"name":"y2","type":"int","value":275},{"name":"next","type":"int","value":14},{"name":"prev","type":"int","value":11}],"polyline":[{"x":0,"y":0},{"x":90,"y":0}]},{"id":158,"x":3150,"y":275,"visible":true,"properties":[{"name":"layer","type":"int","value":5},{"name":"group","type":"int","value":0},{"name":"id","type":"int","value":14},{"name":"fh_layer","type":"int","value":5},{"name":"fh_group","type":"int","value":0},{"name":"fh_id","type":"int","value":14},{"name":"x1","type":"int","value":3150},{"name":"x2","type":"int","value":3240},{"name":"y1","type":"int","value":275},{"name":"y2","type":"int","value":275},{"name":"next","type":"int","value":16},{"name":"prev","type":"int","value":13}],"polyline":[{"x":0,"y":0},{"x":90,"y":0}]},{"id":159,"x":3330,"y":275,"visible":true,"properties":[{"name":"layer","type":"int","value":5},{"name":"group","type":"int","value":0},{"name":"id","type":"int","value":15},{"name":"fh_layer","type":"int","value":5},{"name":"fh_group","type":"int","value":0},{"name":"fh_id","type":"int","value":15},{"name":"x1","type":"int","value":3330},{"name":"x2","type":"int","value":3420},{"name":"y1","type":"int","value":275},{"name":"y2","type":"int","value":275},{"name":"next","type":"int","value":17},{"name":"prev","type":"int","value":16}],"polyline":[{"x":0,"y":0},{"x":90,"y":0}]},{"id":160,"x":3240,"y":275,"visible":true,"properties":[{"name":"layer","type":"int","value":5},{"name":"group","type":"int","value":0},{"name":"id","type":"int","value":16},{"name":"fh_layer","type":"int","value":5},{"name":"fh_group","type":"int","value":0},{"name":"fh_id","type":"int","value":16},{"name":"x1","type":"int","value":3240},{"name":"x2","type":"int","value":3330},{"name":"y1","type":"int","value":275},{"name":"y2","type":"int","value":275},{"name":"next","type":"int","value":15},{"name":"prev","type":"int","value":14}],"polyline":[{"x":0,"y":0},{"x":90,"y":0}]},{"id":161,"x":3420,"y":275,"visible":true,"properties":[{"name":"layer","type":"int","value":5},{"name":"group","type":"int","value":0},{"name":"id","type":"int","value":17},{"name":"fh_layer","type":"int","value":5},{"name":"fh_group","type":"int","value":0},{"name":"fh_id","type":"int","value":17},{"name":"x1","type":"int","value":3420},{"name":"x2","type":"int","value":3510},{"name":"y1","type":"int","value":275},{"name":"y2","type":"int","value":275},{"name":"next","type":"int","value":18},{"name":"prev","type":"int","value":15}],"polyline":[{"x":0,"y":0},{"x":90,"y":0}]},{"id":162,"x":3510,"y":275,"visible":true,"properties":[{"name":"layer","type":"int","value":5},{"name":"group","type":"int","value":0},{"name":"id","type":"int","value":18},{"name":"fh_layer","type":"int","value":5},{"name":"fh_group","type":"int","value":0},{"name":"fh_id","type":"int","value":18},{"name":"x1","type":"int","value":3510},{"name":"x2","type":"int","value":3600},{"name":"y1","type":"int","value":275},{"name":"y2","type":"int","value":275},{"name":"next","type":"int","value":0},{"name":"prev","type":"int","value":17}],"polyline":[{"x":0,"y":0},{"x":90,"y":0}]},{"id":163,"x":1786,"y":89,"visible":true,"properties":[{"name":"layer","type":"int","value":5},{"name":"group","type":"int","value":0},{"name":"id","type":"int","value":48},{"name":"fh_layer","type":"int","value":5},{"name":"fh_group","type":"int","value":0},{"name":"fh_id","type":"int","value":48},{"name":"x1","type":"int","value":1786},{"name":"x2","type":"int","value":1796},{"name":"y1","type":"int","value":89},{"name":"y2","type":"int","value":69},{"name":"next","type":"int","value":49},{"name":"prev","type":"int","value":51}],"polyline":[{"x":0,"y":0},{"x":10,"y":-20}]},{"id":164,"x":1796,"y":69,"visible":true,"properties":[{"name":"layer","type":"int","value":5},{"name":"group","type":"int","value":0},{"name":"id","type":"int","value":49},{"name":"fh_layer","type":"int","value":5},{"name":"fh_group","type":"int","value":0},{"name":"fh_id","type":"int","value":49},{"name":"x1","type":"int","value":1796},{"name":"x2","type":"int","value":1944},{"name":"y1","type":"int","value":69},{"name":"y2","type":"int","value":3},{"name":"next","type":"int","value":50},{"name":"prev","type":"int","value":48}],"polyline":[{"x":0,"y":0},{"x":148,"y":-66}]},{"id":165,"x":1944,"y":3,"visible":true,"properties":[{"name":"layer","type":"int","value":5},{"name":"group","type":"int","value":0},{"name":"id","type":"int","value":50},{"name":"fh_layer","type":"int","value":5},{"name":"fh_group","type":"int","value":0},{"name":"fh_id","type":"int","value":50},{"name":"x1","type":"int","value":1944},{"name":"x2","type":"int","value":2250},{"name":"y1","type":"int","value":3},{"name":"y2","type":"int","value":3},{"name":"next","type":"int","value":55},{"name":"prev","type":"int","value":49}],"polyline":[{"x":0,"y":0},{"x":306,"y":0}]},{"id":166,"x":1633,"y":88,"visible":true,"properties":[{"name":"layer","type":"int","value":5},{"name":"group","type":"int","value":0},{"name":"id","type":"int","value":51},{"name":"fh_layer","type":"int","value":5},{"name":"fh_group","type":"int","value":0},{"name":"fh_id","type":"int","value":51},{"name":"x1","type":"int","value":1633},{"name":"x2","type":"int","value":1786},{"name":"y1","type":"int","value":88},{"name":"y2","type":"int","value":89},{"name":"next","type":"int","value":48},{"name":"prev","type":"int","value":0}],"polyline":[{"x":0,"y":0},{"x":153,"y":1}]},{"id":167,"x":1786,"y":89,"visible":true,"properties":[{"name":"layer","type":"int","value":5},{"name":"group","type":"int","value":0},{"name":"id","type":"int","value":52},{"name":"fh_layer","type":"int","value":5},{"name":"fh_group","type":"int","value":0},{"name":"fh_id","type":"int","value":52},{"name":"x1","type":"int","value":1786},{"name":"x2","type":"int","value":1926},{"name":"y1","type":"int","value":89},{"name":"y2","type":"int","value":88},{"name":"next","type":"int","value":53},{"name":"prev","type":"int","value":51}],"polyline":[{"x":0,"y":0},{"x":140,"y":-1}]},{"id":168,"x":1926,"y":88,"visible":true,"properties":[{"name":"layer","type":"int","value":5},{"name":"group","type":"int","value":0},{"name":"id","type":"int","value":53},{"name":"fh_layer","type":"int","value":5},{"name":"fh_group","type":"int","value":0},{"name":"fh_id","type":"int","value":53},{"name":"x1","type":"int","value":1926},{"name":"x2","type":"int","value":1926},{"name":"y1","type":"int","value":88},{"name":"y2","type":"int","value":275},{"name":"next","type":"int","value":54},{"name":"prev","type":"int","value":52}],"polyline":[{"x":0,"y":0},{"x":0,"y":187}]},{"id":169,"x":1926,"y":275,"visible":true,"properties":[{"name":"layer","type":"int","value":5},{"name":"group","type":"int","value":0},{"name":"id","type":"int","value":54},{"name":"fh_layer","type":"int","value":5},{"name":"fh_group","type":"int","value":0},{"name":"fh_id","type":"int","value":54},{"name":"x1","type":"int","value":1926},{"name":"x2","type":"int","value":1980},{"name":"y1","type":"int","value":275},{"name":"y2","type":"int","value":275},{"name":"next","type":"int","value":2},{"name":"prev","type":"int","value":53}],"polyline":[{"x":0,"y":0},{"x":54,"y":0}]},{"id":170,"x":2250,"y":3,"visible":true,"properties":[{"name":"layer","type":"int","value":5},{"name":"group","type":"int","value":0},{"name":"id","type":"int","value":55},{"name":"fh_layer","type":"int","value":5},{"name":"fh_group","type":"int","value":0},{"name":"fh_id","type":"int","value":55},{"name":"x1","type":"int","value":2250},{"name":"x2","type":"int","value":2510},{"name":"y1","type":"int","value":3},{"name":"y2","type":"int","value":3},{"name":"next","type":"int","value":56},{"name":"prev","type":"int","value":50}],"polyline":[{"x":0,"y":0},{"x":260,"y":0}]},{"id":171,"x":2510,"y":3,"visible":true,"properties":[{"name":"layer","type":"int","value":5},{"name":"group","type":"int","value":0},{"name":"id","type":"int","value":56},{"name":"fh_layer","type":"int","value":5},{"name":"fh_group","type":"int","value":0},{"name":"fh_id","type":"int","value":56},{"name":"x1","type":"int","value":2510},{"name":"x2","type":"int","value":2769},{"name":"y1","type":"int","value":3},{"name":"y2","type":"int","value":3},{"name":"next","type":"int","value":57},{"name":"prev","type":"int","value":55}],"polyline":[{"x":0,"y":0},{"x":259,"y":0}]},{"id":172,"x":2769,"y":3,"visible":true,"properties":[{"name":"layer","type":"int","value":5},{"name":"group","type":"int","value":0},{"name":"id","type":"int","value":57},{"name":"fh_layer","type":"int","value":5},{"name":"fh_group","type":"int","value":0},{"name":"fh_id","type":"int","value":57},{"name":"x1","type":"int","value":2769},{"name":"x2","type":"int","value":2965},{"name":"y1","type":"int","value":3},{"name":"y2","type":"int","value":3},{"name":"next","type":"int","value":0},{"name":"prev","type":"int","value":56}],"polyline":[{"x":0,"y":0},{"x":196,"y":0}]}],"properties":[]},{"id":28,"name":"ladderRope","type":"objectgroup","visible":true,"opacity":1,"draworder":"index","offsetx":0,"offsety":0,"parallaxx":1,"parallaxy":1,"objects":[{"id":173,"x":2819,"y":-299,"visible":true,"properties":[{"name":"ladder_id","type":"int","value":1},{"name":"l","type":"int","value":1},{"name":"x","type":"int","value":2819},{"name":"uf","type":"int","value":1},{"name":"y1","type":"int","value":-299},{"name":"y2","type":"int","value":-134},{"name":"page","type":"int","value":3}],"polyline":[{"x":0,"y":0},{"x":0,"y":165}]},{"id":174,"x":2294,"y":-158,"visible":true,"properties":[{"name":"ladder_id","type":"int","value":2},{"name":"l","type":"int","value":1},{"name":"x","type":"int","value":2294},{"name":"uf","type":"int","value":1},{"name":"y1","type":"int","value":-158},{"name":"y2","type":"int","value":-53},{"name":"page","type":"int","value":3}],"polyline":[{"x":0,"y":0},{"x":0,"y":105}]},{"id":175,"x":2085,"y":-159,"visible":true,"properties":[{"name":"ladder_id","type":"int","value":3},{"name":"l","type":"int","value":1},{"name":"x","type":"int","value":2085},{"name":"uf","type":"int","value":1},{"name":"y1","type":"int","value":-159},{"name":"y2","type":"int","value":-57},{"name":"page","type":"int","value":3}],"polyline":[{"x":0,"y":0},{"x":0,"y":102}]}],"properties":[]},{"id":29,"name":"miniMap","type":"objectgroup","visible":true,"opacity":1,"draworder":"index","offsetx":0,"offsety":0,"parallaxx":1,"parallaxy":1,"objects":[{"id":176,"x":-1567,"y":698,"visible":true,"properties":[{"name":"mag","type":"int","value":4},{"name":"centerX","type":"int","value":-1567},{"name":"centerY","type":"int","value":698},{"name":"canvas_path","type":"string","value":"../images/30842.png"},{"name":"canvas_width","type":"int","value":130},{"name":"canvas_height","type":"int","value":69},{"name":"canvas_origin_x","type":"int","value":0},{"name":"canvas_origin_y","type":"int","value":0}],"point":true}],"properties":[]},{"id":18,"name":"background_front_17","type":"imagelayer","visible":true,"opacity":1,"image":"../images/27322.png","imagewidth":400,"imageheight":157,"offsetx":-172,"offsety":191,"repeatx":true,"repeaty":false,"parallaxx":-0.02,"parallaxy":1,"properties":[{"name":"a","type":"int","value":255},{"name":"f","type":"int","value":0},{"name":"x","type":"int","value":28},{"name":"y","type":"int","value":189},{"name":"bS","type":"string","value":"Rien"},{"name":"cx","type":"int","value":0},{"name":"cy","type":"int","value":0},{"name":"no","type":"int","value":17},{"name":"rx","type":"int","value":2},{"name":"ry","type":"int","value":-100},{"name":"ani","type":"int","value":0},{"name":"type","type":"int","value":4},{"name":"front","type":"int","value":1}]},{"id":19,"name":"background_front_18","type":"imagelayer","visible":true,"opacity":1,"image":"../images/27334.png","imagewidth":293,"imageheight":160,"offsetx":1630,"offsety":164,"repeatx":false,"repeaty":false,"parallaxx":1,"parallaxy":1,"properties":[{"name":"a","type":"int","value":255},{"name":"f","type":"int","value":0},{"name":"x","type":"int","value":1776},{"name":"y","type":"int","value":164},{"name":"bS","type":"string","value":"Rien"},{"name":"cx","type":"int","value":0},{"name":"cy","type":"int","value":0},{"name":"no","type":"int","value":29},{"name":"rx","type":"int","value":-100},{"name":"ry","type":"int","value":-100},{"name":"ani","type":"int","value":0},{"name":"type","type":"int","value":0},{"name":"front","type":"int","value":1}]},{"id":20,"name":"background_front","type":"objectgroup","visible":true,"opacity":1,"draworder":"index","offsetx":0,"offsety":0,"parallaxx":1,"parallaxy":1,"objects":[{"id":57,"x":28,"y":189,"visible":true,"properties":[{"name":"image_layer_name","type":"string","value":"background_front_17"},{"name":"a","type":"int","value":255},{"name":"f","type":"int","value":0},{"name":"x","type":"int","value":28},{"name":"y","type":"int","value":189},{"name":"bS","type":"string","value":"Rien"},{"name":"cx","type":"int","value":0},{"name":"cy","type":"int","value":0},{"name":"no","type":"int","value":17},{"name":"rx","type":"int","value":2},{"name":"ry","type":"int","value":-100},{"name":"ani","type":"int","value":0},{"name":"type","type":"int","value":4},{"name":"front","type":"int","value":1}],"point":true}],"properties":[]}],"tilesets":[{"firstgid":1,"source":"../tilesets/bg_Rien.tsj"},{"firstgid":18,"source":"../tilesets/tile_blackTile.tsj"},{"firstgid":25,"source":"../tilesets/obj_connect_ladder_6.tsj"},{"firstgid":26,"source":"../tilesets/obj_acc12_rienTW_ship.tsj"},{"firstgid":36,"source":"../tilesets/bg_Back_Rien.img_ani_0.tsj"},{"firstgid":38,"source":"../tilesets/bg_Back_Rien.img_ani_1.tsj"},{"firstgid":40,"source":"../tilesets/bg_Back_Rien.img_ani_2.tsj"},{"firstgid":42,"source":"../tilesets/bg_Back_Rien.img_ani_3.tsj"},{"firstgid":44,"source":"../tilesets/bg_Back_Rien.img_ani_4.tsj"},{"firstgid":46,"source":"../tilesets/obj_acc12_rienFD_nature0.tsj"},{"firstgid":73,"source":"../tilesets/portal_MapHelper.img_portal_game_pv.tsj"}],"properties":[{"name":"bgm","type":"string","value":"Bgm19/SnowDrop"},{"name":"fly","type":"int","value":0},{"name":"swim","type":"int","value":0},{"name":"town","type":"int","value":0},{"name":"VRTop","type":"int","value":-720},{"name":"cloud","type":"int","value":0},{"name":"VRLeft","type":"int","value":1630},{"name":"VRRight","type":"int","value":3599},{"name":"mapMark","type":"string","value":"Rien"},{"name":"mobRate","type":"float","value":1},{"name":"version","type":"int","value":10},{"name":"VRBottom","type":"int","value":239},{"name":"noMapCmd","type":"int","value":0},{"name":"returnMap","type":"int","value":140000000},{"name":"fieldLimit","type":"int","value":0},{"name":"hideMinimap","type":"int","value":0},{"name":"onUserEnter","type":"string","value":""},{"name":"forcedReturn","type":"int","value":999999999},{"name":"onFirstUserEnter","type":"string","value":""}]}