{"type":"map","orientation":"orthogonal","renderorder":"right-down","infinite":false,"tilewidth":1,"tileheight":1,"width":2216,"height":3050,"nextlayerid":29,"nextobjectid":520,"layers":[{"id":1,"name":"layer_0_obj","type":"objectgroup","visible":true,"opacity":1,"objects":[{"id":1,"x":64,"y":1281,"visible":true,"properties":[{"name":"layer","type":"int","value":0},{"name":"resource_index","type":"int","value":0},{"name":"oS","type":"string","value":"acc1"},{"name":"l0","type":"string","value":"dryRock"},{"name":"l1","type":"string","value":"rock"},{"name":"l2","type":"string","value":"5"},{"name":"z","type":"int","value":5},{"name":"zM","type":"int","value":22},{"name":"f","type":"int","value":0}],"gid":51,"width":584,"height":587},{"id":2,"x":264,"y":692,"visible":true,"properties":[{"name":"layer","type":"int","value":0},{"name":"resource_index","type":"int","value":1},{"name":"oS","type":"string","value":"acc1"},{"name":"l0","type":"string","value":"dryRock"},{"name":"l1","type":"string","value":"nature"},{"name":"l2","type":"string","value":"5"},{"name":"z","type":"int","value":4},{"name":"zM","type":"int","value":33},{"name":"f","type":"int","value":0}],"gid":74,"width":25,"height":42},{"id":3,"x":274,"y":686,"visible":true,"properties":[{"name":"layer","type":"int","value":0},{"name":"resource_index","type":"int","value":2},{"name":"oS","type":"string","value":"acc1"},{"name":"l0","type":"string","value":"dryRock"},{"name":"l1","type":"string","value":"nature"},{"name":"l2","type":"string","value":"5"},{"name":"z","type":"int","value":5},{"name":"zM","type":"int","value":33},{"name":"f","type":"int","value":0}],"gid":74,"width":25,"height":42},{"id":4,"x":352,"y":699,"visible":true,"properties":[{"name":"layer","type":"int","value":0},{"name":"resource_index","type":"int","value":3},{"name":"oS","type":"string","value":"acc1"},{"name":"l0","type":"string","value":"dryRock"},{"name":"l1","type":"string","value":"nature"},{"name":"l2","type":"string","value":"5"},{"name":"z","type":"int","value":3},{"name":"zM","type":"int","value":22},{"name":"f","type":"int","value":0}],"gid":74,"width":25,"height":42},{"id":5,"x":246,"y":706,"visible":true,"properties":[{"name":"layer","type":"int","value":0},{"name":"resource_index","type":"int","value":4},{"name":"oS","type":"string","value":"acc1"},{"name":"l0","type":"string","value":"dryRock"},{"name":"l1","type":"string","value":"artificiality"},{"name":"l2","type":"string","value":"0"},{"name":"z","type":"int","value":3},{"name":"zM","type":"int","value":22},{"name":"f","type":"int","value":0}],"gid":90,"width":86,"height":32},{"id":6,"x":297,"y":706,"visible":true,"properties":[{"name":"layer","type":"int","value":0},{"name":"resource_index","type":"int","value":5},{"name":"oS","type":"string","value":"acc1"},{"name":"l0","type":"string","value":"dryRock"},{"name":"l1","type":"string","value":"artificiality"},{"name":"l2","type":"string","value":"0"},{"name":"z","type":"int","value":1},{"name":"zM","type":"int","value":22},{"name":"f","type":"int","value":0}],"gid":90,"width":86,"height":32},{"id":7,"x":838,"y":886,"visible":true,"properties":[{"name":"layer","type":"int","value":0},{"name":"resource_index","type":"int","value":6},{"name":"oS","type":"string","value":"acc1"},{"name":"l0","type":"string","value":"dryRock"},{"name":"l1","type":"string","value":"nature"},{"name":"l2","type":"string","value":"7"},{"name":"z","type":"int","value":2},{"name":"zM","type":"int","value":30},{"name":"f","type":"int","value":0}],"gid":78,"width":81,"height":46},{"id":8,"x":286,"y":692,"visible":true,"properties":[{"name":"layer","type":"int","value":0},{"name":"resource_index","type":"int","value":7},{"name":"oS","type":"string","value":"acc1"},{"name":"l0","type":"string","value":"dryRock"},{"name":"l1","type":"string","value":"artificiality"},{"name":"l2","type":"string","value":"3"},{"name":"z","type":"int","value":2},{"name":"zM","type":"int","value":22},{"name":"f","type":"int","value":0}],"gid":89,"width":59,"height":57},{"id":9,"x":433,"y":692,"visible":true,"properties":[{"name":"layer","type":"int","value":0},{"name":"resource_index","type":"int","value":8},{"name":"oS","type":"string","value":"acc1"},{"name":"l0","type":"string","value":"dryRock"},{"name":"l1","type":"string","value":"nature"},{"name":"l2","type":"string","value":"5"},{"name":"z","type":"int","value":3},{"name":"zM","type":"int","value":22},{"name":"f","type":"int","value":0}],"gid":74,"width":25,"height":42},{"id":10,"x":808,"y":929,"visible":true,"properties":[{"name":"layer","type":"int","value":0},{"name":"resource_index","type":"int","value":9},{"name":"oS","type":"string","value":"acc1"},{"name":"l0","type":"string","value":"dryRock"},{"name":"l1","type":"string","value":"nature"},{"name":"l2","type":"string","value":"6"},{"name":"z","type":"int","value":3},{"name":"zM","type":"int","value":30},{"name":"f","type":"int","value":0}],"gid":77,"width":153,"height":80},{"id":11,"x":324,"y":683,"visible":true,"properties":[{"name":"layer","type":"int","value":0},{"name":"resource_index","type":"int","value":10},{"name":"oS","type":"string","value":"acc1"},{"name":"l0","type":"string","value":"dryRock"},{"name":"l1","type":"string","value":"artificiality"},{"name":"l2","type":"string","value":"1"},{"name":"z","type":"int","value":0},{"name":"zM","type":"int","value":22},{"name":"f","type":"int","value":0}],"gid":102,"width":38,"height":63},{"id":12,"x":359,"y":709,"visible":true,"properties":[{"name":"layer","type":"int","value":0},{"name":"resource_index","type":"int","value":11},{"name":"oS","type":"string","value":"acc1"},{"name":"l0","type":"string","value":"dryRock"},{"name":"l1","type":"string","value":"artificiality"},{"name":"l2","type":"string","value":"2"},{"name":"z","type":"int","value":4},{"name":"zM","type":"int","value":22},{"name":"f","type":"int","value":0}],"gid":109,"width":97,"height":28},{"id":13,"x":378,"y":700,"visible":true,"properties":[{"name":"layer","type":"int","value":0},{"name":"resource_index","type":"int","value":12},{"name":"oS","type":"string","value":"acc1"},{"name":"l0","type":"string","value":"dryRock"},{"name":"l1","type":"string","value":"artificiality"},{"name":"l2","type":"string","value":"3"},{"name":"z","type":"int","value":2},{"name":"zM","type":"int","value":22},{"name":"f","type":"int","value":0}],"gid":89,"width":59,"height":57},{"id":14,"x":1373,"y":1559,"visible":true,"properties":[{"name":"layer","type":"int","value":0},{"name":"resource_index","type":"int","value":13},{"name":"oS","type":"string","value":"acc1"},{"name":"l0","type":"string","value":"dryRock"},{"name":"l1","type":"string","value":"artificiality"},{"name":"l2","type":"string","value":"0"},{"name":"z","type":"int","value":9},{"name":"zM","type":"int","value":0},{"name":"f","type":"int","value":0}],"gid":90,"width":86,"height":32},{"id":15,"x":1444,"y":1559,"visible":true,"properties":[{"name":"layer","type":"int","value":0},{"name":"resource_index","type":"int","value":14},{"name":"oS","type":"string","value":"acc1"},{"name":"l0","type":"string","value":"dryRock"},{"name":"l1","type":"string","value":"artificiality"},{"name":"l2","type":"string","value":"2"},{"name":"z","type":"int","value":9},{"name":"zM","type":"int","value":0},{"name":"f","type":"int","value":0}],"gid":109,"width":97,"height":28},{"id":16,"x":1475,"y":1539,"visible":true,"properties":[{"name":"layer","type":"int","value":0},{"name":"resource_index","type":"int","value":15},{"name":"oS","type":"string","value":"acc1"},{"name":"l0","type":"string","value":"dryRock"},{"name":"l1","type":"string","value":"artificiality"},{"name":"l2","type":"string","value":"1"},{"name":"z","type":"int","value":6},{"name":"zM","type":"int","value":0},{"name":"f","type":"int","value":0}],"gid":102,"width":38,"height":63},{"id":17,"x":1360,"y":1535,"visible":true,"properties":[{"name":"layer","type":"int","value":0},{"name":"resource_index","type":"int","value":16},{"name":"oS","type":"string","value":"acc1"},{"name":"l0","type":"string","value":"dryRock"},{"name":"l1","type":"string","value":"artificiality"},{"name":"l2","type":"string","value":"21"},{"name":"z","type":"int","value":9},{"name":"zM","type":"int","value":0},{"name":"f","type":"int","value":0}],"gid":113,"width":116,"height":196},{"id":18,"x":1328,"y":1562,"visible":true,"properties":[{"name":"layer","type":"int","value":0},{"name":"resource_index","type":"int","value":17},{"name":"oS","type":"string","value":"acc1"},{"name":"l0","type":"string","value":"dryRock"},{"name":"l1","type":"string","value":"artificiality"},{"name":"l2","type":"string","value":"24"},{"name":"z","type":"int","value":12},{"name":"zM","type":"int","value":0},{"name":"f","type":"int","value":0}],"gid":103,"width":93,"height":167},{"id":19,"x":1443,"y":1541,"visible":true,"properties":[{"name":"layer","type":"int","value":0},{"name":"resource_index","type":"int","value":18},{"name":"oS","type":"string","value":"acc1"},{"name":"l0","type":"string","value":"dryRock"},{"name":"l1","type":"string","value":"artificiality"},{"name":"l2","type":"string","value":"26"},{"name":"z","type":"int","value":6},{"name":"zM","type":"int","value":0},{"name":"f","type":"int","value":0}],"gid":110,"width":51,"height":170}]},{"id":2,"name":"layer_1_obj","type":"objectgroup","visible":true,"opacity":1,"objects":[{"id":20,"x":0,"y":2278,"visible":true,"properties":[{"name":"layer","type":"int","value":1},{"name":"resource_index","type":"int","value":0},{"name":"oS","type":"string","value":"acc1"},{"name":"l0","type":"string","value":"dryRock"},{"name":"l1","type":"string","value":"rock"},{"name":"l2","type":"string","value":"2"},{"name":"z","type":"int","value":5},{"name":"zM","type":"int","value":1},{"name":"f","type":"int","value":0}],"gid":52,"width":639,"height":720},{"id":21,"x":266,"y":1831,"visible":true,"properties":[{"name":"layer","type":"int","value":1},{"name":"resource_index","type":"int","value":1},{"name":"oS","type":"string","value":"acc1"},{"name":"l0","type":"string","value":"dryRock"},{"name":"l1","type":"string","value":"rock"},{"name":"l2","type":"string","value":"6"},{"name":"z","type":"int","value":6},{"name":"zM","type":"int","value":1},{"name":"f","type":"int","value":0}],"gid":48,"width":1017,"height":280},{"id":22,"x":1292,"y":2134,"visible":true,"properties":[{"name":"layer","type":"int","value":1},{"name":"resource_index","type":"int","value":2},{"name":"oS","type":"string","value":"acc1"},{"name":"l0","type":"string","value":"dryRock"},{"name":"l1","type":"string","value":"rock"},{"name":"l2","type":"string","value":"3"},{"name":"z","type":"int","value":7},{"name":"zM","type":"int","value":2},{"name":"f","type":"int","value":0}],"gid":50,"width":458,"height":586},{"id":23,"x":492,"y":1268,"visible":true,"properties":[{"name":"layer","type":"int","value":1},{"name":"resource_index","type":"int","value":3},{"name":"oS","type":"string","value":"acc1"},{"name":"l0","type":"string","value":"dryRock"},{"name":"l1","type":"string","value":"rock"},{"name":"l2","type":"string","value":"8"},{"name":"z","type":"int","value":3},{"name":"zM","type":"int","value":1},{"name":"f","type":"int","value":0}],"gid":49,"width":247,"height":290},{"id":24,"x":76,"y":1590,"visible":true,"properties":[{"name":"layer","type":"int","value":1},{"name":"resource_index","type":"int","value":4},{"name":"oS","type":"string","value":"acc1"},{"name":"l0","type":"string","value":"dryRock"},{"name":"l1","type":"string","value":"rock"},{"name":"l2","type":"string","value":"0"},{"name":"z","type":"int","value":3},{"name":"zM","type":"int","value":1},{"name":"f","type":"int","value":0}],"gid":54,"width":588,"height":333},{"id":25,"x":89,"y":1343,"visible":true,"properties":[{"name":"layer","type":"int","value":1},{"name":"resource_index","type":"int","value":5},{"name":"oS","type":"string","value":"acc1"},{"name":"l0","type":"string","value":"dryRock"},{"name":"l1","type":"string","value":"nature"},{"name":"l2","type":"string","value":"6"},{"name":"z","type":"int","value":2},{"name":"zM","type":"int","value":1},{"name":"f","type":"int","value":0}],"gid":77,"width":153,"height":80},{"id":26,"x":739,"y":1503,"visible":true,"properties":[{"name":"layer","type":"int","value":1},{"name":"resource_index","type":"int","value":6},{"name":"oS","type":"string","value":"acc1"},{"name":"l0","type":"string","value":"dryRock"},{"name":"l1","type":"string","value":"rock"},{"name":"l2","type":"string","value":"3"},{"name":"z","type":"int","value":2},{"name":"zM","type":"int","value":1},{"name":"f","type":"int","value":0}],"gid":50,"width":458,"height":586},{"id":27,"x":467,"y":1278,"visible":true,"properties":[{"name":"layer","type":"int","value":1},{"name":"resource_index","type":"int","value":7},{"name":"oS","type":"string","value":"acc1"},{"name":"l0","type":"string","value":"dryRock"},{"name":"l1","type":"string","value":"artificiality"},{"name":"l2","type":"string","value":"13"},{"name":"z","type":"int","value":4},{"name":"zM","type":"int","value":1},{"name":"f","type":"int","value":0}],"gid":112,"width":151,"height":105},{"id":28,"x":119,"y":1291,"visible":true,"properties":[{"name":"layer","type":"int","value":1},{"name":"resource_index","type":"int","value":8},{"name":"oS","type":"string","value":"acc1"},{"name":"l0","type":"string","value":"dryRock"},{"name":"l1","type":"string","value":"nature"},{"name":"l2","type":"string","value":"7"},{"name":"z","type":"int","value":1},{"name":"zM","type":"int","value":1},{"name":"f","type":"int","value":0}],"gid":78,"width":81,"height":46},{"id":29,"x":-64,"y":2144,"visible":true,"properties":[{"name":"layer","type":"int","value":1},{"name":"resource_index","type":"int","value":9},{"name":"oS","type":"string","value":"acc1"},{"name":"l0","type":"string","value":"dryRock"},{"name":"l1","type":"string","value":"nature"},{"name":"l2","type":"string","value":"1"},{"name":"z","type":"int","value":3},{"name":"zM","type":"int","value":1},{"name":"f","type":"int","value":0}],"gid":64,"width":194,"height":146},{"id":30,"x":-92,"y":2149,"visible":true,"properties":[{"name":"layer","type":"int","value":1},{"name":"resource_index","type":"int","value":10},{"name":"oS","type":"string","value":"acc1"},{"name":"l0","type":"string","value":"dryRock"},{"name":"l1","type":"string","value":"nature"},{"name":"l2","type":"string","value":"0"},{"name":"z","type":"int","value":2},{"name":"zM","type":"int","value":1},{"name":"f","type":"int","value":0}],"gid":65,"width":150,"height":143},{"id":31,"x":384,"y":2150,"visible":true,"properties":[{"name":"layer","type":"int","value":1},{"name":"resource_index","type":"int","value":11},{"name":"oS","type":"string","value":"acc1"},{"name":"l0","type":"string","value":"dryRock"},{"name":"l1","type":"string","value":"nature"},{"name":"l2","type":"string","value":"1"},{"name":"z","type":"int","value":3},{"name":"zM","type":"int","value":1},{"name":"f","type":"int","value":0}],"gid":64,"width":194,"height":146},{"id":32,"x":340,"y":2150,"visible":true,"properties":[{"name":"layer","type":"int","value":1},{"name":"resource_index","type":"int","value":12},{"name":"oS","type":"string","value":"acc1"},{"name":"l0","type":"string","value":"dryRock"},{"name":"l1","type":"string","value":"nature"},{"name":"l2","type":"string","value":"1"},{"name":"z","type":"int","value":6},{"name":"zM","type":"int","value":1},{"name":"f","type":"int","value":0}],"gid":64,"width":194,"height":146},{"id":33,"x":540,"y":2148,"visible":true,"properties":[{"name":"layer","type":"int","value":1},{"name":"resource_index","type":"int","value":13},{"name":"oS","type":"string","value":"acc1"},{"name":"l0","type":"string","value":"dryRock"},{"name":"l1","type":"string","value":"nature"},{"name":"l2","type":"string","value":"1"},{"name":"z","type":"int","value":3},{"name":"zM","type":"int","value":1},{"name":"f","type":"int","value":0}],"gid":64,"width":194,"height":146},{"id":34,"x":819,"y":2213,"visible":true,"properties":[{"name":"layer","type":"int","value":1},{"name":"resource_index","type":"int","value":14},{"name":"oS","type":"string","value":"acc1"},{"name":"l0","type":"string","value":"dryRock"},{"name":"l1","type":"string","value":"artificiality"},{"name":"l2","type":"string","value":"11"},{"name":"z","type":"int","value":3},{"name":"zM","type":"int","value":1},{"name":"f","type":"int","value":0}],"gid":98,"width":83,"height":84},{"id":35,"x":862,"y":2210,"visible":true,"properties":[{"name":"layer","type":"int","value":1},{"name":"resource_index","type":"int","value":15},{"name":"oS","type":"string","value":"acc1"},{"name":"l0","type":"string","value":"dryRock"},{"name":"l1","type":"string","value":"artificiality"},{"name":"l2","type":"string","value":"11"},{"name":"z","type":"int","value":4},{"name":"zM","type":"int","value":1},{"name":"f","type":"int","value":0}],"gid":98,"width":83,"height":84},{"id":36,"x":887,"y":2210,"visible":true,"properties":[{"name":"layer","type":"int","value":1},{"name":"resource_index","type":"int","value":16},{"name":"oS","type":"string","value":"acc1"},{"name":"l0","type":"string","value":"dryRock"},{"name":"l1","type":"string","value":"artificiality"},{"name":"l2","type":"string","value":"11"},{"name":"z","type":"int","value":3},{"name":"zM","type":"int","value":1},{"name":"f","type":"int","value":0}],"gid":98,"width":83,"height":84},{"id":37,"x":1036,"y":2211,"visible":true,"properties":[{"name":"layer","type":"int","value":1},{"name":"resource_index","type":"int","value":17},{"name":"oS","type":"string","value":"acc1"},{"name":"l0","type":"string","value":"dryRock"},{"name":"l1","type":"string","value":"artificiality"},{"name":"l2","type":"string","value":"11"},{"name":"z","type":"int","value":3},{"name":"zM","type":"int","value":1},{"name":"f","type":"int","value":0}],"gid":98,"width":83,"height":84},{"id":38,"x":1096,"y":2212,"visible":true,"properties":[{"name":"layer","type":"int","value":1},{"name":"resource_index","type":"int","value":18},{"name":"oS","type":"string","value":"acc1"},{"name":"l0","type":"string","value":"dryRock"},{"name":"l1","type":"string","value":"artificiality"},{"name":"l2","type":"string","value":"11"},{"name":"z","type":"int","value":2},{"name":"zM","type":"int","value":1},{"name":"f","type":"int","value":0}],"gid":98,"width":83,"height":84},{"id":39,"x":1197,"y":2212,"visible":true,"properties":[{"name":"layer","type":"int","value":1},{"name":"resource_index","type":"int","value":19},{"name":"oS","type":"string","value":"acc1"},{"name":"l0","type":"string","value":"dryRock"},{"name":"l1","type":"string","value":"artificiality"},{"name":"l2","type":"string","value":"11"},{"name":"z","type":"int","value":3},{"name":"zM","type":"int","value":1},{"name":"f","type":"int","value":0}],"gid":98,"width":83,"height":84},{"id":40,"x":1303,"y":2211,"visible":true,"properties":[{"name":"layer","type":"int","value":1},{"name":"resource_index","type":"int","value":20},{"name":"oS","type":"string","value":"acc1"},{"name":"l0","type":"string","value":"dryRock"},{"name":"l1","type":"string","value":"artificiality"},{"name":"l2","type":"string","value":"11"},{"name":"z","type":"int","value":3},{"name":"zM","type":"int","value":2},{"name":"f","type":"int","value":0}],"gid":98,"width":83,"height":84},{"id":41,"x":1797,"y":2211,"visible":true,"properties":[{"name":"layer","type":"int","value":1},{"name":"resource_index","type":"int","value":21},{"name":"oS","type":"string","value":"acc1"},{"name":"l0","type":"string","value":"dryRock"},{"name":"l1","type":"string","value":"artificiality"},{"name":"l2","type":"string","value":"11"},{"name":"z","type":"int","value":3},{"name":"zM","type":"int","value":3},{"name":"f","type":"int","value":0}],"gid":98,"width":83,"height":84},{"id":42,"x":167,"y":2153,"visible":true,"properties":[{"name":"layer","type":"int","value":1},{"name":"resource_index","type":"int","value":22},{"name":"oS","type":"string","value":"acc1"},{"name":"l0","type":"string","value":"dryRock"},{"name":"l1","type":"string","value":"artificiality"},{"name":"l2","type":"string","value":"11"},{"name":"z","type":"int","value":6},{"name":"zM","type":"int","value":1},{"name":"f","type":"int","value":0}],"gid":98,"width":83,"height":84},{"id":43,"x":217,"y":2102,"visible":true,"properties":[{"name":"layer","type":"int","value":1},{"name":"resource_index","type":"int","value":23},{"name":"oS","type":"string","value":"acc1"},{"name":"l0","type":"string","value":"dryRock"},{"name":"l1","type":"string","value":"artificiality"},{"name":"l2","type":"string","value":"12"},{"name":"z","type":"int","value":7},{"name":"zM","type":"int","value":1},{"name":"f","type":"int","value":0}],"gid":99,"width":42,"height":44},{"id":44,"x":937,"y":2159,"visible":true,"properties":[{"name":"layer","type":"int","value":1},{"name":"resource_index","type":"int","value":24},{"name":"oS","type":"string","value":"acc1"},{"name":"l0","type":"string","value":"dryRock"},{"name":"l1","type":"string","value":"artificiality"},{"name":"l2","type":"string","value":"12"},{"name":"z","type":"int","value":3},{"name":"zM","type":"int","value":1},{"name":"f","type":"int","value":0}],"gid":99,"width":42,"height":44},{"id":45,"x":1085,"y":2161,"visible":true,"properties":[{"name":"layer","type":"int","value":1},{"name":"resource_index","type":"int","value":25},{"name":"oS","type":"string","value":"acc1"},{"name":"l0","type":"string","value":"dryRock"},{"name":"l1","type":"string","value":"artificiality"},{"name":"l2","type":"string","value":"12"},{"name":"z","type":"int","value":5},{"name":"zM","type":"int","value":1},{"name":"f","type":"int","value":0}],"gid":99,"width":42,"height":44},{"id":46,"x":1244,"y":2218,"visible":true,"properties":[{"name":"layer","type":"int","value":1},{"name":"resource_index","type":"int","value":26},{"name":"oS","type":"string","value":"acc1"},{"name":"l0","type":"string","value":"dryRock"},{"name":"l1","type":"string","value":"nature"},{"name":"l2","type":"string","value":"1"},{"name":"z","type":"int","value":0},{"name":"zM","type":"int","value":1},{"name":"f","type":"int","value":0}],"gid":64,"width":194,"height":146},{"id":47,"x":1711,"y":2210,"visible":true,"properties":[{"name":"layer","type":"int","value":1},{"name":"resource_index","type":"int","value":27},{"name":"oS","type":"string","value":"acc1"},{"name":"l0","type":"string","value":"dryRock"},{"name":"l1","type":"string","value":"nature"},{"name":"l2","type":"string","value":"1"},{"name":"z","type":"int","value":0},{"name":"zM","type":"int","value":2},{"name":"f","type":"int","value":0}],"gid":64,"width":194,"height":146},{"id":48,"x":1055,"y":1574,"visible":true,"properties":[{"name":"layer","type":"int","value":1},{"name":"resource_index","type":"int","value":28},{"name":"oS","type":"string","value":"acc1"},{"name":"l0","type":"string","value":"dryRock"},{"name":"l1","type":"string","value":"nature"},{"name":"l2","type":"string","value":"1"},{"name":"z","type":"int","value":4},{"name":"zM","type":"int","value":1},{"name":"f","type":"int","value":0}],"gid":64,"width":194,"height":146},{"id":49,"x":950,"y":1570,"visible":true,"properties":[{"name":"layer","type":"int","value":1},{"name":"resource_index","type":"int","value":29},{"name":"oS","type":"string","value":"acc1"},{"name":"l0","type":"string","value":"dryRock"},{"name":"l1","type":"string","value":"nature"},{"name":"l2","type":"string","value":"1"},{"name":"z","type":"int","value":5},{"name":"zM","type":"int","value":1},{"name":"f","type":"int","value":0}],"gid":64,"width":194,"height":146},{"id":50,"x":441,"y":1571,"visible":true,"properties":[{"name":"layer","type":"int","value":1},{"name":"resource_index","type":"int","value":30},{"name":"oS","type":"string","value":"acc1"},{"name":"l0","type":"string","value":"dryRock"},{"name":"l1","type":"string","value":"nature"},{"name":"l2","type":"string","value":"1"},{"name":"z","type":"int","value":4},{"name":"zM","type":"int","value":1},{"name":"f","type":"int","value":0}],"gid":64,"width":194,"height":146},{"id":51,"x":801,"y":1571,"visible":true,"properties":[{"name":"layer","type":"int","value":1},{"name":"resource_index","type":"int","value":31},{"name":"oS","type":"string","value":"acc1"},{"name":"l0","type":"string","value":"dryRock"},{"name":"l1","type":"string","value":"nature"},{"name":"l2","type":"string","value":"1"},{"name":"z","type":"int","value":4},{"name":"zM","type":"int","value":1},{"name":"f","type":"int","value":0}],"gid":64,"width":194,"height":146},{"id":52,"x":1360,"y":2249,"visible":true,"properties":[{"name":"layer","type":"int","value":1},{"name":"resource_index","type":"int","value":32},{"name":"oS","type":"string","value":"acc1"},{"name":"l0","type":"string","value":"dryRock"},{"name":"l1","type":"string","value":"rock"},{"name":"l2","type":"string","value":"7"},{"name":"z","type":"int","value":7},{"name":"zM","type":"int","value":1},{"name":"f","type":"int","value":0}],"gid":53,"width":470,"height":115},{"id":53,"x":1045,"y":1899,"visible":true,"properties":[{"name":"layer","type":"int","value":1},{"name":"resource_index","type":"int","value":33},{"name":"oS","type":"string","value":"acc1"},{"name":"l0","type":"string","value":"dryRock"},{"name":"l1","type":"string","value":"rock"},{"name":"l2","type":"string","value":"8"},{"name":"z","type":"int","value":7},{"name":"zM","type":"int","value":1},{"name":"f","type":"int","value":0}],"gid":49,"width":247,"height":290},{"id":54,"x":807,"y":1618,"visible":true,"properties":[{"name":"layer","type":"int","value":1},{"name":"resource_index","type":"int","value":34},{"name":"oS","type":"string","value":"acc1"},{"name":"l0","type":"string","value":"dryRock"},{"name":"l1","type":"string","value":"rock"},{"name":"l2","type":"string","value":"7"},{"name":"z","type":"int","value":3},{"name":"zM","type":"int","value":1},{"name":"f","type":"int","value":0}],"gid":53,"width":470,"height":115},{"id":55,"x":667,"y":1563,"visible":true,"properties":[{"name":"layer","type":"int","value":1},{"name":"resource_index","type":"int","value":35},{"name":"oS","type":"string","value":"guide"},{"name":"l0","type":"string","value":"dryRock"},{"name":"l1","type":"string","value":"bone"},{"name":"l2","type":"string","value":"0"},{"name":"z","type":"int","value":5},{"name":"zM","type":"int","value":0},{"name":"f","type":"int","value":0}],"gid":56,"width":127,"height":207},{"id":56,"x":755,"y":1497,"visible":true,"properties":[{"name":"layer","type":"int","value":1},{"name":"resource_index","type":"int","value":36},{"name":"oS","type":"string","value":"guide"},{"name":"l0","type":"string","value":"dryRock"},{"name":"l1","type":"string","value":"bone"},{"name":"l2","type":"string","value":"4"},{"name":"z","type":"int","value":9},{"name":"zM","type":"int","value":0},{"name":"f","type":"int","value":0}],"gid":59,"width":115,"height":35},{"id":57,"x":619,"y":1535,"visible":true,"properties":[{"name":"layer","type":"int","value":1},{"name":"resource_index","type":"int","value":37},{"name":"oS","type":"string","value":"guide"},{"name":"l0","type":"string","value":"dryRock"},{"name":"l1","type":"string","value":"bone"},{"name":"l2","type":"string","value":"5"},{"name":"z","type":"int","value":9},{"name":"zM","type":"int","value":0},{"name":"f","type":"int","value":0}],"gid":61,"width":80,"height":80}]},{"id":3,"name":"layer_2_obj","type":"objectgroup","visible":true,"opacity":1,"objects":[{"id":76,"x":371,"y":1602,"visible":true,"properties":[{"name":"layer","type":"int","value":2},{"name":"resource_index","type":"int","value":0},{"name":"oS","type":"string","value":"connect"},{"name":"l0","type":"string","value":"rope"},{"name":"l1","type":"string","value":"0"},{"name":"l2","type":"string","value":"0"},{"name":"z","type":"int","value":3},{"name":"zM","type":"int","value":21},{"name":"f","type":"int","value":0}],"gid":44,"width":19,"height":49},{"id":77,"x":374,"y":1722,"visible":true,"properties":[{"name":"layer","type":"int","value":2},{"name":"resource_index","type":"int","value":1},{"name":"oS","type":"string","value":"connect"},{"name":"l0","type":"string","value":"rope"},{"name":"l1","type":"string","value":"0"},{"name":"l2","type":"string","value":"3"},{"name":"z","type":"int","value":3},{"name":"zM","type":"int","value":19},{"name":"f","type":"int","value":0}],"gid":45,"width":5,"height":120},{"id":78,"x":372,"y":1752,"visible":true,"properties":[{"name":"layer","type":"int","value":2},{"name":"resource_index","type":"int","value":2},{"name":"oS","type":"string","value":"connect"},{"name":"l0","type":"string","value":"rope"},{"name":"l1","type":"string","value":"0"},{"name":"l2","type":"string","value":"2"},{"name":"z","type":"int","value":3},{"name":"zM","type":"int","value":18},{"name":"f","type":"int","value":0}],"gid":46,"width":11,"height":30},{"id":79,"x":1073,"y":1643,"visible":true,"properties":[{"name":"layer","type":"int","value":2},{"name":"resource_index","type":"int","value":3},{"name":"oS","type":"string","value":"connect"},{"name":"l0","type":"string","value":"rope"},{"name":"l1","type":"string","value":"0"},{"name":"l2","type":"string","value":"0"},{"name":"z","type":"int","value":3},{"name":"zM","type":"int","value":20},{"name":"f","type":"int","value":0}],"gid":44,"width":19,"height":49},{"id":80,"x":1076,"y":1763,"visible":true,"properties":[{"name":"layer","type":"int","value":2},{"name":"resource_index","type":"int","value":4},{"name":"oS","type":"string","value":"connect"},{"name":"l0","type":"string","value":"rope"},{"name":"l1","type":"string","value":"0"},{"name":"l2","type":"string","value":"3"},{"name":"z","type":"int","value":3},{"name":"zM","type":"int","value":17},{"name":"f","type":"int","value":0}],"gid":45,"width":5,"height":120},{"id":81,"x":1076,"y":1793,"visible":true,"properties":[{"name":"layer","type":"int","value":2},{"name":"resource_index","type":"int","value":5},{"name":"oS","type":"string","value":"connect"},{"name":"l0","type":"string","value":"rope"},{"name":"l1","type":"string","value":"0"},{"name":"l2","type":"string","value":"1"},{"name":"z","type":"int","value":3},{"name":"zM","type":"int","value":16},{"name":"f","type":"int","value":0}],"gid":47,"width":5,"height":30},{"id":82,"x":1074,"y":1823,"visible":true,"properties":[{"name":"layer","type":"int","value":2},{"name":"resource_index","type":"int","value":6},{"name":"oS","type":"string","value":"connect"},{"name":"l0","type":"string","value":"rope"},{"name":"l1","type":"string","value":"0"},{"name":"l2","type":"string","value":"2"},{"name":"z","type":"int","value":3},{"name":"zM","type":"int","value":15},{"name":"f","type":"int","value":0}],"gid":46,"width":11,"height":30},{"id":83,"x":505,"y":869,"visible":true,"properties":[{"name":"layer","type":"int","value":2},{"name":"resource_index","type":"int","value":7},{"name":"oS","type":"string","value":"connect"},{"name":"l0","type":"string","value":"rope"},{"name":"l1","type":"string","value":"0"},{"name":"l2","type":"string","value":"0"},{"name":"z","type":"int","value":3},{"name":"zM","type":"int","value":32},{"name":"f","type":"int","value":0}],"gid":44,"width":19,"height":49},{"id":84,"x":508,"y":899,"visible":true,"properties":[{"name":"layer","type":"int","value":2},{"name":"resource_index","type":"int","value":8},{"name":"oS","type":"string","value":"connect"},{"name":"l0","type":"string","value":"rope"},{"name":"l1","type":"string","value":"0"},{"name":"l2","type":"string","value":"1"},{"name":"z","type":"int","value":3},{"name":"zM","type":"int","value":31},{"name":"f","type":"int","value":0}],"gid":47,"width":5,"height":30},{"id":85,"x":506,"y":928,"visible":true,"properties":[{"name":"layer","type":"int","value":2},{"name":"resource_index","type":"int","value":9},{"name":"oS","type":"string","value":"connect"},{"name":"l0","type":"string","value":"rope"},{"name":"l1","type":"string","value":"0"},{"name":"l2","type":"string","value":"2"},{"name":"z","type":"int","value":3},{"name":"zM","type":"int","value":31},{"name":"f","type":"int","value":0}],"gid":46,"width":11,"height":30},{"id":86,"x":551,"y":1015,"visible":true,"properties":[{"name":"layer","type":"int","value":2},{"name":"resource_index","type":"int","value":10},{"name":"oS","type":"string","value":"connect"},{"name":"l0","type":"string","value":"rope"},{"name":"l1","type":"string","value":"0"},{"name":"l2","type":"string","value":"0"},{"name":"z","type":"int","value":3},{"name":"zM","type":"int","value":28},{"name":"f","type":"int","value":0}],"gid":44,"width":19,"height":49},{"id":87,"x":554,"y":1135,"visible":true,"properties":[{"name":"layer","type":"int","value":2},{"name":"resource_index","type":"int","value":11},{"name":"oS","type":"string","value":"connect"},{"name":"l0","type":"string","value":"rope"},{"name":"l1","type":"string","value":"0"},{"name":"l2","type":"string","value":"3"},{"name":"z","type":"int","value":3},{"name":"zM","type":"int","value":26},{"name":"f","type":"int","value":0}],"gid":45,"width":5,"height":120},{"id":88,"x":554,"y":1164,"visible":true,"properties":[{"name":"layer","type":"int","value":2},{"name":"resource_index","type":"int","value":12},{"name":"oS","type":"string","value":"connect"},{"name":"l0","type":"string","value":"rope"},{"name":"l1","type":"string","value":"0"},{"name":"l2","type":"string","value":"1"},{"name":"z","type":"int","value":3},{"name":"zM","type":"int","value":26},{"name":"f","type":"int","value":0}],"gid":47,"width":5,"height":30},{"id":89,"x":552,"y":1194,"visible":true,"properties":[{"name":"layer","type":"int","value":2},{"name":"resource_index","type":"int","value":13},{"name":"oS","type":"string","value":"connect"},{"name":"l0","type":"string","value":"rope"},{"name":"l1","type":"string","value":"0"},{"name":"l2","type":"string","value":"2"},{"name":"z","type":"int","value":3},{"name":"zM","type":"int","value":24},{"name":"f","type":"int","value":0}],"gid":46,"width":11,"height":30},{"id":90,"x":331,"y":933,"visible":true,"properties":[{"name":"layer","type":"int","value":2},{"name":"resource_index","type":"int","value":14},{"name":"oS","type":"string","value":"connect"},{"name":"l0","type":"string","value":"rope"},{"name":"l1","type":"string","value":"0"},{"name":"l2","type":"string","value":"0"},{"name":"z","type":"int","value":3},{"name":"zM","type":"int","value":29},{"name":"f","type":"int","value":0}],"gid":44,"width":19,"height":49},{"id":91,"x":334,"y":1053,"visible":true,"properties":[{"name":"layer","type":"int","value":2},{"name":"resource_index","type":"int","value":15},{"name":"oS","type":"string","value":"connect"},{"name":"l0","type":"string","value":"rope"},{"name":"l1","type":"string","value":"0"},{"name":"l2","type":"string","value":"3"},{"name":"z","type":"int","value":3},{"name":"zM","type":"int","value":27},{"name":"f","type":"int","value":0}],"gid":45,"width":5,"height":120},{"id":92,"x":334,"y":1173,"visible":true,"properties":[{"name":"layer","type":"int","value":2},{"name":"resource_index","type":"int","value":16},{"name":"oS","type":"string","value":"connect"},{"name":"l0","type":"string","value":"rope"},{"name":"l1","type":"string","value":"0"},{"name":"l2","type":"string","value":"3"},{"name":"z","type":"int","value":3},{"name":"zM","type":"int","value":25},{"name":"f","type":"int","value":0}],"gid":45,"width":5,"height":120},{"id":93,"x":332,"y":1203,"visible":true,"properties":[{"name":"layer","type":"int","value":2},{"name":"resource_index","type":"int","value":17},{"name":"oS","type":"string","value":"connect"},{"name":"l0","type":"string","value":"rope"},{"name":"l1","type":"string","value":"0"},{"name":"l2","type":"string","value":"2"},{"name":"z","type":"int","value":3},{"name":"zM","type":"int","value":23},{"name":"f","type":"int","value":0}],"gid":46,"width":11,"height":30},{"id":94,"x":1507,"y":2211,"visible":true,"properties":[{"name":"layer","type":"int","value":2},{"name":"resource_index","type":"int","value":18},{"name":"oS","type":"string","value":"acc1"},{"name":"l0","type":"string","value":"dryRock"},{"name":"l1","type":"string","value":"artificiality"},{"name":"l2","type":"string","value":"11"},{"name":"z","type":"int","value":4},{"name":"zM","type":"int","value":4},{"name":"f","type":"int","value":0}],"gid":98,"width":83,"height":84},{"id":95,"x":1454,"y":2211,"visible":true,"properties":[{"name":"layer","type":"int","value":2},{"name":"resource_index","type":"int","value":19},{"name":"oS","type":"string","value":"acc1"},{"name":"l0","type":"string","value":"dryRock"},{"name":"l1","type":"string","value":"artificiality"},{"name":"l2","type":"string","value":"11"},{"name":"z","type":"int","value":3},{"name":"zM","type":"int","value":4},{"name":"f","type":"int","value":0}],"gid":98,"width":83,"height":84},{"id":96,"x":1556,"y":2160,"visible":true,"properties":[{"name":"layer","type":"int","value":2},{"name":"resource_index","type":"int","value":20},{"name":"oS","type":"string","value":"acc1"},{"name":"l0","type":"string","value":"dryRock"},{"name":"l1","type":"string","value":"artificiality"},{"name":"l2","type":"string","value":"12"},{"name":"z","type":"int","value":5},{"name":"zM","type":"int","value":4},{"name":"f","type":"int","value":0}],"gid":99,"width":42,"height":44},{"id":97,"x":48,"y":1816,"visible":true,"properties":[{"name":"layer","type":"int","value":2},{"name":"resource_index","type":"int","value":21},{"name":"oS","type":"string","value":"acc1"},{"name":"l0","type":"string","value":"dryRock"},{"name":"l1","type":"string","value":"artificiality"},{"name":"l2","type":"string","value":"27"},{"name":"z","type":"int","value":9},{"name":"zM","type":"int","value":0},{"name":"f","type":"int","value":0}],"gid":86,"width":275,"height":152}]},{"id":4,"name":"layer_2_tile","type":"objectgroup","visible":true,"opacity":1,"objects":[{"id":58,"x":225,"y":1862,"visible":true,"properties":[{"name":"layer","type":"int","value":2},{"name":"resource_index","type":"int","value":0},{"name":"u","type":"string","value":"enH1"},{"name":"no","type":"int","value":0},{"name":"zM","type":"int","value":13}],"gid":25,"width":90,"height":32},{"id":59,"x":225,"y":1830,"visible":true,"properties":[{"name":"layer","type":"int","value":2},{"name":"resource_index","type":"int","value":1},{"name":"u","type":"string","value":"enH0"},{"name":"no","type":"int","value":1},{"name":"zM","type":"int","value":13}],"gid":30,"width":90,"height":20},{"id":60,"x":389,"y":1830,"visible":true,"properties":[{"name":"layer","type":"int","value":2},{"name":"resource_index","type":"int","value":2},{"name":"u","type":"string","value":"edU"},{"name":"no","type":"int","value":1},{"name":"zM","type":"int","value":13}],"gid":35,"width":32,"height":17},{"id":61,"x":389,"y":1848,"visible":true,"properties":[{"name":"layer","type":"int","value":2},{"name":"resource_index","type":"int","value":3},{"name":"u","type":"string","value":"edD"},{"name":"no","type":"int","value":0},{"name":"zM","type":"int","value":13}],"gid":33,"width":32,"height":18},{"id":62,"x":315,"y":1830,"visible":true,"properties":[{"name":"layer","type":"int","value":2},{"name":"resource_index","type":"int","value":4},{"name":"u","type":"string","value":"enH0"},{"name":"no","type":"int","value":1},{"name":"zM","type":"int","value":13}],"gid":30,"width":90,"height":20},{"id":63,"x":315,"y":1862,"visible":true,"properties":[{"name":"layer","type":"int","value":2},{"name":"resource_index","type":"int","value":5},{"name":"u","type":"string","value":"enH1"},{"name":"no","type":"int","value":0},{"name":"zM","type":"int","value":13}],"gid":25,"width":90,"height":32},{"id":64,"x":1019,"y":1890,"visible":true,"properties":[{"name":"layer","type":"int","value":2},{"name":"resource_index","type":"int","value":6},{"name":"u","type":"string","value":"edU"},{"name":"no","type":"int","value":0},{"name":"zM","type":"int","value":11}],"gid":32,"width":32,"height":19},{"id":65,"x":1019,"y":1907,"visible":true,"properties":[{"name":"layer","type":"int","value":2},{"name":"resource_index","type":"int","value":7},{"name":"u","type":"string","value":"edD"},{"name":"no","type":"int","value":1},{"name":"zM","type":"int","value":11}],"gid":31,"width":32,"height":17},{"id":66,"x":1109,"y":1890,"visible":true,"properties":[{"name":"layer","type":"int","value":2},{"name":"resource_index","type":"int","value":8},{"name":"u","type":"string","value":"edU"},{"name":"no","type":"int","value":1},{"name":"zM","type":"int","value":11}],"gid":35,"width":32,"height":17},{"id":67,"x":1109,"y":1908,"visible":true,"properties":[{"name":"layer","type":"int","value":2},{"name":"resource_index","type":"int","value":9},{"name":"u","type":"string","value":"edD"},{"name":"no","type":"int","value":0},{"name":"zM","type":"int","value":11}],"gid":33,"width":32,"height":18},{"id":68,"x":1035,"y":1890,"visible":true,"properties":[{"name":"layer","type":"int","value":2},{"name":"resource_index","type":"int","value":10},{"name":"u","type":"string","value":"enH0"},{"name":"no","type":"int","value":1},{"name":"zM","type":"int","value":11}],"gid":30,"width":90,"height":20},{"id":69,"x":1035,"y":1924,"visible":true,"properties":[{"name":"layer","type":"int","value":2},{"name":"resource_index","type":"int","value":11},{"name":"u","type":"string","value":"enH1"},{"name":"no","type":"int","value":1},{"name":"zM","type":"int","value":11}],"gid":28,"width":90,"height":34},{"id":70,"x":135,"y":1862,"visible":true,"properties":[{"name":"layer","type":"int","value":2},{"name":"resource_index","type":"int","value":12},{"name":"u","type":"string","value":"enH1"},{"name":"no","type":"int","value":0},{"name":"zM","type":"int","value":13}],"gid":25,"width":90,"height":32},{"id":71,"x":135,"y":1830,"visible":true,"properties":[{"name":"layer","type":"int","value":2},{"name":"resource_index","type":"int","value":13},{"name":"u","type":"string","value":"enH0"},{"name":"no","type":"int","value":0},{"name":"zM","type":"int","value":13}],"gid":27,"width":90,"height":20},{"id":72,"x":45,"y":1864,"visible":true,"properties":[{"name":"layer","type":"int","value":2},{"name":"resource_index","type":"int","value":14},{"name":"u","type":"string","value":"enH1"},{"name":"no","type":"int","value":1},{"name":"zM","type":"int","value":13}],"gid":28,"width":90,"height":34},{"id":73,"x":45,"y":1830,"visible":true,"properties":[{"name":"layer","type":"int","value":2},{"name":"resource_index","type":"int","value":15},{"name":"u","type":"string","value":"enH0"},{"name":"no","type":"int","value":1},{"name":"zM","type":"int","value":13}],"gid":30,"width":90,"height":20},{"id":74,"x":29,"y":1830,"visible":true,"properties":[{"name":"layer","type":"int","value":2},{"name":"resource_index","type":"int","value":16},{"name":"u","type":"string","value":"edU"},{"name":"no","type":"int","value":1},{"name":"zM","type":"int","value":13}],"gid":35,"width":32,"height":17},{"id":75,"x":29,"y":1848,"visible":true,"properties":[{"name":"layer","type":"int","value":2},{"name":"resource_index","type":"int","value":17},{"name":"u","type":"string","value":"edD"},{"name":"no","type":"int","value":0},{"name":"zM","type":"int","value":13}],"gid":33,"width":32,"height":18}]},{"id":5,"name":"layer_3_obj","type":"objectgroup","visible":true,"opacity":1,"objects":[{"id":300,"x":317,"y":1845,"visible":true,"properties":[{"name":"layer","type":"int","value":3},{"name":"resource_index","type":"int","value":0},{"name":"oS","type":"string","value":"connect"},{"name":"l0","type":"string","value":"rope"},{"name":"l1","type":"string","value":"0"},{"name":"l2","type":"string","value":"0"},{"name":"z","type":"int","value":3},{"name":"zM","type":"int","value":14},{"name":"f","type":"int","value":0}],"gid":44,"width":19,"height":49},{"id":301,"x":320,"y":1965,"visible":true,"properties":[{"name":"layer","type":"int","value":3},{"name":"resource_index","type":"int","value":1},{"name":"oS","type":"string","value":"connect"},{"name":"l0","type":"string","value":"rope"},{"name":"l1","type":"string","value":"0"},{"name":"l2","type":"string","value":"3"},{"name":"z","type":"int","value":3},{"name":"zM","type":"int","value":10},{"name":"f","type":"int","value":0}],"gid":45,"width":5,"height":120},{"id":302,"x":320,"y":2085,"visible":true,"properties":[{"name":"layer","type":"int","value":3},{"name":"resource_index","type":"int","value":2},{"name":"oS","type":"string","value":"connect"},{"name":"l0","type":"string","value":"rope"},{"name":"l1","type":"string","value":"0"},{"name":"l2","type":"string","value":"3"},{"name":"z","type":"int","value":3},{"name":"zM","type":"int","value":8},{"name":"f","type":"int","value":0}],"gid":45,"width":5,"height":120},{"id":303,"x":318,"y":2115,"visible":true,"properties":[{"name":"layer","type":"int","value":3},{"name":"resource_index","type":"int","value":3},{"name":"oS","type":"string","value":"connect"},{"name":"l0","type":"string","value":"rope"},{"name":"l1","type":"string","value":"0"},{"name":"l2","type":"string","value":"2"},{"name":"z","type":"int","value":3},{"name":"zM","type":"int","value":7},{"name":"f","type":"int","value":0}],"gid":46,"width":11,"height":30},{"id":304,"x":1032,"y":1906,"visible":true,"properties":[{"name":"layer","type":"int","value":3},{"name":"resource_index","type":"int","value":4},{"name":"oS","type":"string","value":"connect"},{"name":"l0","type":"string","value":"rope"},{"name":"l1","type":"string","value":"0"},{"name":"l2","type":"string","value":"0"},{"name":"z","type":"int","value":3},{"name":"zM","type":"int","value":12},{"name":"f","type":"int","value":0}],"gid":44,"width":19,"height":49},{"id":305,"x":1035,"y":2026,"visible":true,"properties":[{"name":"layer","type":"int","value":3},{"name":"resource_index","type":"int","value":5},{"name":"oS","type":"string","value":"connect"},{"name":"l0","type":"string","value":"rope"},{"name":"l1","type":"string","value":"0"},{"name":"l2","type":"string","value":"3"},{"name":"z","type":"int","value":3},{"name":"zM","type":"int","value":9},{"name":"f","type":"int","value":0}],"gid":45,"width":5,"height":120},{"id":306,"x":1035,"y":2146,"visible":true,"properties":[{"name":"layer","type":"int","value":3},{"name":"resource_index","type":"int","value":6},{"name":"oS","type":"string","value":"connect"},{"name":"l0","type":"string","value":"rope"},{"name":"l1","type":"string","value":"0"},{"name":"l2","type":"string","value":"3"},{"name":"z","type":"int","value":3},{"name":"zM","type":"int","value":6},{"name":"f","type":"int","value":0}],"gid":45,"width":5,"height":120},{"id":307,"x":1033,"y":2176,"visible":true,"properties":[{"name":"layer","type":"int","value":3},{"name":"resource_index","type":"int","value":7},{"name":"oS","type":"string","value":"connect"},{"name":"l0","type":"string","value":"rope"},{"name":"l1","type":"string","value":"0"},{"name":"l2","type":"string","value":"2"},{"name":"z","type":"int","value":3},{"name":"zM","type":"int","value":5},{"name":"f","type":"int","value":0}],"gid":46,"width":11,"height":30}]},{"id":6,"name":"layer_3_tile","type":"objectgroup","visible":true,"opacity":1,"objects":[{"id":98,"x":1890,"y":2520,"visible":true,"properties":[{"name":"layer","type":"int","value":3},{"name":"resource_index","type":"int","value":0},{"name":"u","type":"string","value":"enV1"},{"name":"no","type":"int","value":0},{"name":"zM","type":"int","value":0}],"gid":36,"width":18,"height":60},{"id":99,"x":1710,"y":2614,"visible":true,"properties":[{"name":"layer","type":"int","value":3},{"name":"resource_index","type":"int","value":1},{"name":"u","type":"string","value":"enH1"},{"name":"no","type":"int","value":1},{"name":"zM","type":"int","value":0}],"gid":28,"width":90,"height":34},{"id":100,"x":450,"y":2614,"visible":true,"properties":[{"name":"layer","type":"int","value":3},{"name":"resource_index","type":"int","value":2},{"name":"u","type":"string","value":"enH1"},{"name":"no","type":"int","value":1},{"name":"zM","type":"int","value":0}],"gid":28,"width":90,"height":34},{"id":101,"x":720,"y":2612,"visible":true,"properties":[{"name":"layer","type":"int","value":3},{"name":"resource_index","type":"int","value":3},{"name":"u","type":"string","value":"enH1"},{"name":"no","type":"int","value":0},{"name":"zM","type":"int","value":0}],"gid":25,"width":90,"height":32},{"id":102,"x":900,"y":2614,"visible":true,"properties":[{"name":"layer","type":"int","value":3},{"name":"resource_index","type":"int","value":4},{"name":"u","type":"string","value":"enH1"},{"name":"no","type":"int","value":1},{"name":"zM","type":"int","value":0}],"gid":28,"width":90,"height":34},{"id":103,"x":0,"y":2612,"visible":true,"properties":[{"name":"layer","type":"int","value":3},{"name":"resource_index","type":"int","value":5},{"name":"u","type":"string","value":"enH1"},{"name":"no","type":"int","value":0},{"name":"zM","type":"int","value":0}],"gid":25,"width":90,"height":32},{"id":104,"x":1874,"y":2220,"visible":true,"properties":[{"name":"layer","type":"int","value":3},{"name":"resource_index","type":"int","value":6},{"name":"u","type":"string","value":"edU"},{"name":"no","type":"int","value":0},{"name":"zM","type":"int","value":0}],"gid":32,"width":32,"height":19},{"id":105,"x":270,"y":2614,"visible":true,"properties":[{"name":"layer","type":"int","value":3},{"name":"resource_index","type":"int","value":7},{"name":"u","type":"string","value":"enH1"},{"name":"no","type":"int","value":1},{"name":"zM","type":"int","value":0}],"gid":28,"width":90,"height":34},{"id":106,"x":1890,"y":2400,"visible":true,"properties":[{"name":"layer","type":"int","value":3},{"name":"resource_index","type":"int","value":8},{"name":"u","type":"string","value":"enV1"},{"name":"no","type":"int","value":2},{"name":"zM","type":"int","value":0}],"gid":29,"width":17,"height":60},{"id":107,"x":630,"y":2580,"visible":true,"properties":[{"name":"layer","type":"int","value":3},{"name":"resource_index","type":"int","value":9},{"name":"u","type":"string","value":"bsc"},{"name":"no","type":"int","value":2},{"name":"zM","type":"int","value":0}],"gid":23,"width":90,"height":60},{"id":108,"x":1874,"y":2598,"visible":true,"properties":[{"name":"layer","type":"int","value":3},{"name":"resource_index","type":"int","value":10},{"name":"u","type":"string","value":"edD"},{"name":"no","type":"int","value":0},{"name":"zM","type":"int","value":0}],"gid":33,"width":32,"height":18},{"id":109,"x":180,"y":2614,"visible":true,"properties":[{"name":"layer","type":"int","value":3},{"name":"resource_index","type":"int","value":11},{"name":"u","type":"string","value":"enH1"},{"name":"no","type":"int","value":1},{"name":"zM","type":"int","value":0}],"gid":28,"width":90,"height":34},{"id":110,"x":990,"y":2520,"visible":true,"properties":[{"name":"layer","type":"int","value":3},{"name":"resource_index","type":"int","value":12},{"name":"u","type":"string","value":"bsc"},{"name":"no","type":"int","value":0},{"name":"zM","type":"int","value":0}],"gid":24,"width":90,"height":60},{"id":111,"x":990,"y":2460,"visible":true,"properties":[{"name":"layer","type":"int","value":3},{"name":"resource_index","type":"int","value":13},{"name":"u","type":"string","value":"bsc"},{"name":"no","type":"int","value":0},{"name":"zM","type":"int","value":0}],"gid":24,"width":90,"height":60},{"id":112,"x":540,"y":2614,"visible":true,"properties":[{"name":"layer","type":"int","value":3},{"name":"resource_index","type":"int","value":14},{"name":"u","type":"string","value":"enH1"},{"name":"no","type":"int","value":1},{"name":"zM","type":"int","value":0}],"gid":28,"width":90,"height":34},{"id":113,"x":900,"y":2580,"visible":true,"properties":[{"name":"layer","type":"int","value":3},{"name":"resource_index","type":"int","value":15},{"name":"u","type":"string","value":"bsc"},{"name":"no","type":"int","value":2},{"name":"zM","type":"int","value":0}],"gid":23,"width":90,"height":60},{"id":114,"x":990,"y":2400,"visible":true,"properties":[{"name":"layer","type":"int","value":3},{"name":"resource_index","type":"int","value":16},{"name":"u","type":"string","value":"bsc"},{"name":"no","type":"int","value":1},{"name":"zM","type":"int","value":0}],"gid":26,"width":90,"height":60},{"id":115,"x":1800,"y":2460,"visible":true,"properties":[{"name":"layer","type":"int","value":3},{"name":"resource_index","type":"int","value":17},{"name":"u","type":"string","value":"bsc"},{"name":"no","type":"int","value":0},{"name":"zM","type":"int","value":0}],"gid":24,"width":90,"height":60},{"id":116,"x":1620,"y":2580,"visible":true,"properties":[{"name":"layer","type":"int","value":3},{"name":"resource_index","type":"int","value":18},{"name":"u","type":"string","value":"bsc"},{"name":"no","type":"int","value":0},{"name":"zM","type":"int","value":0}],"gid":24,"width":90,"height":60},{"id":117,"x":1800,"y":2520,"visible":true,"properties":[{"name":"layer","type":"int","value":3},{"name":"resource_index","type":"int","value":19},{"name":"u","type":"string","value":"bsc"},{"name":"no","type":"int","value":2},{"name":"zM","type":"int","value":0}],"gid":23,"width":90,"height":60},{"id":118,"x":1080,"y":2580,"visible":true,"properties":[{"name":"layer","type":"int","value":3},{"name":"resource_index","type":"int","value":20},{"name":"u","type":"string","value":"bsc"},{"name":"no","type":"int","value":2},{"name":"zM","type":"int","value":0}],"gid":23,"width":90,"height":60},{"id":119,"x":1080,"y":2460,"visible":true,"properties":[{"name":"layer","type":"int","value":3},{"name":"resource_index","type":"int","value":21},{"name":"u","type":"string","value":"bsc"},{"name":"no","type":"int","value":0},{"name":"zM","type":"int","value":0}],"gid":24,"width":90,"height":60},{"id":120,"x":1530,"y":2580,"visible":true,"properties":[{"name":"layer","type":"int","value":3},{"name":"resource_index","type":"int","value":22},{"name":"u","type":"string","value":"bsc"},{"name":"no","type":"int","value":1},{"name":"zM","type":"int","value":0}],"gid":26,"width":90,"height":60},{"id":121,"x":1800,"y":2340,"visible":true,"properties":[{"name":"layer","type":"int","value":3},{"name":"resource_index","type":"int","value":23},{"name":"u","type":"string","value":"bsc"},{"name":"no","type":"int","value":0},{"name":"zM","type":"int","value":0}],"gid":24,"width":90,"height":60},{"id":122,"x":90,"y":2614,"visible":true,"properties":[{"name":"layer","type":"int","value":3},{"name":"resource_index","type":"int","value":24},{"name":"u","type":"string","value":"enH1"},{"name":"no","type":"int","value":1},{"name":"zM","type":"int","value":0}],"gid":28,"width":90,"height":34},{"id":123,"x":1800,"y":2612,"visible":true,"properties":[{"name":"layer","type":"int","value":3},{"name":"resource_index","type":"int","value":25},{"name":"u","type":"string","value":"enH1"},{"name":"no","type":"int","value":0},{"name":"zM","type":"int","value":0}],"gid":25,"width":90,"height":32},{"id":124,"x":810,"y":2612,"visible":true,"properties":[{"name":"layer","type":"int","value":3},{"name":"resource_index","type":"int","value":26},{"name":"u","type":"string","value":"enH1"},{"name":"no","type":"int","value":0},{"name":"zM","type":"int","value":0}],"gid":25,"width":90,"height":32},{"id":125,"x":360,"y":2614,"visible":true,"properties":[{"name":"layer","type":"int","value":3},{"name":"resource_index","type":"int","value":27},{"name":"u","type":"string","value":"enH1"},{"name":"no","type":"int","value":1},{"name":"zM","type":"int","value":0}],"gid":28,"width":90,"height":34},{"id":126,"x":900,"y":2520,"visible":true,"properties":[{"name":"layer","type":"int","value":3},{"name":"resource_index","type":"int","value":28},{"name":"u","type":"string","value":"bsc"},{"name":"no","type":"int","value":2},{"name":"zM","type":"int","value":0}],"gid":23,"width":90,"height":60},{"id":127,"x":720,"y":2580,"visible":true,"properties":[{"name":"layer","type":"int","value":3},{"name":"resource_index","type":"int","value":29},{"name":"u","type":"string","value":"bsc"},{"name":"no","type":"int","value":1},{"name":"zM","type":"int","value":0}],"gid":26,"width":90,"height":60},{"id":128,"x":1800,"y":2280,"visible":true,"properties":[{"name":"layer","type":"int","value":3},{"name":"resource_index","type":"int","value":30},{"name":"u","type":"string","value":"bsc"},{"name":"no","type":"int","value":1},{"name":"zM","type":"int","value":0}],"gid":26,"width":90,"height":60},{"id":129,"x":1800,"y":2220,"visible":true,"properties":[{"name":"layer","type":"int","value":3},{"name":"resource_index","type":"int","value":31},{"name":"u","type":"string","value":"enH0"},{"name":"no","type":"int","value":1},{"name":"zM","type":"int","value":0}],"gid":30,"width":90,"height":20},{"id":130,"x":1530,"y":2280,"visible":true,"properties":[{"name":"layer","type":"int","value":3},{"name":"resource_index","type":"int","value":32},{"name":"u","type":"string","value":"bsc"},{"name":"no","type":"int","value":1},{"name":"zM","type":"int","value":0}],"gid":26,"width":90,"height":60},{"id":131,"x":1890,"y":2580,"visible":true,"properties":[{"name":"layer","type":"int","value":3},{"name":"resource_index","type":"int","value":33},{"name":"u","type":"string","value":"enV1"},{"name":"no","type":"int","value":1},{"name":"zM","type":"int","value":0}],"gid":37,"width":18,"height":60},{"id":132,"x":1710,"y":2220,"visible":true,"properties":[{"name":"layer","type":"int","value":3},{"name":"resource_index","type":"int","value":34},{"name":"u","type":"string","value":"enH0"},{"name":"no","type":"int","value":1},{"name":"zM","type":"int","value":0}],"gid":30,"width":90,"height":20},{"id":133,"x":1710,"y":2280,"visible":true,"properties":[{"name":"layer","type":"int","value":3},{"name":"resource_index","type":"int","value":35},{"name":"u","type":"string","value":"bsc"},{"name":"no","type":"int","value":0},{"name":"zM","type":"int","value":0}],"gid":24,"width":90,"height":60},{"id":134,"x":1710,"y":2520,"visible":true,"properties":[{"name":"layer","type":"int","value":3},{"name":"resource_index","type":"int","value":36},{"name":"u","type":"string","value":"bsc"},{"name":"no","type":"int","value":2},{"name":"zM","type":"int","value":0}],"gid":23,"width":90,"height":60},{"id":135,"x":1260,"y":2400,"visible":true,"properties":[{"name":"layer","type":"int","value":3},{"name":"resource_index","type":"int","value":37},{"name":"u","type":"string","value":"bsc"},{"name":"no","type":"int","value":2},{"name":"zM","type":"int","value":0}],"gid":23,"width":90,"height":60},{"id":136,"x":1170,"y":2400,"visible":true,"properties":[{"name":"layer","type":"int","value":3},{"name":"resource_index","type":"int","value":38},{"name":"u","type":"string","value":"bsc"},{"name":"no","type":"int","value":0},{"name":"zM","type":"int","value":0}],"gid":24,"width":90,"height":60},{"id":137,"x":1170,"y":2520,"visible":true,"properties":[{"name":"layer","type":"int","value":3},{"name":"resource_index","type":"int","value":39},{"name":"u","type":"string","value":"bsc"},{"name":"no","type":"int","value":2},{"name":"zM","type":"int","value":0}],"gid":23,"width":90,"height":60},{"id":138,"x":1080,"y":2520,"visible":true,"properties":[{"name":"layer","type":"int","value":3},{"name":"resource_index","type":"int","value":40},{"name":"u","type":"string","value":"bsc"},{"name":"no","type":"int","value":1},{"name":"zM","type":"int","value":0}],"gid":26,"width":90,"height":60},{"id":139,"x":1080,"y":2614,"visible":true,"properties":[{"name":"layer","type":"int","value":3},{"name":"resource_index","type":"int","value":41},{"name":"u","type":"string","value":"enH1"},{"name":"no","type":"int","value":1},{"name":"zM","type":"int","value":0}],"gid":28,"width":90,"height":34},{"id":140,"x":1170,"y":2460,"visible":true,"properties":[{"name":"layer","type":"int","value":3},{"name":"resource_index","type":"int","value":42},{"name":"u","type":"string","value":"bsc"},{"name":"no","type":"int","value":2},{"name":"zM","type":"int","value":0}],"gid":23,"width":90,"height":60},{"id":141,"x":810,"y":2580,"visible":true,"properties":[{"name":"layer","type":"int","value":3},{"name":"resource_index","type":"int","value":43},{"name":"u","type":"string","value":"bsc"},{"name":"no","type":"int","value":1},{"name":"zM","type":"int","value":0}],"gid":26,"width":90,"height":60},{"id":142,"x":1710,"y":2460,"visible":true,"properties":[{"name":"layer","type":"int","value":3},{"name":"resource_index","type":"int","value":44},{"name":"u","type":"string","value":"bsc"},{"name":"no","type":"int","value":1},{"name":"zM","type":"int","value":0}],"gid":26,"width":90,"height":60},{"id":143,"x":1260,"y":2614,"visible":true,"properties":[{"name":"layer","type":"int","value":3},{"name":"resource_index","type":"int","value":45},{"name":"u","type":"string","value":"enH1"},{"name":"no","type":"int","value":1},{"name":"zM","type":"int","value":0}],"gid":28,"width":90,"height":34},{"id":144,"x":1800,"y":2400,"visible":true,"properties":[{"name":"layer","type":"int","value":3},{"name":"resource_index","type":"int","value":46},{"name":"u","type":"string","value":"bsc"},{"name":"no","type":"int","value":0},{"name":"zM","type":"int","value":0}],"gid":24,"width":90,"height":60},{"id":145,"x":1170,"y":2612,"visible":true,"properties":[{"name":"layer","type":"int","value":3},{"name":"resource_index","type":"int","value":47},{"name":"u","type":"string","value":"enH1"},{"name":"no","type":"int","value":0},{"name":"zM","type":"int","value":0}],"gid":25,"width":90,"height":32},{"id":146,"x":1620,"y":2520,"visible":true,"properties":[{"name":"layer","type":"int","value":3},{"name":"resource_index","type":"int","value":48},{"name":"u","type":"string","value":"bsc"},{"name":"no","type":"int","value":2},{"name":"zM","type":"int","value":0}],"gid":23,"width":90,"height":60},{"id":147,"x":1800,"y":2580,"visible":true,"properties":[{"name":"layer","type":"int","value":3},{"name":"resource_index","type":"int","value":49},{"name":"u","type":"string","value":"bsc"},{"name":"no","type":"int","value":0},{"name":"zM","type":"int","value":0}],"gid":24,"width":90,"height":60},{"id":148,"x":1620,"y":2460,"visible":true,"properties":[{"name":"layer","type":"int","value":3},{"name":"resource_index","type":"int","value":50},{"name":"u","type":"string","value":"bsc"},{"name":"no","type":"int","value":1},{"name":"zM","type":"int","value":0}],"gid":26,"width":90,"height":60},{"id":149,"x":1710,"y":2580,"visible":true,"properties":[{"name":"layer","type":"int","value":3},{"name":"resource_index","type":"int","value":51},{"name":"u","type":"string","value":"bsc"},{"name":"no","type":"int","value":1},{"name":"zM","type":"int","value":0}],"gid":26,"width":90,"height":60},{"id":150,"x":1530,"y":2400,"visible":true,"properties":[{"name":"layer","type":"int","value":3},{"name":"resource_index","type":"int","value":52},{"name":"u","type":"string","value":"bsc"},{"name":"no","type":"int","value":0},{"name":"zM","type":"int","value":0}],"gid":24,"width":90,"height":60},{"id":151,"x":1710,"y":2400,"visible":true,"properties":[{"name":"layer","type":"int","value":3},{"name":"resource_index","type":"int","value":53},{"name":"u","type":"string","value":"bsc"},{"name":"no","type":"int","value":2},{"name":"zM","type":"int","value":0}],"gid":23,"width":90,"height":60},{"id":152,"x":1350,"y":2340,"visible":true,"properties":[{"name":"layer","type":"int","value":3},{"name":"resource_index","type":"int","value":54},{"name":"u","type":"string","value":"bsc"},{"name":"no","type":"int","value":0},{"name":"zM","type":"int","value":0}],"gid":24,"width":90,"height":60},{"id":153,"x":1710,"y":2340,"visible":true,"properties":[{"name":"layer","type":"int","value":3},{"name":"resource_index","type":"int","value":55},{"name":"u","type":"string","value":"bsc"},{"name":"no","type":"int","value":0},{"name":"zM","type":"int","value":0}],"gid":24,"width":90,"height":60},{"id":154,"x":1260,"y":2280,"visible":true,"properties":[{"name":"layer","type":"int","value":3},{"name":"resource_index","type":"int","value":56},{"name":"u","type":"string","value":"bsc"},{"name":"no","type":"int","value":2},{"name":"zM","type":"int","value":0}],"gid":23,"width":90,"height":60},{"id":155,"x":1170,"y":2220,"visible":true,"properties":[{"name":"layer","type":"int","value":3},{"name":"resource_index","type":"int","value":57},{"name":"u","type":"string","value":"enH0"},{"name":"no","type":"int","value":0},{"name":"zM","type":"int","value":0}],"gid":27,"width":90,"height":20},{"id":156,"x":1350,"y":2280,"visible":true,"properties":[{"name":"layer","type":"int","value":3},{"name":"resource_index","type":"int","value":58},{"name":"u","type":"string","value":"bsc"},{"name":"no","type":"int","value":0},{"name":"zM","type":"int","value":0}],"gid":24,"width":90,"height":60},{"id":157,"x":1350,"y":2220,"visible":true,"properties":[{"name":"layer","type":"int","value":3},{"name":"resource_index","type":"int","value":59},{"name":"u","type":"string","value":"enH0"},{"name":"no","type":"int","value":1},{"name":"zM","type":"int","value":0}],"gid":30,"width":90,"height":20},{"id":158,"x":1440,"y":2280,"visible":true,"properties":[{"name":"layer","type":"int","value":3},{"name":"resource_index","type":"int","value":60},{"name":"u","type":"string","value":"bsc"},{"name":"no","type":"int","value":1},{"name":"zM","type":"int","value":0}],"gid":26,"width":90,"height":60},{"id":159,"x":1440,"y":2220,"visible":true,"properties":[{"name":"layer","type":"int","value":3},{"name":"resource_index","type":"int","value":61},{"name":"u","type":"string","value":"enH0"},{"name":"no","type":"int","value":0},{"name":"zM","type":"int","value":0}],"gid":27,"width":90,"height":20},{"id":160,"x":1620,"y":2280,"visible":true,"properties":[{"name":"layer","type":"int","value":3},{"name":"resource_index","type":"int","value":62},{"name":"u","type":"string","value":"bsc"},{"name":"no","type":"int","value":0},{"name":"zM","type":"int","value":0}],"gid":24,"width":90,"height":60},{"id":161,"x":1620,"y":2220,"visible":true,"properties":[{"name":"layer","type":"int","value":3},{"name":"resource_index","type":"int","value":63},{"name":"u","type":"string","value":"enH0"},{"name":"no","type":"int","value":0},{"name":"zM","type":"int","value":0}],"gid":27,"width":90,"height":20},{"id":162,"x":1530,"y":2220,"visible":true,"properties":[{"name":"layer","type":"int","value":3},{"name":"resource_index","type":"int","value":64},{"name":"u","type":"string","value":"enH0"},{"name":"no","type":"int","value":1},{"name":"zM","type":"int","value":0}],"gid":30,"width":90,"height":20},{"id":163,"x":1260,"y":2520,"visible":true,"properties":[{"name":"layer","type":"int","value":3},{"name":"resource_index","type":"int","value":65},{"name":"u","type":"string","value":"bsc"},{"name":"no","type":"int","value":0},{"name":"zM","type":"int","value":0}],"gid":24,"width":90,"height":60},{"id":164,"x":1620,"y":2340,"visible":true,"properties":[{"name":"layer","type":"int","value":3},{"name":"resource_index","type":"int","value":66},{"name":"u","type":"string","value":"bsc"},{"name":"no","type":"int","value":2},{"name":"zM","type":"int","value":0}],"gid":23,"width":90,"height":60},{"id":165,"x":1440,"y":2340,"visible":true,"properties":[{"name":"layer","type":"int","value":3},{"name":"resource_index","type":"int","value":67},{"name":"u","type":"string","value":"bsc"},{"name":"no","type":"int","value":0},{"name":"zM","type":"int","value":0}],"gid":24,"width":90,"height":60},{"id":166,"x":1530,"y":2340,"visible":true,"properties":[{"name":"layer","type":"int","value":3},{"name":"resource_index","type":"int","value":68},{"name":"u","type":"string","value":"bsc"},{"name":"no","type":"int","value":2},{"name":"zM","type":"int","value":0}],"gid":23,"width":90,"height":60},{"id":167,"x":1350,"y":2460,"visible":true,"properties":[{"name":"layer","type":"int","value":3},{"name":"resource_index","type":"int","value":69},{"name":"u","type":"string","value":"bsc"},{"name":"no","type":"int","value":2},{"name":"zM","type":"int","value":0}],"gid":23,"width":90,"height":60},{"id":168,"x":1350,"y":2400,"visible":true,"properties":[{"name":"layer","type":"int","value":3},{"name":"resource_index","type":"int","value":70},{"name":"u","type":"string","value":"bsc"},{"name":"no","type":"int","value":1},{"name":"zM","type":"int","value":0}],"gid":26,"width":90,"height":60},{"id":169,"x":1440,"y":2400,"visible":true,"properties":[{"name":"layer","type":"int","value":3},{"name":"resource_index","type":"int","value":71},{"name":"u","type":"string","value":"bsc"},{"name":"no","type":"int","value":2},{"name":"zM","type":"int","value":0}],"gid":23,"width":90,"height":60},{"id":170,"x":1620,"y":2400,"visible":true,"properties":[{"name":"layer","type":"int","value":3},{"name":"resource_index","type":"int","value":72},{"name":"u","type":"string","value":"bsc"},{"name":"no","type":"int","value":2},{"name":"zM","type":"int","value":0}],"gid":23,"width":90,"height":60},{"id":171,"x":1260,"y":2460,"visible":true,"properties":[{"name":"layer","type":"int","value":3},{"name":"resource_index","type":"int","value":73},{"name":"u","type":"string","value":"bsc"},{"name":"no","type":"int","value":2},{"name":"zM","type":"int","value":0}],"gid":23,"width":90,"height":60},{"id":172,"x":1350,"y":2580,"visible":true,"properties":[{"name":"layer","type":"int","value":3},{"name":"resource_index","type":"int","value":74},{"name":"u","type":"string","value":"bsc"},{"name":"no","type":"int","value":0},{"name":"zM","type":"int","value":0}],"gid":24,"width":90,"height":60},{"id":173,"x":1440,"y":2460,"visible":true,"properties":[{"name":"layer","type":"int","value":3},{"name":"resource_index","type":"int","value":75},{"name":"u","type":"string","value":"bsc"},{"name":"no","type":"int","value":1},{"name":"zM","type":"int","value":0}],"gid":26,"width":90,"height":60},{"id":174,"x":1530,"y":2460,"visible":true,"properties":[{"name":"layer","type":"int","value":3},{"name":"resource_index","type":"int","value":76},{"name":"u","type":"string","value":"bsc"},{"name":"no","type":"int","value":1},{"name":"zM","type":"int","value":0}],"gid":26,"width":90,"height":60},{"id":175,"x":1440,"y":2520,"visible":true,"properties":[{"name":"layer","type":"int","value":3},{"name":"resource_index","type":"int","value":77},{"name":"u","type":"string","value":"bsc"},{"name":"no","type":"int","value":0},{"name":"zM","type":"int","value":0}],"gid":24,"width":90,"height":60},{"id":176,"x":1350,"y":2520,"visible":true,"properties":[{"name":"layer","type":"int","value":3},{"name":"resource_index","type":"int","value":78},{"name":"u","type":"string","value":"bsc"},{"name":"no","type":"int","value":2},{"name":"zM","type":"int","value":0}],"gid":23,"width":90,"height":60},{"id":177,"x":1530,"y":2520,"visible":true,"properties":[{"name":"layer","type":"int","value":3},{"name":"resource_index","type":"int","value":79},{"name":"u","type":"string","value":"bsc"},{"name":"no","type":"int","value":1},{"name":"zM","type":"int","value":0}],"gid":26,"width":90,"height":60},{"id":178,"x":1260,"y":2580,"visible":true,"properties":[{"name":"layer","type":"int","value":3},{"name":"resource_index","type":"int","value":80},{"name":"u","type":"string","value":"bsc"},{"name":"no","type":"int","value":0},{"name":"zM","type":"int","value":0}],"gid":24,"width":90,"height":60},{"id":179,"x":1080,"y":2400,"visible":true,"properties":[{"name":"layer","type":"int","value":3},{"name":"resource_index","type":"int","value":81},{"name":"u","type":"string","value":"bsc"},{"name":"no","type":"int","value":0},{"name":"zM","type":"int","value":0}],"gid":24,"width":90,"height":60},{"id":180,"x":1350,"y":2614,"visible":true,"properties":[{"name":"layer","type":"int","value":3},{"name":"resource_index","type":"int","value":82},{"name":"u","type":"string","value":"enH1"},{"name":"no","type":"int","value":1},{"name":"zM","type":"int","value":0}],"gid":28,"width":90,"height":34},{"id":181,"x":990,"y":2614,"visible":true,"properties":[{"name":"layer","type":"int","value":3},{"name":"resource_index","type":"int","value":83},{"name":"u","type":"string","value":"enH1"},{"name":"no","type":"int","value":1},{"name":"zM","type":"int","value":0}],"gid":28,"width":90,"height":34},{"id":182,"x":810,"y":2400,"visible":true,"properties":[{"name":"layer","type":"int","value":3},{"name":"resource_index","type":"int","value":84},{"name":"u","type":"string","value":"bsc"},{"name":"no","type":"int","value":1},{"name":"zM","type":"int","value":0}],"gid":26,"width":90,"height":60},{"id":183,"x":1440,"y":2580,"visible":true,"properties":[{"name":"layer","type":"int","value":3},{"name":"resource_index","type":"int","value":85},{"name":"u","type":"string","value":"bsc"},{"name":"no","type":"int","value":2},{"name":"zM","type":"int","value":0}],"gid":23,"width":90,"height":60},{"id":184,"x":630,"y":2612,"visible":true,"properties":[{"name":"layer","type":"int","value":3},{"name":"resource_index","type":"int","value":86},{"name":"u","type":"string","value":"enH1"},{"name":"no","type":"int","value":0},{"name":"zM","type":"int","value":0}],"gid":25,"width":90,"height":32},{"id":185,"x":1170,"y":2580,"visible":true,"properties":[{"name":"layer","type":"int","value":3},{"name":"resource_index","type":"int","value":87},{"name":"u","type":"string","value":"bsc"},{"name":"no","type":"int","value":1},{"name":"zM","type":"int","value":0}],"gid":26,"width":90,"height":60},{"id":186,"x":990,"y":2580,"visible":true,"properties":[{"name":"layer","type":"int","value":3},{"name":"resource_index","type":"int","value":88},{"name":"u","type":"string","value":"bsc"},{"name":"no","type":"int","value":0},{"name":"zM","type":"int","value":0}],"gid":24,"width":90,"height":60},{"id":187,"x":1440,"y":2612,"visible":true,"properties":[{"name":"layer","type":"int","value":3},{"name":"resource_index","type":"int","value":89},{"name":"u","type":"string","value":"enH1"},{"name":"no","type":"int","value":0},{"name":"zM","type":"int","value":0}],"gid":25,"width":90,"height":32},{"id":188,"x":1260,"y":2340,"visible":true,"properties":[{"name":"layer","type":"int","value":3},{"name":"resource_index","type":"int","value":90},{"name":"u","type":"string","value":"bsc"},{"name":"no","type":"int","value":1},{"name":"zM","type":"int","value":0}],"gid":26,"width":90,"height":60},{"id":189,"x":1080,"y":2220,"visible":true,"properties":[{"name":"layer","type":"int","value":3},{"name":"resource_index","type":"int","value":91},{"name":"u","type":"string","value":"enH0"},{"name":"no","type":"int","value":1},{"name":"zM","type":"int","value":0}],"gid":30,"width":90,"height":20},{"id":190,"x":1170,"y":2340,"visible":true,"properties":[{"name":"layer","type":"int","value":3},{"name":"resource_index","type":"int","value":92},{"name":"u","type":"string","value":"bsc"},{"name":"no","type":"int","value":1},{"name":"zM","type":"int","value":0}],"gid":26,"width":90,"height":60},{"id":191,"x":1170,"y":2280,"visible":true,"properties":[{"name":"layer","type":"int","value":3},{"name":"resource_index","type":"int","value":93},{"name":"u","type":"string","value":"bsc"},{"name":"no","type":"int","value":0},{"name":"zM","type":"int","value":0}],"gid":24,"width":90,"height":60},{"id":192,"x":1080,"y":2340,"visible":true,"properties":[{"name":"layer","type":"int","value":3},{"name":"resource_index","type":"int","value":94},{"name":"u","type":"string","value":"bsc"},{"name":"no","type":"int","value":0},{"name":"zM","type":"int","value":0}],"gid":24,"width":90,"height":60},{"id":193,"x":1080,"y":2280,"visible":true,"properties":[{"name":"layer","type":"int","value":3},{"name":"resource_index","type":"int","value":95},{"name":"u","type":"string","value":"bsc"},{"name":"no","type":"int","value":0},{"name":"zM","type":"int","value":0}],"gid":24,"width":90,"height":60},{"id":194,"x":990,"y":2340,"visible":true,"properties":[{"name":"layer","type":"int","value":3},{"name":"resource_index","type":"int","value":96},{"name":"u","type":"string","value":"bsc"},{"name":"no","type":"int","value":2},{"name":"zM","type":"int","value":0}],"gid":23,"width":90,"height":60},{"id":195,"x":1260,"y":2220,"visible":true,"properties":[{"name":"layer","type":"int","value":3},{"name":"resource_index","type":"int","value":97},{"name":"u","type":"string","value":"enH0"},{"name":"no","type":"int","value":0},{"name":"zM","type":"int","value":0}],"gid":27,"width":90,"height":20},{"id":196,"x":900,"y":2280,"visible":true,"properties":[{"name":"layer","type":"int","value":3},{"name":"resource_index","type":"int","value":98},{"name":"u","type":"string","value":"bsc"},{"name":"no","type":"int","value":0},{"name":"zM","type":"int","value":0}],"gid":24,"width":90,"height":60},{"id":197,"x":810,"y":2340,"visible":true,"properties":[{"name":"layer","type":"int","value":3},{"name":"resource_index","type":"int","value":99},{"name":"u","type":"string","value":"bsc"},{"name":"no","type":"int","value":0},{"name":"zM","type":"int","value":0}],"gid":24,"width":90,"height":60},{"id":198,"x":900,"y":2220,"visible":true,"properties":[{"name":"layer","type":"int","value":3},{"name":"resource_index","type":"int","value":100},{"name":"u","type":"string","value":"enH0"},{"name":"no","type":"int","value":1},{"name":"zM","type":"int","value":0}],"gid":30,"width":90,"height":20},{"id":199,"x":900,"y":2340,"visible":true,"properties":[{"name":"layer","type":"int","value":3},{"name":"resource_index","type":"int","value":101},{"name":"u","type":"string","value":"bsc"},{"name":"no","type":"int","value":1},{"name":"zM","type":"int","value":0}],"gid":26,"width":90,"height":60},{"id":200,"x":-90,"y":2400,"visible":true,"properties":[{"name":"layer","type":"int","value":3},{"name":"resource_index","type":"int","value":102},{"name":"u","type":"string","value":"bsc"},{"name":"no","type":"int","value":0},{"name":"zM","type":"int","value":0}],"gid":24,"width":90,"height":60},{"id":201,"x":90,"y":2460,"visible":true,"properties":[{"name":"layer","type":"int","value":3},{"name":"resource_index","type":"int","value":103},{"name":"u","type":"string","value":"bsc"},{"name":"no","type":"int","value":1},{"name":"zM","type":"int","value":0}],"gid":26,"width":90,"height":60},{"id":202,"x":90,"y":2340,"visible":true,"properties":[{"name":"layer","type":"int","value":3},{"name":"resource_index","type":"int","value":104},{"name":"u","type":"string","value":"bsc"},{"name":"no","type":"int","value":1},{"name":"zM","type":"int","value":0}],"gid":26,"width":90,"height":60},{"id":203,"x":450,"y":2280,"visible":true,"properties":[{"name":"layer","type":"int","value":3},{"name":"resource_index","type":"int","value":105},{"name":"u","type":"string","value":"bsc"},{"name":"no","type":"int","value":2},{"name":"zM","type":"int","value":0}],"gid":23,"width":90,"height":60},{"id":204,"x":270,"y":2340,"visible":true,"properties":[{"name":"layer","type":"int","value":3},{"name":"resource_index","type":"int","value":106},{"name":"u","type":"string","value":"bsc"},{"name":"no","type":"int","value":1},{"name":"zM","type":"int","value":0}],"gid":26,"width":90,"height":60},{"id":205,"x":1890,"y":2460,"visible":true,"properties":[{"name":"layer","type":"int","value":3},{"name":"resource_index","type":"int","value":107},{"name":"u","type":"string","value":"enV1"},{"name":"no","type":"int","value":2},{"name":"zM","type":"int","value":0}],"gid":29,"width":17,"height":60},{"id":206,"x":180,"y":2340,"visible":true,"properties":[{"name":"layer","type":"int","value":3},{"name":"resource_index","type":"int","value":108},{"name":"u","type":"string","value":"bsc"},{"name":"no","type":"int","value":2},{"name":"zM","type":"int","value":0}],"gid":23,"width":90,"height":60},{"id":207,"x":1890,"y":2340,"visible":true,"properties":[{"name":"layer","type":"int","value":3},{"name":"resource_index","type":"int","value":109},{"name":"u","type":"string","value":"enV1"},{"name":"no","type":"int","value":1},{"name":"zM","type":"int","value":0}],"gid":37,"width":18,"height":60},{"id":208,"x":450,"y":2340,"visible":true,"properties":[{"name":"layer","type":"int","value":3},{"name":"resource_index","type":"int","value":110},{"name":"u","type":"string","value":"bsc"},{"name":"no","type":"int","value":1},{"name":"zM","type":"int","value":0}],"gid":26,"width":90,"height":60},{"id":209,"x":720,"y":2340,"visible":true,"properties":[{"name":"layer","type":"int","value":3},{"name":"resource_index","type":"int","value":111},{"name":"u","type":"string","value":"bsc"},{"name":"no","type":"int","value":2},{"name":"zM","type":"int","value":0}],"gid":23,"width":90,"height":60},{"id":210,"x":540,"y":2340,"visible":true,"properties":[{"name":"layer","type":"int","value":3},{"name":"resource_index","type":"int","value":112},{"name":"u","type":"string","value":"bsc"},{"name":"no","type":"int","value":2},{"name":"zM","type":"int","value":0}],"gid":23,"width":90,"height":60},{"id":211,"x":810,"y":2280,"visible":true,"properties":[{"name":"layer","type":"int","value":3},{"name":"resource_index","type":"int","value":113},{"name":"u","type":"string","value":"bsc"},{"name":"no","type":"int","value":1},{"name":"zM","type":"int","value":0}],"gid":26,"width":90,"height":60},{"id":212,"x":360,"y":2280,"visible":true,"properties":[{"name":"layer","type":"int","value":3},{"name":"resource_index","type":"int","value":114},{"name":"u","type":"string","value":"bsc"},{"name":"no","type":"int","value":1},{"name":"zM","type":"int","value":0}],"gid":26,"width":90,"height":60},{"id":213,"x":360,"y":2340,"visible":true,"properties":[{"name":"layer","type":"int","value":3},{"name":"resource_index","type":"int","value":115},{"name":"u","type":"string","value":"bsc"},{"name":"no","type":"int","value":1},{"name":"zM","type":"int","value":0}],"gid":26,"width":90,"height":60},{"id":214,"x":-90,"y":2280,"visible":true,"properties":[{"name":"layer","type":"int","value":3},{"name":"resource_index","type":"int","value":116},{"name":"u","type":"string","value":"bsc"},{"name":"no","type":"int","value":2},{"name":"zM","type":"int","value":0}],"gid":23,"width":90,"height":60},{"id":215,"x":-90,"y":2340,"visible":true,"properties":[{"name":"layer","type":"int","value":3},{"name":"resource_index","type":"int","value":117},{"name":"u","type":"string","value":"bsc"},{"name":"no","type":"int","value":0},{"name":"zM","type":"int","value":0}],"gid":24,"width":90,"height":60},{"id":216,"x":0,"y":2280,"visible":true,"properties":[{"name":"layer","type":"int","value":3},{"name":"resource_index","type":"int","value":118},{"name":"u","type":"string","value":"bsc"},{"name":"no","type":"int","value":2},{"name":"zM","type":"int","value":0}],"gid":23,"width":90,"height":60},{"id":217,"x":180,"y":2280,"visible":true,"properties":[{"name":"layer","type":"int","value":3},{"name":"resource_index","type":"int","value":119},{"name":"u","type":"string","value":"bsc"},{"name":"no","type":"int","value":0},{"name":"zM","type":"int","value":0}],"gid":24,"width":90,"height":60},{"id":218,"x":270,"y":2280,"visible":true,"properties":[{"name":"layer","type":"int","value":3},{"name":"resource_index","type":"int","value":120},{"name":"u","type":"string","value":"bsc"},{"name":"no","type":"int","value":1},{"name":"zM","type":"int","value":0}],"gid":26,"width":90,"height":60},{"id":219,"x":90,"y":2280,"visible":true,"properties":[{"name":"layer","type":"int","value":3},{"name":"resource_index","type":"int","value":121},{"name":"u","type":"string","value":"bsc"},{"name":"no","type":"int","value":0},{"name":"zM","type":"int","value":0}],"gid":24,"width":90,"height":60},{"id":220,"x":990,"y":2280,"visible":true,"properties":[{"name":"layer","type":"int","value":3},{"name":"resource_index","type":"int","value":122},{"name":"u","type":"string","value":"bsc"},{"name":"no","type":"int","value":1},{"name":"zM","type":"int","value":0}],"gid":26,"width":90,"height":60},{"id":221,"x":810,"y":2220,"visible":true,"properties":[{"name":"layer","type":"int","value":3},{"name":"resource_index","type":"int","value":123},{"name":"u","type":"string","value":"enH0"},{"name":"no","type":"int","value":1},{"name":"zM","type":"int","value":0}],"gid":30,"width":90,"height":20},{"id":222,"x":630,"y":2280,"visible":true,"properties":[{"name":"layer","type":"int","value":3},{"name":"resource_index","type":"int","value":124},{"name":"u","type":"string","value":"bsc"},{"name":"no","type":"int","value":0},{"name":"zM","type":"int","value":0}],"gid":24,"width":90,"height":60},{"id":223,"x":540,"y":2160,"visible":true,"properties":[{"name":"layer","type":"int","value":3},{"name":"resource_index","type":"int","value":125},{"name":"u","type":"string","value":"enH0"},{"name":"no","type":"int","value":0},{"name":"zM","type":"int","value":0}],"gid":27,"width":90,"height":20},{"id":224,"x":540,"y":2280,"visible":true,"properties":[{"name":"layer","type":"int","value":3},{"name":"resource_index","type":"int","value":126},{"name":"u","type":"string","value":"bsc"},{"name":"no","type":"int","value":0},{"name":"zM","type":"int","value":0}],"gid":24,"width":90,"height":60},{"id":225,"x":630,"y":2160,"visible":true,"properties":[{"name":"layer","type":"int","value":3},{"name":"resource_index","type":"int","value":127},{"name":"u","type":"string","value":"enH0"},{"name":"no","type":"int","value":0},{"name":"zM","type":"int","value":0}],"gid":27,"width":90,"height":20},{"id":226,"x":-106,"y":2220,"visible":true,"properties":[{"name":"layer","type":"int","value":3},{"name":"resource_index","type":"int","value":128},{"name":"u","type":"string","value":"enV0"},{"name":"no","type":"int","value":1},{"name":"zM","type":"int","value":0}],"gid":41,"width":16,"height":60},{"id":227,"x":630,"y":2340,"visible":true,"properties":[{"name":"layer","type":"int","value":3},{"name":"resource_index","type":"int","value":129},{"name":"u","type":"string","value":"bsc"},{"name":"no","type":"int","value":1},{"name":"zM","type":"int","value":0}],"gid":26,"width":90,"height":60},{"id":228,"x":720,"y":2280,"visible":true,"properties":[{"name":"layer","type":"int","value":3},{"name":"resource_index","type":"int","value":130},{"name":"u","type":"string","value":"bsc"},{"name":"no","type":"int","value":2},{"name":"zM","type":"int","value":0}],"gid":23,"width":90,"height":60},{"id":229,"x":720,"y":2220,"visible":true,"properties":[{"name":"layer","type":"int","value":3},{"name":"resource_index","type":"int","value":131},{"name":"u","type":"string","value":"slRU"},{"name":"no","type":"int","value":0},{"name":"zM","type":"int","value":0}],"gid":43,"width":90,"height":77},{"id":230,"x":990,"y":2220,"visible":true,"properties":[{"name":"layer","type":"int","value":3},{"name":"resource_index","type":"int","value":132},{"name":"u","type":"string","value":"enH0"},{"name":"no","type":"int","value":1},{"name":"zM","type":"int","value":0}],"gid":30,"width":90,"height":20},{"id":231,"x":90,"y":2220,"visible":true,"properties":[{"name":"layer","type":"int","value":3},{"name":"resource_index","type":"int","value":133},{"name":"u","type":"string","value":"bsc"},{"name":"no","type":"int","value":1},{"name":"zM","type":"int","value":0}],"gid":26,"width":90,"height":60},{"id":232,"x":90,"y":2160,"visible":true,"properties":[{"name":"layer","type":"int","value":3},{"name":"resource_index","type":"int","value":134},{"name":"u","type":"string","value":"enH0"},{"name":"no","type":"int","value":1},{"name":"zM","type":"int","value":0}],"gid":30,"width":90,"height":20},{"id":233,"x":0,"y":2220,"visible":true,"properties":[{"name":"layer","type":"int","value":3},{"name":"resource_index","type":"int","value":135},{"name":"u","type":"string","value":"bsc"},{"name":"no","type":"int","value":2},{"name":"zM","type":"int","value":0}],"gid":23,"width":90,"height":60},{"id":234,"x":-90,"y":2160,"visible":true,"properties":[{"name":"layer","type":"int","value":3},{"name":"resource_index","type":"int","value":136},{"name":"u","type":"string","value":"enH0"},{"name":"no","type":"int","value":1},{"name":"zM","type":"int","value":0}],"gid":30,"width":90,"height":20},{"id":235,"x":270,"y":2220,"visible":true,"properties":[{"name":"layer","type":"int","value":3},{"name":"resource_index","type":"int","value":137},{"name":"u","type":"string","value":"bsc"},{"name":"no","type":"int","value":2},{"name":"zM","type":"int","value":0}],"gid":23,"width":90,"height":60},{"id":236,"x":270,"y":2160,"visible":true,"properties":[{"name":"layer","type":"int","value":3},{"name":"resource_index","type":"int","value":138},{"name":"u","type":"string","value":"enH0"},{"name":"no","type":"int","value":0},{"name":"zM","type":"int","value":0}],"gid":27,"width":90,"height":20},{"id":237,"x":450,"y":2220,"visible":true,"properties":[{"name":"layer","type":"int","value":3},{"name":"resource_index","type":"int","value":139},{"name":"u","type":"string","value":"bsc"},{"name":"no","type":"int","value":0},{"name":"zM","type":"int","value":0}],"gid":24,"width":90,"height":60},{"id":238,"x":450,"y":2160,"visible":true,"properties":[{"name":"layer","type":"int","value":3},{"name":"resource_index","type":"int","value":140},{"name":"u","type":"string","value":"enH0"},{"name":"no","type":"int","value":1},{"name":"zM","type":"int","value":0}],"gid":30,"width":90,"height":20},{"id":239,"x":360,"y":2160,"visible":true,"properties":[{"name":"layer","type":"int","value":3},{"name":"resource_index","type":"int","value":141},{"name":"u","type":"string","value":"enH0"},{"name":"no","type":"int","value":1},{"name":"zM","type":"int","value":0}],"gid":30,"width":90,"height":20},{"id":240,"x":360,"y":2220,"visible":true,"properties":[{"name":"layer","type":"int","value":3},{"name":"resource_index","type":"int","value":142},{"name":"u","type":"string","value":"bsc"},{"name":"no","type":"int","value":1},{"name":"zM","type":"int","value":0}],"gid":26,"width":90,"height":60},{"id":241,"x":-90,"y":2220,"visible":true,"properties":[{"name":"layer","type":"int","value":3},{"name":"resource_index","type":"int","value":143},{"name":"u","type":"string","value":"bsc"},{"name":"no","type":"int","value":1},{"name":"zM","type":"int","value":0}],"gid":26,"width":90,"height":60},{"id":242,"x":180,"y":2220,"visible":true,"properties":[{"name":"layer","type":"int","value":3},{"name":"resource_index","type":"int","value":144},{"name":"u","type":"string","value":"bsc"},{"name":"no","type":"int","value":0},{"name":"zM","type":"int","value":0}],"gid":24,"width":90,"height":60},{"id":243,"x":180,"y":2160,"visible":true,"properties":[{"name":"layer","type":"int","value":3},{"name":"resource_index","type":"int","value":145},{"name":"u","type":"string","value":"enH0"},{"name":"no","type":"int","value":1},{"name":"zM","type":"int","value":0}],"gid":30,"width":90,"height":20},{"id":244,"x":0,"y":2160,"visible":true,"properties":[{"name":"layer","type":"int","value":3},{"name":"resource_index","type":"int","value":146},{"name":"u","type":"string","value":"enH0"},{"name":"no","type":"int","value":0},{"name":"zM","type":"int","value":0}],"gid":27,"width":90,"height":20},{"id":245,"x":540,"y":2220,"visible":true,"properties":[{"name":"layer","type":"int","value":3},{"name":"resource_index","type":"int","value":147},{"name":"u","type":"string","value":"bsc"},{"name":"no","type":"int","value":2},{"name":"zM","type":"int","value":0}],"gid":23,"width":90,"height":60},{"id":246,"x":630,"y":2220,"visible":true,"properties":[{"name":"layer","type":"int","value":3},{"name":"resource_index","type":"int","value":148},{"name":"u","type":"string","value":"bsc"},{"name":"no","type":"int","value":0},{"name":"zM","type":"int","value":0}],"gid":24,"width":90,"height":60},{"id":247,"x":-106,"y":2280,"visible":true,"properties":[{"name":"layer","type":"int","value":3},{"name":"resource_index","type":"int","value":149},{"name":"u","type":"string","value":"enV0"},{"name":"no","type":"int","value":0},{"name":"zM","type":"int","value":0}],"gid":38,"width":16,"height":60},{"id":248,"x":1890,"y":2280,"visible":true,"properties":[{"name":"layer","type":"int","value":3},{"name":"resource_index","type":"int","value":150},{"name":"u","type":"string","value":"enV1"},{"name":"no","type":"int","value":2},{"name":"zM","type":"int","value":0}],"gid":29,"width":17,"height":60},{"id":249,"x":0,"y":2340,"visible":true,"properties":[{"name":"layer","type":"int","value":3},{"name":"resource_index","type":"int","value":151},{"name":"u","type":"string","value":"bsc"},{"name":"no","type":"int","value":1},{"name":"zM","type":"int","value":0}],"gid":26,"width":90,"height":60},{"id":250,"x":1530,"y":2612,"visible":true,"properties":[{"name":"layer","type":"int","value":3},{"name":"resource_index","type":"int","value":152},{"name":"u","type":"string","value":"enH1"},{"name":"no","type":"int","value":0},{"name":"zM","type":"int","value":0}],"gid":25,"width":90,"height":32},{"id":251,"x":0,"y":2400,"visible":true,"properties":[{"name":"layer","type":"int","value":3},{"name":"resource_index","type":"int","value":153},{"name":"u","type":"string","value":"bsc"},{"name":"no","type":"int","value":0},{"name":"zM","type":"int","value":0}],"gid":24,"width":90,"height":60},{"id":252,"x":1620,"y":2612,"visible":true,"properties":[{"name":"layer","type":"int","value":3},{"name":"resource_index","type":"int","value":154},{"name":"u","type":"string","value":"enH1"},{"name":"no","type":"int","value":0},{"name":"zM","type":"int","value":0}],"gid":25,"width":90,"height":32},{"id":253,"x":-90,"y":2460,"visible":true,"properties":[{"name":"layer","type":"int","value":3},{"name":"resource_index","type":"int","value":155},{"name":"u","type":"string","value":"bsc"},{"name":"no","type":"int","value":2},{"name":"zM","type":"int","value":0}],"gid":23,"width":90,"height":60},{"id":254,"x":900,"y":2400,"visible":true,"properties":[{"name":"layer","type":"int","value":3},{"name":"resource_index","type":"int","value":156},{"name":"u","type":"string","value":"bsc"},{"name":"no","type":"int","value":0},{"name":"zM","type":"int","value":0}],"gid":24,"width":90,"height":60},{"id":255,"x":-90,"y":2614,"visible":true,"properties":[{"name":"layer","type":"int","value":3},{"name":"resource_index","type":"int","value":157},{"name":"u","type":"string","value":"enH1"},{"name":"no","type":"int","value":1},{"name":"zM","type":"int","value":0}],"gid":28,"width":90,"height":34},{"id":256,"x":900,"y":2460,"visible":true,"properties":[{"name":"layer","type":"int","value":3},{"name":"resource_index","type":"int","value":158},{"name":"u","type":"string","value":"bsc"},{"name":"no","type":"int","value":2},{"name":"zM","type":"int","value":0}],"gid":23,"width":90,"height":60},{"id":257,"x":-90,"y":2520,"visible":true,"properties":[{"name":"layer","type":"int","value":3},{"name":"resource_index","type":"int","value":159},{"name":"u","type":"string","value":"bsc"},{"name":"no","type":"int","value":2},{"name":"zM","type":"int","value":0}],"gid":23,"width":90,"height":60},{"id":258,"x":0,"y":2460,"visible":true,"properties":[{"name":"layer","type":"int","value":3},{"name":"resource_index","type":"int","value":160},{"name":"u","type":"string","value":"bsc"},{"name":"no","type":"int","value":1},{"name":"zM","type":"int","value":0}],"gid":26,"width":90,"height":60},{"id":259,"x":90,"y":2520,"visible":true,"properties":[{"name":"layer","type":"int","value":3},{"name":"resource_index","type":"int","value":161},{"name":"u","type":"string","value":"bsc"},{"name":"no","type":"int","value":1},{"name":"zM","type":"int","value":0}],"gid":26,"width":90,"height":60},{"id":260,"x":-90,"y":2580,"visible":true,"properties":[{"name":"layer","type":"int","value":3},{"name":"resource_index","type":"int","value":162},{"name":"u","type":"string","value":"bsc"},{"name":"no","type":"int","value":2},{"name":"zM","type":"int","value":0}],"gid":23,"width":90,"height":60},{"id":261,"x":180,"y":2520,"visible":true,"properties":[{"name":"layer","type":"int","value":3},{"name":"resource_index","type":"int","value":163},{"name":"u","type":"string","value":"bsc"},{"name":"no","type":"int","value":2},{"name":"zM","type":"int","value":0}],"gid":23,"width":90,"height":60},{"id":262,"x":180,"y":2460,"visible":true,"properties":[{"name":"layer","type":"int","value":3},{"name":"resource_index","type":"int","value":164},{"name":"u","type":"string","value":"bsc"},{"name":"no","type":"int","value":0},{"name":"zM","type":"int","value":0}],"gid":24,"width":90,"height":60},{"id":263,"x":0,"y":2580,"visible":true,"properties":[{"name":"layer","type":"int","value":3},{"name":"resource_index","type":"int","value":165},{"name":"u","type":"string","value":"bsc"},{"name":"no","type":"int","value":2},{"name":"zM","type":"int","value":0}],"gid":23,"width":90,"height":60},{"id":264,"x":90,"y":2400,"visible":true,"properties":[{"name":"layer","type":"int","value":3},{"name":"resource_index","type":"int","value":166},{"name":"u","type":"string","value":"bsc"},{"name":"no","type":"int","value":1},{"name":"zM","type":"int","value":0}],"gid":26,"width":90,"height":60},{"id":265,"x":0,"y":2520,"visible":true,"properties":[{"name":"layer","type":"int","value":3},{"name":"resource_index","type":"int","value":167},{"name":"u","type":"string","value":"bsc"},{"name":"no","type":"int","value":2},{"name":"zM","type":"int","value":0}],"gid":23,"width":90,"height":60},{"id":266,"x":180,"y":2400,"visible":true,"properties":[{"name":"layer","type":"int","value":3},{"name":"resource_index","type":"int","value":168},{"name":"u","type":"string","value":"bsc"},{"name":"no","type":"int","value":0},{"name":"zM","type":"int","value":0}],"gid":24,"width":90,"height":60},{"id":267,"x":180,"y":2580,"visible":true,"properties":[{"name":"layer","type":"int","value":3},{"name":"resource_index","type":"int","value":169},{"name":"u","type":"string","value":"bsc"},{"name":"no","type":"int","value":1},{"name":"zM","type":"int","value":0}],"gid":26,"width":90,"height":60},{"id":268,"x":270,"y":2520,"visible":true,"properties":[{"name":"layer","type":"int","value":3},{"name":"resource_index","type":"int","value":170},{"name":"u","type":"string","value":"bsc"},{"name":"no","type":"int","value":0},{"name":"zM","type":"int","value":0}],"gid":24,"width":90,"height":60},{"id":269,"x":90,"y":2580,"visible":true,"properties":[{"name":"layer","type":"int","value":3},{"name":"resource_index","type":"int","value":171},{"name":"u","type":"string","value":"bsc"},{"name":"no","type":"int","value":2},{"name":"zM","type":"int","value":0}],"gid":23,"width":90,"height":60},{"id":270,"x":270,"y":2460,"visible":true,"properties":[{"name":"layer","type":"int","value":3},{"name":"resource_index","type":"int","value":172},{"name":"u","type":"string","value":"bsc"},{"name":"no","type":"int","value":2},{"name":"zM","type":"int","value":0}],"gid":23,"width":90,"height":60},{"id":271,"x":360,"y":2520,"visible":true,"properties":[{"name":"layer","type":"int","value":3},{"name":"resource_index","type":"int","value":173},{"name":"u","type":"string","value":"bsc"},{"name":"no","type":"int","value":0},{"name":"zM","type":"int","value":0}],"gid":24,"width":90,"height":60},{"id":272,"x":270,"y":2400,"visible":true,"properties":[{"name":"layer","type":"int","value":3},{"name":"resource_index","type":"int","value":174},{"name":"u","type":"string","value":"bsc"},{"name":"no","type":"int","value":2},{"name":"zM","type":"int","value":0}],"gid":23,"width":90,"height":60},{"id":273,"x":360,"y":2460,"visible":true,"properties":[{"name":"layer","type":"int","value":3},{"name":"resource_index","type":"int","value":175},{"name":"u","type":"string","value":"bsc"},{"name":"no","type":"int","value":1},{"name":"zM","type":"int","value":0}],"gid":26,"width":90,"height":60},{"id":274,"x":360,"y":2400,"visible":true,"properties":[{"name":"layer","type":"int","value":3},{"name":"resource_index","type":"int","value":176},{"name":"u","type":"string","value":"bsc"},{"name":"no","type":"int","value":0},{"name":"zM","type":"int","value":0}],"gid":24,"width":90,"height":60},{"id":275,"x":450,"y":2520,"visible":true,"properties":[{"name":"layer","type":"int","value":3},{"name":"resource_index","type":"int","value":177},{"name":"u","type":"string","value":"bsc"},{"name":"no","type":"int","value":0},{"name":"zM","type":"int","value":0}],"gid":24,"width":90,"height":60},{"id":276,"x":630,"y":2460,"visible":true,"properties":[{"name":"layer","type":"int","value":3},{"name":"resource_index","type":"int","value":178},{"name":"u","type":"string","value":"bsc"},{"name":"no","type":"int","value":2},{"name":"zM","type":"int","value":0}],"gid":23,"width":90,"height":60},{"id":277,"x":270,"y":2580,"visible":true,"properties":[{"name":"layer","type":"int","value":3},{"name":"resource_index","type":"int","value":179},{"name":"u","type":"string","value":"bsc"},{"name":"no","type":"int","value":2},{"name":"zM","type":"int","value":0}],"gid":23,"width":90,"height":60},{"id":278,"x":450,"y":2400,"visible":true,"properties":[{"name":"layer","type":"int","value":3},{"name":"resource_index","type":"int","value":180},{"name":"u","type":"string","value":"bsc"},{"name":"no","type":"int","value":2},{"name":"zM","type":"int","value":0}],"gid":23,"width":90,"height":60},{"id":279,"x":540,"y":2520,"visible":true,"properties":[{"name":"layer","type":"int","value":3},{"name":"resource_index","type":"int","value":181},{"name":"u","type":"string","value":"bsc"},{"name":"no","type":"int","value":0},{"name":"zM","type":"int","value":0}],"gid":24,"width":90,"height":60},{"id":280,"x":450,"y":2460,"visible":true,"properties":[{"name":"layer","type":"int","value":3},{"name":"resource_index","type":"int","value":182},{"name":"u","type":"string","value":"bsc"},{"name":"no","type":"int","value":2},{"name":"zM","type":"int","value":0}],"gid":23,"width":90,"height":60},{"id":281,"x":360,"y":2580,"visible":true,"properties":[{"name":"layer","type":"int","value":3},{"name":"resource_index","type":"int","value":183},{"name":"u","type":"string","value":"bsc"},{"name":"no","type":"int","value":2},{"name":"zM","type":"int","value":0}],"gid":23,"width":90,"height":60},{"id":282,"x":540,"y":2460,"visible":true,"properties":[{"name":"layer","type":"int","value":3},{"name":"resource_index","type":"int","value":184},{"name":"u","type":"string","value":"bsc"},{"name":"no","type":"int","value":0},{"name":"zM","type":"int","value":0}],"gid":24,"width":90,"height":60},{"id":283,"x":630,"y":2520,"visible":true,"properties":[{"name":"layer","type":"int","value":3},{"name":"resource_index","type":"int","value":185},{"name":"u","type":"string","value":"bsc"},{"name":"no","type":"int","value":2},{"name":"zM","type":"int","value":0}],"gid":23,"width":90,"height":60},{"id":284,"x":540,"y":2400,"visible":true,"properties":[{"name":"layer","type":"int","value":3},{"name":"resource_index","type":"int","value":186},{"name":"u","type":"string","value":"bsc"},{"name":"no","type":"int","value":2},{"name":"zM","type":"int","value":0}],"gid":23,"width":90,"height":60},{"id":285,"x":450,"y":2580,"visible":true,"properties":[{"name":"layer","type":"int","value":3},{"name":"resource_index","type":"int","value":187},{"name":"u","type":"string","value":"bsc"},{"name":"no","type":"int","value":0},{"name":"zM","type":"int","value":0}],"gid":24,"width":90,"height":60},{"id":286,"x":630,"y":2400,"visible":true,"properties":[{"name":"layer","type":"int","value":3},{"name":"resource_index","type":"int","value":188},{"name":"u","type":"string","value":"bsc"},{"name":"no","type":"int","value":2},{"name":"zM","type":"int","value":0}],"gid":23,"width":90,"height":60},{"id":287,"x":720,"y":2520,"visible":true,"properties":[{"name":"layer","type":"int","value":3},{"name":"resource_index","type":"int","value":189},{"name":"u","type":"string","value":"bsc"},{"name":"no","type":"int","value":2},{"name":"zM","type":"int","value":0}],"gid":23,"width":90,"height":60},{"id":288,"x":720,"y":2460,"visible":true,"properties":[{"name":"layer","type":"int","value":3},{"name":"resource_index","type":"int","value":190},{"name":"u","type":"string","value":"bsc"},{"name":"no","type":"int","value":0},{"name":"zM","type":"int","value":0}],"gid":24,"width":90,"height":60},{"id":289,"x":540,"y":2580,"visible":true,"properties":[{"name":"layer","type":"int","value":3},{"name":"resource_index","type":"int","value":191},{"name":"u","type":"string","value":"bsc"},{"name":"no","type":"int","value":0},{"name":"zM","type":"int","value":0}],"gid":24,"width":90,"height":60},{"id":290,"x":720,"y":2400,"visible":true,"properties":[{"name":"layer","type":"int","value":3},{"name":"resource_index","type":"int","value":192},{"name":"u","type":"string","value":"bsc"},{"name":"no","type":"int","value":0},{"name":"zM","type":"int","value":0}],"gid":24,"width":90,"height":60},{"id":291,"x":810,"y":2520,"visible":true,"properties":[{"name":"layer","type":"int","value":3},{"name":"resource_index","type":"int","value":193},{"name":"u","type":"string","value":"bsc"},{"name":"no","type":"int","value":2},{"name":"zM","type":"int","value":0}],"gid":23,"width":90,"height":60},{"id":292,"x":810,"y":2460,"visible":true,"properties":[{"name":"layer","type":"int","value":3},{"name":"resource_index","type":"int","value":194},{"name":"u","type":"string","value":"bsc"},{"name":"no","type":"int","value":2},{"name":"zM","type":"int","value":0}],"gid":23,"width":90,"height":60},{"id":293,"x":-106,"y":2580,"visible":true,"properties":[{"name":"layer","type":"int","value":3},{"name":"resource_index","type":"int","value":195},{"name":"u","type":"string","value":"enV0"},{"name":"no","type":"int","value":1},{"name":"zM","type":"int","value":0}],"gid":41,"width":16,"height":60},{"id":294,"x":-106,"y":2160,"visible":true,"properties":[{"name":"layer","type":"int","value":3},{"name":"resource_index","type":"int","value":196},{"name":"u","type":"string","value":"edU"},{"name":"no","type":"int","value":1},{"name":"zM","type":"int","value":0}],"gid":35,"width":32,"height":17},{"id":295,"x":-106,"y":2598,"visible":true,"properties":[{"name":"layer","type":"int","value":3},{"name":"resource_index","type":"int","value":197},{"name":"u","type":"string","value":"edD"},{"name":"no","type":"int","value":0},{"name":"zM","type":"int","value":0}],"gid":33,"width":32,"height":18},{"id":296,"x":-106,"y":2520,"visible":true,"properties":[{"name":"layer","type":"int","value":3},{"name":"resource_index","type":"int","value":198},{"name":"u","type":"string","value":"enV0"},{"name":"no","type":"int","value":1},{"name":"zM","type":"int","value":0}],"gid":41,"width":16,"height":60},{"id":297,"x":-106,"y":2460,"visible":true,"properties":[{"name":"layer","type":"int","value":3},{"name":"resource_index","type":"int","value":199},{"name":"u","type":"string","value":"enV0"},{"name":"no","type":"int","value":0},{"name":"zM","type":"int","value":0}],"gid":38,"width":16,"height":60},{"id":298,"x":-106,"y":2400,"visible":true,"properties":[{"name":"layer","type":"int","value":3},{"name":"resource_index","type":"int","value":200},{"name":"u","type":"string","value":"enV0"},{"name":"no","type":"int","value":2},{"name":"zM","type":"int","value":0}],"gid":34,"width":16,"height":60},{"id":299,"x":-106,"y":2340,"visible":true,"properties":[{"name":"layer","type":"int","value":3},{"name":"resource_index","type":"int","value":201},{"name":"u","type":"string","value":"enV0"},{"name":"no","type":"int","value":1},{"name":"zM","type":"int","value":0}],"gid":41,"width":16,"height":60}]},{"id":7,"name":"background_back_0","type":"imagelayer","visible":true,"opacity":1,"image":"../../images/27028.png","imagewidth":256,"imageheight":256,"offsetx":-128,"offsety":-128,"repeatx":true,"repeaty":true,"parallaxx":1,"parallaxy":1,"properties":[{"name":"a","type":"int","value":255},{"name":"f","type":"int","value":0},{"name":"x","type":"int","value":0},{"name":"y","type":"int","value":0},{"name":"bS","type":"string","value":"dryRock"},{"name":"cx","type":"int","value":0},{"name":"cy","type":"int","value":0},{"name":"no","type":"int","value":0},{"name":"rx","type":"int","value":0},{"name":"ry","type":"int","value":0},{"name":"ani","type":"int","value":0},{"name":"type","type":"int","value":3},{"name":"front","type":"int","value":0}]},{"id":8,"name":"background_back_1","type":"imagelayer","visible":true,"opacity":1,"image":"../../images/27029.png","imagewidth":900,"imageheight":882,"offsetx":-443,"offsety":-879,"repeatx":false,"repeaty":false,"parallaxx":1,"parallaxy":1,"properties":[{"name":"a","type":"int","value":255},{"name":"f","type":"int","value":0},{"name":"x","type":"int","value":7},{"name":"y","type":"int","value":-438},{"name":"bS","type":"string","value":"dryRock"},{"name":"cx","type":"int","value":0},{"name":"cy","type":"int","value":0},{"name":"no","type":"int","value":1},{"name":"rx","type":"int","value":-2},{"name":"ry","type":"int","value":-5},{"name":"ani","type":"int","value":0},{"name":"type","type":"int","value":0},{"name":"front","type":"int","value":0}]},{"id":9,"name":"background_back_2","type":"imagelayer","visible":true,"opacity":1,"image":"../../images/27042.png","imagewidth":68,"imageheight":132,"offsetx":-337,"offsety":-95,"repeatx":false,"repeaty":false,"parallaxx":1,"parallaxy":1,"properties":[{"name":"a","type":"int","value":255},{"name":"f","type":"int","value":0},{"name":"x","type":"int","value":-303},{"name":"y","type":"int","value":-29},{"name":"bS","type":"string","value":"dryRock"},{"name":"cx","type":"int","value":0},{"name":"cy","type":"int","value":0},{"name":"no","type":"int","value":14},{"name":"rx","type":"int","value":-2},{"name":"ry","type":"int","value":-5},{"name":"ani","type":"int","value":0},{"name":"type","type":"int","value":0},{"name":"front","type":"int","value":0}]},{"id":10,"name":"background_back_3","type":"imagelayer","visible":true,"opacity":1,"image":"../../images/27031.png","imagewidth":900,"imageheight":145,"offsetx":-530,"offsety":-38,"repeatx":true,"repeaty":false,"parallaxx":1,"parallaxy":1,"properties":[{"name":"a","type":"int","value":255},{"name":"f","type":"int","value":0},{"name":"x","type":"int","value":-80},{"name":"y","type":"int","value":34},{"name":"bS","type":"string","value":"dryRock"},{"name":"cx","type":"int","value":0},{"name":"cy","type":"int","value":0},{"name":"no","type":"int","value":3},{"name":"rx","type":"int","value":10},{"name":"ry","type":"int","value":-6},{"name":"ani","type":"int","value":0},{"name":"type","type":"int","value":4},{"name":"front","type":"int","value":0}]},{"id":11,"name":"background_back_4","type":"imagelayer","visible":true,"opacity":1,"image":"../../images/27043.png","imagewidth":105,"imageheight":102,"offsetx":336,"offsety":-38,"repeatx":false,"repeaty":false,"parallaxx":1,"parallaxy":1,"properties":[{"name":"a","type":"int","value":255},{"name":"f","type":"int","value":0},{"name":"x","type":"int","value":388},{"name":"y","type":"int","value":13},{"name":"bS","type":"string","value":"dryRock"},{"name":"cx","type":"int","value":0},{"name":"cy","type":"int","value":0},{"name":"no","type":"int","value":15},{"name":"rx","type":"int","value":-4},{"name":"ry","type":"int","value":-7},{"name":"ani","type":"int","value":0},{"name":"type","type":"int","value":0},{"name":"front","type":"int","value":0}]},{"id":12,"name":"background_back_5","type":"imagelayer","visible":true,"opacity":1,"image":"../../images/27040.png","imagewidth":46,"imageheight":83,"offsetx":244,"offsety":-13,"repeatx":false,"repeaty":false,"parallaxx":1,"parallaxy":1,"properties":[{"name":"a","type":"int","value":255},{"name":"f","type":"int","value":0},{"name":"x","type":"int","value":267},{"name":"y","type":"int","value":28},{"name":"bS","type":"string","value":"dryRock"},{"name":"cx","type":"int","value":0},{"name":"cy","type":"int","value":0},{"name":"no","type":"int","value":12},{"name":"rx","type":"int","value":-10},{"name":"ry","type":"int","value":-10},{"name":"ani","type":"int","value":0},{"name":"type","type":"int","value":0},{"name":"front","type":"int","value":0}]},{"id":13,"name":"background_back_6","type":"imagelayer","visible":true,"opacity":1,"image":"../../images/27032.png","imagewidth":900,"imageheight":160,"offsetx":-450,"offsety":44,"repeatx":true,"repeaty":false,"parallaxx":1,"parallaxy":1,"properties":[{"name":"a","type":"int","value":255},{"name":"f","type":"int","value":0},{"name":"x","type":"int","value":0},{"name":"y","type":"int","value":124},{"name":"bS","type":"string","value":"dryRock"},{"name":"cx","type":"int","value":0},{"name":"cy","type":"int","value":0},{"name":"no","type":"int","value":4},{"name":"rx","type":"int","value":15},{"name":"ry","type":"int","value":-12},{"name":"ani","type":"int","value":0},{"name":"type","type":"int","value":4},{"name":"front","type":"int","value":0}]},{"id":14,"name":"background_back_7","type":"imagelayer","visible":true,"opacity":1,"image":"../../images/27046.png","imagewidth":114,"imageheight":287,"offsetx":-320,"offsety":-84,"repeatx":false,"repeaty":false,"parallaxx":1,"parallaxy":1,"properties":[{"name":"a","type":"int","value":255},{"name":"f","type":"int","value":0},{"name":"x","type":"int","value":-217},{"name":"y","type":"int","value":89},{"name":"bS","type":"string","value":"dryRock"},{"name":"cx","type":"int","value":0},{"name":"cy","type":"int","value":0},{"name":"no","type":"int","value":18},{"name":"rx","type":"int","value":-20},{"name":"ry","type":"int","value":-14},{"name":"ani","type":"int","value":0},{"name":"type","type":"int","value":0},{"name":"front","type":"int","value":0}]},{"id":15,"name":"background_back_8","type":"imagelayer","visible":true,"opacity":1,"image":"../../images/27033.png","imagewidth":900,"imageheight":184,"offsetx":-355,"offsety":98,"repeatx":true,"repeaty":false,"parallaxx":1,"parallaxy":1,"properties":[{"name":"a","type":"int","value":255},{"name":"f","type":"int","value":0},{"name":"x","type":"int","value":95},{"name":"y","type":"int","value":190},{"name":"bS","type":"string","value":"dryRock"},{"name":"cx","type":"int","value":0},{"name":"cy","type":"int","value":0},{"name":"no","type":"int","value":5},{"name":"rx","type":"int","value":20},{"name":"ry","type":"int","value":-13},{"name":"ani","type":"int","value":0},{"name":"type","type":"int","value":4},{"name":"front","type":"int","value":0}]},{"id":16,"name":"background_back_9","type":"imagelayer","visible":true,"opacity":1,"image":"../../images/27045.png","imagewidth":157,"imageheight":401,"offsetx":550,"offsety":-138,"repeatx":false,"repeaty":false,"parallaxx":1,"parallaxy":1,"properties":[{"name":"a","type":"int","value":255},{"name":"f","type":"int","value":0},{"name":"x","type":"int","value":676},{"name":"y","type":"int","value":79},{"name":"bS","type":"string","value":"dryRock"},{"name":"cx","type":"int","value":0},{"name":"cy","type":"int","value":0},{"name":"no","type":"int","value":17},{"name":"rx","type":"int","value":-30},{"name":"ry","type":"int","value":-15},{"name":"ani","type":"int","value":0},{"name":"type","type":"int","value":0},{"name":"front","type":"int","value":0}]},{"id":17,"name":"background_back_10","type":"imagelayer","visible":true,"opacity":1,"image":"../../images/27052.png","imagewidth":292,"imageheight":510,"offsetx":445,"offsety":15,"repeatx":false,"repeaty":false,"parallaxx":1,"parallaxy":1,"properties":[{"name":"a","type":"int","value":255},{"name":"f","type":"int","value":0},{"name":"x","type":"int","value":591},{"name":"y","type":"int","value":270},{"name":"bS","type":"string","value":"dryRock"},{"name":"cx","type":"int","value":0},{"name":"cy","type":"int","value":0},{"name":"no","type":"int","value":24},{"name":"rx","type":"int","value":-45},{"name":"ry","type":"int","value":-18},{"name":"ani","type":"int","value":0},{"name":"type","type":"int","value":0},{"name":"front","type":"int","value":0}]},{"id":18,"name":"background_back_11","type":"imagelayer","visible":true,"opacity":1,"image":"../../images/27035.png","imagewidth":900,"imageheight":235,"offsetx":-360,"offsety":210,"repeatx":true,"repeaty":false,"parallaxx":1,"parallaxy":1,"properties":[{"name":"a","type":"int","value":255},{"name":"f","type":"int","value":0},{"name":"x","type":"int","value":90},{"name":"y","type":"int","value":327},{"name":"bS","type":"string","value":"dryRock"},{"name":"cx","type":"int","value":0},{"name":"cy","type":"int","value":0},{"name":"no","type":"int","value":7},{"name":"rx","type":"int","value":30},{"name":"ry","type":"int","value":-16},{"name":"ani","type":"int","value":0},{"name":"type","type":"int","value":4},{"name":"front","type":"int","value":0}]},{"id":19,"name":"background_back_12","type":"imagelayer","visible":true,"opacity":1,"image":"../../images/27051.png","imagewidth":268,"imageheight":494,"offsetx":802,"offsety":97,"repeatx":false,"repeaty":false,"parallaxx":1,"parallaxy":1,"properties":[{"name":"a","type":"int","value":255},{"name":"f","type":"int","value":0},{"name":"x","type":"int","value":936},{"name":"y","type":"int","value":344},{"name":"bS","type":"string","value":"dryRock"},{"name":"cx","type":"int","value":0},{"name":"cy","type":"int","value":0},{"name":"no","type":"int","value":23},{"name":"rx","type":"int","value":-50},{"name":"ry","type":"int","value":-20},{"name":"ani","type":"int","value":0},{"name":"type","type":"int","value":0},{"name":"front","type":"int","value":0}]},{"id":20,"name":"background_back_13","type":"imagelayer","visible":true,"opacity":1,"image":"../../images/27054.png","imagewidth":697,"imageheight":561,"offsetx":-287,"offsety":46,"repeatx":false,"repeaty":false,"parallaxx":1,"parallaxy":1,"properties":[{"name":"a","type":"int","value":255},{"name":"f","type":"int","value":0},{"name":"x","type":"int","value":61},{"name":"y","type":"int","value":326},{"name":"bS","type":"string","value":"dryRock"},{"name":"cx","type":"int","value":0},{"name":"cy","type":"int","value":0},{"name":"no","type":"int","value":26},{"name":"rx","type":"int","value":-40},{"name":"ry","type":"int","value":-21},{"name":"ani","type":"int","value":0},{"name":"type","type":"int","value":0},{"name":"front","type":"int","value":0}]},{"id":21,"name":"background_back_14","type":"imagelayer","visible":true,"opacity":1,"image":"../../images/27036.png","imagewidth":900,"imageheight":224,"offsetx":-502,"offsety":388,"repeatx":true,"repeaty":false,"parallaxx":1,"parallaxy":1,"properties":[{"name":"a","type":"int","value":255},{"name":"f","type":"int","value":0},{"name":"x","type":"int","value":-52},{"name":"y","type":"int","value":500},{"name":"bS","type":"string","value":"dryRock"},{"name":"cx","type":"int","value":0},{"name":"cy","type":"int","value":0},{"name":"no","type":"int","value":8},{"name":"rx","type":"int","value":35},{"name":"ry","type":"int","value":-16},{"name":"ani","type":"int","value":0},{"name":"type","type":"int","value":4},{"name":"front","type":"int","value":0}]},{"id":22,"name":"background_back_15","type":"imagelayer","visible":true,"opacity":1,"image":"../../images/27055.png","imagewidth":322,"imageheight":552,"offsetx":901,"offsety":279,"repeatx":false,"repeaty":false,"parallaxx":1,"parallaxy":1,"properties":[{"name":"a","type":"int","value":255},{"name":"f","type":"int","value":0},{"name":"x","type":"int","value":1062},{"name":"y","type":"int","value":555},{"name":"bS","type":"string","value":"dryRock"},{"name":"cx","type":"int","value":0},{"name":"cy","type":"int","value":0},{"name":"no","type":"int","value":27},{"name":"rx","type":"int","value":-55},{"name":"ry","type":"int","value":-22},{"name":"ani","type":"int","value":0},{"name":"type","type":"int","value":0},{"name":"front","type":"int","value":0}]},{"id":23,"name":"background_back","type":"objectgroup","visible":true,"opacity":1,"objects":[{"id":308,"x":-80,"y":34,"visible":true,"properties":[{"name":"image_layer_name","type":"string","value":"background_back_3"},{"name":"a","type":"int","value":255},{"name":"f","type":"int","value":0},{"name":"x","type":"int","value":-80},{"name":"y","type":"int","value":34},{"name":"bS","type":"string","value":"dryRock"},{"name":"cx","type":"int","value":0},{"name":"cy","type":"int","value":0},{"name":"no","type":"int","value":3},{"name":"rx","type":"int","value":10},{"name":"ry","type":"int","value":-6},{"name":"ani","type":"int","value":0},{"name":"type","type":"int","value":4},{"name":"front","type":"int","value":0}],"point":true},{"id":309,"x":0,"y":124,"visible":true,"properties":[{"name":"image_layer_name","type":"string","value":"background_back_6"},{"name":"a","type":"int","value":255},{"name":"f","type":"int","value":0},{"name":"x","type":"int","value":0},{"name":"y","type":"int","value":124},{"name":"bS","type":"string","value":"dryRock"},{"name":"cx","type":"int","value":0},{"name":"cy","type":"int","value":0},{"name":"no","type":"int","value":4},{"name":"rx","type":"int","value":15},{"name":"ry","type":"int","value":-12},{"name":"ani","type":"int","value":0},{"name":"type","type":"int","value":4},{"name":"front","type":"int","value":0}],"point":true},{"id":310,"x":95,"y":190,"visible":true,"properties":[{"name":"image_layer_name","type":"string","value":"background_back_8"},{"name":"a","type":"int","value":255},{"name":"f","type":"int","value":0},{"name":"x","type":"int","value":95},{"name":"y","type":"int","value":190},{"name":"bS","type":"string","value":"dryRock"},{"name":"cx","type":"int","value":0},{"name":"cy","type":"int","value":0},{"name":"no","type":"int","value":5},{"name":"rx","type":"int","value":20},{"name":"ry","type":"int","value":-13},{"name":"ani","type":"int","value":0},{"name":"type","type":"int","value":4},{"name":"front","type":"int","value":0}],"point":true},{"id":311,"x":90,"y":327,"visible":true,"properties":[{"name":"image_layer_name","type":"string","value":"background_back_11"},{"name":"a","type":"int","value":255},{"name":"f","type":"int","value":0},{"name":"x","type":"int","value":90},{"name":"y","type":"int","value":327},{"name":"bS","type":"string","value":"dryRock"},{"name":"cx","type":"int","value":0},{"name":"cy","type":"int","value":0},{"name":"no","type":"int","value":7},{"name":"rx","type":"int","value":30},{"name":"ry","type":"int","value":-16},{"name":"ani","type":"int","value":0},{"name":"type","type":"int","value":4},{"name":"front","type":"int","value":0}],"point":true},{"id":312,"x":-52,"y":500,"visible":true,"properties":[{"name":"image_layer_name","type":"string","value":"background_back_14"},{"name":"a","type":"int","value":255},{"name":"f","type":"int","value":0},{"name":"x","type":"int","value":-52},{"name":"y","type":"int","value":500},{"name":"bS","type":"string","value":"dryRock"},{"name":"cx","type":"int","value":0},{"name":"cy","type":"int","value":0},{"name":"no","type":"int","value":8},{"name":"rx","type":"int","value":35},{"name":"ry","type":"int","value":-16},{"name":"ani","type":"int","value":0},{"name":"type","type":"int","value":4},{"name":"front","type":"int","value":0}],"point":true}]},{"id":24,"name":"portal","type":"objectgroup","visible":true,"opacity":1,"objects":[{"id":313,"x":1496,"y":1520,"visible":true,"properties":[{"name":"x","type":"int","value":1496},{"name":"y","type":"int","value":1520},{"name":"pn","type":"string","value":"sp"},{"name":"pt","type":"int","value":0},{"name":"tm","type":"int","value":999999999},{"name":"tn","type":"string","value":""}],"point":true},{"id":314,"x":1371,"y":1522,"visible":true,"properties":[{"name":"x","type":"int","value":1371},{"name":"y","type":"int","value":1522},{"name":"pn","type":"string","value":"sp"},{"name":"pt","type":"int","value":0},{"name":"tm","type":"int","value":999999999},{"name":"tn","type":"string","value":""}],"point":true},{"id":315,"x":1103,"y":1526,"visible":true,"properties":[{"name":"x","type":"int","value":1103},{"name":"y","type":"int","value":1526},{"name":"pn","type":"string","value":"sp"},{"name":"pt","type":"int","value":0},{"name":"tm","type":"int","value":999999999},{"name":"tn","type":"string","value":""}],"point":true},{"id":316,"x":1027,"y":1509,"visible":true,"properties":[{"name":"x","type":"int","value":1027},{"name":"y","type":"int","value":1509},{"name":"pn","type":"string","value":"sp"},{"name":"pt","type":"int","value":0},{"name":"tm","type":"int","value":999999999},{"name":"tn","type":"string","value":""}],"point":true},{"id":317,"x":927,"y":1494,"visible":true,"properties":[{"name":"x","type":"int","value":927},{"name":"y","type":"int","value":1494},{"name":"pn","type":"string","value":"sp"},{"name":"pt","type":"int","value":0},{"name":"tm","type":"int","value":999999999},{"name":"tn","type":"string","value":""}],"point":true},{"id":318,"x":829,"y":1507,"visible":true,"properties":[{"name":"x","type":"int","value":829},{"name":"y","type":"int","value":1507},{"name":"pn","type":"string","value":"sp"},{"name":"pt","type":"int","value":0},{"name":"tm","type":"int","value":999999999},{"name":"tn","type":"string","value":""}],"point":true},{"id":319,"x":723,"y":1501,"visible":true,"properties":[{"name":"x","type":"int","value":723},{"name":"y","type":"int","value":1501},{"name":"pn","type":"string","value":"sp"},{"name":"pt","type":"int","value":0},{"name":"tm","type":"int","value":999999999},{"name":"tn","type":"string","value":""}],"point":true},{"id":320,"x":609,"y":1512,"visible":true,"properties":[{"name":"x","type":"int","value":609},{"name":"y","type":"int","value":1512},{"name":"pn","type":"string","value":"sp"},{"name":"pt","type":"int","value":0},{"name":"tm","type":"int","value":999999999},{"name":"tn","type":"string","value":""}],"point":true},{"id":321,"x":395,"y":1523,"visible":true,"properties":[{"name":"x","type":"int","value":395},{"name":"y","type":"int","value":1523},{"name":"pn","type":"string","value":"sp"},{"name":"pt","type":"int","value":0},{"name":"tm","type":"int","value":999999999},{"name":"tn","type":"string","value":""}],"point":true},{"id":322,"x":331,"y":1528,"visible":true,"properties":[{"name":"x","type":"int","value":331},{"name":"y","type":"int","value":1528},{"name":"pn","type":"string","value":"sp"},{"name":"pt","type":"int","value":0},{"name":"tm","type":"int","value":999999999},{"name":"tn","type":"string","value":""}],"point":true},{"id":323,"x":260,"y":1529,"visible":true,"properties":[{"name":"x","type":"int","value":260},{"name":"y","type":"int","value":1529},{"name":"pn","type":"string","value":"sp"},{"name":"pt","type":"int","value":0},{"name":"tm","type":"int","value":999999999},{"name":"tn","type":"string","value":""}],"point":true},{"id":324,"x":199,"y":1528,"visible":true,"properties":[{"name":"x","type":"int","value":199},{"name":"y","type":"int","value":1528},{"name":"pn","type":"string","value":"sp"},{"name":"pt","type":"int","value":0},{"name":"tm","type":"int","value":999999999},{"name":"tn","type":"string","value":""}],"point":true},{"id":325,"x":1431,"y":1555,"visible":true,"properties":[{"name":"x","type":"int","value":1431},{"name":"y","type":"int","value":1555},{"name":"pn","type":"string","value":"in00"},{"name":"pt","type":"int","value":2},{"name":"tm","type":"int","value":101030404},{"name":"tn","type":"string","value":"out00"}],"point":true},{"id":326,"x":170,"y":1813,"visible":true,"properties":[{"name":"x","type":"int","value":170},{"name":"y","type":"int","value":1813},{"name":"pn","type":"string","value":"out00"},{"name":"pt","type":"int","value":2},{"name":"tm","type":"int","value":101030402},{"name":"tn","type":"string","value":"in00"}],"point":true}]},{"id":25,"name":"life","type":"objectgroup","visible":true,"opacity":1,"objects":[{"id":327,"x":538,"y":1545,"visible":true,"properties":[{"name":"f","type":"int","value":0},{"name":"x","type":"int","value":538},{"name":"y","type":"int","value":1545},{"name":"cy","type":"int","value":1565},{"name":"fh","type":"int","value":87},{"name":"id","type":"int","value":1130100},{"name":"rx0","type":"int","value":47},{"name":"rx1","type":"int","value":1273},{"name":"hide","type":"int","value":0},{"name":"type","type":"string","value":"m"},{"name":"mobTime","type":"int","value":0}],"point":true},{"id":328,"x":874,"y":1540,"visible":true,"properties":[{"name":"f","type":"int","value":0},{"name":"x","type":"int","value":874},{"name":"y","type":"int","value":1540},{"name":"cy","type":"int","value":1569},{"name":"fh","type":"int","value":94},{"name":"id","type":"int","value":1130100},{"name":"rx0","type":"int","value":47},{"name":"rx1","type":"int","value":1273},{"name":"hide","type":"int","value":0},{"name":"type","type":"string","value":"m"},{"name":"mobTime","type":"int","value":0}],"point":true},{"id":329,"x":1155,"y":1539,"visible":true,"properties":[{"name":"f","type":"int","value":1},{"name":"x","type":"int","value":1155},{"name":"y","type":"int","value":1539},{"name":"cy","type":"int","value":1569},{"name":"fh","type":"int","value":94},{"name":"id","type":"int","value":1130100},{"name":"rx0","type":"int","value":47},{"name":"rx1","type":"int","value":1273},{"name":"hide","type":"int","value":0},{"name":"type","type":"string","value":"m"},{"name":"mobTime","type":"int","value":0}],"point":true},{"id":330,"x":1157,"y":1599,"visible":true,"properties":[{"name":"f","type":"int","value":0},{"name":"x","type":"int","value":1157},{"name":"y","type":"int","value":1599},{"name":"cy","type":"int","value":1617},{"name":"fh","type":"int","value":132},{"name":"id","type":"int","value":1130100},{"name":"rx0","type":"int","value":47},{"name":"rx1","type":"int","value":1273},{"name":"hide","type":"int","value":0},{"name":"type","type":"string","value":"m"},{"name":"mobTime","type":"int","value":0}],"point":true},{"id":331,"x":111,"y":1573,"visible":true,"properties":[{"name":"f","type":"int","value":1},{"name":"x","type":"int","value":111},{"name":"y","type":"int","value":1573},{"name":"cy","type":"int","value":1592},{"name":"fh","type":"int","value":77},{"name":"id","type":"int","value":1130100},{"name":"rx0","type":"int","value":47},{"name":"rx1","type":"int","value":1273},{"name":"hide","type":"int","value":0},{"name":"type","type":"string","value":"m"},{"name":"mobTime","type":"int","value":0}],"point":true},{"id":332,"x":312,"y":1252,"visible":true,"properties":[{"name":"f","type":"int","value":0},{"name":"x","type":"int","value":312},{"name":"y","type":"int","value":1252},{"name":"cy","type":"int","value":1264},{"name":"fh","type":"int","value":97},{"name":"id","type":"int","value":1130100},{"name":"rx0","type":"int","value":47},{"name":"rx1","type":"int","value":1273},{"name":"hide","type":"int","value":0},{"name":"type","type":"string","value":"m"},{"name":"mobTime","type":"int","value":0}],"point":true},{"id":333,"x":478,"y":1266,"visible":true,"properties":[{"name":"f","type":"int","value":1},{"name":"x","type":"int","value":478},{"name":"y","type":"int","value":1266},{"name":"cy","type":"int","value":1279},{"name":"fh","type":"int","value":100},{"name":"id","type":"int","value":1130100},{"name":"rx0","type":"int","value":47},{"name":"rx1","type":"int","value":1273},{"name":"hide","type":"int","value":0},{"name":"type","type":"string","value":"m"},{"name":"mobTime","type":"int","value":0}],"point":true},{"id":334,"x":697,"y":975,"visible":true,"properties":[{"name":"f","type":"int","value":0},{"name":"x","type":"int","value":697},{"name":"y","type":"int","value":975},{"name":"cy","type":"int","value":989},{"name":"fh","type":"int","value":136},{"name":"id","type":"int","value":1130100},{"name":"rx0","type":"int","value":47},{"name":"rx1","type":"int","value":1273},{"name":"hide","type":"int","value":0},{"name":"type","type":"string","value":"m"},{"name":"mobTime","type":"int","value":0}],"point":true},{"id":335,"x":869,"y":901,"visible":true,"properties":[{"name":"f","type":"int","value":1},{"name":"x","type":"int","value":869},{"name":"y","type":"int","value":901},{"name":"cy","type":"int","value":928},{"name":"fh","type":"int","value":125},{"name":"id","type":"int","value":1130100},{"name":"rx0","type":"int","value":47},{"name":"rx1","type":"int","value":1273},{"name":"hide","type":"int","value":0},{"name":"type","type":"string","value":"m"},{"name":"mobTime","type":"int","value":0}],"point":true},{"id":336,"x":328,"y":682,"visible":true,"properties":[{"name":"f","type":"int","value":0},{"name":"x","type":"int","value":328},{"name":"y","type":"int","value":682},{"name":"cy","type":"int","value":704},{"name":"fh","type":"int","value":60},{"name":"id","type":"int","value":1130100},{"name":"rx0","type":"int","value":96},{"name":"rx1","type":"int","value":622},{"name":"hide","type":"int","value":0},{"name":"type","type":"string","value":"m"},{"name":"mobTime","type":"int","value":0}],"point":true},{"id":337,"x":470,"y":706,"visible":true,"properties":[{"name":"f","type":"int","value":1},{"name":"x","type":"int","value":470},{"name":"y","type":"int","value":706},{"name":"cy","type":"int","value":711},{"name":"fh","type":"int","value":62},{"name":"id","type":"int","value":1130100},{"name":"rx0","type":"int","value":96},{"name":"rx1","type":"int","value":622},{"name":"hide","type":"int","value":0},{"name":"type","type":"string","value":"m"},{"name":"mobTime","type":"int","value":0}],"point":true},{"id":338,"x":238,"y":851,"visible":true,"properties":[{"name":"f","type":"int","value":0},{"name":"x","type":"int","value":238},{"name":"y","type":"int","value":851},{"name":"cy","type":"int","value":897},{"name":"fh","type":"int","value":74},{"name":"id","type":"int","value":1130100},{"name":"rx0","type":"int","value":96},{"name":"rx1","type":"int","value":622},{"name":"hide","type":"int","value":0},{"name":"type","type":"string","value":"m"},{"name":"mobTime","type":"int","value":0}],"point":true},{"id":339,"x":126,"y":2108,"visible":true,"properties":[{"name":"f","type":"int","value":0},{"name":"x","type":"int","value":126},{"name":"y","type":"int","value":2108},{"name":"cy","type":"int","value":2145},{"name":"fh","type":"int","value":38},{"name":"id","type":"int","value":1130100},{"name":"rx0","type":"int","value":-93},{"name":"rx1","type":"int","value":1893},{"name":"hide","type":"int","value":0},{"name":"type","type":"string","value":"m"},{"name":"mobTime","type":"int","value":0}],"point":true},{"id":340,"x":467,"y":2096,"visible":true,"properties":[{"name":"f","type":"int","value":1},{"name":"x","type":"int","value":467},{"name":"y","type":"int","value":2096},{"name":"cy","type":"int","value":2145},{"name":"fh","type":"int","value":41},{"name":"id","type":"int","value":1130100},{"name":"rx0","type":"int","value":-93},{"name":"rx1","type":"int","value":1893},{"name":"hide","type":"int","value":0},{"name":"type","type":"string","value":"m"},{"name":"mobTime","type":"int","value":0}],"point":true},{"id":341,"x":616,"y":2114,"visible":true,"properties":[{"name":"f","type":"int","value":0},{"name":"x","type":"int","value":616},{"name":"y","type":"int","value":2114},{"name":"cy","type":"int","value":2145},{"name":"fh","type":"int","value":33},{"name":"id","type":"int","value":1130100},{"name":"rx0","type":"int","value":-93},{"name":"rx1","type":"int","value":1893},{"name":"hide","type":"int","value":0},{"name":"type","type":"string","value":"m"},{"name":"mobTime","type":"int","value":0}],"point":true},{"id":342,"x":1142,"y":2148,"visible":true,"properties":[{"name":"f","type":"int","value":1},{"name":"x","type":"int","value":1142},{"name":"y","type":"int","value":2148},{"name":"cy","type":"int","value":2205},{"name":"fh","type":"int","value":27},{"name":"id","type":"int","value":1130100},{"name":"rx0","type":"int","value":-93},{"name":"rx1","type":"int","value":1893},{"name":"hide","type":"int","value":0},{"name":"type","type":"string","value":"m"},{"name":"mobTime","type":"int","value":0}],"point":true},{"id":343,"x":1419,"y":2171,"visible":true,"properties":[{"name":"f","type":"int","value":0},{"name":"x","type":"int","value":1419},{"name":"y","type":"int","value":2171},{"name":"cy","type":"int","value":2205},{"name":"fh","type":"int","value":23},{"name":"id","type":"int","value":1130100},{"name":"rx0","type":"int","value":-93},{"name":"rx1","type":"int","value":1893},{"name":"hide","type":"int","value":0},{"name":"type","type":"string","value":"m"},{"name":"mobTime","type":"int","value":0}],"point":true},{"id":344,"x":1734,"y":2155,"visible":true,"properties":[{"name":"f","type":"int","value":1},{"name":"x","type":"int","value":1734},{"name":"y","type":"int","value":2155},{"name":"cy","type":"int","value":2205},{"name":"fh","type":"int","value":21},{"name":"id","type":"int","value":1130100},{"name":"rx0","type":"int","value":-93},{"name":"rx1","type":"int","value":1893},{"name":"hide","type":"int","value":0},{"name":"type","type":"string","value":"m"},{"name":"mobTime","type":"int","value":0}],"point":true},{"id":345,"x":1254,"y":2172,"visible":true,"properties":[{"name":"f","type":"int","value":0},{"name":"x","type":"int","value":1254},{"name":"y","type":"int","value":2172},{"name":"cy","type":"int","value":2205},{"name":"fh","type":"int","value":22},{"name":"id","type":"int","value":1130100},{"name":"rx0","type":"int","value":-93},{"name":"rx1","type":"int","value":1893},{"name":"hide","type":"int","value":0},{"name":"type","type":"string","value":"m"},{"name":"mobTime","type":"int","value":0}],"point":true},{"id":346,"x":904,"y":2181,"visible":true,"properties":[{"name":"f","type":"int","value":0},{"name":"x","type":"int","value":904},{"name":"y","type":"int","value":2181},{"name":"cy","type":"int","value":2205},{"name":"fh","type":"int","value":29},{"name":"id","type":"int","value":1130100},{"name":"rx0","type":"int","value":-93},{"name":"rx1","type":"int","value":1893},{"name":"hide","type":"int","value":0},{"name":"type","type":"string","value":"m"},{"name":"mobTime","type":"int","value":0}],"point":true},{"id":347,"x":-32,"y":2121,"visible":true,"properties":[{"name":"f","type":"int","value":0},{"name":"x","type":"int","value":-32},{"name":"y","type":"int","value":2121},{"name":"cy","type":"int","value":2145},{"name":"fh","type":"int","value":50},{"name":"id","type":"int","value":2130100},{"name":"rx0","type":"int","value":-93},{"name":"rx1","type":"int","value":1893},{"name":"hide","type":"int","value":0},{"name":"type","type":"string","value":"m"},{"name":"mobTime","type":"int","value":0}],"point":true},{"id":348,"x":51,"y":2122,"visible":true,"properties":[{"name":"f","type":"int","value":1},{"name":"x","type":"int","value":51},{"name":"y","type":"int","value":2122},{"name":"cy","type":"int","value":2145},{"name":"fh","type":"int","value":44},{"name":"id","type":"int","value":2130100},{"name":"rx0","type":"int","value":-93},{"name":"rx1","type":"int","value":1893},{"name":"hide","type":"int","value":0},{"name":"type","type":"string","value":"m"},{"name":"mobTime","type":"int","value":0}],"point":true},{"id":349,"x":270,"y":2111,"visible":true,"properties":[{"name":"f","type":"int","value":0},{"name":"x","type":"int","value":270},{"name":"y","type":"int","value":2111},{"name":"cy","type":"int","value":2145},{"name":"fh","type":"int","value":40},{"name":"id","type":"int","value":2130100},{"name":"rx0","type":"int","value":-93},{"name":"rx1","type":"int","value":1893},{"name":"hide","type":"int","value":0},{"name":"type","type":"string","value":"m"},{"name":"mobTime","type":"int","value":0}],"point":true},{"id":350,"x":381,"y":2125,"visible":true,"properties":[{"name":"f","type":"int","value":0},{"name":"x","type":"int","value":381},{"name":"y","type":"int","value":2125},{"name":"cy","type":"int","value":2145},{"name":"fh","type":"int","value":42},{"name":"id","type":"int","value":2130100},{"name":"rx0","type":"int","value":-93},{"name":"rx1","type":"int","value":1893},{"name":"hide","type":"int","value":0},{"name":"type","type":"string","value":"m"},{"name":"mobTime","type":"int","value":0}],"point":true},{"id":351,"x":535,"y":2137,"visible":true,"properties":[{"name":"f","type":"int","value":1},{"name":"x","type":"int","value":535},{"name":"y","type":"int","value":2137},{"name":"cy","type":"int","value":2145},{"name":"fh","type":"int","value":41},{"name":"id","type":"int","value":2130100},{"name":"rx0","type":"int","value":-93},{"name":"rx1","type":"int","value":1893},{"name":"hide","type":"int","value":0},{"name":"type","type":"string","value":"m"},{"name":"mobTime","type":"int","value":0}],"point":true},{"id":352,"x":670,"y":2132,"visible":true,"properties":[{"name":"f","type":"int","value":0},{"name":"x","type":"int","value":670},{"name":"y","type":"int","value":2132},{"name":"cy","type":"int","value":2145},{"name":"fh","type":"int","value":34},{"name":"id","type":"int","value":2130100},{"name":"rx0","type":"int","value":-93},{"name":"rx1","type":"int","value":1893},{"name":"hide","type":"int","value":0},{"name":"type","type":"string","value":"m"},{"name":"mobTime","type":"int","value":0}],"point":true},{"id":353,"x":1031,"y":2180,"visible":true,"properties":[{"name":"f","type":"int","value":0},{"name":"x","type":"int","value":1031},{"name":"y","type":"int","value":2180},{"name":"cy","type":"int","value":2205},{"name":"fh","type":"int","value":37},{"name":"id","type":"int","value":2130100},{"name":"rx0","type":"int","value":-93},{"name":"rx1","type":"int","value":1893},{"name":"hide","type":"int","value":0},{"name":"type","type":"string","value":"m"},{"name":"mobTime","type":"int","value":0}],"point":true},{"id":354,"x":852,"y":2200,"visible":true,"properties":[{"name":"f","type":"int","value":1},{"name":"x","type":"int","value":852},{"name":"y","type":"int","value":2200},{"name":"cy","type":"int","value":2205},{"name":"fh","type":"int","value":32},{"name":"id","type":"int","value":2130100},{"name":"rx0","type":"int","value":-93},{"name":"rx1","type":"int","value":1893},{"name":"hide","type":"int","value":0},{"name":"type","type":"string","value":"m"},{"name":"mobTime","type":"int","value":0}],"point":true},{"id":355,"x":1197,"y":2186,"visible":true,"properties":[{"name":"f","type":"int","value":0},{"name":"x","type":"int","value":1197},{"name":"y","type":"int","value":2186},{"name":"cy","type":"int","value":2205},{"name":"fh","type":"int","value":22},{"name":"id","type":"int","value":2130100},{"name":"rx0","type":"int","value":-93},{"name":"rx1","type":"int","value":1893},{"name":"hide","type":"int","value":0},{"name":"type","type":"string","value":"m"},{"name":"mobTime","type":"int","value":0}],"point":true},{"id":356,"x":1323,"y":2182,"visible":true,"properties":[{"name":"f","type":"int","value":0},{"name":"x","type":"int","value":1323},{"name":"y","type":"int","value":2182},{"name":"cy","type":"int","value":2205},{"name":"fh","type":"int","value":28},{"name":"id","type":"int","value":2130100},{"name":"rx0","type":"int","value":-93},{"name":"rx1","type":"int","value":1893},{"name":"hide","type":"int","value":0},{"name":"type","type":"string","value":"m"},{"name":"mobTime","type":"int","value":0}],"point":true},{"id":357,"x":1510,"y":2189,"visible":true,"properties":[{"name":"f","type":"int","value":1},{"name":"x","type":"int","value":1510},{"name":"y","type":"int","value":2189},{"name":"cy","type":"int","value":2205},{"name":"fh","type":"int","value":24},{"name":"id","type":"int","value":2130100},{"name":"rx0","type":"int","value":-93},{"name":"rx1","type":"int","value":1893},{"name":"hide","type":"int","value":0},{"name":"type","type":"string","value":"m"},{"name":"mobTime","type":"int","value":0}],"point":true},{"id":358,"x":1661,"y":2192,"visible":true,"properties":[{"name":"f","type":"int","value":0},{"name":"x","type":"int","value":1661},{"name":"y","type":"int","value":2192},{"name":"cy","type":"int","value":2205},{"name":"fh","type":"int","value":25},{"name":"id","type":"int","value":2130100},{"name":"rx0","type":"int","value":-93},{"name":"rx1","type":"int","value":1893},{"name":"hide","type":"int","value":0},{"name":"type","type":"string","value":"m"},{"name":"mobTime","type":"int","value":0}],"point":true},{"id":359,"x":1819,"y":2167,"visible":true,"properties":[{"name":"f","type":"int","value":1},{"name":"x","type":"int","value":1819},{"name":"y","type":"int","value":2167},{"name":"cy","type":"int","value":2205},{"name":"fh","type":"int","value":19},{"name":"id","type":"int","value":2130100},{"name":"rx0","type":"int","value":-93},{"name":"rx1","type":"int","value":1893},{"name":"hide","type":"int","value":0},{"name":"type","type":"string","value":"m"},{"name":"mobTime","type":"int","value":0}],"point":true},{"id":360,"x":695,"y":1517,"visible":true,"properties":[{"name":"f","type":"int","value":0},{"name":"x","type":"int","value":695},{"name":"y","type":"int","value":1517},{"name":"cy","type":"int","value":1560},{"name":"fh","type":"int","value":91},{"name":"id","type":"int","value":2130100},{"name":"rx0","type":"int","value":47},{"name":"rx1","type":"int","value":1273},{"name":"hide","type":"int","value":0},{"name":"type","type":"string","value":"m"},{"name":"mobTime","type":"int","value":0}],"point":true},{"id":361,"x":416,"y":1253,"visible":true,"properties":[{"name":"f","type":"int","value":1},{"name":"x","type":"int","value":416},{"name":"y","type":"int","value":1253},{"name":"cy","type":"int","value":1276},{"name":"fh","type":"int","value":99},{"name":"id","type":"int","value":2130100},{"name":"rx0","type":"int","value":47},{"name":"rx1","type":"int","value":1273},{"name":"hide","type":"int","value":0},{"name":"type","type":"string","value":"m"},{"name":"mobTime","type":"int","value":0}],"point":true},{"id":362,"x":945,"y":903,"visible":true,"properties":[{"name":"f","type":"int","value":0},{"name":"x","type":"int","value":945},{"name":"y","type":"int","value":903},{"name":"cy","type":"int","value":921},{"name":"fh","type":"int","value":126},{"name":"id","type":"int","value":2130100},{"name":"rx0","type":"int","value":47},{"name":"rx1","type":"int","value":1273},{"name":"hide","type":"int","value":0},{"name":"type","type":"string","value":"m"},{"name":"mobTime","type":"int","value":0}],"point":true},{"id":363,"x":626,"y":962,"visible":true,"properties":[{"name":"f","type":"int","value":0},{"name":"x","type":"int","value":626},{"name":"y","type":"int","value":962},{"name":"cy","type":"int","value":987},{"name":"fh","type":"int","value":136},{"name":"id","type":"int","value":2130100},{"name":"rx0","type":"int","value":47},{"name":"rx1","type":"int","value":1273},{"name":"hide","type":"int","value":0},{"name":"type","type":"string","value":"m"},{"name":"mobTime","type":"int","value":0}],"point":true},{"id":364,"x":379,"y":691,"visible":true,"properties":[{"name":"f","type":"int","value":0},{"name":"x","type":"int","value":379},{"name":"y","type":"int","value":691},{"name":"cy","type":"int","value":704},{"name":"fh","type":"int","value":61},{"name":"id","type":"int","value":2130100},{"name":"rx0","type":"int","value":96},{"name":"rx1","type":"int","value":622},{"name":"hide","type":"int","value":0},{"name":"type","type":"string","value":"m"},{"name":"mobTime","type":"int","value":0}],"point":true},{"id":365,"x":119,"y":690,"visible":true,"properties":[{"name":"f","type":"int","value":1},{"name":"x","type":"int","value":119},{"name":"y","type":"int","value":690},{"name":"cy","type":"int","value":707},{"name":"fh","type":"int","value":56},{"name":"id","type":"int","value":2130100},{"name":"rx0","type":"int","value":96},{"name":"rx1","type":"int","value":622},{"name":"hide","type":"int","value":0},{"name":"type","type":"string","value":"m"},{"name":"mobTime","type":"int","value":0}],"point":true},{"id":366,"x":292,"y":874,"visible":true,"properties":[{"name":"f","type":"int","value":0},{"name":"x","type":"int","value":292},{"name":"y","type":"int","value":874},{"name":"cy","type":"int","value":897},{"name":"fh","type":"int","value":74},{"name":"id","type":"int","value":2130100},{"name":"rx0","type":"int","value":96},{"name":"rx1","type":"int","value":622},{"name":"hide","type":"int","value":0},{"name":"type","type":"string","value":"m"},{"name":"mobTime","type":"int","value":0}],"point":true}]},{"id":26,"name":"foothold","type":"objectgroup","visible":true,"opacity":1,"objects":[{"id":367,"x":76,"y":712,"visible":true,"properties":[{"name":"layer","type":"int","value":0},{"name":"group","type":"int","value":22},{"name":"id","type":"int","value":55},{"name":"fh_layer","type":"int","value":0},{"name":"fh_group","type":"int","value":22},{"name":"fh_id","type":"int","value":55},{"name":"x1","type":"int","value":76},{"name":"x2","type":"int","value":101},{"name":"y1","type":"int","value":712},{"name":"y2","type":"int","value":707},{"name":"next","type":"int","value":56},{"name":"prev","type":"int","value":0}],"polyline":[{"x":0,"y":0},{"x":25,"y":-5}]},{"id":368,"x":101,"y":707,"visible":true,"properties":[{"name":"layer","type":"int","value":0},{"name":"group","type":"int","value":22},{"name":"id","type":"int","value":56},{"name":"fh_layer","type":"int","value":0},{"name":"fh_group","type":"int","value":22},{"name":"fh_id","type":"int","value":56},{"name":"x1","type":"int","value":101},{"name":"x2","type":"int","value":124},{"name":"y1","type":"int","value":707},{"name":"y2","type":"int","value":707},{"name":"next","type":"int","value":57},{"name":"prev","type":"int","value":55}],"polyline":[{"x":0,"y":0},{"x":23,"y":0}]},{"id":369,"x":124,"y":707,"visible":true,"properties":[{"name":"layer","type":"int","value":0},{"name":"group","type":"int","value":22},{"name":"id","type":"int","value":57},{"name":"fh_layer","type":"int","value":0},{"name":"fh_group","type":"int","value":22},{"name":"fh_id","type":"int","value":57},{"name":"x1","type":"int","value":124},{"name":"x2","type":"int","value":136},{"name":"y1","type":"int","value":707},{"name":"y2","type":"int","value":694},{"name":"next","type":"int","value":58},{"name":"prev","type":"int","value":56}],"polyline":[{"x":0,"y":0},{"x":12,"y":-13}]},{"id":370,"x":136,"y":694,"visible":true,"properties":[{"name":"layer","type":"int","value":0},{"name":"group","type":"int","value":22},{"name":"id","type":"int","value":58},{"name":"fh_layer","type":"int","value":0},{"name":"fh_group","type":"int","value":22},{"name":"fh_id","type":"int","value":58},{"name":"x1","type":"int","value":136},{"name":"x2","type":"int","value":258},{"name":"y1","type":"int","value":694},{"name":"y2","type":"int","value":700},{"name":"next","type":"int","value":59},{"name":"prev","type":"int","value":57}],"polyline":[{"x":0,"y":0},{"x":122,"y":6}]},{"id":371,"x":258,"y":700,"visible":true,"properties":[{"name":"layer","type":"int","value":0},{"name":"group","type":"int","value":22},{"name":"id","type":"int","value":59},{"name":"fh_layer","type":"int","value":0},{"name":"fh_group","type":"int","value":22},{"name":"fh_id","type":"int","value":59},{"name":"x1","type":"int","value":258},{"name":"x2","type":"int","value":270},{"name":"y1","type":"int","value":700},{"name":"y2","type":"int","value":704},{"name":"next","type":"int","value":60},{"name":"prev","type":"int","value":58}],"polyline":[{"x":0,"y":0},{"x":12,"y":4}]},{"id":372,"x":270,"y":704,"visible":true,"properties":[{"name":"layer","type":"int","value":0},{"name":"group","type":"int","value":22},{"name":"id","type":"int","value":60},{"name":"fh_layer","type":"int","value":0},{"name":"fh_group","type":"int","value":22},{"name":"fh_id","type":"int","value":60},{"name":"x1","type":"int","value":270},{"name":"x2","type":"int","value":330},{"name":"y1","type":"int","value":704},{"name":"y2","type":"int","value":704},{"name":"next","type":"int","value":61},{"name":"prev","type":"int","value":59}],"polyline":[{"x":0,"y":0},{"x":60,"y":0}]},{"id":373,"x":330,"y":704,"visible":true,"properties":[{"name":"layer","type":"int","value":0},{"name":"group","type":"int","value":22},{"name":"id","type":"int","value":61},{"name":"fh_layer","type":"int","value":0},{"name":"fh_group","type":"int","value":22},{"name":"fh_id","type":"int","value":61},{"name":"x1","type":"int","value":330},{"name":"x2","type":"int","value":422},{"name":"y1","type":"int","value":704},{"name":"y2","type":"int","value":704},{"name":"next","type":"int","value":62},{"name":"prev","type":"int","value":60}],"polyline":[{"x":0,"y":0},{"x":92,"y":0}]},{"id":374,"x":422,"y":704,"visible":true,"properties":[{"name":"layer","type":"int","value":0},{"name":"group","type":"int","value":22},{"name":"id","type":"int","value":62},{"name":"fh_layer","type":"int","value":0},{"name":"fh_group","type":"int","value":22},{"name":"fh_id","type":"int","value":62},{"name":"x1","type":"int","value":422},{"name":"x2","type":"int","value":559},{"name":"y1","type":"int","value":704},{"name":"y2","type":"int","value":724},{"name":"next","type":"int","value":0},{"name":"prev","type":"int","value":61}],"polyline":[{"x":0,"y":0},{"x":137,"y":20}]},{"id":375,"x":527,"y":741,"visible":true,"properties":[{"name":"layer","type":"int","value":0},{"name":"group","type":"int","value":22},{"name":"id","type":"int","value":63},{"name":"fh_layer","type":"int","value":0},{"name":"fh_group","type":"int","value":22},{"name":"fh_id","type":"int","value":63},{"name":"x1","type":"int","value":527},{"name":"x2","type":"int","value":581},{"name":"y1","type":"int","value":741},{"name":"y2","type":"int","value":742},{"name":"next","type":"int","value":64},{"name":"prev","type":"int","value":0}],"polyline":[{"x":0,"y":0},{"x":54,"y":1}]},{"id":376,"x":581,"y":742,"visible":true,"properties":[{"name":"layer","type":"int","value":0},{"name":"group","type":"int","value":22},{"name":"id","type":"int","value":64},{"name":"fh_layer","type":"int","value":0},{"name":"fh_group","type":"int","value":22},{"name":"fh_id","type":"int","value":64},{"name":"x1","type":"int","value":581},{"name":"x2","type":"int","value":632},{"name":"y1","type":"int","value":742},{"name":"y2","type":"int","value":740},{"name":"next","type":"int","value":65},{"name":"prev","type":"int","value":63}],"polyline":[{"x":0,"y":0},{"x":51,"y":-2}]},{"id":377,"x":632,"y":740,"visible":true,"properties":[{"name":"layer","type":"int","value":0},{"name":"group","type":"int","value":22},{"name":"id","type":"int","value":65},{"name":"fh_layer","type":"int","value":0},{"name":"fh_group","type":"int","value":22},{"name":"fh_id","type":"int","value":65},{"name":"x1","type":"int","value":632},{"name":"x2","type":"int","value":642},{"name":"y1","type":"int","value":740},{"name":"y2","type":"int","value":748},{"name":"next","type":"int","value":0},{"name":"prev","type":"int","value":64}],"polyline":[{"x":0,"y":0},{"x":10,"y":8}]},{"id":378,"x":487,"y":770,"visible":true,"properties":[{"name":"layer","type":"int","value":0},{"name":"group","type":"int","value":22},{"name":"id","type":"int","value":66},{"name":"fh_layer","type":"int","value":0},{"name":"fh_group","type":"int","value":22},{"name":"fh_id","type":"int","value":66},{"name":"x1","type":"int","value":487},{"name":"x2","type":"int","value":508},{"name":"y1","type":"int","value":770},{"name":"y2","type":"int","value":766},{"name":"next","type":"int","value":67},{"name":"prev","type":"int","value":0}],"polyline":[{"x":0,"y":0},{"x":21,"y":-4}]},{"id":379,"x":508,"y":766,"visible":true,"properties":[{"name":"layer","type":"int","value":0},{"name":"group","type":"int","value":22},{"name":"id","type":"int","value":67},{"name":"fh_layer","type":"int","value":0},{"name":"fh_group","type":"int","value":22},{"name":"fh_id","type":"int","value":67},{"name":"x1","type":"int","value":508},{"name":"x2","type":"int","value":564},{"name":"y1","type":"int","value":766},{"name":"y2","type":"int","value":768},{"name":"next","type":"int","value":68},{"name":"prev","type":"int","value":66}],"polyline":[{"x":0,"y":0},{"x":56,"y":2}]},{"id":380,"x":564,"y":768,"visible":true,"properties":[{"name":"layer","type":"int","value":0},{"name":"group","type":"int","value":22},{"name":"id","type":"int","value":68},{"name":"fh_layer","type":"int","value":0},{"name":"fh_group","type":"int","value":22},{"name":"fh_id","type":"int","value":68},{"name":"x1","type":"int","value":564},{"name":"x2","type":"int","value":572},{"name":"y1","type":"int","value":768},{"name":"y2","type":"int","value":775},{"name":"next","type":"int","value":0},{"name":"prev","type":"int","value":67}],"polyline":[{"x":0,"y":0},{"x":8,"y":7}]},{"id":381,"x":438,"y":802,"visible":true,"properties":[{"name":"layer","type":"int","value":0},{"name":"group","type":"int","value":22},{"name":"id","type":"int","value":69},{"name":"fh_layer","type":"int","value":0},{"name":"fh_group","type":"int","value":22},{"name":"fh_id","type":"int","value":69},{"name":"x1","type":"int","value":438},{"name":"x2","type":"int","value":564},{"name":"y1","type":"int","value":802},{"name":"y2","type":"int","value":804},{"name":"next","type":"int","value":0},{"name":"prev","type":"int","value":0}],"polyline":[{"x":0,"y":0},{"x":126,"y":2}]},{"id":382,"x":397,"y":838,"visible":true,"properties":[{"name":"layer","type":"int","value":0},{"name":"group","type":"int","value":22},{"name":"id","type":"int","value":70},{"name":"fh_layer","type":"int","value":0},{"name":"fh_group","type":"int","value":22},{"name":"fh_id","type":"int","value":70},{"name":"x1","type":"int","value":397},{"name":"x2","type":"int","value":502},{"name":"y1","type":"int","value":838},{"name":"y2","type":"int","value":842},{"name":"next","type":"int","value":71},{"name":"prev","type":"int","value":0}],"polyline":[{"x":0,"y":0},{"x":105,"y":4}]},{"id":383,"x":502,"y":842,"visible":true,"properties":[{"name":"layer","type":"int","value":0},{"name":"group","type":"int","value":22},{"name":"id","type":"int","value":71},{"name":"fh_layer","type":"int","value":0},{"name":"fh_group","type":"int","value":22},{"name":"fh_id","type":"int","value":71},{"name":"x1","type":"int","value":502},{"name":"x2","type":"int","value":537},{"name":"y1","type":"int","value":842},{"name":"y2","type":"int","value":839},{"name":"next","type":"int","value":0},{"name":"prev","type":"int","value":70}],"polyline":[{"x":0,"y":0},{"x":35,"y":-3}]},{"id":384,"x":145,"y":882,"visible":true,"properties":[{"name":"layer","type":"int","value":0},{"name":"group","type":"int","value":22},{"name":"id","type":"int","value":72},{"name":"fh_layer","type":"int","value":0},{"name":"fh_group","type":"int","value":22},{"name":"fh_id","type":"int","value":72},{"name":"x1","type":"int","value":145},{"name":"x2","type":"int","value":207},{"name":"y1","type":"int","value":882},{"name":"y2","type":"int","value":889},{"name":"next","type":"int","value":73},{"name":"prev","type":"int","value":0}],"polyline":[{"x":0,"y":0},{"x":62,"y":7}]},{"id":385,"x":207,"y":889,"visible":true,"properties":[{"name":"layer","type":"int","value":0},{"name":"group","type":"int","value":22},{"name":"id","type":"int","value":73},{"name":"fh_layer","type":"int","value":0},{"name":"fh_group","type":"int","value":22},{"name":"fh_id","type":"int","value":73},{"name":"x1","type":"int","value":207},{"name":"x2","type":"int","value":225},{"name":"y1","type":"int","value":889},{"name":"y2","type":"int","value":897},{"name":"next","type":"int","value":74},{"name":"prev","type":"int","value":72}],"polyline":[{"x":0,"y":0},{"x":18,"y":8}]},{"id":386,"x":225,"y":897,"visible":true,"properties":[{"name":"layer","type":"int","value":0},{"name":"group","type":"int","value":22},{"name":"id","type":"int","value":74},{"name":"fh_layer","type":"int","value":0},{"name":"fh_group","type":"int","value":22},{"name":"fh_id","type":"int","value":74},{"name":"x1","type":"int","value":225},{"name":"x2","type":"int","value":298},{"name":"y1","type":"int","value":897},{"name":"y2","type":"int","value":897},{"name":"next","type":"int","value":75},{"name":"prev","type":"int","value":73}],"polyline":[{"x":0,"y":0},{"x":73,"y":0}]},{"id":387,"x":298,"y":897,"visible":true,"properties":[{"name":"layer","type":"int","value":0},{"name":"group","type":"int","value":22},{"name":"id","type":"int","value":75},{"name":"fh_layer","type":"int","value":0},{"name":"fh_group","type":"int","value":22},{"name":"fh_id","type":"int","value":75},{"name":"x1","type":"int","value":298},{"name":"x2","type":"int","value":372},{"name":"y1","type":"int","value":897},{"name":"y2","type":"int","value":904},{"name":"next","type":"int","value":0},{"name":"prev","type":"int","value":74}],"polyline":[{"x":0,"y":0},{"x":74,"y":7}]},{"id":388,"x":27,"y":1627,"visible":true,"properties":[{"name":"layer","type":"int","value":1},{"name":"group","type":"int","value":1},{"name":"id","type":"int","value":76},{"name":"fh_layer","type":"int","value":1},{"name":"fh_group","type":"int","value":1},{"name":"fh_id","type":"int","value":76},{"name":"x1","type":"int","value":27},{"name":"x2","type":"int","value":62},{"name":"y1","type":"int","value":1627},{"name":"y2","type":"int","value":1594},{"name":"next","type":"int","value":77},{"name":"prev","type":"int","value":0}],"polyline":[{"x":0,"y":0},{"x":35,"y":-33}]},{"id":389,"x":62,"y":1594,"visible":true,"properties":[{"name":"layer","type":"int","value":1},{"name":"group","type":"int","value":1},{"name":"id","type":"int","value":77},{"name":"fh_layer","type":"int","value":1},{"name":"fh_group","type":"int","value":1},{"name":"fh_id","type":"int","value":77},{"name":"x1","type":"int","value":62},{"name":"x2","type":"int","value":173},{"name":"y1","type":"int","value":1594},{"name":"y2","type":"int","value":1588},{"name":"next","type":"int","value":78},{"name":"prev","type":"int","value":76}],"polyline":[{"x":0,"y":0},{"x":111,"y":-6}]},{"id":390,"x":173,"y":1588,"visible":true,"properties":[{"name":"layer","type":"int","value":1},{"name":"group","type":"int","value":1},{"name":"id","type":"int","value":78},{"name":"fh_layer","type":"int","value":1},{"name":"fh_group","type":"int","value":1},{"name":"fh_id","type":"int","value":78},{"name":"x1","type":"int","value":173},{"name":"x2","type":"int","value":200},{"name":"y1","type":"int","value":1588},{"name":"y2","type":"int","value":1579},{"name":"next","type":"int","value":79},{"name":"prev","type":"int","value":77}],"polyline":[{"x":0,"y":0},{"x":27,"y":-9}]},{"id":391,"x":200,"y":1579,"visible":true,"properties":[{"name":"layer","type":"int","value":1},{"name":"group","type":"int","value":1},{"name":"id","type":"int","value":79},{"name":"fh_layer","type":"int","value":1},{"name":"fh_group","type":"int","value":1},{"name":"fh_id","type":"int","value":79},{"name":"x1","type":"int","value":200},{"name":"x2","type":"int","value":263},{"name":"y1","type":"int","value":1579},{"name":"y2","type":"int","value":1577},{"name":"next","type":"int","value":80},{"name":"prev","type":"int","value":78}],"polyline":[{"x":0,"y":0},{"x":63,"y":-2}]},{"id":392,"x":263,"y":1577,"visible":true,"properties":[{"name":"layer","type":"int","value":1},{"name":"group","type":"int","value":1},{"name":"id","type":"int","value":80},{"name":"fh_layer","type":"int","value":1},{"name":"fh_group","type":"int","value":1},{"name":"fh_id","type":"int","value":80},{"name":"x1","type":"int","value":263},{"name":"x2","type":"int","value":445},{"name":"y1","type":"int","value":1577},{"name":"y2","type":"int","value":1573},{"name":"next","type":"int","value":81},{"name":"prev","type":"int","value":79}],"polyline":[{"x":0,"y":0},{"x":182,"y":-4}]},{"id":393,"x":445,"y":1573,"visible":true,"properties":[{"name":"layer","type":"int","value":1},{"name":"group","type":"int","value":1},{"name":"id","type":"int","value":81},{"name":"fh_layer","type":"int","value":1},{"name":"fh_group","type":"int","value":1},{"name":"fh_id","type":"int","value":81},{"name":"x1","type":"int","value":445},{"name":"x2","type":"int","value":467},{"name":"y1","type":"int","value":1573},{"name":"y2","type":"int","value":1566},{"name":"next","type":"int","value":82},{"name":"prev","type":"int","value":80}],"polyline":[{"x":0,"y":0},{"x":22,"y":-7}]},{"id":394,"x":467,"y":1566,"visible":true,"properties":[{"name":"layer","type":"int","value":1},{"name":"group","type":"int","value":1},{"name":"id","type":"int","value":82},{"name":"fh_layer","type":"int","value":1},{"name":"fh_group","type":"int","value":1},{"name":"fh_id","type":"int","value":82},{"name":"x1","type":"int","value":467},{"name":"x2","type":"int","value":555},{"name":"y1","type":"int","value":1566},{"name":"y2","type":"int","value":1564},{"name":"next","type":"int","value":83},{"name":"prev","type":"int","value":81}],"polyline":[{"x":0,"y":0},{"x":88,"y":-2}]},{"id":395,"x":555,"y":1564,"visible":true,"properties":[{"name":"layer","type":"int","value":1},{"name":"group","type":"int","value":1},{"name":"id","type":"int","value":83},{"name":"fh_layer","type":"int","value":1},{"name":"fh_group","type":"int","value":1},{"name":"fh_id","type":"int","value":83},{"name":"x1","type":"int","value":555},{"name":"x2","type":"int","value":572},{"name":"y1","type":"int","value":1564},{"name":"y2","type":"int","value":1561},{"name":"next","type":"int","value":84},{"name":"prev","type":"int","value":82}],"polyline":[{"x":0,"y":0},{"x":17,"y":-3}]},{"id":396,"x":572,"y":1561,"visible":true,"properties":[{"name":"layer","type":"int","value":1},{"name":"group","type":"int","value":1},{"name":"id","type":"int","value":84},{"name":"fh_layer","type":"int","value":1},{"name":"fh_group","type":"int","value":1},{"name":"fh_id","type":"int","value":84},{"name":"x1","type":"int","value":572},{"name":"x2","type":"int","value":573},{"name":"y1","type":"int","value":1561},{"name":"y2","type":"int","value":1561},{"name":"next","type":"int","value":89},{"name":"prev","type":"int","value":83}],"polyline":[{"x":0,"y":0},{"x":1,"y":0}]},{"id":397,"x":264,"y":1577,"visible":true,"properties":[{"name":"layer","type":"int","value":1},{"name":"group","type":"int","value":1},{"name":"id","type":"int","value":85},{"name":"fh_layer","type":"int","value":1},{"name":"fh_group","type":"int","value":1},{"name":"fh_id","type":"int","value":85},{"name":"x1","type":"int","value":264},{"name":"x2","type":"int","value":446},{"name":"y1","type":"int","value":1577},{"name":"y2","type":"int","value":1573},{"name":"next","type":"int","value":86},{"name":"prev","type":"int","value":0}],"polyline":[{"x":0,"y":0},{"x":182,"y":-4}]},{"id":398,"x":446,"y":1573,"visible":true,"properties":[{"name":"layer","type":"int","value":1},{"name":"group","type":"int","value":1},{"name":"id","type":"int","value":86},{"name":"fh_layer","type":"int","value":1},{"name":"fh_group","type":"int","value":1},{"name":"fh_id","type":"int","value":86},{"name":"x1","type":"int","value":446},{"name":"x2","type":"int","value":468},{"name":"y1","type":"int","value":1573},{"name":"y2","type":"int","value":1566},{"name":"next","type":"int","value":87},{"name":"prev","type":"int","value":85}],"polyline":[{"x":0,"y":0},{"x":22,"y":-7}]},{"id":399,"x":468,"y":1566,"visible":true,"properties":[{"name":"layer","type":"int","value":1},{"name":"group","type":"int","value":1},{"name":"id","type":"int","value":87},{"name":"fh_layer","type":"int","value":1},{"name":"fh_group","type":"int","value":1},{"name":"fh_id","type":"int","value":87},{"name":"x1","type":"int","value":468},{"name":"x2","type":"int","value":556},{"name":"y1","type":"int","value":1566},{"name":"y2","type":"int","value":1564},{"name":"next","type":"int","value":88},{"name":"prev","type":"int","value":86}],"polyline":[{"x":0,"y":0},{"x":88,"y":-2}]},{"id":400,"x":556,"y":1564,"visible":true,"properties":[{"name":"layer","type":"int","value":1},{"name":"group","type":"int","value":1},{"name":"id","type":"int","value":88},{"name":"fh_layer","type":"int","value":1},{"name":"fh_group","type":"int","value":1},{"name":"fh_id","type":"int","value":88},{"name":"x1","type":"int","value":556},{"name":"x2","type":"int","value":573},{"name":"y1","type":"int","value":1564},{"name":"y2","type":"int","value":1561},{"name":"next","type":"int","value":89},{"name":"prev","type":"int","value":87}],"polyline":[{"x":0,"y":0},{"x":17,"y":-3}]},{"id":401,"x":573,"y":1561,"visible":true,"properties":[{"name":"layer","type":"int","value":1},{"name":"group","type":"int","value":1},{"name":"id","type":"int","value":89},{"name":"fh_layer","type":"int","value":1},{"name":"fh_group","type":"int","value":1},{"name":"fh_id","type":"int","value":89},{"name":"x1","type":"int","value":573},{"name":"x2","type":"int","value":640},{"name":"y1","type":"int","value":1561},{"name":"y2","type":"int","value":1561},{"name":"next","type":"int","value":90},{"name":"prev","type":"int","value":84}],"polyline":[{"x":0,"y":0},{"x":67,"y":0}]},{"id":402,"x":640,"y":1561,"visible":true,"properties":[{"name":"layer","type":"int","value":1},{"name":"group","type":"int","value":1},{"name":"id","type":"int","value":90},{"name":"fh_layer","type":"int","value":1},{"name":"fh_group","type":"int","value":1},{"name":"fh_id","type":"int","value":90},{"name":"x1","type":"int","value":640},{"name":"x2","type":"int","value":658},{"name":"y1","type":"int","value":1561},{"name":"y2","type":"int","value":1561},{"name":"next","type":"int","value":91},{"name":"prev","type":"int","value":89}],"polyline":[{"x":0,"y":0},{"x":18,"y":0}]},{"id":403,"x":658,"y":1561,"visible":true,"properties":[{"name":"layer","type":"int","value":1},{"name":"group","type":"int","value":1},{"name":"id","type":"int","value":91},{"name":"fh_layer","type":"int","value":1},{"name":"fh_group","type":"int","value":1},{"name":"fh_id","type":"int","value":91},{"name":"x1","type":"int","value":658},{"name":"x2","type":"int","value":746},{"name":"y1","type":"int","value":1561},{"name":"y2","type":"int","value":1557},{"name":"next","type":"int","value":92},{"name":"prev","type":"int","value":90}],"polyline":[{"x":0,"y":0},{"x":88,"y":-4}]},{"id":404,"x":746,"y":1557,"visible":true,"properties":[{"name":"layer","type":"int","value":1},{"name":"group","type":"int","value":1},{"name":"id","type":"int","value":92},{"name":"fh_layer","type":"int","value":1},{"name":"fh_group","type":"int","value":1},{"name":"fh_id","type":"int","value":92},{"name":"x1","type":"int","value":746},{"name":"x2","type":"int","value":826},{"name":"y1","type":"int","value":1557},{"name":"y2","type":"int","value":1561},{"name":"next","type":"int","value":93},{"name":"prev","type":"int","value":91}],"polyline":[{"x":0,"y":0},{"x":80,"y":4}]},{"id":405,"x":826,"y":1561,"visible":true,"properties":[{"name":"layer","type":"int","value":1},{"name":"group","type":"int","value":1},{"name":"id","type":"int","value":93},{"name":"fh_layer","type":"int","value":1},{"name":"fh_group","type":"int","value":1},{"name":"fh_id","type":"int","value":93},{"name":"x1","type":"int","value":826},{"name":"x2","type":"int","value":859},{"name":"y1","type":"int","value":1561},{"name":"y2","type":"int","value":1569},{"name":"next","type":"int","value":94},{"name":"prev","type":"int","value":92}],"polyline":[{"x":0,"y":0},{"x":33,"y":8}]},{"id":406,"x":859,"y":1569,"visible":true,"properties":[{"name":"layer","type":"int","value":1},{"name":"group","type":"int","value":1},{"name":"id","type":"int","value":94},{"name":"fh_layer","type":"int","value":1},{"name":"fh_group","type":"int","value":1},{"name":"fh_id","type":"int","value":94},{"name":"x1","type":"int","value":859},{"name":"x2","type":"int","value":1196},{"name":"y1","type":"int","value":1569},{"name":"y2","type":"int","value":1568},{"name":"next","type":"int","value":95},{"name":"prev","type":"int","value":93}],"polyline":[{"x":0,"y":0},{"x":337,"y":-1}]},{"id":407,"x":1196,"y":1568,"visible":true,"properties":[{"name":"layer","type":"int","value":1},{"name":"group","type":"int","value":1},{"name":"id","type":"int","value":95},{"name":"fh_layer","type":"int","value":1},{"name":"fh_group","type":"int","value":1},{"name":"fh_id","type":"int","value":95},{"name":"x1","type":"int","value":1196},{"name":"x2","type":"int","value":1250},{"name":"y1","type":"int","value":1568},{"name":"y2","type":"int","value":1577},{"name":"next","type":"int","value":96},{"name":"prev","type":"int","value":94}],"polyline":[{"x":0,"y":0},{"x":54,"y":9}]},{"id":408,"x":1250,"y":1577,"visible":true,"properties":[{"name":"layer","type":"int","value":1},{"name":"group","type":"int","value":1},{"name":"id","type":"int","value":96},{"name":"fh_layer","type":"int","value":1},{"name":"fh_group","type":"int","value":1},{"name":"fh_id","type":"int","value":96},{"name":"x1","type":"int","value":1250},{"name":"x2","type":"int","value":1279},{"name":"y1","type":"int","value":1577},{"name":"y2","type":"int","value":1601},{"name":"next","type":"int","value":0},{"name":"prev","type":"int","value":95}],"polyline":[{"x":0,"y":0},{"x":29,"y":24}]},{"id":409,"x":224,"y":1260,"visible":true,"properties":[{"name":"layer","type":"int","value":1},{"name":"group","type":"int","value":1},{"name":"id","type":"int","value":97},{"name":"fh_layer","type":"int","value":1},{"name":"fh_group","type":"int","value":1},{"name":"fh_id","type":"int","value":97},{"name":"x1","type":"int","value":224},{"name":"x2","type":"int","value":319},{"name":"y1","type":"int","value":1260},{"name":"y2","type":"int","value":1265},{"name":"next","type":"int","value":98},{"name":"prev","type":"int","value":0}],"polyline":[{"x":0,"y":0},{"x":95,"y":5}]},{"id":410,"x":319,"y":1265,"visible":true,"properties":[{"name":"layer","type":"int","value":1},{"name":"group","type":"int","value":1},{"name":"id","type":"int","value":98},{"name":"fh_layer","type":"int","value":1},{"name":"fh_group","type":"int","value":1},{"name":"fh_id","type":"int","value":98},{"name":"x1","type":"int","value":319},{"name":"x2","type":"int","value":344},{"name":"y1","type":"int","value":1265},{"name":"y2","type":"int","value":1274},{"name":"next","type":"int","value":99},{"name":"prev","type":"int","value":97}],"polyline":[{"x":0,"y":0},{"x":25,"y":9}]},{"id":411,"x":344,"y":1274,"visible":true,"properties":[{"name":"layer","type":"int","value":1},{"name":"group","type":"int","value":1},{"name":"id","type":"int","value":99},{"name":"fh_layer","type":"int","value":1},{"name":"fh_group","type":"int","value":1},{"name":"fh_id","type":"int","value":99},{"name":"x1","type":"int","value":344},{"name":"x2","type":"int","value":472},{"name":"y1","type":"int","value":1274},{"name":"y2","type":"int","value":1279},{"name":"next","type":"int","value":100},{"name":"prev","type":"int","value":98}],"polyline":[{"x":0,"y":0},{"x":128,"y":5}]},{"id":412,"x":472,"y":1279,"visible":true,"properties":[{"name":"layer","type":"int","value":1},{"name":"group","type":"int","value":1},{"name":"id","type":"int","value":100},{"name":"fh_layer","type":"int","value":1},{"name":"fh_group","type":"int","value":1},{"name":"fh_id","type":"int","value":100},{"name":"x1","type":"int","value":472},{"name":"x2","type":"int","value":487},{"name":"y1","type":"int","value":1279},{"name":"y2","type":"int","value":1277},{"name":"next","type":"int","value":101},{"name":"prev","type":"int","value":99}],"polyline":[{"x":0,"y":0},{"x":15,"y":-2}]},{"id":413,"x":487,"y":1277,"visible":true,"properties":[{"name":"layer","type":"int","value":1},{"name":"group","type":"int","value":1},{"name":"id","type":"int","value":101},{"name":"fh_layer","type":"int","value":1},{"name":"fh_group","type":"int","value":1},{"name":"fh_id","type":"int","value":101},{"name":"x1","type":"int","value":487},{"name":"x2","type":"int","value":536},{"name":"y1","type":"int","value":1277},{"name":"y2","type":"int","value":1282},{"name":"next","type":"int","value":102},{"name":"prev","type":"int","value":100}],"polyline":[{"x":0,"y":0},{"x":49,"y":5}]},{"id":414,"x":536,"y":1282,"visible":true,"properties":[{"name":"layer","type":"int","value":1},{"name":"group","type":"int","value":1},{"name":"id","type":"int","value":102},{"name":"fh_layer","type":"int","value":1},{"name":"fh_group","type":"int","value":1},{"name":"fh_id","type":"int","value":102},{"name":"x1","type":"int","value":536},{"name":"x2","type":"int","value":588},{"name":"y1","type":"int","value":1282},{"name":"y2","type":"int","value":1278},{"name":"next","type":"int","value":103},{"name":"prev","type":"int","value":101}],"polyline":[{"x":0,"y":0},{"x":52,"y":-4}]},{"id":415,"x":588,"y":1278,"visible":true,"properties":[{"name":"layer","type":"int","value":1},{"name":"group","type":"int","value":1},{"name":"id","type":"int","value":103},{"name":"fh_layer","type":"int","value":1},{"name":"fh_group","type":"int","value":1},{"name":"fh_id","type":"int","value":103},{"name":"x1","type":"int","value":588},{"name":"x2","type":"int","value":622},{"name":"y1","type":"int","value":1278},{"name":"y2","type":"int","value":1284},{"name":"next","type":"int","value":0},{"name":"prev","type":"int","value":102}],"polyline":[{"x":0,"y":0},{"x":34,"y":6}]},{"id":416,"x":184,"y":1314,"visible":true,"properties":[{"name":"layer","type":"int","value":1},{"name":"group","type":"int","value":1},{"name":"id","type":"int","value":104},{"name":"fh_layer","type":"int","value":1},{"name":"fh_group","type":"int","value":1},{"name":"fh_id","type":"int","value":104},{"name":"x1","type":"int","value":184},{"name":"x2","type":"int","value":198},{"name":"y1","type":"int","value":1314},{"name":"y2","type":"int","value":1303},{"name":"next","type":"int","value":105},{"name":"prev","type":"int","value":0}],"polyline":[{"x":0,"y":0},{"x":14,"y":-11}]},{"id":417,"x":198,"y":1303,"visible":true,"properties":[{"name":"layer","type":"int","value":1},{"name":"group","type":"int","value":1},{"name":"id","type":"int","value":105},{"name":"fh_layer","type":"int","value":1},{"name":"fh_group","type":"int","value":1},{"name":"fh_id","type":"int","value":105},{"name":"x1","type":"int","value":198},{"name":"x2","type":"int","value":275},{"name":"y1","type":"int","value":1303},{"name":"y2","type":"int","value":1310},{"name":"next","type":"int","value":0},{"name":"prev","type":"int","value":104}],"polyline":[{"x":0,"y":0},{"x":77,"y":7}]},{"id":418,"x":99,"y":1342,"visible":true,"properties":[{"name":"layer","type":"int","value":1},{"name":"group","type":"int","value":1},{"name":"id","type":"int","value":106},{"name":"fh_layer","type":"int","value":1},{"name":"fh_group","type":"int","value":1},{"name":"fh_id","type":"int","value":106},{"name":"x1","type":"int","value":99},{"name":"x2","type":"int","value":175},{"name":"y1","type":"int","value":1342},{"name":"y2","type":"int","value":1343},{"name":"next","type":"int","value":0},{"name":"prev","type":"int","value":0}],"polyline":[{"x":0,"y":0},{"x":76,"y":1}]},{"id":419,"x":129,"y":1374,"visible":true,"properties":[{"name":"layer","type":"int","value":1},{"name":"group","type":"int","value":1},{"name":"id","type":"int","value":107},{"name":"fh_layer","type":"int","value":1},{"name":"fh_group","type":"int","value":1},{"name":"fh_id","type":"int","value":107},{"name":"x1","type":"int","value":129},{"name":"x2","type":"int","value":166},{"name":"y1","type":"int","value":1374},{"name":"y2","type":"int","value":1375},{"name":"next","type":"int","value":108},{"name":"prev","type":"int","value":0}],"polyline":[{"x":0,"y":0},{"x":37,"y":1}]},{"id":420,"x":166,"y":1375,"visible":true,"properties":[{"name":"layer","type":"int","value":1},{"name":"group","type":"int","value":1},{"name":"id","type":"int","value":108},{"name":"fh_layer","type":"int","value":1},{"name":"fh_group","type":"int","value":1},{"name":"fh_id","type":"int","value":108},{"name":"x1","type":"int","value":166},{"name":"x2","type":"int","value":181},{"name":"y1","type":"int","value":1375},{"name":"y2","type":"int","value":1378},{"name":"next","type":"int","value":109},{"name":"prev","type":"int","value":107}],"polyline":[{"x":0,"y":0},{"x":15,"y":3}]},{"id":421,"x":181,"y":1378,"visible":true,"properties":[{"name":"layer","type":"int","value":1},{"name":"group","type":"int","value":1},{"name":"id","type":"int","value":109},{"name":"fh_layer","type":"int","value":1},{"name":"fh_group","type":"int","value":1},{"name":"fh_id","type":"int","value":109},{"name":"x1","type":"int","value":181},{"name":"x2","type":"int","value":213},{"name":"y1","type":"int","value":1378},{"name":"y2","type":"int","value":1381},{"name":"next","type":"int","value":0},{"name":"prev","type":"int","value":108}],"polyline":[{"x":0,"y":0},{"x":32,"y":3}]},{"id":422,"x":165,"y":1409,"visible":true,"properties":[{"name":"layer","type":"int","value":1},{"name":"group","type":"int","value":1},{"name":"id","type":"int","value":110},{"name":"fh_layer","type":"int","value":1},{"name":"fh_group","type":"int","value":1},{"name":"fh_id","type":"int","value":110},{"name":"x1","type":"int","value":165},{"name":"x2","type":"int","value":192},{"name":"y1","type":"int","value":1409},{"name":"y2","type":"int","value":1411},{"name":"next","type":"int","value":111},{"name":"prev","type":"int","value":0}],"polyline":[{"x":0,"y":0},{"x":27,"y":2}]},{"id":423,"x":192,"y":1411,"visible":true,"properties":[{"name":"layer","type":"int","value":1},{"name":"group","type":"int","value":1},{"name":"id","type":"int","value":111},{"name":"fh_layer","type":"int","value":1},{"name":"fh_group","type":"int","value":1},{"name":"fh_id","type":"int","value":111},{"name":"x1","type":"int","value":192},{"name":"x2","type":"int","value":219},{"name":"y1","type":"int","value":1411},{"name":"y2","type":"int","value":1409},{"name":"next","type":"int","value":0},{"name":"prev","type":"int","value":110}],"polyline":[{"x":0,"y":0},{"x":27,"y":-2}]},{"id":424,"x":182,"y":1440,"visible":true,"properties":[{"name":"layer","type":"int","value":1},{"name":"group","type":"int","value":1},{"name":"id","type":"int","value":112},{"name":"fh_layer","type":"int","value":1},{"name":"fh_group","type":"int","value":1},{"name":"fh_id","type":"int","value":112},{"name":"x1","type":"int","value":182},{"name":"x2","type":"int","value":216},{"name":"y1","type":"int","value":1440},{"name":"y2","type":"int","value":1443},{"name":"next","type":"int","value":113},{"name":"prev","type":"int","value":0}],"polyline":[{"x":0,"y":0},{"x":34,"y":3}]},{"id":425,"x":216,"y":1443,"visible":true,"properties":[{"name":"layer","type":"int","value":1},{"name":"group","type":"int","value":1},{"name":"id","type":"int","value":113},{"name":"fh_layer","type":"int","value":1},{"name":"fh_group","type":"int","value":1},{"name":"fh_id","type":"int","value":113},{"name":"x1","type":"int","value":216},{"name":"x2","type":"int","value":274},{"name":"y1","type":"int","value":1443},{"name":"y2","type":"int","value":1444},{"name":"next","type":"int","value":0},{"name":"prev","type":"int","value":112}],"polyline":[{"x":0,"y":0},{"x":58,"y":1}]},{"id":426,"x":226,"y":1474,"visible":true,"properties":[{"name":"layer","type":"int","value":1},{"name":"group","type":"int","value":1},{"name":"id","type":"int","value":114},{"name":"fh_layer","type":"int","value":1},{"name":"fh_group","type":"int","value":1},{"name":"fh_id","type":"int","value":114},{"name":"x1","type":"int","value":226},{"name":"x2","type":"int","value":266},{"name":"y1","type":"int","value":1474},{"name":"y2","type":"int","value":1477},{"name":"next","type":"int","value":115},{"name":"prev","type":"int","value":0}],"polyline":[{"x":0,"y":0},{"x":40,"y":3}]},{"id":427,"x":266,"y":1477,"visible":true,"properties":[{"name":"layer","type":"int","value":1},{"name":"group","type":"int","value":1},{"name":"id","type":"int","value":115},{"name":"fh_layer","type":"int","value":1},{"name":"fh_group","type":"int","value":1},{"name":"fh_id","type":"int","value":115},{"name":"x1","type":"int","value":266},{"name":"x2","type":"int","value":303},{"name":"y1","type":"int","value":1477},{"name":"y2","type":"int","value":1476},{"name":"next","type":"int","value":0},{"name":"prev","type":"int","value":114}],"polyline":[{"x":0,"y":0},{"x":37,"y":-1}]},{"id":428,"x":252,"y":1500,"visible":true,"properties":[{"name":"layer","type":"int","value":1},{"name":"group","type":"int","value":1},{"name":"id","type":"int","value":116},{"name":"fh_layer","type":"int","value":1},{"name":"fh_group","type":"int","value":1},{"name":"fh_id","type":"int","value":116},{"name":"x1","type":"int","value":252},{"name":"x2","type":"int","value":319},{"name":"y1","type":"int","value":1500},{"name":"y2","type":"int","value":1505},{"name":"next","type":"int","value":117},{"name":"prev","type":"int","value":0}],"polyline":[{"x":0,"y":0},{"x":67,"y":5}]},{"id":429,"x":319,"y":1505,"visible":true,"properties":[{"name":"layer","type":"int","value":1},{"name":"group","type":"int","value":1},{"name":"id","type":"int","value":117},{"name":"fh_layer","type":"int","value":1},{"name":"fh_group","type":"int","value":1},{"name":"fh_id","type":"int","value":117},{"name":"x1","type":"int","value":319},{"name":"x2","type":"int","value":331},{"name":"y1","type":"int","value":1505},{"name":"y2","type":"int","value":1509},{"name":"next","type":"int","value":118},{"name":"prev","type":"int","value":116}],"polyline":[{"x":0,"y":0},{"x":12,"y":4}]},{"id":430,"x":331,"y":1509,"visible":true,"properties":[{"name":"layer","type":"int","value":1},{"name":"group","type":"int","value":1},{"name":"id","type":"int","value":118},{"name":"fh_layer","type":"int","value":1},{"name":"fh_group","type":"int","value":1},{"name":"fh_id","type":"int","value":118},{"name":"x1","type":"int","value":331},{"name":"x2","type":"int","value":352},{"name":"y1","type":"int","value":1509},{"name":"y2","type":"int","value":1510},{"name":"next","type":"int","value":0},{"name":"prev","type":"int","value":117}],"polyline":[{"x":0,"y":0},{"x":21,"y":1}]},{"id":431,"x":291,"y":1526,"visible":true,"properties":[{"name":"layer","type":"int","value":1},{"name":"group","type":"int","value":1},{"name":"id","type":"int","value":119},{"name":"fh_layer","type":"int","value":1},{"name":"fh_group","type":"int","value":1},{"name":"fh_id","type":"int","value":119},{"name":"x1","type":"int","value":291},{"name":"x2","type":"int","value":379},{"name":"y1","type":"int","value":1526},{"name":"y2","type":"int","value":1535},{"name":"next","type":"int","value":0},{"name":"prev","type":"int","value":0}],"polyline":[{"x":0,"y":0},{"x":88,"y":9}]},{"id":432,"x":297,"y":1556,"visible":true,"properties":[{"name":"layer","type":"int","value":1},{"name":"group","type":"int","value":1},{"name":"id","type":"int","value":120},{"name":"fh_layer","type":"int","value":1},{"name":"fh_group","type":"int","value":1},{"name":"fh_id","type":"int","value":120},{"name":"x1","type":"int","value":297},{"name":"x2","type":"int","value":333},{"name":"y1","type":"int","value":1556},{"name":"y2","type":"int","value":1562},{"name":"next","type":"int","value":121},{"name":"prev","type":"int","value":0}],"polyline":[{"x":0,"y":0},{"x":36,"y":6}]},{"id":433,"x":333,"y":1562,"visible":true,"properties":[{"name":"layer","type":"int","value":1},{"name":"group","type":"int","value":1},{"name":"id","type":"int","value":121},{"name":"fh_layer","type":"int","value":1},{"name":"fh_group","type":"int","value":1},{"name":"fh_id","type":"int","value":121},{"name":"x1","type":"int","value":333},{"name":"x2","type":"int","value":407},{"name":"y1","type":"int","value":1562},{"name":"y2","type":"int","value":1561},{"name":"next","type":"int","value":0},{"name":"prev","type":"int","value":120}],"polyline":[{"x":0,"y":0},{"x":74,"y":-1}]},{"id":434,"x":781,"y":991,"visible":true,"properties":[{"name":"layer","type":"int","value":1},{"name":"group","type":"int","value":1},{"name":"id","type":"int","value":122},{"name":"fh_layer","type":"int","value":1},{"name":"fh_group","type":"int","value":1},{"name":"fh_id","type":"int","value":122},{"name":"x1","type":"int","value":781},{"name":"x2","type":"int","value":825},{"name":"y1","type":"int","value":991},{"name":"y2","type":"int","value":995},{"name":"next","type":"int","value":123},{"name":"prev","type":"int","value":137}],"polyline":[{"x":0,"y":0},{"x":44,"y":4}]},{"id":435,"x":825,"y":995,"visible":true,"properties":[{"name":"layer","type":"int","value":1},{"name":"group","type":"int","value":1},{"name":"id","type":"int","value":123},{"name":"fh_layer","type":"int","value":1},{"name":"fh_group","type":"int","value":1},{"name":"fh_id","type":"int","value":123},{"name":"x1","type":"int","value":825},{"name":"x2","type":"int","value":838},{"name":"y1","type":"int","value":995},{"name":"y2","type":"int","value":1001},{"name":"next","type":"int","value":0},{"name":"prev","type":"int","value":122}],"polyline":[{"x":0,"y":0},{"x":13,"y":6}]},{"id":436,"x":765,"y":963,"visible":true,"properties":[{"name":"layer","type":"int","value":1},{"name":"group","type":"int","value":1},{"name":"id","type":"int","value":124},{"name":"fh_layer","type":"int","value":1},{"name":"fh_group","type":"int","value":1},{"name":"fh_id","type":"int","value":124},{"name":"x1","type":"int","value":765},{"name":"x2","type":"int","value":800},{"name":"y1","type":"int","value":963},{"name":"y2","type":"int","value":929},{"name":"next","type":"int","value":125},{"name":"prev","type":"int","value":0}],"polyline":[{"x":0,"y":0},{"x":35,"y":-34}]},{"id":437,"x":800,"y":929,"visible":true,"properties":[{"name":"layer","type":"int","value":1},{"name":"group","type":"int","value":1},{"name":"id","type":"int","value":125},{"name":"fh_layer","type":"int","value":1},{"name":"fh_group","type":"int","value":1},{"name":"fh_id","type":"int","value":125},{"name":"x1","type":"int","value":800},{"name":"x2","type":"int","value":897},{"name":"y1","type":"int","value":929},{"name":"y2","type":"int","value":927},{"name":"next","type":"int","value":126},{"name":"prev","type":"int","value":124}],"polyline":[{"x":0,"y":0},{"x":97,"y":-2}]},{"id":438,"x":897,"y":927,"visible":true,"properties":[{"name":"layer","type":"int","value":1},{"name":"group","type":"int","value":1},{"name":"id","type":"int","value":126},{"name":"fh_layer","type":"int","value":1},{"name":"fh_group","type":"int","value":1},{"name":"fh_id","type":"int","value":126},{"name":"x1","type":"int","value":897},{"name":"x2","type":"int","value":963},{"name":"y1","type":"int","value":927},{"name":"y2","type":"int","value":918},{"name":"next","type":"int","value":127},{"name":"prev","type":"int","value":125}],"polyline":[{"x":0,"y":0},{"x":66,"y":-9}]},{"id":439,"x":963,"y":918,"visible":true,"properties":[{"name":"layer","type":"int","value":1},{"name":"group","type":"int","value":1},{"name":"id","type":"int","value":127},{"name":"fh_layer","type":"int","value":1},{"name":"fh_group","type":"int","value":1},{"name":"fh_id","type":"int","value":127},{"name":"x1","type":"int","value":963},{"name":"x2","type":"int","value":1027},{"name":"y1","type":"int","value":918},{"name":"y2","type":"int","value":918},{"name":"next","type":"int","value":128},{"name":"prev","type":"int","value":126}],"polyline":[{"x":0,"y":0},{"x":64,"y":0}]},{"id":440,"x":1027,"y":918,"visible":true,"properties":[{"name":"layer","type":"int","value":1},{"name":"group","type":"int","value":1},{"name":"id","type":"int","value":128},{"name":"fh_layer","type":"int","value":1},{"name":"fh_group","type":"int","value":1},{"name":"fh_id","type":"int","value":128},{"name":"x1","type":"int","value":1027},{"name":"x2","type":"int","value":1040},{"name":"y1","type":"int","value":918},{"name":"y2","type":"int","value":934},{"name":"next","type":"int","value":0},{"name":"prev","type":"int","value":127}],"polyline":[{"x":0,"y":0},{"x":13,"y":16}]},{"id":441,"x":1046,"y":1616,"visible":true,"properties":[{"name":"layer","type":"int","value":1},{"name":"group","type":"int","value":1},{"name":"id","type":"int","value":129},{"name":"fh_layer","type":"int","value":1},{"name":"fh_group","type":"int","value":1},{"name":"fh_id","type":"int","value":129},{"name":"x1","type":"int","value":1046},{"name":"x2","type":"int","value":1057},{"name":"y1","type":"int","value":1616},{"name":"y2","type":"int","value":1612},{"name":"next","type":"int","value":130},{"name":"prev","type":"int","value":0}],"polyline":[{"x":0,"y":0},{"x":11,"y":-4}]},{"id":442,"x":1057,"y":1612,"visible":true,"properties":[{"name":"layer","type":"int","value":1},{"name":"group","type":"int","value":1},{"name":"id","type":"int","value":130},{"name":"fh_layer","type":"int","value":1},{"name":"fh_group","type":"int","value":1},{"name":"fh_id","type":"int","value":130},{"name":"x1","type":"int","value":1057},{"name":"x2","type":"int","value":1122},{"name":"y1","type":"int","value":1612},{"name":"y2","type":"int","value":1613},{"name":"next","type":"int","value":131},{"name":"prev","type":"int","value":129}],"polyline":[{"x":0,"y":0},{"x":65,"y":1}]},{"id":443,"x":1122,"y":1613,"visible":true,"properties":[{"name":"layer","type":"int","value":1},{"name":"group","type":"int","value":1},{"name":"id","type":"int","value":131},{"name":"fh_layer","type":"int","value":1},{"name":"fh_group","type":"int","value":1},{"name":"fh_id","type":"int","value":131},{"name":"x1","type":"int","value":1122},{"name":"x2","type":"int","value":1137},{"name":"y1","type":"int","value":1613},{"name":"y2","type":"int","value":1617},{"name":"next","type":"int","value":132},{"name":"prev","type":"int","value":130}],"polyline":[{"x":0,"y":0},{"x":15,"y":4}]},{"id":444,"x":1137,"y":1617,"visible":true,"properties":[{"name":"layer","type":"int","value":1},{"name":"group","type":"int","value":1},{"name":"id","type":"int","value":132},{"name":"fh_layer","type":"int","value":1},{"name":"fh_group","type":"int","value":1},{"name":"fh_id","type":"int","value":132},{"name":"x1","type":"int","value":1137},{"name":"x2","type":"int","value":1293},{"name":"y1","type":"int","value":1617},{"name":"y2","type":"int","value":1622},{"name":"next","type":"int","value":145},{"name":"prev","type":"int","value":131}],"polyline":[{"x":0,"y":0},{"x":156,"y":5}]},{"id":445,"x":493,"y":985,"visible":true,"properties":[{"name":"layer","type":"int","value":1},{"name":"group","type":"int","value":1},{"name":"id","type":"int","value":133},{"name":"fh_layer","type":"int","value":1},{"name":"fh_group","type":"int","value":1},{"name":"fh_id","type":"int","value":133},{"name":"x1","type":"int","value":493},{"name":"x2","type":"int","value":504},{"name":"y1","type":"int","value":985},{"name":"y2","type":"int","value":981},{"name":"next","type":"int","value":134},{"name":"prev","type":"int","value":0}],"polyline":[{"x":0,"y":0},{"x":11,"y":-4}]},{"id":446,"x":504,"y":981,"visible":true,"properties":[{"name":"layer","type":"int","value":1},{"name":"group","type":"int","value":1},{"name":"id","type":"int","value":134},{"name":"fh_layer","type":"int","value":1},{"name":"fh_group","type":"int","value":1},{"name":"fh_id","type":"int","value":134},{"name":"x1","type":"int","value":504},{"name":"x2","type":"int","value":569},{"name":"y1","type":"int","value":981},{"name":"y2","type":"int","value":982},{"name":"next","type":"int","value":135},{"name":"prev","type":"int","value":133}],"polyline":[{"x":0,"y":0},{"x":65,"y":1}]},{"id":447,"x":569,"y":982,"visible":true,"properties":[{"name":"layer","type":"int","value":1},{"name":"group","type":"int","value":1},{"name":"id","type":"int","value":135},{"name":"fh_layer","type":"int","value":1},{"name":"fh_group","type":"int","value":1},{"name":"fh_id","type":"int","value":135},{"name":"x1","type":"int","value":569},{"name":"x2","type":"int","value":584},{"name":"y1","type":"int","value":982},{"name":"y2","type":"int","value":986},{"name":"next","type":"int","value":136},{"name":"prev","type":"int","value":134}],"polyline":[{"x":0,"y":0},{"x":15,"y":4}]},{"id":448,"x":584,"y":986,"visible":true,"properties":[{"name":"layer","type":"int","value":1},{"name":"group","type":"int","value":1},{"name":"id","type":"int","value":136},{"name":"fh_layer","type":"int","value":1},{"name":"fh_group","type":"int","value":1},{"name":"fh_id","type":"int","value":136},{"name":"x1","type":"int","value":584},{"name":"x2","type":"int","value":740},{"name":"y1","type":"int","value":986},{"name":"y2","type":"int","value":991},{"name":"next","type":"int","value":137},{"name":"prev","type":"int","value":135}],"polyline":[{"x":0,"y":0},{"x":156,"y":5}]},{"id":449,"x":740,"y":991,"visible":true,"properties":[{"name":"layer","type":"int","value":1},{"name":"group","type":"int","value":1},{"name":"id","type":"int","value":137},{"name":"fh_layer","type":"int","value":1},{"name":"fh_group","type":"int","value":1},{"name":"fh_id","type":"int","value":137},{"name":"x1","type":"int","value":740},{"name":"x2","type":"int","value":781},{"name":"y1","type":"int","value":991},{"name":"y2","type":"int","value":991},{"name":"next","type":"int","value":122},{"name":"prev","type":"int","value":136}],"polyline":[{"x":0,"y":0},{"x":41,"y":0}]},{"id":450,"x":1334,"y":1622,"visible":true,"properties":[{"name":"layer","type":"int","value":1},{"name":"group","type":"int","value":2},{"name":"id","type":"int","value":138},{"name":"fh_layer","type":"int","value":1},{"name":"fh_group","type":"int","value":2},{"name":"fh_id","type":"int","value":138},{"name":"x1","type":"int","value":1334},{"name":"x2","type":"int","value":1378},{"name":"y1","type":"int","value":1622},{"name":"y2","type":"int","value":1626},{"name":"next","type":"int","value":139},{"name":"prev","type":"int","value":145}],"polyline":[{"x":0,"y":0},{"x":44,"y":4}]},{"id":451,"x":1378,"y":1626,"visible":true,"properties":[{"name":"layer","type":"int","value":1},{"name":"group","type":"int","value":2},{"name":"id","type":"int","value":139},{"name":"fh_layer","type":"int","value":1},{"name":"fh_group","type":"int","value":2},{"name":"fh_id","type":"int","value":139},{"name":"x1","type":"int","value":1378},{"name":"x2","type":"int","value":1391},{"name":"y1","type":"int","value":1626},{"name":"y2","type":"int","value":1632},{"name":"next","type":"int","value":0},{"name":"prev","type":"int","value":138}],"polyline":[{"x":0,"y":0},{"x":13,"y":6}]},{"id":452,"x":1318,"y":1594,"visible":true,"properties":[{"name":"layer","type":"int","value":1},{"name":"group","type":"int","value":2},{"name":"id","type":"int","value":140},{"name":"fh_layer","type":"int","value":1},{"name":"fh_group","type":"int","value":2},{"name":"fh_id","type":"int","value":140},{"name":"x1","type":"int","value":1318},{"name":"x2","type":"int","value":1353},{"name":"y1","type":"int","value":1594},{"name":"y2","type":"int","value":1560},{"name":"next","type":"int","value":141},{"name":"prev","type":"int","value":0}],"polyline":[{"x":0,"y":0},{"x":35,"y":-34}]},{"id":453,"x":1353,"y":1560,"visible":true,"properties":[{"name":"layer","type":"int","value":1},{"name":"group","type":"int","value":2},{"name":"id","type":"int","value":141},{"name":"fh_layer","type":"int","value":1},{"name":"fh_group","type":"int","value":2},{"name":"fh_id","type":"int","value":141},{"name":"x1","type":"int","value":1353},{"name":"x2","type":"int","value":1450},{"name":"y1","type":"int","value":1560},{"name":"y2","type":"int","value":1558},{"name":"next","type":"int","value":142},{"name":"prev","type":"int","value":140}],"polyline":[{"x":0,"y":0},{"x":97,"y":-2}]},{"id":454,"x":1450,"y":1558,"visible":true,"properties":[{"name":"layer","type":"int","value":1},{"name":"group","type":"int","value":2},{"name":"id","type":"int","value":142},{"name":"fh_layer","type":"int","value":1},{"name":"fh_group","type":"int","value":2},{"name":"fh_id","type":"int","value":142},{"name":"x1","type":"int","value":1450},{"name":"x2","type":"int","value":1516},{"name":"y1","type":"int","value":1558},{"name":"y2","type":"int","value":1549},{"name":"next","type":"int","value":143},{"name":"prev","type":"int","value":141}],"polyline":[{"x":0,"y":0},{"x":66,"y":-9}]},{"id":455,"x":1516,"y":1549,"visible":true,"properties":[{"name":"layer","type":"int","value":1},{"name":"group","type":"int","value":2},{"name":"id","type":"int","value":143},{"name":"fh_layer","type":"int","value":1},{"name":"fh_group","type":"int","value":2},{"name":"fh_id","type":"int","value":143},{"name":"x1","type":"int","value":1516},{"name":"x2","type":"int","value":1580},{"name":"y1","type":"int","value":1549},{"name":"y2","type":"int","value":1549},{"name":"next","type":"int","value":144},{"name":"prev","type":"int","value":142}],"polyline":[{"x":0,"y":0},{"x":64,"y":0}]},{"id":456,"x":1580,"y":1549,"visible":true,"properties":[{"name":"layer","type":"int","value":1},{"name":"group","type":"int","value":2},{"name":"id","type":"int","value":144},{"name":"fh_layer","type":"int","value":1},{"name":"fh_group","type":"int","value":2},{"name":"fh_id","type":"int","value":144},{"name":"x1","type":"int","value":1580},{"name":"x2","type":"int","value":1593},{"name":"y1","type":"int","value":1549},{"name":"y2","type":"int","value":1565},{"name":"next","type":"int","value":0},{"name":"prev","type":"int","value":143}],"polyline":[{"x":0,"y":0},{"x":13,"y":16}]},{"id":457,"x":1293,"y":1622,"visible":true,"properties":[{"name":"layer","type":"int","value":1},{"name":"group","type":"int","value":2},{"name":"id","type":"int","value":145},{"name":"fh_layer","type":"int","value":1},{"name":"fh_group","type":"int","value":2},{"name":"fh_id","type":"int","value":145},{"name":"x1","type":"int","value":1293},{"name":"x2","type":"int","value":1334},{"name":"y1","type":"int","value":1622},{"name":"y2","type":"int","value":1622},{"name":"next","type":"int","value":138},{"name":"prev","type":"int","value":132}],"polyline":[{"x":0,"y":0},{"x":41,"y":0}]},{"id":458,"x":1012,"y":1890,"visible":true,"properties":[{"name":"layer","type":"int","value":2},{"name":"group","type":"int","value":11},{"name":"id","type":"int","value":10},{"name":"fh_layer","type":"int","value":2},{"name":"fh_group","type":"int","value":11},{"name":"fh_id","type":"int","value":10},{"name":"x1","type":"int","value":1012},{"name":"x2","type":"int","value":1012},{"name":"y1","type":"int","value":1890},{"name":"y2","type":"int","value":1875},{"name":"next","type":"int","value":11},{"name":"prev","type":"int","value":0}],"polyline":[{"x":0,"y":0},{"x":0,"y":-15}]},{"id":459,"x":1012,"y":1875,"visible":true,"properties":[{"name":"layer","type":"int","value":2},{"name":"group","type":"int","value":11},{"name":"id","type":"int","value":11},{"name":"fh_layer","type":"int","value":2},{"name":"fh_group","type":"int","value":11},{"name":"fh_id","type":"int","value":11},{"name":"x1","type":"int","value":1012},{"name":"x2","type":"int","value":1058},{"name":"y1","type":"int","value":1875},{"name":"y2","type":"int","value":1875},{"name":"next","type":"int","value":14},{"name":"prev","type":"int","value":10}],"polyline":[{"x":0,"y":0},{"x":46,"y":0}]},{"id":460,"x":1102,"y":1875,"visible":true,"properties":[{"name":"layer","type":"int","value":2},{"name":"group","type":"int","value":11},{"name":"id","type":"int","value":12},{"name":"fh_layer","type":"int","value":2},{"name":"fh_group","type":"int","value":11},{"name":"fh_id","type":"int","value":12},{"name":"x1","type":"int","value":1102},{"name":"x2","type":"int","value":1148},{"name":"y1","type":"int","value":1875},{"name":"y2","type":"int","value":1875},{"name":"next","type":"int","value":13},{"name":"prev","type":"int","value":14}],"polyline":[{"x":0,"y":0},{"x":46,"y":0}]},{"id":461,"x":1148,"y":1875,"visible":true,"properties":[{"name":"layer","type":"int","value":2},{"name":"group","type":"int","value":11},{"name":"id","type":"int","value":13},{"name":"fh_layer","type":"int","value":2},{"name":"fh_group","type":"int","value":11},{"name":"fh_id","type":"int","value":13},{"name":"x1","type":"int","value":1148},{"name":"x2","type":"int","value":1148},{"name":"y1","type":"int","value":1875},{"name":"y2","type":"int","value":1890},{"name":"next","type":"int","value":0},{"name":"prev","type":"int","value":12}],"polyline":[{"x":0,"y":0},{"x":0,"y":15}]},{"id":462,"x":1058,"y":1875,"visible":true,"properties":[{"name":"layer","type":"int","value":2},{"name":"group","type":"int","value":11},{"name":"id","type":"int","value":14},{"name":"fh_layer","type":"int","value":2},{"name":"fh_group","type":"int","value":11},{"name":"fh_id","type":"int","value":14},{"name":"x1","type":"int","value":1058},{"name":"x2","type":"int","value":1102},{"name":"y1","type":"int","value":1875},{"name":"y2","type":"int","value":1875},{"name":"next","type":"int","value":12},{"name":"prev","type":"int","value":11}],"polyline":[{"x":0,"y":0},{"x":44,"y":0}]},{"id":463,"x":225,"y":1815,"visible":true,"properties":[{"name":"layer","type":"int","value":2},{"name":"group","type":"int","value":13},{"name":"id","type":"int","value":1},{"name":"fh_layer","type":"int","value":2},{"name":"fh_group","type":"int","value":13},{"name":"fh_id","type":"int","value":1},{"name":"x1","type":"int","value":225},{"name":"x2","type":"int","value":315},{"name":"y1","type":"int","value":1815},{"name":"y2","type":"int","value":1815},{"name":"next","type":"int","value":4},{"name":"prev","type":"int","value":5}],"polyline":[{"x":0,"y":0},{"x":90,"y":0}]},{"id":464,"x":382,"y":1815,"visible":true,"properties":[{"name":"layer","type":"int","value":2},{"name":"group","type":"int","value":13},{"name":"id","type":"int","value":2},{"name":"fh_layer","type":"int","value":2},{"name":"fh_group","type":"int","value":13},{"name":"fh_id","type":"int","value":2},{"name":"x1","type":"int","value":382},{"name":"x2","type":"int","value":428},{"name":"y1","type":"int","value":1815},{"name":"y2","type":"int","value":1815},{"name":"next","type":"int","value":3},{"name":"prev","type":"int","value":4}],"polyline":[{"x":0,"y":0},{"x":46,"y":0}]},{"id":465,"x":428,"y":1815,"visible":true,"properties":[{"name":"layer","type":"int","value":2},{"name":"group","type":"int","value":13},{"name":"id","type":"int","value":3},{"name":"fh_layer","type":"int","value":2},{"name":"fh_group","type":"int","value":13},{"name":"fh_id","type":"int","value":3},{"name":"x1","type":"int","value":428},{"name":"x2","type":"int","value":428},{"name":"y1","type":"int","value":1815},{"name":"y2","type":"int","value":1830},{"name":"next","type":"int","value":0},{"name":"prev","type":"int","value":2}],"polyline":[{"x":0,"y":0},{"x":0,"y":15}]},{"id":466,"x":315,"y":1815,"visible":true,"properties":[{"name":"layer","type":"int","value":2},{"name":"group","type":"int","value":13},{"name":"id","type":"int","value":4},{"name":"fh_layer","type":"int","value":2},{"name":"fh_group","type":"int","value":13},{"name":"fh_id","type":"int","value":4},{"name":"x1","type":"int","value":315},{"name":"x2","type":"int","value":382},{"name":"y1","type":"int","value":1815},{"name":"y2","type":"int","value":1815},{"name":"next","type":"int","value":2},{"name":"prev","type":"int","value":1}],"polyline":[{"x":0,"y":0},{"x":67,"y":0}]},{"id":467,"x":135,"y":1815,"visible":true,"properties":[{"name":"layer","type":"int","value":2},{"name":"group","type":"int","value":13},{"name":"id","type":"int","value":5},{"name":"fh_layer","type":"int","value":2},{"name":"fh_group","type":"int","value":13},{"name":"fh_id","type":"int","value":5},{"name":"x1","type":"int","value":135},{"name":"x2","type":"int","value":225},{"name":"y1","type":"int","value":1815},{"name":"y2","type":"int","value":1815},{"name":"next","type":"int","value":1},{"name":"prev","type":"int","value":9}],"polyline":[{"x":0,"y":0},{"x":90,"y":0}]},{"id":468,"x":45,"y":1815,"visible":true,"properties":[{"name":"layer","type":"int","value":2},{"name":"group","type":"int","value":13},{"name":"id","type":"int","value":6},{"name":"fh_layer","type":"int","value":2},{"name":"fh_group","type":"int","value":13},{"name":"fh_id","type":"int","value":6},{"name":"x1","type":"int","value":45},{"name":"x2","type":"int","value":68},{"name":"y1","type":"int","value":1815},{"name":"y2","type":"int","value":1815},{"name":"next","type":"int","value":9},{"name":"prev","type":"int","value":8}],"polyline":[{"x":0,"y":0},{"x":23,"y":0}]},{"id":469,"x":22,"y":1830,"visible":true,"properties":[{"name":"layer","type":"int","value":2},{"name":"group","type":"int","value":13},{"name":"id","type":"int","value":7},{"name":"fh_layer","type":"int","value":2},{"name":"fh_group","type":"int","value":13},{"name":"fh_id","type":"int","value":7},{"name":"x1","type":"int","value":22},{"name":"x2","type":"int","value":22},{"name":"y1","type":"int","value":1830},{"name":"y2","type":"int","value":1815},{"name":"next","type":"int","value":8},{"name":"prev","type":"int","value":0}],"polyline":[{"x":0,"y":0},{"x":0,"y":-15}]},{"id":470,"x":22,"y":1815,"visible":true,"properties":[{"name":"layer","type":"int","value":2},{"name":"group","type":"int","value":13},{"name":"id","type":"int","value":8},{"name":"fh_layer","type":"int","value":2},{"name":"fh_group","type":"int","value":13},{"name":"fh_id","type":"int","value":8},{"name":"x1","type":"int","value":22},{"name":"x2","type":"int","value":45},{"name":"y1","type":"int","value":1815},{"name":"y2","type":"int","value":1815},{"name":"next","type":"int","value":6},{"name":"prev","type":"int","value":7}],"polyline":[{"x":0,"y":0},{"x":23,"y":0}]},{"id":471,"x":68,"y":1815,"visible":true,"properties":[{"name":"layer","type":"int","value":2},{"name":"group","type":"int","value":13},{"name":"id","type":"int","value":9},{"name":"fh_layer","type":"int","value":2},{"name":"fh_group","type":"int","value":13},{"name":"fh_id","type":"int","value":9},{"name":"x1","type":"int","value":68},{"name":"x2","type":"int","value":135},{"name":"y1","type":"int","value":1815},{"name":"y2","type":"int","value":1815},{"name":"next","type":"int","value":5},{"name":"prev","type":"int","value":6}],"polyline":[{"x":0,"y":0},{"x":67,"y":0}]},{"id":472,"x":1913,"y":2460,"visible":true,"properties":[{"name":"layer","type":"int","value":3},{"name":"group","type":"int","value":0},{"name":"id","type":"int","value":15},{"name":"fh_layer","type":"int","value":3},{"name":"fh_group","type":"int","value":0},{"name":"fh_id","type":"int","value":15},{"name":"x1","type":"int","value":1913},{"name":"x2","type":"int","value":1913},{"name":"y1","type":"int","value":2460},{"name":"y2","type":"int","value":2520},{"name":"next","type":"int","value":20},{"name":"prev","type":"int","value":30}],"polyline":[{"x":0,"y":0},{"x":0,"y":60}]},{"id":473,"x":1867,"y":2205,"visible":true,"properties":[{"name":"layer","type":"int","value":3},{"name":"group","type":"int","value":0},{"name":"id","type":"int","value":16},{"name":"fh_layer","type":"int","value":3},{"name":"fh_group","type":"int","value":0},{"name":"fh_id","type":"int","value":16},{"name":"x1","type":"int","value":1867},{"name":"x2","type":"int","value":1913},{"name":"y1","type":"int","value":2205},{"name":"y2","type":"int","value":2205},{"name":"next","type":"int","value":17},{"name":"prev","type":"int","value":19}],"polyline":[{"x":0,"y":0},{"x":46,"y":0}]},{"id":474,"x":1913,"y":2205,"visible":true,"properties":[{"name":"layer","type":"int","value":3},{"name":"group","type":"int","value":0},{"name":"id","type":"int","value":17},{"name":"fh_layer","type":"int","value":3},{"name":"fh_group","type":"int","value":0},{"name":"fh_id","type":"int","value":17},{"name":"x1","type":"int","value":1913},{"name":"x2","type":"int","value":1913},{"name":"y1","type":"int","value":2205},{"name":"y2","type":"int","value":2220},{"name":"next","type":"int","value":46},{"name":"prev","type":"int","value":16}],"polyline":[{"x":0,"y":0},{"x":0,"y":15}]},{"id":475,"x":1913,"y":2340,"visible":true,"properties":[{"name":"layer","type":"int","value":3},{"name":"group","type":"int","value":0},{"name":"id","type":"int","value":18},{"name":"fh_layer","type":"int","value":3},{"name":"fh_group","type":"int","value":0},{"name":"fh_id","type":"int","value":18},{"name":"x1","type":"int","value":1913},{"name":"x2","type":"int","value":1913},{"name":"y1","type":"int","value":2340},{"name":"y2","type":"int","value":2400},{"name":"next","type":"int","value":30},{"name":"prev","type":"int","value":31}],"polyline":[{"x":0,"y":0},{"x":0,"y":60}]},{"id":476,"x":1800,"y":2205,"visible":true,"properties":[{"name":"layer","type":"int","value":3},{"name":"group","type":"int","value":0},{"name":"id","type":"int","value":19},{"name":"fh_layer","type":"int","value":3},{"name":"fh_group","type":"int","value":0},{"name":"fh_id","type":"int","value":19},{"name":"x1","type":"int","value":1800},{"name":"x2","type":"int","value":1867},{"name":"y1","type":"int","value":2205},{"name":"y2","type":"int","value":2205},{"name":"next","type":"int","value":16},{"name":"prev","type":"int","value":21}],"polyline":[{"x":0,"y":0},{"x":67,"y":0}]},{"id":477,"x":1913,"y":2520,"visible":true,"properties":[{"name":"layer","type":"int","value":3},{"name":"group","type":"int","value":0},{"name":"id","type":"int","value":20},{"name":"fh_layer","type":"int","value":3},{"name":"fh_group","type":"int","value":0},{"name":"fh_id","type":"int","value":20},{"name":"x1","type":"int","value":1913},{"name":"x2","type":"int","value":1913},{"name":"y1","type":"int","value":2520},{"name":"y2","type":"int","value":2580},{"name":"next","type":"int","value":0},{"name":"prev","type":"int","value":15}],"polyline":[{"x":0,"y":0},{"x":0,"y":60}]},{"id":478,"x":1710,"y":2205,"visible":true,"properties":[{"name":"layer","type":"int","value":3},{"name":"group","type":"int","value":0},{"name":"id","type":"int","value":21},{"name":"fh_layer","type":"int","value":3},{"name":"fh_group","type":"int","value":0},{"name":"fh_id","type":"int","value":21},{"name":"x1","type":"int","value":1710},{"name":"x2","type":"int","value":1800},{"name":"y1","type":"int","value":2205},{"name":"y2","type":"int","value":2205},{"name":"next","type":"int","value":19},{"name":"prev","type":"int","value":25}],"polyline":[{"x":0,"y":0},{"x":90,"y":0}]},{"id":479,"x":1170,"y":2205,"visible":true,"properties":[{"name":"layer","type":"int","value":3},{"name":"group","type":"int","value":0},{"name":"id","type":"int","value":22},{"name":"fh_layer","type":"int","value":3},{"name":"fh_group","type":"int","value":0},{"name":"fh_id","type":"int","value":22},{"name":"x1","type":"int","value":1170},{"name":"x2","type":"int","value":1260},{"name":"y1","type":"int","value":2205},{"name":"y2","type":"int","value":2205},{"name":"next","type":"int","value":28},{"name":"prev","type":"int","value":27}],"polyline":[{"x":0,"y":0},{"x":90,"y":0}]},{"id":480,"x":1350,"y":2205,"visible":true,"properties":[{"name":"layer","type":"int","value":3},{"name":"group","type":"int","value":0},{"name":"id","type":"int","value":23},{"name":"fh_layer","type":"int","value":3},{"name":"fh_group","type":"int","value":0},{"name":"fh_id","type":"int","value":23},{"name":"x1","type":"int","value":1350},{"name":"x2","type":"int","value":1440},{"name":"y1","type":"int","value":2205},{"name":"y2","type":"int","value":2205},{"name":"next","type":"int","value":24},{"name":"prev","type":"int","value":28}],"polyline":[{"x":0,"y":0},{"x":90,"y":0}]},{"id":481,"x":1440,"y":2205,"visible":true,"properties":[{"name":"layer","type":"int","value":3},{"name":"group","type":"int","value":0},{"name":"id","type":"int","value":24},{"name":"fh_layer","type":"int","value":3},{"name":"fh_group","type":"int","value":0},{"name":"fh_id","type":"int","value":24},{"name":"x1","type":"int","value":1440},{"name":"x2","type":"int","value":1530},{"name":"y1","type":"int","value":2205},{"name":"y2","type":"int","value":2205},{"name":"next","type":"int","value":26},{"name":"prev","type":"int","value":23}],"polyline":[{"x":0,"y":0},{"x":90,"y":0}]},{"id":482,"x":1620,"y":2205,"visible":true,"properties":[{"name":"layer","type":"int","value":3},{"name":"group","type":"int","value":0},{"name":"id","type":"int","value":25},{"name":"fh_layer","type":"int","value":3},{"name":"fh_group","type":"int","value":0},{"name":"fh_id","type":"int","value":25},{"name":"x1","type":"int","value":1620},{"name":"x2","type":"int","value":1710},{"name":"y1","type":"int","value":2205},{"name":"y2","type":"int","value":2205},{"name":"next","type":"int","value":21},{"name":"prev","type":"int","value":26}],"polyline":[{"x":0,"y":0},{"x":90,"y":0}]},{"id":483,"x":1530,"y":2205,"visible":true,"properties":[{"name":"layer","type":"int","value":3},{"name":"group","type":"int","value":0},{"name":"id","type":"int","value":26},{"name":"fh_layer","type":"int","value":3},{"name":"fh_group","type":"int","value":0},{"name":"fh_id","type":"int","value":26},{"name":"x1","type":"int","value":1530},{"name":"x2","type":"int","value":1620},{"name":"y1","type":"int","value":2205},{"name":"y2","type":"int","value":2205},{"name":"next","type":"int","value":25},{"name":"prev","type":"int","value":24}],"polyline":[{"x":0,"y":0},{"x":90,"y":0}]},{"id":484,"x":1080,"y":2205,"visible":true,"properties":[{"name":"layer","type":"int","value":3},{"name":"group","type":"int","value":0},{"name":"id","type":"int","value":27},{"name":"fh_layer","type":"int","value":3},{"name":"fh_group","type":"int","value":0},{"name":"fh_id","type":"int","value":27},{"name":"x1","type":"int","value":1080},{"name":"x2","type":"int","value":1170},{"name":"y1","type":"int","value":2205},{"name":"y2","type":"int","value":2205},{"name":"next","type":"int","value":22},{"name":"prev","type":"int","value":37}],"polyline":[{"x":0,"y":0},{"x":90,"y":0}]},{"id":485,"x":1260,"y":2205,"visible":true,"properties":[{"name":"layer","type":"int","value":3},{"name":"group","type":"int","value":0},{"name":"id","type":"int","value":28},{"name":"fh_layer","type":"int","value":3},{"name":"fh_group","type":"int","value":0},{"name":"fh_id","type":"int","value":28},{"name":"x1","type":"int","value":1260},{"name":"x2","type":"int","value":1350},{"name":"y1","type":"int","value":2205},{"name":"y2","type":"int","value":2205},{"name":"next","type":"int","value":23},{"name":"prev","type":"int","value":22}],"polyline":[{"x":0,"y":0},{"x":90,"y":0}]},{"id":486,"x":900,"y":2205,"visible":true,"properties":[{"name":"layer","type":"int","value":3},{"name":"group","type":"int","value":0},{"name":"id","type":"int","value":29},{"name":"fh_layer","type":"int","value":3},{"name":"fh_group","type":"int","value":0},{"name":"fh_id","type":"int","value":29},{"name":"x1","type":"int","value":900},{"name":"x2","type":"int","value":990},{"name":"y1","type":"int","value":2205},{"name":"y2","type":"int","value":2205},{"name":"next","type":"int","value":37},{"name":"prev","type":"int","value":32}],"polyline":[{"x":0,"y":0},{"x":90,"y":0}]},{"id":487,"x":1913,"y":2400,"visible":true,"properties":[{"name":"layer","type":"int","value":3},{"name":"group","type":"int","value":0},{"name":"id","type":"int","value":30},{"name":"fh_layer","type":"int","value":3},{"name":"fh_group","type":"int","value":0},{"name":"fh_id","type":"int","value":30},{"name":"x1","type":"int","value":1913},{"name":"x2","type":"int","value":1913},{"name":"y1","type":"int","value":2400},{"name":"y2","type":"int","value":2460},{"name":"next","type":"int","value":15},{"name":"prev","type":"int","value":18}],"polyline":[{"x":0,"y":0},{"x":0,"y":60}]},{"id":488,"x":1913,"y":2280,"visible":true,"properties":[{"name":"layer","type":"int","value":3},{"name":"group","type":"int","value":0},{"name":"id","type":"int","value":31},{"name":"fh_layer","type":"int","value":3},{"name":"fh_group","type":"int","value":0},{"name":"fh_id","type":"int","value":31},{"name":"x1","type":"int","value":1913},{"name":"x2","type":"int","value":1913},{"name":"y1","type":"int","value":2280},{"name":"y2","type":"int","value":2340},{"name":"next","type":"int","value":18},{"name":"prev","type":"int","value":46}],"polyline":[{"x":0,"y":0},{"x":0,"y":60}]},{"id":489,"x":810,"y":2205,"visible":true,"properties":[{"name":"layer","type":"int","value":3},{"name":"group","type":"int","value":0},{"name":"id","type":"int","value":32},{"name":"fh_layer","type":"int","value":3},{"name":"fh_group","type":"int","value":0},{"name":"fh_id","type":"int","value":32},{"name":"x1","type":"int","value":810},{"name":"x2","type":"int","value":900},{"name":"y1","type":"int","value":2205},{"name":"y2","type":"int","value":2205},{"name":"next","type":"int","value":29},{"name":"prev","type":"int","value":36}],"polyline":[{"x":0,"y":0},{"x":90,"y":0}]},{"id":490,"x":540,"y":2145,"visible":true,"properties":[{"name":"layer","type":"int","value":3},{"name":"group","type":"int","value":0},{"name":"id","type":"int","value":33},{"name":"fh_layer","type":"int","value":3},{"name":"fh_group","type":"int","value":0},{"name":"fh_id","type":"int","value":33},{"name":"x1","type":"int","value":540},{"name":"x2","type":"int","value":630},{"name":"y1","type":"int","value":2145},{"name":"y2","type":"int","value":2145},{"name":"next","type":"int","value":34},{"name":"prev","type":"int","value":41}],"polyline":[{"x":0,"y":0},{"x":90,"y":0}]},{"id":491,"x":630,"y":2145,"visible":true,"properties":[{"name":"layer","type":"int","value":3},{"name":"group","type":"int","value":0},{"name":"id","type":"int","value":34},{"name":"fh_layer","type":"int","value":3},{"name":"fh_group","type":"int","value":0},{"name":"fh_id","type":"int","value":34},{"name":"x1","type":"int","value":630},{"name":"x2","type":"int","value":720},{"name":"y1","type":"int","value":2145},{"name":"y2","type":"int","value":2145},{"name":"next","type":"int","value":36},{"name":"prev","type":"int","value":33}],"polyline":[{"x":0,"y":0},{"x":90,"y":0}]},{"id":492,"x":-113,"y":2220,"visible":true,"properties":[{"name":"layer","type":"int","value":3},{"name":"group","type":"int","value":0},{"name":"id","type":"int","value":35},{"name":"fh_layer","type":"int","value":3},{"name":"fh_group","type":"int","value":0},{"name":"fh_id","type":"int","value":35},{"name":"x1","type":"int","value":-113},{"name":"x2","type":"int","value":-113},{"name":"y1","type":"int","value":2220},{"name":"y2","type":"int","value":2160},{"name":"next","type":"int","value":48},{"name":"prev","type":"int","value":45}],"polyline":[{"x":0,"y":0},{"x":0,"y":-60}]},{"id":493,"x":720,"y":2145,"visible":true,"properties":[{"name":"layer","type":"int","value":3},{"name":"group","type":"int","value":0},{"name":"id","type":"int","value":36},{"name":"fh_layer","type":"int","value":3},{"name":"fh_group","type":"int","value":0},{"name":"fh_id","type":"int","value":36},{"name":"x1","type":"int","value":720},{"name":"x2","type":"int","value":810},{"name":"y1","type":"int","value":2145},{"name":"y2","type":"int","value":2205},{"name":"next","type":"int","value":32},{"name":"prev","type":"int","value":34}],"polyline":[{"x":0,"y":0},{"x":90,"y":60}]},{"id":494,"x":990,"y":2205,"visible":true,"properties":[{"name":"layer","type":"int","value":3},{"name":"group","type":"int","value":0},{"name":"id","type":"int","value":37},{"name":"fh_layer","type":"int","value":3},{"name":"fh_group","type":"int","value":0},{"name":"fh_id","type":"int","value":37},{"name":"x1","type":"int","value":990},{"name":"x2","type":"int","value":1080},{"name":"y1","type":"int","value":2205},{"name":"y2","type":"int","value":2205},{"name":"next","type":"int","value":27},{"name":"prev","type":"int","value":29}],"polyline":[{"x":0,"y":0},{"x":90,"y":0}]},{"id":495,"x":90,"y":2145,"visible":true,"properties":[{"name":"layer","type":"int","value":3},{"name":"group","type":"int","value":0},{"name":"id","type":"int","value":38},{"name":"fh_layer","type":"int","value":3},{"name":"fh_group","type":"int","value":0},{"name":"fh_id","type":"int","value":38},{"name":"x1","type":"int","value":90},{"name":"x2","type":"int","value":180},{"name":"y1","type":"int","value":2145},{"name":"y2","type":"int","value":2145},{"name":"next","type":"int","value":43},{"name":"prev","type":"int","value":44}],"polyline":[{"x":0,"y":0},{"x":90,"y":0}]},{"id":496,"x":-90,"y":2145,"visible":true,"properties":[{"name":"layer","type":"int","value":3},{"name":"group","type":"int","value":0},{"name":"id","type":"int","value":39},{"name":"fh_layer","type":"int","value":3},{"name":"fh_group","type":"int","value":0},{"name":"fh_id","type":"int","value":39},{"name":"x1","type":"int","value":-90},{"name":"x2","type":"int","value":-67},{"name":"y1","type":"int","value":2145},{"name":"y2","type":"int","value":2145},{"name":"next","type":"int","value":50},{"name":"prev","type":"int","value":49}],"polyline":[{"x":0,"y":0},{"x":23,"y":0}]},{"id":497,"x":270,"y":2145,"visible":true,"properties":[{"name":"layer","type":"int","value":3},{"name":"group","type":"int","value":0},{"name":"id","type":"int","value":40},{"name":"fh_layer","type":"int","value":3},{"name":"fh_group","type":"int","value":0},{"name":"fh_id","type":"int","value":40},{"name":"x1","type":"int","value":270},{"name":"x2","type":"int","value":360},{"name":"y1","type":"int","value":2145},{"name":"y2","type":"int","value":2145},{"name":"next","type":"int","value":42},{"name":"prev","type":"int","value":43}],"polyline":[{"x":0,"y":0},{"x":90,"y":0}]},{"id":498,"x":450,"y":2145,"visible":true,"properties":[{"name":"layer","type":"int","value":3},{"name":"group","type":"int","value":0},{"name":"id","type":"int","value":41},{"name":"fh_layer","type":"int","value":3},{"name":"fh_group","type":"int","value":0},{"name":"fh_id","type":"int","value":41},{"name":"x1","type":"int","value":450},{"name":"x2","type":"int","value":540},{"name":"y1","type":"int","value":2145},{"name":"y2","type":"int","value":2145},{"name":"next","type":"int","value":33},{"name":"prev","type":"int","value":42}],"polyline":[{"x":0,"y":0},{"x":90,"y":0}]},{"id":499,"x":360,"y":2145,"visible":true,"properties":[{"name":"layer","type":"int","value":3},{"name":"group","type":"int","value":0},{"name":"id","type":"int","value":42},{"name":"fh_layer","type":"int","value":3},{"name":"fh_group","type":"int","value":0},{"name":"fh_id","type":"int","value":42},{"name":"x1","type":"int","value":360},{"name":"x2","type":"int","value":450},{"name":"y1","type":"int","value":2145},{"name":"y2","type":"int","value":2145},{"name":"next","type":"int","value":41},{"name":"prev","type":"int","value":40}],"polyline":[{"x":0,"y":0},{"x":90,"y":0}]},{"id":500,"x":180,"y":2145,"visible":true,"properties":[{"name":"layer","type":"int","value":3},{"name":"group","type":"int","value":0},{"name":"id","type":"int","value":43},{"name":"fh_layer","type":"int","value":3},{"name":"fh_group","type":"int","value":0},{"name":"fh_id","type":"int","value":43},{"name":"x1","type":"int","value":180},{"name":"x2","type":"int","value":270},{"name":"y1","type":"int","value":2145},{"name":"y2","type":"int","value":2145},{"name":"next","type":"int","value":40},{"name":"prev","type":"int","value":38}],"polyline":[{"x":0,"y":0},{"x":90,"y":0}]},{"id":501,"x":0,"y":2145,"visible":true,"properties":[{"name":"layer","type":"int","value":3},{"name":"group","type":"int","value":0},{"name":"id","type":"int","value":44},{"name":"fh_layer","type":"int","value":3},{"name":"fh_group","type":"int","value":0},{"name":"fh_id","type":"int","value":44},{"name":"x1","type":"int","value":0},{"name":"x2","type":"int","value":90},{"name":"y1","type":"int","value":2145},{"name":"y2","type":"int","value":2145},{"name":"next","type":"int","value":38},{"name":"prev","type":"int","value":50}],"polyline":[{"x":0,"y":0},{"x":90,"y":0}]},{"id":502,"x":-113,"y":2280,"visible":true,"properties":[{"name":"layer","type":"int","value":3},{"name":"group","type":"int","value":0},{"name":"id","type":"int","value":45},{"name":"fh_layer","type":"int","value":3},{"name":"fh_group","type":"int","value":0},{"name":"fh_id","type":"int","value":45},{"name":"x1","type":"int","value":-113},{"name":"x2","type":"int","value":-113},{"name":"y1","type":"int","value":2280},{"name":"y2","type":"int","value":2220},{"name":"next","type":"int","value":35},{"name":"prev","type":"int","value":54}],"polyline":[{"x":0,"y":0},{"x":0,"y":-60}]},{"id":503,"x":1913,"y":2220,"visible":true,"properties":[{"name":"layer","type":"int","value":3},{"name":"group","type":"int","value":0},{"name":"id","type":"int","value":46},{"name":"fh_layer","type":"int","value":3},{"name":"fh_group","type":"int","value":0},{"name":"fh_id","type":"int","value":46},{"name":"x1","type":"int","value":1913},{"name":"x2","type":"int","value":1913},{"name":"y1","type":"int","value":2220},{"name":"y2","type":"int","value":2280},{"name":"next","type":"int","value":31},{"name":"prev","type":"int","value":17}],"polyline":[{"x":0,"y":0},{"x":0,"y":60}]},{"id":504,"x":-113,"y":2580,"visible":true,"properties":[{"name":"layer","type":"int","value":3},{"name":"group","type":"int","value":0},{"name":"id","type":"int","value":47},{"name":"fh_layer","type":"int","value":3},{"name":"fh_group","type":"int","value":0},{"name":"fh_id","type":"int","value":47},{"name":"x1","type":"int","value":-113},{"name":"x2","type":"int","value":-113},{"name":"y1","type":"int","value":2580},{"name":"y2","type":"int","value":2520},{"name":"next","type":"int","value":51},{"name":"prev","type":"int","value":0}],"polyline":[{"x":0,"y":0},{"x":0,"y":-60}]},{"id":505,"x":-113,"y":2160,"visible":true,"properties":[{"name":"layer","type":"int","value":3},{"name":"group","type":"int","value":0},{"name":"id","type":"int","value":48},{"name":"fh_layer","type":"int","value":3},{"name":"fh_group","type":"int","value":0},{"name":"fh_id","type":"int","value":48},{"name":"x1","type":"int","value":-113},{"name":"x2","type":"int","value":-113},{"name":"y1","type":"int","value":2160},{"name":"y2","type":"int","value":2145},{"name":"next","type":"int","value":49},{"name":"prev","type":"int","value":35}],"polyline":[{"x":0,"y":0},{"x":0,"y":-15}]},{"id":506,"x":-113,"y":2145,"visible":true,"properties":[{"name":"layer","type":"int","value":3},{"name":"group","type":"int","value":0},{"name":"id","type":"int","value":49},{"name":"fh_layer","type":"int","value":3},{"name":"fh_group","type":"int","value":0},{"name":"fh_id","type":"int","value":49},{"name":"x1","type":"int","value":-113},{"name":"x2","type":"int","value":-90},{"name":"y1","type":"int","value":2145},{"name":"y2","type":"int","value":2145},{"name":"next","type":"int","value":39},{"name":"prev","type":"int","value":48}],"polyline":[{"x":0,"y":0},{"x":23,"y":0}]},{"id":507,"x":-67,"y":2145,"visible":true,"properties":[{"name":"layer","type":"int","value":3},{"name":"group","type":"int","value":0},{"name":"id","type":"int","value":50},{"name":"fh_layer","type":"int","value":3},{"name":"fh_group","type":"int","value":0},{"name":"fh_id","type":"int","value":50},{"name":"x1","type":"int","value":-67},{"name":"x2","type":"int","value":0},{"name":"y1","type":"int","value":2145},{"name":"y2","type":"int","value":2145},{"name":"next","type":"int","value":44},{"name":"prev","type":"int","value":39}],"polyline":[{"x":0,"y":0},{"x":67,"y":0}]},{"id":508,"x":-113,"y":2520,"visible":true,"properties":[{"name":"layer","type":"int","value":3},{"name":"group","type":"int","value":0},{"name":"id","type":"int","value":51},{"name":"fh_layer","type":"int","value":3},{"name":"fh_group","type":"int","value":0},{"name":"fh_id","type":"int","value":51},{"name":"x1","type":"int","value":-113},{"name":"x2","type":"int","value":-113},{"name":"y1","type":"int","value":2520},{"name":"y2","type":"int","value":2460},{"name":"next","type":"int","value":52},{"name":"prev","type":"int","value":47}],"polyline":[{"x":0,"y":0},{"x":0,"y":-60}]},{"id":509,"x":-113,"y":2460,"visible":true,"properties":[{"name":"layer","type":"int","value":3},{"name":"group","type":"int","value":0},{"name":"id","type":"int","value":52},{"name":"fh_layer","type":"int","value":3},{"name":"fh_group","type":"int","value":0},{"name":"fh_id","type":"int","value":52},{"name":"x1","type":"int","value":-113},{"name":"x2","type":"int","value":-113},{"name":"y1","type":"int","value":2460},{"name":"y2","type":"int","value":2400},{"name":"next","type":"int","value":53},{"name":"prev","type":"int","value":51}],"polyline":[{"x":0,"y":0},{"x":0,"y":-60}]},{"id":510,"x":-113,"y":2400,"visible":true,"properties":[{"name":"layer","type":"int","value":3},{"name":"group","type":"int","value":0},{"name":"id","type":"int","value":53},{"name":"fh_layer","type":"int","value":3},{"name":"fh_group","type":"int","value":0},{"name":"fh_id","type":"int","value":53},{"name":"x1","type":"int","value":-113},{"name":"x2","type":"int","value":-113},{"name":"y1","type":"int","value":2400},{"name":"y2","type":"int","value":2340},{"name":"next","type":"int","value":54},{"name":"prev","type":"int","value":52}],"polyline":[{"x":0,"y":0},{"x":0,"y":-60}]},{"id":511,"x":-113,"y":2340,"visible":true,"properties":[{"name":"layer","type":"int","value":3},{"name":"group","type":"int","value":0},{"name":"id","type":"int","value":54},{"name":"fh_layer","type":"int","value":3},{"name":"fh_group","type":"int","value":0},{"name":"fh_id","type":"int","value":54},{"name":"x1","type":"int","value":-113},{"name":"x2","type":"int","value":-113},{"name":"y1","type":"int","value":2340},{"name":"y2","type":"int","value":2280},{"name":"next","type":"int","value":45},{"name":"prev","type":"int","value":53}],"polyline":[{"x":0,"y":0},{"x":0,"y":-60}]}]},{"id":27,"name":"ladderRope","type":"objectgroup","visible":true,"opacity":1,"objects":[{"id":512,"x":376,"y":1576,"visible":true,"properties":[{"name":"ladder_id","type":"int","value":1},{"name":"l","type":"int","value":0},{"name":"x","type":"int","value":376},{"name":"uf","type":"int","value":1},{"name":"y1","type":"int","value":1576},{"name":"y2","type":"int","value":1774},{"name":"page","type":"int","value":2}],"polyline":[{"x":0,"y":0},{"x":0,"y":198}]},{"id":513,"x":1078,"y":1614,"visible":true,"properties":[{"name":"ladder_id","type":"int","value":2},{"name":"l","type":"int","value":0},{"name":"x","type":"int","value":1078},{"name":"uf","type":"int","value":1},{"name":"y1","type":"int","value":1614},{"name":"y2","type":"int","value":1845},{"name":"page","type":"int","value":2}],"polyline":[{"x":0,"y":0},{"x":0,"y":231}]},{"id":514,"x":510,"y":843,"visible":true,"properties":[{"name":"ladder_id","type":"int","value":3},{"name":"l","type":"int","value":0},{"name":"x","type":"int","value":510},{"name":"uf","type":"int","value":1},{"name":"y1","type":"int","value":843},{"name":"y2","type":"int","value":950},{"name":"page","type":"int","value":2}],"polyline":[{"x":0,"y":0},{"x":0,"y":107}]},{"id":515,"x":556,"y":983,"visible":true,"properties":[{"name":"ladder_id","type":"int","value":4},{"name":"l","type":"int","value":0},{"name":"x","type":"int","value":556},{"name":"uf","type":"int","value":1},{"name":"y1","type":"int","value":983},{"name":"y2","type":"int","value":1216},{"name":"page","type":"int","value":2}],"polyline":[{"x":0,"y":0},{"x":0,"y":233}]},{"id":516,"x":336,"y":902,"visible":true,"properties":[{"name":"ladder_id","type":"int","value":5},{"name":"l","type":"int","value":0},{"name":"x","type":"int","value":336},{"name":"uf","type":"int","value":1},{"name":"y1","type":"int","value":902},{"name":"y2","type":"int","value":1225},{"name":"page","type":"int","value":2}],"polyline":[{"x":0,"y":0},{"x":0,"y":323}]},{"id":517,"x":322,"y":1817,"visible":true,"properties":[{"name":"ladder_id","type":"int","value":6},{"name":"l","type":"int","value":0},{"name":"x","type":"int","value":322},{"name":"uf","type":"int","value":1},{"name":"y1","type":"int","value":1817},{"name":"y2","type":"int","value":2137},{"name":"page","type":"int","value":3}],"polyline":[{"x":0,"y":0},{"x":0,"y":320}]},{"id":518,"x":1037,"y":1877,"visible":true,"properties":[{"name":"ladder_id","type":"int","value":7},{"name":"l","type":"int","value":0},{"name":"x","type":"int","value":1037},{"name":"uf","type":"int","value":1},{"name":"y1","type":"int","value":1877},{"name":"y2","type":"int","value":2198},{"name":"page","type":"int","value":3}],"polyline":[{"x":0,"y":0},{"x":0,"y":321}]}]},{"id":28,"name":"miniMap","type":"objectgroup","visible":true,"opacity":1,"objects":[{"id":519,"x":154,"y":-470,"visible":true,"properties":[{"name":"mag","type":"int","value":4},{"name":"centerX","type":"int","value":154},{"name":"centerY","type":"int","value":-470},{"name":"canvas_path","type":"string","value":"../../images/30557.png"},{"name":"canvas_width","type":"int","value":131},{"name":"canvas_height","type":"int","value":137},{"name":"canvas_origin_x","type":"int","value":0},{"name":"canvas_origin_y","type":"int","value":0}],"point":true}]}],"tilesets":[{"firstgid":1,"source":"../../tilesets/bg_dryRock.tsj"},{"firstgid":23,"source":"../../tilesets/tile_dryRock.tsj"},{"firstgid":44,"source":"../../tilesets/obj_connect_rope_0.tsj"},{"firstgid":48,"source":"../../tilesets/obj_acc1_dryRock_rock.tsj"},{"firstgid":56,"source":"../../tilesets/obj_guide_dryRock_bone.tsj"},{"firstgid":62,"source":"../../tilesets/obj_acc1_dryRock_nature.tsj"},{"firstgid":86,"source":"../../tilesets/obj_acc1_dryRock_artificiality.tsj"}],"properties":[{"name":"bgm","type":"string","value":"Bgm00/Nightmare"},{"name":"swim","type":"int","value":0},{"name":"town","type":"int","value":0},{"name":"cloud","type":"int","value":1},{"name":"mapMark","type":"string","value":"Perion"},{"name":"mobRate","type":"float","value":1.0999982357025146},{"name":"version","type":"int","value":10},{"name":"returnMap","type":"int","value":102000000},{"name":"fieldLimit","type":"int","value":0},{"name":"hideMinimap","type":"int","value":0},{"name":"forcedReturn","type":"int","value":999999999}]}