{"type":"map","orientation":"orthogonal","renderorder":"right-down","infinite":false,"tilewidth":1,"tileheight":1,"width":944,"height":1260,"nextlayerid":20,"nextobjectid":127,"layers":[{"id":1,"name":"layer_0_obj","type":"objectgroup","visible":true,"opacity":1,"objects":[{"id":1,"x":-1030,"y":-84,"visible":true,"properties":[{"name":"layer","type":"int","value":0},{"name":"resource_index","type":"int","value":0},{"name":"oS","type":"string","value":"Tdungeon"},{"name":"l0","type":"string","value":"mushCatle"},{"name":"l1","type":"string","value":"wool"},{"name":"l2","type":"string","value":"2"},{"name":"z","type":"int","value":9},{"name":"zM","type":"int","value":13},{"name":"f","type":"int","value":0}],"gid":81,"width":154,"height":120},{"id":2,"x":-876,"y":-84,"visible":true,"properties":[{"name":"layer","type":"int","value":0},{"name":"resource_index","type":"int","value":1},{"name":"oS","type":"string","value":"Tdungeon"},{"name":"l0","type":"string","value":"mushCatle"},{"name":"l1","type":"string","value":"wool"},{"name":"l2","type":"string","value":"3"},{"name":"z","type":"int","value":9},{"name":"zM","type":"int","value":14},{"name":"f","type":"int","value":0}],"gid":84,"width":154,"height":120}]},{"id":2,"name":"layer_3_obj","type":"objectgroup","visible":true,"opacity":1,"objects":[{"id":59,"x":-1404,"y":-99,"visible":true,"properties":[{"name":"layer","type":"int","value":3},{"name":"resource_index","type":"int","value":0},{"name":"oS","type":"string","value":"Tdungeon"},{"name":"l0","type":"string","value":"mushCatle"},{"name":"l1","type":"string","value":"tower"},{"name":"l2","type":"string","value":"7"},{"name":"z","type":"int","value":7},{"name":"zM","type":"int","value":2},{"name":"f","type":"int","value":0}],"gid":102,"width":480,"height":858},{"id":60,"x":-795,"y":-97,"visible":true,"properties":[{"name":"layer","type":"int","value":3},{"name":"resource_index","type":"int","value":1},{"name":"oS","type":"string","value":"Tdungeon"},{"name":"l0","type":"string","value":"mushCatle"},{"name":"l1","type":"string","value":"tower"},{"name":"l2","type":"string","value":"4"},{"name":"z","type":"int","value":0},{"name":"zM","type":"int","value":2},{"name":"f","type":"int","value":0}],"gid":107,"width":477,"height":854},{"id":61,"x":-1143,"y":-98,"visible":true,"properties":[{"name":"layer","type":"int","value":3},{"name":"resource_index","type":"int","value":2},{"name":"oS","type":"string","value":"Tdungeon"},{"name":"l0","type":"string","value":"mushCatle"},{"name":"l1","type":"string","value":"gate"},{"name":"l2","type":"string","value":"2"},{"name":"z","type":"int","value":9},{"name":"zM","type":"int","value":2},{"name":"f","type":"int","value":0}],"gid":71,"width":114,"height":150},{"id":62,"x":-800,"y":-217,"visible":true,"properties":[{"name":"layer","type":"int","value":3},{"name":"resource_index","type":"int","value":3},{"name":"oS","type":"string","value":"Tdungeon"},{"name":"l0","type":"string","value":"mushCatle"},{"name":"l1","type":"string","value":"guide"},{"name":"l2","type":"string","value":"8"},{"name":"z","type":"int","value":12},{"name":"zM","type":"int","value":2},{"name":"f","type":"int","value":0}],"gid":93,"width":60,"height":66},{"id":63,"x":-783,"y":-91,"visible":true,"properties":[{"name":"layer","type":"int","value":3},{"name":"resource_index","type":"int","value":4},{"name":"oS","type":"string","value":"Tdungeon"},{"name":"l0","type":"string","value":"mushCatle"},{"name":"l1","type":"string","value":"guide"},{"name":"l2","type":"string","value":"0"},{"name":"z","type":"int","value":12},{"name":"zM","type":"int","value":2},{"name":"f","type":"int","value":0}],"gid":92,"width":28,"height":39},{"id":64,"x":-825,"y":-129,"visible":true,"properties":[{"name":"layer","type":"int","value":3},{"name":"resource_index","type":"int","value":5},{"name":"oS","type":"string","value":"Tdungeon"},{"name":"l0","type":"string","value":"mushCatle"},{"name":"l1","type":"string","value":"guide"},{"name":"l2","type":"string","value":"7"},{"name":"z","type":"int","value":12},{"name":"zM","type":"int","value":2},{"name":"f","type":"int","value":0}],"gid":96,"width":108,"height":88}]},{"id":3,"name":"layer_3_tile","type":"objectgroup","visible":true,"opacity":1,"objects":[{"id":3,"x":-990,"y":-60,"visible":true,"properties":[{"name":"layer","type":"int","value":3},{"name":"resource_index","type":"int","value":0},{"name":"u","type":"string","value":"enH0"},{"name":"no","type":"int","value":2},{"name":"zM","type":"int","value":2}],"gid":24,"width":90,"height":39},{"id":4,"x":-1170,"y":60,"visible":true,"properties":[{"name":"layer","type":"int","value":3},{"name":"resource_index","type":"int","value":1},{"name":"u","type":"string","value":"bsc"},{"name":"no","type":"int","value":0},{"name":"zM","type":"int","value":2}],"gid":25,"width":90,"height":60},{"id":5,"x":-1080,"y":0,"visible":true,"properties":[{"name":"layer","type":"int","value":3},{"name":"resource_index","type":"int","value":2},{"name":"u","type":"string","value":"bsc"},{"name":"no","type":"int","value":1},{"name":"zM","type":"int","value":2}],"gid":26,"width":91,"height":60},{"id":6,"x":-1080,"y":-60,"visible":true,"properties":[{"name":"layer","type":"int","value":3},{"name":"resource_index","type":"int","value":3},{"name":"u","type":"string","value":"enH0"},{"name":"no","type":"int","value":2},{"name":"zM","type":"int","value":2}],"gid":24,"width":90,"height":39},{"id":7,"x":-1170,"y":-60,"visible":true,"properties":[{"name":"layer","type":"int","value":3},{"name":"resource_index","type":"int","value":4},{"name":"u","type":"string","value":"enH0"},{"name":"no","type":"int","value":0},{"name":"zM","type":"int","value":2}],"gid":27,"width":90,"height":39},{"id":8,"x":-1170,"y":0,"visible":true,"properties":[{"name":"layer","type":"int","value":3},{"name":"resource_index","type":"int","value":5},{"name":"u","type":"string","value":"bsc"},{"name":"no","type":"int","value":2},{"name":"zM","type":"int","value":2}],"gid":28,"width":90,"height":60},{"id":9,"x":-990,"y":263,"visible":true,"properties":[{"name":"layer","type":"int","value":3},{"name":"resource_index","type":"int","value":6},{"name":"u","type":"string","value":"enH1"},{"name":"no","type":"int","value":1},{"name":"zM","type":"int","value":2}],"gid":35,"width":90,"height":23},{"id":10,"x":-1170,"y":120,"visible":true,"properties":[{"name":"layer","type":"int","value":3},{"name":"resource_index","type":"int","value":7},{"name":"u","type":"string","value":"bsc"},{"name":"no","type":"int","value":0},{"name":"zM","type":"int","value":2}],"gid":25,"width":90,"height":60},{"id":11,"x":-1080,"y":60,"visible":true,"properties":[{"name":"layer","type":"int","value":3},{"name":"resource_index","type":"int","value":8},{"name":"u","type":"string","value":"bsc"},{"name":"no","type":"int","value":4},{"name":"zM","type":"int","value":2}],"gid":30,"width":90,"height":60},{"id":12,"x":-990,"y":240,"visible":true,"properties":[{"name":"layer","type":"int","value":3},{"name":"resource_index","type":"int","value":9},{"name":"u","type":"string","value":"bsc"},{"name":"no","type":"int","value":1},{"name":"zM","type":"int","value":2}],"gid":26,"width":91,"height":60},{"id":13,"x":-900,"y":263,"visible":true,"properties":[{"name":"layer","type":"int","value":3},{"name":"resource_index","type":"int","value":10},{"name":"u","type":"string","value":"enH1"},{"name":"no","type":"int","value":1},{"name":"zM","type":"int","value":2}],"gid":35,"width":90,"height":23},{"id":14,"x":-1170,"y":240,"visible":true,"properties":[{"name":"layer","type":"int","value":3},{"name":"resource_index","type":"int","value":11},{"name":"u","type":"string","value":"bsc"},{"name":"no","type":"int","value":3},{"name":"zM","type":"int","value":2}],"gid":29,"width":90,"height":60},{"id":15,"x":-990,"y":180,"visible":true,"properties":[{"name":"layer","type":"int","value":3},{"name":"resource_index","type":"int","value":12},{"name":"u","type":"string","value":"bsc"},{"name":"no","type":"int","value":4},{"name":"zM","type":"int","value":2}],"gid":30,"width":90,"height":60},{"id":16,"x":-900,"y":0,"visible":true,"properties":[{"name":"layer","type":"int","value":3},{"name":"resource_index","type":"int","value":13},{"name":"u","type":"string","value":"bsc"},{"name":"no","type":"int","value":4},{"name":"zM","type":"int","value":2}],"gid":30,"width":90,"height":60},{"id":17,"x":-1170,"y":180,"visible":true,"properties":[{"name":"layer","type":"int","value":3},{"name":"resource_index","type":"int","value":14},{"name":"u","type":"string","value":"bsc"},{"name":"no","type":"int","value":2},{"name":"zM","type":"int","value":2}],"gid":28,"width":90,"height":60},{"id":18,"x":-900,"y":240,"visible":true,"properties":[{"name":"layer","type":"int","value":3},{"name":"resource_index","type":"int","value":15},{"name":"u","type":"string","value":"bsc"},{"name":"no","type":"int","value":3},{"name":"zM","type":"int","value":2}],"gid":29,"width":90,"height":60},{"id":19,"x":-810,"y":240,"visible":true,"properties":[{"name":"layer","type":"int","value":3},{"name":"resource_index","type":"int","value":16},{"name":"u","type":"string","value":"bsc"},{"name":"no","type":"int","value":4},{"name":"zM","type":"int","value":2}],"gid":30,"width":90,"height":60},{"id":20,"x":-1080,"y":240,"visible":true,"properties":[{"name":"layer","type":"int","value":3},{"name":"resource_index","type":"int","value":17},{"name":"u","type":"string","value":"bsc"},{"name":"no","type":"int","value":2},{"name":"zM","type":"int","value":2}],"gid":28,"width":90,"height":60},{"id":21,"x":-990,"y":120,"visible":true,"properties":[{"name":"layer","type":"int","value":3},{"name":"resource_index","type":"int","value":18},{"name":"u","type":"string","value":"bsc"},{"name":"no","type":"int","value":3},{"name":"zM","type":"int","value":2}],"gid":29,"width":90,"height":60},{"id":22,"x":-810,"y":258,"visible":true,"properties":[{"name":"layer","type":"int","value":3},{"name":"resource_index","type":"int","value":19},{"name":"u","type":"string","value":"enH1"},{"name":"no","type":"int","value":2},{"name":"zM","type":"int","value":2}],"gid":36,"width":90,"height":18},{"id":23,"x":-900,"y":120,"visible":true,"properties":[{"name":"layer","type":"int","value":3},{"name":"resource_index","type":"int","value":20},{"name":"u","type":"string","value":"bsc"},{"name":"no","type":"int","value":4},{"name":"zM","type":"int","value":2}],"gid":30,"width":90,"height":60},{"id":24,"x":-1080,"y":120,"visible":true,"properties":[{"name":"layer","type":"int","value":3},{"name":"resource_index","type":"int","value":21},{"name":"u","type":"string","value":"bsc"},{"name":"no","type":"int","value":1},{"name":"zM","type":"int","value":2}],"gid":26,"width":91,"height":60},{"id":25,"x":-1080,"y":258,"visible":true,"properties":[{"name":"layer","type":"int","value":3},{"name":"resource_index","type":"int","value":22},{"name":"u","type":"string","value":"enH1"},{"name":"no","type":"int","value":2},{"name":"zM","type":"int","value":2}],"gid":36,"width":90,"height":18},{"id":26,"x":-1080,"y":180,"visible":true,"properties":[{"name":"layer","type":"int","value":3},{"name":"resource_index","type":"int","value":23},{"name":"u","type":"string","value":"bsc"},{"name":"no","type":"int","value":1},{"name":"zM","type":"int","value":2}],"gid":26,"width":91,"height":60},{"id":27,"x":-900,"y":180,"visible":true,"properties":[{"name":"layer","type":"int","value":3},{"name":"resource_index","type":"int","value":24},{"name":"u","type":"string","value":"bsc"},{"name":"no","type":"int","value":0},{"name":"zM","type":"int","value":2}],"gid":25,"width":90,"height":60},{"id":28,"x":-990,"y":0,"visible":true,"properties":[{"name":"layer","type":"int","value":3},{"name":"resource_index","type":"int","value":25},{"name":"u","type":"string","value":"bsc"},{"name":"no","type":"int","value":4},{"name":"zM","type":"int","value":2}],"gid":30,"width":90,"height":60},{"id":29,"x":-630,"y":120,"visible":true,"properties":[{"name":"layer","type":"int","value":3},{"name":"resource_index","type":"int","value":26},{"name":"u","type":"string","value":"bsc"},{"name":"no","type":"int","value":4},{"name":"zM","type":"int","value":2}],"gid":30,"width":90,"height":60},{"id":30,"x":-630,"y":0,"visible":true,"properties":[{"name":"layer","type":"int","value":3},{"name":"resource_index","type":"int","value":27},{"name":"u","type":"string","value":"bsc"},{"name":"no","type":"int","value":4},{"name":"zM","type":"int","value":2}],"gid":30,"width":90,"height":60},{"id":31,"x":-900,"y":-60,"visible":true,"properties":[{"name":"layer","type":"int","value":3},{"name":"resource_index","type":"int","value":28},{"name":"u","type":"string","value":"enH0"},{"name":"no","type":"int","value":1},{"name":"zM","type":"int","value":2}],"gid":31,"width":90,"height":39},{"id":32,"x":-1170,"y":260,"visible":true,"properties":[{"name":"layer","type":"int","value":3},{"name":"resource_index","type":"int","value":29},{"name":"u","type":"string","value":"enH1"},{"name":"no","type":"int","value":0},{"name":"zM","type":"int","value":2}],"gid":34,"width":90,"height":20},{"id":33,"x":-810,"y":0,"visible":true,"properties":[{"name":"layer","type":"int","value":3},{"name":"resource_index","type":"int","value":30},{"name":"u","type":"string","value":"bsc"},{"name":"no","type":"int","value":4},{"name":"zM","type":"int","value":2}],"gid":30,"width":90,"height":60},{"id":34,"x":-720,"y":0,"visible":true,"properties":[{"name":"layer","type":"int","value":3},{"name":"resource_index","type":"int","value":31},{"name":"u","type":"string","value":"bsc"},{"name":"no","type":"int","value":3},{"name":"zM","type":"int","value":2}],"gid":29,"width":90,"height":60},{"id":35,"x":-720,"y":258,"visible":true,"properties":[{"name":"layer","type":"int","value":3},{"name":"resource_index","type":"int","value":32},{"name":"u","type":"string","value":"enH1"},{"name":"no","type":"int","value":2},{"name":"zM","type":"int","value":2}],"gid":36,"width":90,"height":18},{"id":36,"x":-720,"y":-60,"visible":true,"properties":[{"name":"layer","type":"int","value":3},{"name":"resource_index","type":"int","value":33},{"name":"u","type":"string","value":"enH0"},{"name":"no","type":"int","value":2},{"name":"zM","type":"int","value":2}],"gid":24,"width":90,"height":39},{"id":37,"x":-630,"y":60,"visible":true,"properties":[{"name":"layer","type":"int","value":3},{"name":"resource_index","type":"int","value":34},{"name":"u","type":"string","value":"bsc"},{"name":"no","type":"int","value":1},{"name":"zM","type":"int","value":2}],"gid":26,"width":91,"height":60},{"id":38,"x":-630,"y":261,"visible":true,"properties":[{"name":"layer","type":"int","value":3},{"name":"resource_index","type":"int","value":35},{"name":"u","type":"string","value":"enH1"},{"name":"no","type":"int","value":3},{"name":"zM","type":"int","value":2}],"gid":33,"width":90,"height":21},{"id":39,"x":-720,"y":120,"visible":true,"properties":[{"name":"layer","type":"int","value":3},{"name":"resource_index","type":"int","value":36},{"name":"u","type":"string","value":"bsc"},{"name":"no","type":"int","value":1},{"name":"zM","type":"int","value":2}],"gid":26,"width":91,"height":60},{"id":40,"x":-810,"y":120,"visible":true,"properties":[{"name":"layer","type":"int","value":3},{"name":"resource_index","type":"int","value":37},{"name":"u","type":"string","value":"bsc"},{"name":"no","type":"int","value":2},{"name":"zM","type":"int","value":2}],"gid":28,"width":90,"height":60},{"id":41,"x":-810,"y":-60,"visible":true,"properties":[{"name":"layer","type":"int","value":3},{"name":"resource_index","type":"int","value":38},{"name":"u","type":"string","value":"enH0"},{"name":"no","type":"int","value":4},{"name":"zM","type":"int","value":2}],"gid":32,"width":90,"height":39},{"id":42,"x":-810,"y":180,"visible":true,"properties":[{"name":"layer","type":"int","value":3},{"name":"resource_index","type":"int","value":39},{"name":"u","type":"string","value":"bsc"},{"name":"no","type":"int","value":1},{"name":"zM","type":"int","value":2}],"gid":26,"width":91,"height":60},{"id":43,"x":-720,"y":240,"visible":true,"properties":[{"name":"layer","type":"int","value":3},{"name":"resource_index","type":"int","value":40},{"name":"u","type":"string","value":"bsc"},{"name":"no","type":"int","value":2},{"name":"zM","type":"int","value":2}],"gid":28,"width":90,"height":60},{"id":44,"x":-720,"y":180,"visible":true,"properties":[{"name":"layer","type":"int","value":3},{"name":"resource_index","type":"int","value":41},{"name":"u","type":"string","value":"bsc"},{"name":"no","type":"int","value":1},{"name":"zM","type":"int","value":2}],"gid":26,"width":91,"height":60},{"id":45,"x":-630,"y":240,"visible":true,"properties":[{"name":"layer","type":"int","value":3},{"name":"resource_index","type":"int","value":42},{"name":"u","type":"string","value":"bsc"},{"name":"no","type":"int","value":3},{"name":"zM","type":"int","value":2}],"gid":29,"width":90,"height":60},{"id":46,"x":-990,"y":60,"visible":true,"properties":[{"name":"layer","type":"int","value":3},{"name":"resource_index","type":"int","value":43},{"name":"u","type":"string","value":"bsc"},{"name":"no","type":"int","value":2},{"name":"zM","type":"int","value":2}],"gid":28,"width":90,"height":60},{"id":47,"x":-720,"y":60,"visible":true,"properties":[{"name":"layer","type":"int","value":3},{"name":"resource_index","type":"int","value":44},{"name":"u","type":"string","value":"bsc"},{"name":"no","type":"int","value":3},{"name":"zM","type":"int","value":2}],"gid":29,"width":90,"height":60},{"id":48,"x":-630,"y":-60,"visible":true,"properties":[{"name":"layer","type":"int","value":3},{"name":"resource_index","type":"int","value":45},{"name":"u","type":"string","value":"enH0"},{"name":"no","type":"int","value":0},{"name":"zM","type":"int","value":2}],"gid":27,"width":90,"height":39},{"id":49,"x":-810,"y":60,"visible":true,"properties":[{"name":"layer","type":"int","value":3},{"name":"resource_index","type":"int","value":46},{"name":"u","type":"string","value":"bsc"},{"name":"no","type":"int","value":0},{"name":"zM","type":"int","value":2}],"gid":25,"width":90,"height":60},{"id":50,"x":-630,"y":180,"visible":true,"properties":[{"name":"layer","type":"int","value":3},{"name":"resource_index","type":"int","value":47},{"name":"u","type":"string","value":"bsc"},{"name":"no","type":"int","value":1},{"name":"zM","type":"int","value":2}],"gid":26,"width":91,"height":60},{"id":51,"x":-900,"y":60,"visible":true,"properties":[{"name":"layer","type":"int","value":3},{"name":"resource_index","type":"int","value":48},{"name":"u","type":"string","value":"bsc"},{"name":"no","type":"int","value":0},{"name":"zM","type":"int","value":2}],"gid":25,"width":90,"height":60},{"id":52,"x":-1350,"y":0,"visible":true,"properties":[{"name":"layer","type":"int","value":3},{"name":"resource_index","type":"int","value":49},{"name":"u","type":"string","value":"bsc"},{"name":"no","type":"int","value":2},{"name":"zM","type":"int","value":3}],"gid":28,"width":90,"height":60},{"id":53,"x":-1350,"y":263,"visible":true,"properties":[{"name":"layer","type":"int","value":3},{"name":"resource_index","type":"int","value":50},{"name":"u","type":"string","value":"enH1"},{"name":"no","type":"int","value":1},{"name":"zM","type":"int","value":3}],"gid":35,"width":90,"height":23},{"id":54,"x":-1350,"y":180,"visible":true,"properties":[{"name":"layer","type":"int","value":3},{"name":"resource_index","type":"int","value":51},{"name":"u","type":"string","value":"bsc"},{"name":"no","type":"int","value":0},{"name":"zM","type":"int","value":3}],"gid":25,"width":90,"height":60},{"id":55,"x":-1350,"y":-60,"visible":true,"properties":[{"name":"layer","type":"int","value":3},{"name":"resource_index","type":"int","value":52},{"name":"u","type":"string","value":"enH0"},{"name":"no","type":"int","value":2},{"name":"zM","type":"int","value":3}],"gid":24,"width":90,"height":39},{"id":56,"x":-1350,"y":240,"visible":true,"properties":[{"name":"layer","type":"int","value":3},{"name":"resource_index","type":"int","value":53},{"name":"u","type":"string","value":"bsc"},{"name":"no","type":"int","value":0},{"name":"zM","type":"int","value":3}],"gid":25,"width":90,"height":60},{"id":57,"x":-1350,"y":120,"visible":true,"properties":[{"name":"layer","type":"int","value":3},{"name":"resource_index","type":"int","value":54},{"name":"u","type":"string","value":"bsc"},{"name":"no","type":"int","value":4},{"name":"zM","type":"int","value":3}],"gid":30,"width":90,"height":60},{"id":58,"x":-1350,"y":60,"visible":true,"properties":[{"name":"layer","type":"int","value":3},{"name":"resource_index","type":"int","value":55},{"name":"u","type":"string","value":"bsc"},{"name":"no","type":"int","value":3},{"name":"zM","type":"int","value":3}],"gid":29,"width":90,"height":60}]},{"id":4,"name":"layer_4_obj","type":"objectgroup","visible":true,"opacity":1,"objects":[{"id":87,"x":-1321,"y":60,"visible":true,"properties":[{"name":"layer","type":"int","value":4},{"name":"resource_index","type":"int","value":0},{"name":"oS","type":"string","value":"Tdungeon"},{"name":"l0","type":"string","value":"mushCatle"},{"name":"l1","type":"string","value":"tower"},{"name":"l2","type":"string","value":"8"},{"name":"z","type":"int","value":9},{"name":"zM","type":"int","value":4},{"name":"f","type":"int","value":0}],"gid":104,"width":191,"height":159},{"id":88,"x":-1321,"y":253,"visible":true,"properties":[{"name":"layer","type":"int","value":4},{"name":"resource_index","type":"int","value":1},{"name":"oS","type":"string","value":"Tdungeon"},{"name":"l0","type":"string","value":"mushCatle"},{"name":"l1","type":"string","value":"tower"},{"name":"l2","type":"string","value":"9"},{"name":"z","type":"int","value":9},{"name":"zM","type":"int","value":5},{"name":"f","type":"int","value":0}],"gid":105,"width":173,"height":193},{"id":89,"x":-1349,"y":306,"visible":true,"properties":[{"name":"layer","type":"int","value":4},{"name":"resource_index","type":"int","value":2},{"name":"oS","type":"string","value":"Tdungeon"},{"name":"l0","type":"string","value":"mushCatle"},{"name":"l1","type":"string","value":"forest"},{"name":"l2","type":"string","value":"0"},{"name":"z","type":"int","value":11},{"name":"zM","type":"int","value":4},{"name":"f","type":"int","value":0}],"gid":114,"width":569,"height":309},{"id":90,"x":-550,"y":60,"visible":true,"properties":[{"name":"layer","type":"int","value":4},{"name":"resource_index","type":"int","value":3},{"name":"oS","type":"string","value":"Tdungeon"},{"name":"l0","type":"string","value":"mushCatle"},{"name":"l1","type":"string","value":"tower"},{"name":"l2","type":"string","value":"5"},{"name":"z","type":"int","value":9},{"name":"zM","type":"int","value":6},{"name":"f","type":"int","value":0}],"gid":109,"width":167,"height":159},{"id":91,"x":-552,"y":252,"visible":true,"properties":[{"name":"layer","type":"int","value":4},{"name":"resource_index","type":"int","value":4},{"name":"oS","type":"string","value":"Tdungeon"},{"name":"l0","type":"string","value":"mushCatle"},{"name":"l1","type":"string","value":"tower"},{"name":"l2","type":"string","value":"6"},{"name":"z","type":"int","value":9},{"name":"zM","type":"int","value":6},{"name":"f","type":"int","value":0}],"gid":108,"width":166,"height":192},{"id":92,"x":-654,"y":0,"visible":true,"properties":[{"name":"layer","type":"int","value":4},{"name":"resource_index","type":"int","value":5},{"name":"oS","type":"string","value":"signboard"},{"name":"l0","type":"string","value":"market"},{"name":"l1","type":"string","value":"arrow"},{"name":"l2","type":"string","value":"1"},{"name":"z","type":"int","value":14},{"name":"zM","type":"int","value":11},{"name":"f","type":"int","value":0}],"gid":64,"width":45,"height":58},{"id":93,"x":-723,"y":-78,"visible":true,"properties":[{"name":"layer","type":"int","value":4},{"name":"resource_index","type":"int","value":6},{"name":"oS","type":"string","value":"connect"},{"name":"l0","type":"string","value":"ladder"},{"name":"l1","type":"string","value":"59"},{"name":"l2","type":"string","value":"0"},{"name":"z","type":"int","value":9},{"name":"zM","type":"int","value":12},{"name":"f","type":"int","value":0}],"gid":57,"width":56,"height":27},{"id":94,"x":-715,"y":18,"visible":true,"properties":[{"name":"layer","type":"int","value":4},{"name":"resource_index","type":"int","value":7},{"name":"oS","type":"string","value":"connect"},{"name":"l0","type":"string","value":"ladder"},{"name":"l1","type":"string","value":"59"},{"name":"l2","type":"string","value":"3"},{"name":"z","type":"int","value":9},{"name":"zM","type":"int","value":10},{"name":"f","type":"int","value":0}],"gid":58,"width":48,"height":96},{"id":95,"x":-715,"y":114,"visible":true,"properties":[{"name":"layer","type":"int","value":4},{"name":"resource_index","type":"int","value":8},{"name":"oS","type":"string","value":"connect"},{"name":"l0","type":"string","value":"ladder"},{"name":"l1","type":"string","value":"59"},{"name":"l2","type":"string","value":"3"},{"name":"z","type":"int","value":9},{"name":"zM","type":"int","value":9},{"name":"f","type":"int","value":0}],"gid":58,"width":48,"height":96},{"id":96,"x":-715,"y":210,"visible":true,"properties":[{"name":"layer","type":"int","value":4},{"name":"resource_index","type":"int","value":9},{"name":"oS","type":"string","value":"connect"},{"name":"l0","type":"string","value":"ladder"},{"name":"l1","type":"string","value":"59"},{"name":"l2","type":"string","value":"3"},{"name":"z","type":"int","value":9},{"name":"zM","type":"int","value":8},{"name":"f","type":"int","value":0}],"gid":58,"width":48,"height":96},{"id":97,"x":-715,"y":242,"visible":true,"properties":[{"name":"layer","type":"int","value":4},{"name":"resource_index","type":"int","value":10},{"name":"oS","type":"string","value":"connect"},{"name":"l0","type":"string","value":"ladder"},{"name":"l1","type":"string","value":"59"},{"name":"l2","type":"string","value":"1"},{"name":"z","type":"int","value":9},{"name":"zM","type":"int","value":7},{"name":"f","type":"int","value":0}],"gid":59,"width":48,"height":32},{"id":98,"x":-715,"y":274,"visible":true,"properties":[{"name":"layer","type":"int","value":4},{"name":"resource_index","type":"int","value":11},{"name":"oS","type":"string","value":"connect"},{"name":"l0","type":"string","value":"ladder"},{"name":"l1","type":"string","value":"59"},{"name":"l2","type":"string","value":"1"},{"name":"z","type":"int","value":9},{"name":"zM","type":"int","value":1},{"name":"f","type":"int","value":0}],"gid":59,"width":48,"height":32},{"id":99,"x":-715,"y":293,"visible":true,"properties":[{"name":"layer","type":"int","value":4},{"name":"resource_index","type":"int","value":12},{"name":"oS","type":"string","value":"connect"},{"name":"l0","type":"string","value":"ladder"},{"name":"l1","type":"string","value":"59"},{"name":"l2","type":"string","value":"2"},{"name":"z","type":"int","value":9},{"name":"zM","type":"int","value":0},{"name":"f","type":"int","value":0}],"gid":60,"width":48,"height":19}]},{"id":5,"name":"layer_4_tile","type":"objectgroup","visible":true,"opacity":1,"objects":[{"id":65,"x":-1215,"y":355,"visible":true,"properties":[{"name":"layer","type":"int","value":4},{"name":"resource_index","type":"int","value":0},{"name":"u","type":"string","value":"enH1"},{"name":"no","type":"int","value":0},{"name":"zM","type":"int","value":0}],"gid":53,"width":90,"height":25},{"id":66,"x":-1215,"y":330,"visible":true,"properties":[{"name":"layer","type":"int","value":4},{"name":"resource_index","type":"int","value":1},{"name":"u","type":"string","value":"enH0"},{"name":"no","type":"int","value":0},{"name":"zM","type":"int","value":0}],"gid":54,"width":90,"height":25},{"id":67,"x":-945,"y":355,"visible":true,"properties":[{"name":"layer","type":"int","value":4},{"name":"resource_index","type":"int","value":2},{"name":"u","type":"string","value":"enH1"},{"name":"no","type":"int","value":0},{"name":"zM","type":"int","value":0}],"gid":53,"width":90,"height":25},{"id":68,"x":-945,"y":330,"visible":true,"properties":[{"name":"layer","type":"int","value":4},{"name":"resource_index","type":"int","value":3},{"name":"u","type":"string","value":"enH0"},{"name":"no","type":"int","value":0},{"name":"zM","type":"int","value":0}],"gid":54,"width":90,"height":25},{"id":69,"x":-1035,"y":355,"visible":true,"properties":[{"name":"layer","type":"int","value":4},{"name":"resource_index","type":"int","value":4},{"name":"u","type":"string","value":"enH1"},{"name":"no","type":"int","value":0},{"name":"zM","type":"int","value":0}],"gid":53,"width":90,"height":25},{"id":70,"x":-1035,"y":330,"visible":true,"properties":[{"name":"layer","type":"int","value":4},{"name":"resource_index","type":"int","value":5},{"name":"u","type":"string","value":"enH0"},{"name":"no","type":"int","value":0},{"name":"zM","type":"int","value":0}],"gid":54,"width":90,"height":25},{"id":71,"x":-1125,"y":330,"visible":true,"properties":[{"name":"layer","type":"int","value":4},{"name":"resource_index","type":"int","value":6},{"name":"u","type":"string","value":"enH0"},{"name":"no","type":"int","value":0},{"name":"zM","type":"int","value":0}],"gid":54,"width":90,"height":25},{"id":72,"x":-1125,"y":355,"visible":true,"properties":[{"name":"layer","type":"int","value":4},{"name":"resource_index","type":"int","value":7},{"name":"u","type":"string","value":"enH1"},{"name":"no","type":"int","value":0},{"name":"zM","type":"int","value":0}],"gid":53,"width":90,"height":25},{"id":73,"x":-855,"y":355,"visible":true,"properties":[{"name":"layer","type":"int","value":4},{"name":"resource_index","type":"int","value":8},{"name":"u","type":"string","value":"enH1"},{"name":"no","type":"int","value":0},{"name":"zM","type":"int","value":0}],"gid":53,"width":90,"height":25},{"id":74,"x":-855,"y":330,"visible":true,"properties":[{"name":"layer","type":"int","value":4},{"name":"resource_index","type":"int","value":9},{"name":"u","type":"string","value":"enH0"},{"name":"no","type":"int","value":0},{"name":"zM","type":"int","value":0}],"gid":54,"width":90,"height":25},{"id":75,"x":-675,"y":355,"visible":true,"properties":[{"name":"layer","type":"int","value":4},{"name":"resource_index","type":"int","value":10},{"name":"u","type":"string","value":"enH1"},{"name":"no","type":"int","value":0},{"name":"zM","type":"int","value":0}],"gid":53,"width":90,"height":25},{"id":76,"x":-675,"y":330,"visible":true,"properties":[{"name":"layer","type":"int","value":4},{"name":"resource_index","type":"int","value":11},{"name":"u","type":"string","value":"enH0"},{"name":"no","type":"int","value":0},{"name":"zM","type":"int","value":0}],"gid":54,"width":90,"height":25},{"id":77,"x":-765,"y":355,"visible":true,"properties":[{"name":"layer","type":"int","value":4},{"name":"resource_index","type":"int","value":12},{"name":"u","type":"string","value":"enH1"},{"name":"no","type":"int","value":0},{"name":"zM","type":"int","value":0}],"gid":53,"width":90,"height":25},{"id":78,"x":-765,"y":330,"visible":true,"properties":[{"name":"layer","type":"int","value":4},{"name":"resource_index","type":"int","value":13},{"name":"u","type":"string","value":"enH0"},{"name":"no","type":"int","value":0},{"name":"zM","type":"int","value":0}],"gid":54,"width":90,"height":25},{"id":79,"x":-1330,"y":355,"visible":true,"properties":[{"name":"layer","type":"int","value":4},{"name":"resource_index","type":"int","value":14},{"name":"u","type":"string","value":"edD"},{"name":"no","type":"int","value":0},{"name":"zM","type":"int","value":0}],"gid":56,"width":50,"height":25},{"id":80,"x":-1330,"y":330,"visible":true,"properties":[{"name":"layer","type":"int","value":4},{"name":"resource_index","type":"int","value":15},{"name":"u","type":"string","value":"edU"},{"name":"no","type":"int","value":0},{"name":"zM","type":"int","value":0}],"gid":55,"width":50,"height":25},{"id":81,"x":-585,"y":355,"visible":true,"properties":[{"name":"layer","type":"int","value":4},{"name":"resource_index","type":"int","value":16},{"name":"u","type":"string","value":"enH1"},{"name":"no","type":"int","value":0},{"name":"zM","type":"int","value":0}],"gid":53,"width":90,"height":25},{"id":82,"x":-585,"y":330,"visible":true,"properties":[{"name":"layer","type":"int","value":4},{"name":"resource_index","type":"int","value":17},{"name":"u","type":"string","value":"enH0"},{"name":"no","type":"int","value":0},{"name":"zM","type":"int","value":0}],"gid":54,"width":90,"height":25},{"id":83,"x":-495,"y":355,"visible":true,"properties":[{"name":"layer","type":"int","value":4},{"name":"resource_index","type":"int","value":18},{"name":"u","type":"string","value":"enH1"},{"name":"no","type":"int","value":0},{"name":"zM","type":"int","value":0}],"gid":53,"width":90,"height":25},{"id":84,"x":-495,"y":330,"visible":true,"properties":[{"name":"layer","type":"int","value":4},{"name":"resource_index","type":"int","value":19},{"name":"u","type":"string","value":"enH0"},{"name":"no","type":"int","value":0},{"name":"zM","type":"int","value":0}],"gid":54,"width":90,"height":25},{"id":85,"x":-1305,"y":355,"visible":true,"properties":[{"name":"layer","type":"int","value":4},{"name":"resource_index","type":"int","value":20},{"name":"u","type":"string","value":"enH1"},{"name":"no","type":"int","value":0},{"name":"zM","type":"int","value":0}],"gid":53,"width":90,"height":25},{"id":86,"x":-1305,"y":330,"visible":true,"properties":[{"name":"layer","type":"int","value":4},{"name":"resource_index","type":"int","value":21},{"name":"u","type":"string","value":"enH0"},{"name":"no","type":"int","value":0},{"name":"zM","type":"int","value":0}],"gid":54,"width":90,"height":25}]},{"id":6,"name":"background_back_0","type":"imagelayer","visible":true,"opacity":1,"image":"../../images/29403.png","imagewidth":44,"imageheight":44,"offsetx":-22,"offsety":-22,"repeatx":true,"repeaty":true,"parallaxx":1,"parallaxy":1,"properties":[{"name":"a","type":"int","value":255},{"name":"f","type":"int","value":0},{"name":"x","type":"int","value":0},{"name":"y","type":"int","value":0},{"name":"bS","type":"string","value":"mushCatle"},{"name":"cx","type":"int","value":0},{"name":"cy","type":"int","value":0},{"name":"no","type":"int","value":0},{"name":"rx","type":"int","value":0},{"name":"ry","type":"int","value":0},{"name":"ani","type":"int","value":0},{"name":"type","type":"int","value":3},{"name":"front","type":"int","value":0}]},{"id":7,"name":"background_back_1","type":"imagelayer","visible":true,"opacity":1,"image":"../../images/29404.png","imagewidth":11,"imageheight":340,"offsetx":-33,"offsety":-332,"repeatx":true,"repeaty":false,"parallaxx":1,"parallaxy":1,"properties":[{"name":"a","type":"int","value":255},{"name":"f","type":"int","value":0},{"name":"x","type":"int","value":-28},{"name":"y","type":"int","value":-162},{"name":"bS","type":"string","value":"mushCatle"},{"name":"cx","type":"int","value":0},{"name":"cy","type":"int","value":0},{"name":"no","type":"int","value":1},{"name":"rx","type":"int","value":0},{"name":"ry","type":"int","value":-10},{"name":"ani","type":"int","value":0},{"name":"type","type":"int","value":1},{"name":"front","type":"int","value":0}]},{"id":8,"name":"background_back_2","type":"imagelayer","visible":true,"opacity":1,"image":"../../images/29405.png","imagewidth":44,"imageheight":44,"offsetx":-13,"offsety":-376,"repeatx":true,"repeaty":false,"parallaxx":1,"parallaxy":1,"properties":[{"name":"a","type":"int","value":255},{"name":"f","type":"int","value":0},{"name":"x","type":"int","value":9},{"name":"y","type":"int","value":-354},{"name":"bS","type":"string","value":"mushCatle"},{"name":"cx","type":"int","value":0},{"name":"cy","type":"int","value":0},{"name":"no","type":"int","value":2},{"name":"rx","type":"int","value":0},{"name":"ry","type":"int","value":-10},{"name":"ani","type":"int","value":0},{"name":"type","type":"int","value":1},{"name":"front","type":"int","value":0}]},{"id":9,"name":"background_back_3","type":"imagelayer","visible":true,"opacity":1,"image":"../../images/29406.png","imagewidth":635,"imageheight":569,"offsetx":-339,"offsety":-329,"repeatx":true,"repeaty":false,"parallaxx":1,"parallaxy":1,"properties":[{"name":"a","type":"int","value":255},{"name":"f","type":"int","value":0},{"name":"x","type":"int","value":-22},{"name":"y","type":"int","value":-45},{"name":"bS","type":"string","value":"mushCatle"},{"name":"cx","type":"int","value":0},{"name":"cy","type":"int","value":0},{"name":"no","type":"int","value":3},{"name":"rx","type":"int","value":-30},{"name":"ry","type":"int","value":-30},{"name":"ani","type":"int","value":0},{"name":"type","type":"int","value":1},{"name":"front","type":"int","value":0}]},{"id":10,"name":"background_back_4","type":"imagelayer","visible":true,"opacity":1,"image":"../../images/29407.png","imagewidth":285,"imageheight":97,"offsetx":-158,"offsety":-178,"repeatx":true,"repeaty":false,"parallaxx":1,"parallaxy":1,"properties":[{"name":"a","type":"int","value":255},{"name":"f","type":"int","value":0},{"name":"x","type":"int","value":-16},{"name":"y","type":"int","value":-130},{"name":"bS","type":"string","value":"mushCatle"},{"name":"cx","type":"int","value":0},{"name":"cy","type":"int","value":0},{"name":"no","type":"int","value":4},{"name":"rx","type":"int","value":-40},{"name":"ry","type":"int","value":-55},{"name":"ani","type":"int","value":0},{"name":"type","type":"int","value":1},{"name":"front","type":"int","value":0}]},{"id":11,"name":"background_back_5","type":"imagelayer","visible":true,"opacity":1,"image":"../../images/29415.png","imagewidth":519,"imageheight":336,"offsetx":-798,"offsety":-141,"repeatx":true,"repeaty":false,"parallaxx":1,"parallaxy":1,"properties":[{"name":"a","type":"int","value":255},{"name":"f","type":"int","value":0},{"name":"x","type":"int","value":-539},{"name":"y","type":"int","value":27},{"name":"bS","type":"string","value":"mushCatle"},{"name":"cx","type":"int","value":0},{"name":"cy","type":"int","value":0},{"name":"no","type":"int","value":12},{"name":"rx","type":"int","value":-50},{"name":"ry","type":"int","value":-60},{"name":"ani","type":"int","value":0},{"name":"type","type":"int","value":1},{"name":"front","type":"int","value":0}]},{"id":12,"name":"background_back_6","type":"imagelayer","visible":true,"opacity":1,"image":"../../images/29444.png","imagewidth":142,"imageheight":221,"offsetx":-168,"offsety":-427,"repeatx":true,"repeaty":false,"parallaxx":1,"parallaxy":1,"properties":[{"name":"a","type":"int","value":255},{"name":"f","type":"int","value":0},{"name":"x","type":"int","value":-101},{"name":"y","type":"int","value":-319},{"name":"bS","type":"string","value":"mushCatle"},{"name":"cx","type":"int","value":1200},{"name":"cy","type":"int","value":0},{"name":"no","type":"int","value":6},{"name":"rx","type":"int","value":-5},{"name":"ry","type":"int","value":-60},{"name":"ani","type":"int","value":1},{"name":"type","type":"int","value":4},{"name":"front","type":"int","value":0}]},{"id":13,"name":"background_back_7","type":"imagelayer","visible":true,"opacity":1,"image":"../../images/29415.png","imagewidth":519,"imageheight":336,"offsetx":-279,"offsety":-304,"repeatx":true,"repeaty":false,"parallaxx":1,"parallaxy":1,"properties":[{"name":"a","type":"int","value":255},{"name":"f","type":"int","value":0},{"name":"x","type":"int","value":-20},{"name":"y","type":"int","value":-136},{"name":"bS","type":"string","value":"mushCatle"},{"name":"cx","type":"int","value":0},{"name":"cy","type":"int","value":0},{"name":"no","type":"int","value":12},{"name":"rx","type":"int","value":-50},{"name":"ry","type":"int","value":-60},{"name":"ani","type":"int","value":0},{"name":"type","type":"int","value":1},{"name":"front","type":"int","value":0}]},{"id":14,"name":"background_back_8","type":"imagelayer","visible":true,"opacity":1,"image":"../../images/29416.png","imagewidth":270,"imageheight":487,"offsetx":-264,"offsety":-433,"repeatx":true,"repeaty":false,"parallaxx":1,"parallaxy":1,"properties":[{"name":"a","type":"int","value":255},{"name":"f","type":"int","value":0},{"name":"x","type":"int","value":-129},{"name":"y","type":"int","value":-190},{"name":"bS","type":"string","value":"mushCatle"},{"name":"cx","type":"int","value":2000},{"name":"cy","type":"int","value":0},{"name":"no","type":"int","value":13},{"name":"rx","type":"int","value":-70},{"name":"ry","type":"int","value":-80},{"name":"ani","type":"int","value":0},{"name":"type","type":"int","value":1},{"name":"front","type":"int","value":0}]},{"id":15,"name":"background_back","type":"objectgroup","visible":true,"opacity":1,"objects":[{"id":100,"x":-101,"y":-319,"visible":true,"properties":[{"name":"image_layer_name","type":"string","value":"background_back_6"},{"name":"a","type":"int","value":255},{"name":"f","type":"int","value":0},{"name":"x","type":"int","value":-101},{"name":"y","type":"int","value":-319},{"name":"bS","type":"string","value":"mushCatle"},{"name":"cx","type":"int","value":1200},{"name":"cy","type":"int","value":0},{"name":"no","type":"int","value":6},{"name":"rx","type":"int","value":-5},{"name":"ry","type":"int","value":-60},{"name":"ani","type":"int","value":1},{"name":"type","type":"int","value":4},{"name":"front","type":"int","value":0}],"point":true}]},{"id":16,"name":"portal","type":"objectgroup","visible":true,"opacity":1,"objects":[{"id":101,"x":-1040,"y":-224,"visible":true,"properties":[{"name":"x","type":"int","value":-1040},{"name":"y","type":"int","value":-224},{"name":"pn","type":"string","value":"sp"},{"name":"pt","type":"int","value":0},{"name":"tm","type":"int","value":999999999},{"name":"tn","type":"string","value":""},{"name":"horizontalImpact","type":"int","value":0}],"point":true},{"id":102,"x":-1063,"y":-102,"visible":true,"properties":[{"name":"x","type":"int","value":-1063},{"name":"y","type":"int","value":-102},{"name":"pn","type":"string","value":"st00"},{"name":"pt","type":"int","value":1},{"name":"tm","type":"int","value":999999999},{"name":"tn","type":"string","value":""},{"name":"horizontalImpact","type":"int","value":0}],"point":true},{"id":103,"x":-693,"y":263,"visible":true,"properties":[{"name":"x","type":"int","value":-693},{"name":"y","type":"int","value":263},{"name":"pn","type":"string","value":"bottom00"},{"name":"pt","type":"int","value":3},{"name":"tm","type":"int","value":106020403},{"name":"tn","type":"string","value":"st00"},{"name":"delay","type":"int","value":0},{"name":"hRange","type":"int","value":1000},{"name":"script","type":"string","value":""},{"name":"vRange","type":"int","value":100},{"name":"onlyOnce","type":"int","value":0},{"name":"hideTooltip","type":"int","value":0},{"name":"horizontalImpact","type":"int","value":0}],"point":true}]},{"id":17,"name":"foothold","type":"objectgroup","visible":true,"opacity":1,"objects":[{"id":104,"x":-990,"y":-98,"visible":true,"properties":[{"name":"layer","type":"int","value":3},{"name":"group","type":"int","value":2},{"name":"id","type":"int","value":1},{"name":"fh_layer","type":"int","value":3},{"name":"fh_group","type":"int","value":2},{"name":"fh_id","type":"int","value":1},{"name":"x1","type":"int","value":-990},{"name":"x2","type":"int","value":-900},{"name":"y1","type":"int","value":-98},{"name":"y2","type":"int","value":-98},{"name":"next","type":"int","value":3},{"name":"prev","type":"int","value":2},{"name":"forbidFallDown","type":"int","value":1}],"polyline":[{"x":0,"y":0},{"x":90,"y":0}]},{"id":105,"x":-1080,"y":-98,"visible":true,"properties":[{"name":"layer","type":"int","value":3},{"name":"group","type":"int","value":2},{"name":"id","type":"int","value":2},{"name":"fh_layer","type":"int","value":3},{"name":"fh_group","type":"int","value":2},{"name":"fh_id","type":"int","value":2},{"name":"x1","type":"int","value":-1080},{"name":"x2","type":"int","value":-990},{"name":"y1","type":"int","value":-98},{"name":"y2","type":"int","value":-98},{"name":"next","type":"int","value":1},{"name":"prev","type":"int","value":8},{"name":"forbidFallDown","type":"int","value":1}],"polyline":[{"x":0,"y":0},{"x":90,"y":0}]},{"id":106,"x":-900,"y":-98,"visible":true,"properties":[{"name":"layer","type":"int","value":3},{"name":"group","type":"int","value":2},{"name":"id","type":"int","value":3},{"name":"fh_layer","type":"int","value":3},{"name":"fh_group","type":"int","value":2},{"name":"fh_id","type":"int","value":3},{"name":"x1","type":"int","value":-900},{"name":"x2","type":"int","value":-810},{"name":"y1","type":"int","value":-98},{"name":"y2","type":"int","value":-98},{"name":"next","type":"int","value":5},{"name":"prev","type":"int","value":1},{"name":"forbidFallDown","type":"int","value":1}],"polyline":[{"x":0,"y":0},{"x":90,"y":0}]},{"id":107,"x":-720,"y":-98,"visible":true,"properties":[{"name":"layer","type":"int","value":3},{"name":"group","type":"int","value":2},{"name":"id","type":"int","value":4},{"name":"fh_layer","type":"int","value":3},{"name":"fh_group","type":"int","value":2},{"name":"fh_id","type":"int","value":4},{"name":"x1","type":"int","value":-720},{"name":"x2","type":"int","value":-630},{"name":"y1","type":"int","value":-98},{"name":"y2","type":"int","value":-98},{"name":"next","type":"int","value":6},{"name":"prev","type":"int","value":5},{"name":"forbidFallDown","type":"int","value":1}],"polyline":[{"x":0,"y":0},{"x":90,"y":0}]},{"id":108,"x":-810,"y":-98,"visible":true,"properties":[{"name":"layer","type":"int","value":3},{"name":"group","type":"int","value":2},{"name":"id","type":"int","value":5},{"name":"fh_layer","type":"int","value":3},{"name":"fh_group","type":"int","value":2},{"name":"fh_id","type":"int","value":5},{"name":"x1","type":"int","value":-810},{"name":"x2","type":"int","value":-720},{"name":"y1","type":"int","value":-98},{"name":"y2","type":"int","value":-98},{"name":"next","type":"int","value":4},{"name":"prev","type":"int","value":3},{"name":"forbidFallDown","type":"int","value":1}],"polyline":[{"x":0,"y":0},{"x":90,"y":0}]},{"id":109,"x":-630,"y":-98,"visible":true,"properties":[{"name":"layer","type":"int","value":3},{"name":"group","type":"int","value":2},{"name":"id","type":"int","value":6},{"name":"fh_layer","type":"int","value":3},{"name":"fh_group","type":"int","value":2},{"name":"fh_id","type":"int","value":6},{"name":"x1","type":"int","value":-630},{"name":"x2","type":"int","value":-586},{"name":"y1","type":"int","value":-98},{"name":"y2","type":"int","value":-98},{"name":"next","type":"int","value":9},{"name":"prev","type":"int","value":4},{"name":"forbidFallDown","type":"int","value":1}],"polyline":[{"x":0,"y":0},{"x":44,"y":0}]},{"id":110,"x":-1121,"y":-900,"visible":true,"properties":[{"name":"layer","type":"int","value":3},{"name":"group","type":"int","value":2},{"name":"id","type":"int","value":7},{"name":"fh_layer","type":"int","value":3},{"name":"fh_group","type":"int","value":2},{"name":"fh_id","type":"int","value":7},{"name":"x1","type":"int","value":-1121},{"name":"x2","type":"int","value":-1121},{"name":"y1","type":"int","value":-900},{"name":"y2","type":"int","value":-98},{"name":"next","type":"int","value":8},{"name":"prev","type":"int","value":0}],"polyline":[{"x":0,"y":0},{"x":0,"y":802}]},{"id":111,"x":-1121,"y":-98,"visible":true,"properties":[{"name":"layer","type":"int","value":3},{"name":"group","type":"int","value":2},{"name":"id","type":"int","value":8},{"name":"fh_layer","type":"int","value":3},{"name":"fh_group","type":"int","value":2},{"name":"fh_id","type":"int","value":8},{"name":"x1","type":"int","value":-1121},{"name":"x2","type":"int","value":-1080},{"name":"y1","type":"int","value":-98},{"name":"y2","type":"int","value":-98},{"name":"next","type":"int","value":2},{"name":"prev","type":"int","value":7},{"name":"forbidFallDown","type":"int","value":1}],"polyline":[{"x":0,"y":0},{"x":41,"y":0}]},{"id":112,"x":-586,"y":-98,"visible":true,"properties":[{"name":"layer","type":"int","value":3},{"name":"group","type":"int","value":2},{"name":"id","type":"int","value":9},{"name":"fh_layer","type":"int","value":3},{"name":"fh_group","type":"int","value":2},{"name":"fh_id","type":"int","value":9},{"name":"x1","type":"int","value":-586},{"name":"x2","type":"int","value":-586},{"name":"y1","type":"int","value":-98},{"name":"y2","type":"int","value":-910},{"name":"next","type":"int","value":0},{"name":"prev","type":"int","value":6}],"polyline":[{"x":0,"y":0},{"x":0,"y":-812}]},{"id":113,"x":-1215,"y":305,"visible":true,"properties":[{"name":"layer","type":"int","value":4},{"name":"group","type":"int","value":0},{"name":"id","type":"int","value":10},{"name":"fh_layer","type":"int","value":4},{"name":"fh_group","type":"int","value":0},{"name":"fh_id","type":"int","value":10},{"name":"x1","type":"int","value":-1215},{"name":"x2","type":"int","value":-1125},{"name":"y1","type":"int","value":305},{"name":"y2","type":"int","value":305},{"name":"next","type":"int","value":13},{"name":"prev","type":"int","value":21}],"polyline":[{"x":0,"y":0},{"x":90,"y":0}]},{"id":114,"x":-945,"y":305,"visible":true,"properties":[{"name":"layer","type":"int","value":4},{"name":"group","type":"int","value":0},{"name":"id","type":"int","value":11},{"name":"fh_layer","type":"int","value":4},{"name":"fh_group","type":"int","value":0},{"name":"fh_id","type":"int","value":11},{"name":"x1","type":"int","value":-945},{"name":"x2","type":"int","value":-855},{"name":"y1","type":"int","value":305},{"name":"y2","type":"int","value":305},{"name":"next","type":"int","value":14},{"name":"prev","type":"int","value":12}],"polyline":[{"x":0,"y":0},{"x":90,"y":0}]},{"id":115,"x":-1035,"y":305,"visible":true,"properties":[{"name":"layer","type":"int","value":4},{"name":"group","type":"int","value":0},{"name":"id","type":"int","value":12},{"name":"fh_layer","type":"int","value":4},{"name":"fh_group","type":"int","value":0},{"name":"fh_id","type":"int","value":12},{"name":"x1","type":"int","value":-1035},{"name":"x2","type":"int","value":-945},{"name":"y1","type":"int","value":305},{"name":"y2","type":"int","value":305},{"name":"next","type":"int","value":11},{"name":"prev","type":"int","value":13}],"polyline":[{"x":0,"y":0},{"x":90,"y":0}]},{"id":116,"x":-1125,"y":305,"visible":true,"properties":[{"name":"layer","type":"int","value":4},{"name":"group","type":"int","value":0},{"name":"id","type":"int","value":13},{"name":"fh_layer","type":"int","value":4},{"name":"fh_group","type":"int","value":0},{"name":"fh_id","type":"int","value":13},{"name":"x1","type":"int","value":-1125},{"name":"x2","type":"int","value":-1035},{"name":"y1","type":"int","value":305},{"name":"y2","type":"int","value":305},{"name":"next","type":"int","value":12},{"name":"prev","type":"int","value":10}],"polyline":[{"x":0,"y":0},{"x":90,"y":0}]},{"id":117,"x":-855,"y":305,"visible":true,"properties":[{"name":"layer","type":"int","value":4},{"name":"group","type":"int","value":0},{"name":"id","type":"int","value":14},{"name":"fh_layer","type":"int","value":4},{"name":"fh_group","type":"int","value":0},{"name":"fh_id","type":"int","value":14},{"name":"x1","type":"int","value":-855},{"name":"x2","type":"int","value":-765},{"name":"y1","type":"int","value":305},{"name":"y2","type":"int","value":305},{"name":"next","type":"int","value":16},{"name":"prev","type":"int","value":11}],"polyline":[{"x":0,"y":0},{"x":90,"y":0}]},{"id":118,"x":-675,"y":305,"visible":true,"properties":[{"name":"layer","type":"int","value":4},{"name":"group","type":"int","value":0},{"name":"id","type":"int","value":15},{"name":"fh_layer","type":"int","value":4},{"name":"fh_group","type":"int","value":0},{"name":"fh_id","type":"int","value":15},{"name":"x1","type":"int","value":-675},{"name":"x2","type":"int","value":-585},{"name":"y1","type":"int","value":305},{"name":"y2","type":"int","value":305},{"name":"next","type":"int","value":19},{"name":"prev","type":"int","value":16}],"polyline":[{"x":0,"y":0},{"x":90,"y":0}]},{"id":119,"x":-765,"y":305,"visible":true,"properties":[{"name":"layer","type":"int","value":4},{"name":"group","type":"int","value":0},{"name":"id","type":"int","value":16},{"name":"fh_layer","type":"int","value":4},{"name":"fh_group","type":"int","value":0},{"name":"fh_id","type":"int","value":16},{"name":"x1","type":"int","value":-765},{"name":"x2","type":"int","value":-675},{"name":"y1","type":"int","value":305},{"name":"y2","type":"int","value":305},{"name":"next","type":"int","value":15},{"name":"prev","type":"int","value":14}],"polyline":[{"x":0,"y":0},{"x":90,"y":0}]},{"id":120,"x":-1344,"y":330,"visible":true,"properties":[{"name":"layer","type":"int","value":4},{"name":"group","type":"int","value":0},{"name":"id","type":"int","value":17},{"name":"fh_layer","type":"int","value":4},{"name":"fh_group","type":"int","value":0},{"name":"fh_id","type":"int","value":17},{"name":"x1","type":"int","value":-1344},{"name":"x2","type":"int","value":-1344},{"name":"y1","type":"int","value":330},{"name":"y2","type":"int","value":305},{"name":"next","type":"int","value":18},{"name":"prev","type":"int","value":0}],"polyline":[{"x":0,"y":0},{"x":0,"y":-25}]},{"id":121,"x":-1344,"y":305,"visible":true,"properties":[{"name":"layer","type":"int","value":4},{"name":"group","type":"int","value":0},{"name":"id","type":"int","value":18},{"name":"fh_layer","type":"int","value":4},{"name":"fh_group","type":"int","value":0},{"name":"fh_id","type":"int","value":18},{"name":"x1","type":"int","value":-1344},{"name":"x2","type":"int","value":-1266},{"name":"y1","type":"int","value":305},{"name":"y2","type":"int","value":305},{"name":"next","type":"int","value":21},{"name":"prev","type":"int","value":17}],"polyline":[{"x":0,"y":0},{"x":78,"y":0}]},{"id":122,"x":-585,"y":305,"visible":true,"properties":[{"name":"layer","type":"int","value":4},{"name":"group","type":"int","value":0},{"name":"id","type":"int","value":19},{"name":"fh_layer","type":"int","value":4},{"name":"fh_group","type":"int","value":0},{"name":"fh_id","type":"int","value":19},{"name":"x1","type":"int","value":-585},{"name":"x2","type":"int","value":-495},{"name":"y1","type":"int","value":305},{"name":"y2","type":"int","value":305},{"name":"next","type":"int","value":20},{"name":"prev","type":"int","value":15}],"polyline":[{"x":0,"y":0},{"x":90,"y":0}]},{"id":123,"x":-495,"y":305,"visible":true,"properties":[{"name":"layer","type":"int","value":4},{"name":"group","type":"int","value":0},{"name":"id","type":"int","value":20},{"name":"fh_layer","type":"int","value":4},{"name":"fh_group","type":"int","value":0},{"name":"fh_id","type":"int","value":20},{"name":"x1","type":"int","value":-495},{"name":"x2","type":"int","value":-405},{"name":"y1","type":"int","value":305},{"name":"y2","type":"int","value":305},{"name":"next","type":"int","value":0},{"name":"prev","type":"int","value":19}],"polyline":[{"x":0,"y":0},{"x":90,"y":0}]},{"id":124,"x":-1266,"y":305,"visible":true,"properties":[{"name":"layer","type":"int","value":4},{"name":"group","type":"int","value":0},{"name":"id","type":"int","value":21},{"name":"fh_layer","type":"int","value":4},{"name":"fh_group","type":"int","value":0},{"name":"fh_id","type":"int","value":21},{"name":"x1","type":"int","value":-1266},{"name":"x2","type":"int","value":-1215},{"name":"y1","type":"int","value":305},{"name":"y2","type":"int","value":305},{"name":"next","type":"int","value":10},{"name":"prev","type":"int","value":18}],"polyline":[{"x":0,"y":0},{"x":51,"y":0}]}]},{"id":18,"name":"ladderRope","type":"objectgroup","visible":true,"opacity":1,"objects":[{"id":125,"x":-691,"y":-96,"visible":true,"properties":[{"name":"ladder_id","type":"int","value":1},{"name":"l","type":"int","value":1},{"name":"x","type":"int","value":-691},{"name":"uf","type":"int","value":1},{"name":"y1","type":"int","value":-96},{"name":"y2","type":"int","value":303},{"name":"page","type":"int","value":4}],"polyline":[{"x":0,"y":0},{"x":0,"y":399}]}]},{"id":19,"name":"miniMap","type":"objectgroup","visible":true,"opacity":1,"objects":[{"id":126,"x":1452,"y":1107,"visible":true,"properties":[{"name":"mag","type":"int","value":4},{"name":"centerX","type":"int","value":1452},{"name":"centerY","type":"int","value":1107},{"name":"canvas_path","type":"string","value":"../../images/30622.png"},{"name":"canvas_width","type":"int","value":73},{"name":"canvas_height","type":"int","value":94},{"name":"canvas_origin_x","type":"int","value":0},{"name":"canvas_origin_y","type":"int","value":0}],"point":true}]}],"tilesets":[{"firstgid":1,"source":"../../tilesets/bg_mushCatle.tsj"},{"firstgid":24,"source":"../../tilesets/tile_mushCatle.tsj"},{"firstgid":53,"source":"../../tilesets/tile_allblackTile.tsj"},{"firstgid":57,"source":"../../tilesets/obj_connect_ladder_59.tsj"},{"firstgid":61,"source":"../../tilesets/obj_signboard_market_arrow.tsj"},{"firstgid":68,"source":"../../tilesets/obj_Tdungeon_mushCatle_gate.tsj"},{"firstgid":80,"source":"../../tilesets/obj_Tdungeon_mushCatle_wool.tsj"},{"firstgid":86,"source":"../../tilesets/obj_Tdungeon_mushCatle_guide.tsj"},{"firstgid":97,"source":"../../tilesets/obj_Tdungeon_mushCatle_tower.tsj"},{"firstgid":110,"source":"../../tilesets/obj_Tdungeon_mushCatle_forest.tsj"}],"properties":[{"name":"bgm","type":"string","value":"Bgm19/MushCatle"},{"name":"fly","type":"int","value":0},{"name":"swim","type":"int","value":0},{"name":"town","type":"int","value":0},{"name":"VRTop","type":"int","value":-960},{"name":"cloud","type":"int","value":0},{"name":"VRLeft","type":"int","value":-1344},{"name":"VRRight","type":"int","value":-400},{"name":"lvLimit","type":"int","value":30},{"name":"mapMark","type":"string","value":"MushCatle"},{"name":"mobRate","type":"float","value":1},{"name":"version","type":"int","value":10},{"name":"VRBottom","type":"int","value":300},{"name":"noMapCmd","type":"int","value":0},{"name":"returnMap","type":"int","value":106020000},{"name":"fieldLimit","type":"int","value":0},{"name":"hideMinimap","type":"int","value":0},{"name":"lvForceMove","type":"int","value":39},{"name":"onUserEnter","type":"string","value":""},{"name":"forcedReturn","type":"int","value":999999999},{"name":"onFirstUserEnter","type":"string","value":""}]}