{"type":"map","orientation":"orthogonal","renderorder":"right-down","infinite":false,"tilewidth":1,"tileheight":1,"width":2315,"height":738,"nextlayerid":47,"nextobjectid":79,"layers":[{"id":1,"name":"layer_0_obj","type":"objectgroup","visible":true,"opacity":1,"objects":[{"id":1,"x":-323,"y":90,"visible":true,"properties":[{"name":"layer","type":"int","value":0},{"name":"resource_index","type":"int","value":0},{"name":"oS","type":"string","value":"houseSW"},{"name":"l0","type":"string","value":"house11"},{"name":"l1","type":"string","value":"deco"},{"name":"l2","type":"string","value":"3"},{"name":"z","type":"int","value":3},{"name":"zM","type":"int","value":11},{"name":"f","type":"int","value":0}],"gid":62,"width":97,"height":147}]},{"id":2,"name":"layer_1_obj","type":"objectgroup","visible":true,"opacity":1,"objects":[{"id":2,"x":-385,"y":88,"visible":true,"properties":[{"name":"layer","type":"int","value":1},{"name":"resource_index","type":"int","value":0},{"name":"oS","type":"string","value":"houseSW"},{"name":"l0","type":"string","value":"house11"},{"name":"l1","type":"string","value":"basic"},{"name":"l2","type":"string","value":"0"},{"name":"z","type":"int","value":3},{"name":"zM","type":"int","value":12},{"name":"f","type":"int","value":0}],"gid":66,"width":271,"height":527},{"id":3,"x":-109,"y":104,"visible":true,"properties":[{"name":"layer","type":"int","value":1},{"name":"resource_index","type":"int","value":1},{"name":"oS","type":"string","value":"acc2"},{"name":"l0","type":"string","value":"shineWood"},{"name":"l1","type":"string","value":"station"},{"name":"l2","type":"string","value":"10"},{"name":"z","type":"int","value":3},{"name":"zM","type":"int","value":3},{"name":"f","type":"int","value":0}],"gid":68,"width":44,"height":334},{"id":4,"x":-215,"y":-215,"visible":true,"properties":[{"name":"layer","type":"int","value":1},{"name":"resource_index","type":"int","value":2},{"name":"oS","type":"string","value":"acc2"},{"name":"l0","type":"string","value":"shineWood"},{"name":"l1","type":"string","value":"station"},{"name":"l2","type":"string","value":"9"},{"name":"z","type":"int","value":2},{"name":"zM","type":"int","value":12},{"name":"f","type":"int","value":0}],"gid":69,"width":106,"height":150},{"id":5,"x":-412,"y":87,"visible":true,"properties":[{"name":"layer","type":"int","value":1},{"name":"resource_index","type":"int","value":3},{"name":"oS","type":"string","value":"houseSW"},{"name":"l0","type":"string","value":"house11"},{"name":"l1","type":"string","value":"deco"},{"name":"l2","type":"string","value":"1"},{"name":"z","type":"int","value":5},{"name":"zM","type":"int","value":12},{"name":"f","type":"int","value":0}],"gid":61,"width":185,"height":547},{"id":6,"x":1108,"y":87,"visible":true,"properties":[{"name":"layer","type":"int","value":1},{"name":"resource_index","type":"int","value":4},{"name":"oS","type":"string","value":"acc2"},{"name":"l0","type":"string","value":"shineWood"},{"name":"l1","type":"string","value":"station"},{"name":"l2","type":"string","value":"26"},{"name":"z","type":"int","value":1},{"name":"zM","type":"int","value":10},{"name":"f","type":"int","value":0}],"gid":70,"width":204,"height":334},{"id":7,"x":-65,"y":-128,"visible":true,"properties":[{"name":"layer","type":"int","value":1},{"name":"resource_index","type":"int","value":5},{"name":"oS","type":"string","value":"acc2"},{"name":"l0","type":"string","value":"shineWood"},{"name":"l1","type":"string","value":"station"},{"name":"l2","type":"string","value":"11"},{"name":"z","type":"int","value":3},{"name":"zM","type":"int","value":19},{"name":"f","type":"int","value":0}],"gid":71,"width":87,"height":67},{"id":8,"x":22,"y":104,"visible":true,"properties":[{"name":"layer","type":"int","value":1},{"name":"resource_index","type":"int","value":6},{"name":"oS","type":"string","value":"acc2"},{"name":"l0","type":"string","value":"shineWood"},{"name":"l1","type":"string","value":"station"},{"name":"l2","type":"string","value":"12"},{"name":"z","type":"int","value":3},{"name":"zM","type":"int","value":5},{"name":"f","type":"int","value":0}],"gid":72,"width":47,"height":244},{"id":9,"x":69,"y":-73,"visible":true,"properties":[{"name":"layer","type":"int","value":1},{"name":"resource_index","type":"int","value":7},{"name":"oS","type":"string","value":"acc2"},{"name":"l0","type":"string","value":"shineWood"},{"name":"l1","type":"string","value":"station"},{"name":"l2","type":"string","value":"13"},{"name":"z","type":"int","value":3},{"name":"zM","type":"int","value":17},{"name":"f","type":"int","value":0}],"gid":73,"width":76,"height":44},{"id":10,"x":145,"y":104,"visible":true,"properties":[{"name":"layer","type":"int","value":1},{"name":"resource_index","type":"int","value":8},{"name":"oS","type":"string","value":"acc2"},{"name":"l0","type":"string","value":"shineWood"},{"name":"l1","type":"string","value":"station"},{"name":"l2","type":"string","value":"14"},{"name":"z","type":"int","value":3},{"name":"zM","type":"int","value":2},{"name":"f","type":"int","value":0}],"gid":74,"width":57,"height":188},{"id":11,"x":202,"y":-27,"visible":true,"properties":[{"name":"layer","type":"int","value":1},{"name":"resource_index","type":"int","value":9},{"name":"oS","type":"string","value":"acc2"},{"name":"l0","type":"string","value":"shineWood"},{"name":"l1","type":"string","value":"station"},{"name":"l2","type":"string","value":"15"},{"name":"z","type":"int","value":3},{"name":"zM","type":"int","value":15},{"name":"f","type":"int","value":0}],"gid":75,"width":85,"height":37},{"id":12,"x":1071,"y":94,"visible":true,"properties":[{"name":"layer","type":"int","value":1},{"name":"resource_index","type":"int","value":10},{"name":"oS","type":"string","value":"acc2"},{"name":"l0","type":"string","value":"shineWood"},{"name":"l1","type":"string","value":"station"},{"name":"l2","type":"string","value":"25"},{"name":"z","type":"int","value":1},{"name":"zM","type":"int","value":6},{"name":"f","type":"int","value":0}],"gid":76,"width":37,"height":244},{"id":13,"x":990,"y":-84,"visible":true,"properties":[{"name":"layer","type":"int","value":1},{"name":"resource_index","type":"int","value":11},{"name":"oS","type":"string","value":"acc2"},{"name":"l0","type":"string","value":"shineWood"},{"name":"l1","type":"string","value":"station"},{"name":"l2","type":"string","value":"24"},{"name":"z","type":"int","value":1},{"name":"zM","type":"int","value":18},{"name":"f","type":"int","value":0}],"gid":77,"width":81,"height":46},{"id":14,"x":939,"y":94,"visible":true,"properties":[{"name":"layer","type":"int","value":1},{"name":"resource_index","type":"int","value":12},{"name":"oS","type":"string","value":"acc2"},{"name":"l0","type":"string","value":"shineWood"},{"name":"l1","type":"string","value":"station"},{"name":"l2","type":"string","value":"23"},{"name":"z","type":"int","value":1},{"name":"zM","type":"int","value":7},{"name":"f","type":"int","value":0}],"gid":78,"width":51,"height":190},{"id":15,"x":857,"y":-41,"visible":true,"properties":[{"name":"layer","type":"int","value":1},{"name":"resource_index","type":"int","value":13},{"name":"oS","type":"string","value":"acc2"},{"name":"l0","type":"string","value":"shineWood"},{"name":"l1","type":"string","value":"station"},{"name":"l2","type":"string","value":"22"},{"name":"z","type":"int","value":1},{"name":"zM","type":"int","value":16},{"name":"f","type":"int","value":0}],"gid":79,"width":82,"height":36},{"id":16,"x":804,"y":94,"visible":true,"properties":[{"name":"layer","type":"int","value":1},{"name":"resource_index","type":"int","value":14},{"name":"oS","type":"string","value":"acc2"},{"name":"l0","type":"string","value":"shineWood"},{"name":"l1","type":"string","value":"station"},{"name":"l2","type":"string","value":"21"},{"name":"z","type":"int","value":1},{"name":"zM","type":"int","value":8},{"name":"f","type":"int","value":0}],"gid":80,"width":53,"height":147},{"id":17,"x":729,"y":-11,"visible":true,"properties":[{"name":"layer","type":"int","value":1},{"name":"resource_index","type":"int","value":15},{"name":"oS","type":"string","value":"acc2"},{"name":"l0","type":"string","value":"shineWood"},{"name":"l1","type":"string","value":"station"},{"name":"l2","type":"string","value":"20"},{"name":"z","type":"int","value":1},{"name":"zM","type":"int","value":14},{"name":"f","type":"int","value":0}],"gid":81,"width":75,"height":27},{"id":18,"x":650,"y":94,"visible":true,"properties":[{"name":"layer","type":"int","value":1},{"name":"resource_index","type":"int","value":16},{"name":"oS","type":"string","value":"acc2"},{"name":"l0","type":"string","value":"shineWood"},{"name":"l1","type":"string","value":"station"},{"name":"l2","type":"string","value":"19"},{"name":"z","type":"int","value":1},{"name":"zM","type":"int","value":1},{"name":"f","type":"int","value":0}],"gid":82,"width":79,"height":119},{"id":19,"x":430,"y":169,"visible":true,"properties":[{"name":"layer","type":"int","value":1},{"name":"resource_index","type":"int","value":17},{"name":"oS","type":"string","value":"houseSW"},{"name":"l0","type":"string","value":"house10"},{"name":"l1","type":"string","value":"basic"},{"name":"l2","type":"string","value":"0"},{"name":"z","type":"int","value":4},{"name":"zM","type":"int","value":1},{"name":"f","type":"int","value":0}],"gid":64,"width":279,"height":666},{"id":20,"x":330,"y":4,"visible":true,"properties":[{"name":"layer","type":"int","value":1},{"name":"resource_index","type":"int","value":18},{"name":"oS","type":"string","value":"houseSW"},{"name":"l0","type":"string","value":"house10"},{"name":"l1","type":"string","value":"deco"},{"name":"l2","type":"string","value":"0"},{"name":"z","type":"int","value":3},{"name":"zM","type":"int","value":1},{"name":"f","type":"int","value":0}],"gid":60,"width":146,"height":130},{"id":21,"x":287,"y":104,"visible":true,"properties":[{"name":"layer","type":"int","value":1},{"name":"resource_index","type":"int","value":19},{"name":"oS","type":"string","value":"acc2"},{"name":"l0","type":"string","value":"shineWood"},{"name":"l1","type":"string","value":"station"},{"name":"l2","type":"string","value":"16"},{"name":"z","type":"int","value":3},{"name":"zM","type":"int","value":4},{"name":"f","type":"int","value":0}],"gid":83,"width":42,"height":146},{"id":22,"x":329,"y":0,"visible":true,"properties":[{"name":"layer","type":"int","value":1},{"name":"resource_index","type":"int","value":20},{"name":"oS","type":"string","value":"acc2"},{"name":"l0","type":"string","value":"shineWood"},{"name":"l1","type":"string","value":"station"},{"name":"l2","type":"string","value":"17"},{"name":"z","type":"int","value":2},{"name":"zM","type":"int","value":1},{"name":"f","type":"int","value":0}],"gid":84,"width":78,"height":28},{"id":23,"x":411,"y":97,"visible":true,"properties":[{"name":"layer","type":"int","value":1},{"name":"resource_index","type":"int","value":21},{"name":"oS","type":"string","value":"acc2"},{"name":"l0","type":"string","value":"shineWood"},{"name":"l1","type":"string","value":"station"},{"name":"l2","type":"string","value":"18"},{"name":"z","type":"int","value":2},{"name":"zM","type":"int","value":1},{"name":"f","type":"int","value":0}],"gid":85,"width":91,"height":118},{"id":24,"x":471,"y":43,"visible":true,"properties":[{"name":"layer","type":"int","value":1},{"name":"resource_index","type":"int","value":22},{"name":"oS","type":"string","value":"houseSW"},{"name":"l0","type":"string","value":"house10"},{"name":"l1","type":"string","value":"basic"},{"name":"l2","type":"string","value":"1"},{"name":"z","type":"int","value":3},{"name":"zM","type":"int","value":1},{"name":"f","type":"int","value":0}],"gid":65,"width":48,"height":74},{"id":25,"x":623,"y":85,"visible":true,"properties":[{"name":"layer","type":"int","value":1},{"name":"resource_index","type":"int","value":23},{"name":"oS","type":"string","value":"acc2"},{"name":"l0","type":"string","value":"shineWood"},{"name":"l1","type":"string","value":"station"},{"name":"l2","type":"string","value":"1"},{"name":"z","type":"int","value":6},{"name":"zM","type":"int","value":1},{"name":"f","type":"int","value":0}],"gid":86,"width":83,"height":166},{"id":26,"x":878,"y":88,"visible":true,"properties":[{"name":"layer","type":"int","value":1},{"name":"resource_index","type":"int","value":24},{"name":"oS","type":"string","value":"acc1"},{"name":"l0","type":"string","value":"portTown"},{"name":"l1","type":"string","value":"artificiality"},{"name":"l2","type":"string","value":"0"},{"name":"z","type":"int","value":3},{"name":"zM","type":"int","value":7},{"name":"f","type":"int","value":0}],"gid":95,"width":93,"height":68},{"id":27,"x":-311,"y":-100,"visible":true,"properties":[{"name":"layer","type":"int","value":1},{"name":"resource_index","type":"int","value":25},{"name":"oS","type":"string","value":"houseSW"},{"name":"l0","type":"string","value":"house11"},{"name":"l1","type":"string","value":"deco"},{"name":"l2","type":"string","value":"0"},{"name":"z","type":"int","value":4},{"name":"zM","type":"int","value":12},{"name":"f","type":"int","value":0}],"gid":63,"width":173,"height":81},{"id":28,"x":68,"y":88,"visible":true,"properties":[{"name":"layer","type":"int","value":1},{"name":"resource_index","type":"int","value":26},{"name":"oS","type":"string","value":"acc2"},{"name":"l0","type":"string","value":"shineWood"},{"name":"l1","type":"string","value":"station"},{"name":"l2","type":"string","value":"3"},{"name":"z","type":"int","value":6},{"name":"zM","type":"int","value":5},{"name":"f","type":"int","value":0}],"gid":87,"width":174,"height":262},{"id":29,"x":1136,"y":90,"visible":true,"properties":[{"name":"layer","type":"int","value":1},{"name":"resource_index","type":"int","value":27},{"name":"oS","type":"string","value":"acc1"},{"name":"l0","type":"string","value":"portTown"},{"name":"l1","type":"string","value":"artificiality"},{"name":"l2","type":"string","value":"22"},{"name":"z","type":"int","value":3},{"name":"zM","type":"int","value":10},{"name":"f","type":"int","value":0}],"gid":96,"width":373,"height":212},{"id":30,"x":1225,"y":85,"visible":true,"properties":[{"name":"layer","type":"int","value":1},{"name":"resource_index","type":"int","value":28},{"name":"oS","type":"string","value":"acc1"},{"name":"l0","type":"string","value":"portTown"},{"name":"l1","type":"string","value":"artificiality"},{"name":"l2","type":"string","value":"20"},{"name":"z","type":"int","value":4},{"name":"zM","type":"int","value":10},{"name":"f","type":"int","value":0}],"gid":97,"width":150,"height":46},{"id":31,"x":1010,"y":89,"visible":true,"properties":[{"name":"layer","type":"int","value":1},{"name":"resource_index","type":"int","value":29},{"name":"oS","type":"string","value":"acc1"},{"name":"l0","type":"string","value":"portTown"},{"name":"l1","type":"string","value":"artificiality"},{"name":"l2","type":"string","value":"9"},{"name":"z","type":"int","value":2},{"name":"zM","type":"int","value":10},{"name":"f","type":"int","value":0}],"gid":98,"width":182,"height":106},{"id":32,"x":1094,"y":70,"visible":true,"properties":[{"name":"layer","type":"int","value":1},{"name":"resource_index","type":"int","value":30},{"name":"oS","type":"string","value":"acc1"},{"name":"l0","type":"string","value":"portTown"},{"name":"l1","type":"string","value":"artificiality"},{"name":"l2","type":"string","value":"13"},{"name":"z","type":"int","value":3},{"name":"zM","type":"int","value":10},{"name":"f","type":"int","value":0}],"gid":99,"width":39,"height":24},{"id":33,"x":1019,"y":32,"visible":true,"properties":[{"name":"layer","type":"int","value":1},{"name":"resource_index","type":"int","value":31},{"name":"oS","type":"string","value":"acc1"},{"name":"l0","type":"string","value":"portTown"},{"name":"l1","type":"string","value":"artificiality"},{"name":"l2","type":"string","value":"11"},{"name":"z","type":"int","value":3},{"name":"zM","type":"int","value":10},{"name":"f","type":"int","value":0}],"gid":100,"width":41,"height":39},{"id":34,"x":936,"y":88,"visible":true,"properties":[{"name":"layer","type":"int","value":1},{"name":"resource_index","type":"int","value":32},{"name":"oS","type":"string","value":"acc1"},{"name":"l0","type":"string","value":"portTown"},{"name":"l1","type":"string","value":"artificiality"},{"name":"l2","type":"string","value":"0"},{"name":"z","type":"int","value":4},{"name":"zM","type":"int","value":10},{"name":"f","type":"int","value":0}],"gid":95,"width":93,"height":68}]},{"id":3,"name":"layer_2_obj","type":"objectgroup","visible":true,"opacity":1,"objects":[{"id":35,"x":1273,"y":91,"visible":true,"properties":[{"name":"layer","type":"int","value":2},{"name":"resource_index","type":"int","value":0},{"name":"oS","type":"string","value":"acc1"},{"name":"l0","type":"string","value":"portTown"},{"name":"l1","type":"string","value":"artificiality"},{"name":"l2","type":"string","value":"18"},{"name":"z","type":"int","value":3},{"name":"zM","type":"int","value":9},{"name":"f","type":"int","value":0}],"gid":101,"width":396,"height":241}]},{"id":4,"name":"layer_5_obj","type":"objectgroup","visible":true,"opacity":1,"objects":[{"id":36,"x":-430,"y":346,"visible":true,"properties":[{"name":"layer","type":"int","value":5},{"name":"resource_index","type":"int","value":0},{"name":"oS","type":"string","value":"acc2"},{"name":"l0","type":"string","value":"shineWood"},{"name":"l1","type":"string","value":"station"},{"name":"l2","type":"string","value":"4"},{"name":"z","type":"int","value":1},{"name":"zM","type":"int","value":0},{"name":"f","type":"int","value":0}],"gid":88,"width":458,"height":283},{"id":37,"x":26,"y":217,"visible":true,"properties":[{"name":"layer","type":"int","value":5},{"name":"resource_index","type":"int","value":1},{"name":"oS","type":"string","value":"acc2"},{"name":"l0","type":"string","value":"shineWood"},{"name":"l1","type":"string","value":"station"},{"name":"l2","type":"string","value":"5"},{"name":"z","type":"int","value":2},{"name":"zM","type":"int","value":0},{"name":"f","type":"int","value":0}],"gid":89,"width":417,"height":157},{"id":38,"x":441,"y":202,"visible":true,"properties":[{"name":"layer","type":"int","value":5},{"name":"resource_index","type":"int","value":2},{"name":"oS","type":"string","value":"acc2"},{"name":"l0","type":"string","value":"shineWood"},{"name":"l1","type":"string","value":"station"},{"name":"l2","type":"string","value":"6"},{"name":"z","type":"int","value":3},{"name":"zM","type":"int","value":0},{"name":"f","type":"int","value":0}],"gid":90,"width":518,"height":133},{"id":39,"x":862,"y":233,"visible":true,"properties":[{"name":"layer","type":"int","value":5},{"name":"resource_index","type":"int","value":3},{"name":"oS","type":"string","value":"acc2"},{"name":"l0","type":"string","value":"shineWood"},{"name":"l1","type":"string","value":"station"},{"name":"l2","type":"string","value":"7"},{"name":"z","type":"int","value":4},{"name":"zM","type":"int","value":0},{"name":"f","type":"int","value":0}],"gid":91,"width":401,"height":151},{"id":40,"x":1210,"y":203,"visible":true,"properties":[{"name":"layer","type":"int","value":5},{"name":"resource_index","type":"int","value":4},{"name":"oS","type":"string","value":"acc2"},{"name":"l0","type":"string","value":"shineWood"},{"name":"l1","type":"string","value":"station"},{"name":"l2","type":"string","value":"8"},{"name":"z","type":"int","value":5},{"name":"zM","type":"int","value":0},{"name":"f","type":"int","value":0}],"gid":92,"width":475,"height":131}]},{"id":5,"name":"layer_6_obj","type":"objectgroup","visible":true,"opacity":1,"objects":[{"id":41,"x":618,"y":86,"visible":true,"properties":[{"name":"layer","type":"int","value":6},{"name":"resource_index","type":"int","value":0},{"name":"oS","type":"string","value":"acc2"},{"name":"l0","type":"string","value":"shineWood"},{"name":"l1","type":"string","value":"station"},{"name":"l2","type":"string","value":"0"},{"name":"z","type":"int","value":3},{"name":"zM","type":"int","value":13},{"name":"f","type":"int","value":0}],"gid":93,"width":257,"height":270},{"id":42,"x":579,"y":-167,"visible":true,"properties":[{"name":"layer","type":"int","value":6},{"name":"resource_index","type":"int","value":1},{"name":"oS","type":"string","value":"acc2"},{"name":"l0","type":"string","value":"shineWood"},{"name":"l1","type":"string","value":"station"},{"name":"l2","type":"string","value":"2"},{"name":"z","type":"int","value":2},{"name":"zM","type":"int","value":13},{"name":"f","type":"int","value":0}],"gid":94,"width":330,"height":84}]},{"id":6,"name":"background_back_0","type":"imagelayer","visible":true,"opacity":1,"image":"../../images/29708.png","imagewidth":135,"imageheight":135,"offsetx":-67,"offsety":-67,"repeatx":true,"repeaty":true,"parallaxx":1,"parallaxy":1,"properties":[{"name":"a","type":"int","value":255},{"name":"f","type":"int","value":0},{"name":"x","type":"int","value":0},{"name":"y","type":"int","value":0},{"name":"bS","type":"string","value":"shineWood3"},{"name":"cx","type":"int","value":0},{"name":"cy","type":"int","value":0},{"name":"no","type":"int","value":0},{"name":"rx","type":"int","value":0},{"name":"ry","type":"int","value":0},{"name":"ani","type":"int","value":0},{"name":"type","type":"int","value":3},{"name":"front","type":"int","value":0}]},{"id":7,"name":"background_back_1","type":"imagelayer","visible":true,"opacity":1,"image":"../../images/29790.png","imagewidth":397,"imageheight":182,"offsetx":-153,"offsety":46,"repeatx":true,"repeaty":false,"parallaxx":1,"parallaxy":1,"properties":[{"name":"a","type":"int","value":255},{"name":"f","type":"int","value":0},{"name":"x","type":"int","value":45},{"name":"y","type":"int","value":137},{"name":"bS","type":"string","value":"portTown"},{"name":"cx","type":"int","value":600},{"name":"cy","type":"int","value":0},{"name":"no","type":"int","value":2},{"name":"rx","type":"int","value":-2},{"name":"ry","type":"int","value":-15},{"name":"ani","type":"int","value":0},{"name":"type","type":"int","value":4},{"name":"front","type":"int","value":0}]},{"id":8,"name":"background_back_2","type":"imagelayer","visible":true,"opacity":1,"image":"../../images/29790.png","imagewidth":397,"imageheight":182,"offsetx":-13,"offsety":-17,"repeatx":true,"repeaty":false,"parallaxx":1,"parallaxy":1,"properties":[{"name":"a","type":"int","value":255},{"name":"f","type":"int","value":0},{"name":"x","type":"int","value":185},{"name":"y","type":"int","value":74},{"name":"bS","type":"string","value":"portTown"},{"name":"cx","type":"int","value":700},{"name":"cy","type":"int","value":0},{"name":"no","type":"int","value":2},{"name":"rx","type":"int","value":-3},{"name":"ry","type":"int","value":-15},{"name":"ani","type":"int","value":0},{"name":"type","type":"int","value":4},{"name":"front","type":"int","value":0}]},{"id":9,"name":"background_back_3","type":"imagelayer","visible":true,"opacity":1,"image":"../../images/29791.png","imagewidth":281,"imageheight":102,"offsetx":99,"offsety":-252,"repeatx":true,"repeaty":false,"parallaxx":1,"parallaxy":1,"properties":[{"name":"a","type":"int","value":255},{"name":"f","type":"int","value":0},{"name":"x","type":"int","value":239},{"name":"y","type":"int","value":-201},{"name":"bS","type":"string","value":"portTown"},{"name":"cx","type":"int","value":750},{"name":"cy","type":"int","value":0},{"name":"no","type":"int","value":3},{"name":"rx","type":"int","value":-3},{"name":"ry","type":"int","value":-15},{"name":"ani","type":"int","value":0},{"name":"type","type":"int","value":4},{"name":"front","type":"int","value":0}]},{"id":10,"name":"background_back_4","type":"imagelayer","visible":true,"opacity":1,"image":"../../images/29459.png","imagewidth":473,"imageheight":205,"offsetx":-622,"offsety":-53,"repeatx":true,"repeaty":false,"parallaxx":1,"parallaxy":1,"properties":[{"name":"a","type":"int","value":255},{"name":"f","type":"int","value":0},{"name":"x","type":"int","value":-381},{"name":"y","type":"int","value":95},{"name":"bS","type":"string","value":"login"},{"name":"cx","type":"int","value":900},{"name":"cy","type":"int","value":0},{"name":"no","type":"int","value":5},{"name":"rx","type":"int","value":-4},{"name":"ry","type":"int","value":-17},{"name":"ani","type":"int","value":0},{"name":"type","type":"int","value":4},{"name":"front","type":"int","value":0}]},{"id":11,"name":"background_back_5","type":"imagelayer","visible":true,"opacity":1,"image":"../../images/29794.png","imagewidth":649,"imageheight":293,"offsetx":-290,"offsety":-61,"repeatx":true,"repeaty":false,"parallaxx":1,"parallaxy":1,"properties":[{"name":"a","type":"int","value":255},{"name":"f","type":"int","value":0},{"name":"x","type":"int","value":34},{"name":"y","type":"int","value":85},{"name":"bS","type":"string","value":"portTown"},{"name":"cx","type":"int","value":500},{"name":"cy","type":"int","value":0},{"name":"no","type":"int","value":6},{"name":"rx","type":"int","value":-5},{"name":"ry","type":"int","value":-19},{"name":"ani","type":"int","value":0},{"name":"type","type":"int","value":4},{"name":"front","type":"int","value":0}]},{"id":12,"name":"background_back_6","type":"imagelayer","visible":true,"opacity":1,"image":"../../images/29794.png","imagewidth":649,"imageheight":293,"offsetx":-172,"offsety":-12,"repeatx":true,"repeaty":false,"parallaxx":1,"parallaxy":1,"properties":[{"name":"a","type":"int","value":255},{"name":"f","type":"int","value":0},{"name":"x","type":"int","value":152},{"name":"y","type":"int","value":134},{"name":"bS","type":"string","value":"portTown"},{"name":"cx","type":"int","value":750},{"name":"cy","type":"int","value":0},{"name":"no","type":"int","value":6},{"name":"rx","type":"int","value":-6},{"name":"ry","type":"int","value":-20},{"name":"ani","type":"int","value":0},{"name":"type","type":"int","value":4},{"name":"front","type":"int","value":0}]},{"id":13,"name":"background_back_7","type":"imagelayer","visible":true,"opacity":1,"image":"../../images/29793.png","imagewidth":358,"imageheight":275,"offsetx":-54,"offsety":-353,"repeatx":true,"repeaty":false,"parallaxx":1,"parallaxy":1,"properties":[{"name":"a","type":"int","value":255},{"name":"f","type":"int","value":0},{"name":"x","type":"int","value":125},{"name":"y","type":"int","value":-216},{"name":"bS","type":"string","value":"portTown"},{"name":"cx","type":"int","value":1200},{"name":"cy","type":"int","value":0},{"name":"no","type":"int","value":5},{"name":"rx","type":"int","value":-5},{"name":"ry","type":"int","value":-20},{"name":"ani","type":"int","value":0},{"name":"type","type":"int","value":4},{"name":"front","type":"int","value":0}]},{"id":14,"name":"background_back_8","type":"imagelayer","visible":true,"opacity":1,"image":"../../images/29792.png","imagewidth":291,"imageheight":165,"offsetx":197,"offsety":-122,"repeatx":true,"repeaty":false,"parallaxx":1,"parallaxy":1,"properties":[{"name":"a","type":"int","value":255},{"name":"f","type":"int","value":0},{"name":"x","type":"int","value":342},{"name":"y","type":"int","value":-40},{"name":"bS","type":"string","value":"portTown"},{"name":"cx","type":"int","value":1000},{"name":"cy","type":"int","value":0},{"name":"no","type":"int","value":4},{"name":"rx","type":"int","value":-6},{"name":"ry","type":"int","value":-20},{"name":"ani","type":"int","value":0},{"name":"type","type":"int","value":4},{"name":"front","type":"int","value":0}]},{"id":15,"name":"background_back_9","type":"imagelayer","visible":true,"opacity":1,"image":"../../images/29488.png","imagewidth":10,"imageheight":7,"offsetx":-302,"offsety":-208,"repeatx":true,"repeaty":false,"parallaxx":1,"parallaxy":1,"properties":[{"name":"a","type":"int","value":255},{"name":"f","type":"int","value":0},{"name":"x","type":"int","value":-298},{"name":"y","type":"int","value":-211},{"name":"bS","type":"string","value":"login"},{"name":"cx","type":"int","value":1400},{"name":"cy","type":"int","value":0},{"name":"no","type":"int","value":0},{"name":"rx","type":"int","value":12},{"name":"ry","type":"int","value":-80},{"name":"ani","type":"int","value":1},{"name":"type","type":"int","value":4},{"name":"front","type":"int","value":0}]},{"id":16,"name":"background_back_10","type":"imagelayer","visible":true,"opacity":1,"image":"../../images/29491.png","imagewidth":10,"imageheight":7,"offsetx":-319,"offsety":-196,"repeatx":true,"repeaty":false,"parallaxx":1,"parallaxy":1,"properties":[{"name":"a","type":"int","value":255},{"name":"f","type":"int","value":0},{"name":"x","type":"int","value":-315},{"name":"y","type":"int","value":-199},{"name":"bS","type":"string","value":"login"},{"name":"cx","type":"int","value":1400},{"name":"cy","type":"int","value":0},{"name":"no","type":"int","value":1},{"name":"rx","type":"int","value":12},{"name":"ry","type":"int","value":-80},{"name":"ani","type":"int","value":1},{"name":"type","type":"int","value":4},{"name":"front","type":"int","value":0}]},{"id":17,"name":"background_back_11","type":"imagelayer","visible":true,"opacity":1,"image":"../../images/29494.png","imagewidth":12,"imageheight":9,"offsetx":-338,"offsety":-207,"repeatx":true,"repeaty":false,"parallaxx":1,"parallaxy":1,"properties":[{"name":"a","type":"int","value":255},{"name":"f","type":"int","value":0},{"name":"x","type":"int","value":-333},{"name":"y","type":"int","value":-210},{"name":"bS","type":"string","value":"login"},{"name":"cx","type":"int","value":1400},{"name":"cy","type":"int","value":0},{"name":"no","type":"int","value":2},{"name":"rx","type":"int","value":12},{"name":"ry","type":"int","value":-80},{"name":"ani","type":"int","value":1},{"name":"type","type":"int","value":4},{"name":"front","type":"int","value":0}]},{"id":18,"name":"background_back_12","type":"imagelayer","visible":true,"opacity":1,"image":"../../images/29491.png","imagewidth":10,"imageheight":7,"offsetx":-352,"offsety":-215,"repeatx":true,"repeaty":false,"parallaxx":1,"parallaxy":1,"properties":[{"name":"a","type":"int","value":255},{"name":"f","type":"int","value":0},{"name":"x","type":"int","value":-348},{"name":"y","type":"int","value":-218},{"name":"bS","type":"string","value":"login"},{"name":"cx","type":"int","value":1400},{"name":"cy","type":"int","value":0},{"name":"no","type":"int","value":1},{"name":"rx","type":"int","value":12},{"name":"ry","type":"int","value":-80},{"name":"ani","type":"int","value":1},{"name":"type","type":"int","value":4},{"name":"front","type":"int","value":0}]},{"id":19,"name":"background_back_13","type":"imagelayer","visible":true,"opacity":1,"image":"../../images/29488.png","imagewidth":10,"imageheight":7,"offsetx":-341,"offsety":-188,"repeatx":true,"repeaty":false,"parallaxx":1,"parallaxy":1,"properties":[{"name":"a","type":"int","value":255},{"name":"f","type":"int","value":0},{"name":"x","type":"int","value":-337},{"name":"y","type":"int","value":-191},{"name":"bS","type":"string","value":"login"},{"name":"cx","type":"int","value":1400},{"name":"cy","type":"int","value":0},{"name":"no","type":"int","value":0},{"name":"rx","type":"int","value":12},{"name":"ry","type":"int","value":-80},{"name":"ani","type":"int","value":1},{"name":"type","type":"int","value":4},{"name":"front","type":"int","value":0}]},{"id":20,"name":"background_back_14","type":"imagelayer","visible":true,"opacity":1,"image":"../../images/29494.png","imagewidth":12,"imageheight":9,"offsetx":-372,"offsety":-202,"repeatx":true,"repeaty":false,"parallaxx":1,"parallaxy":1,"properties":[{"name":"a","type":"int","value":255},{"name":"f","type":"int","value":0},{"name":"x","type":"int","value":-367},{"name":"y","type":"int","value":-205},{"name":"bS","type":"string","value":"login"},{"name":"cx","type":"int","value":1400},{"name":"cy","type":"int","value":0},{"name":"no","type":"int","value":2},{"name":"rx","type":"int","value":12},{"name":"ry","type":"int","value":-80},{"name":"ani","type":"int","value":1},{"name":"type","type":"int","value":4},{"name":"front","type":"int","value":0}]},{"id":21,"name":"background_back_15","type":"imagelayer","visible":true,"opacity":1,"image":"../../images/29491.png","imagewidth":10,"imageheight":7,"offsetx":-392,"offsety":-190,"repeatx":true,"repeaty":false,"parallaxx":1,"parallaxy":1,"properties":[{"name":"a","type":"int","value":255},{"name":"f","type":"int","value":0},{"name":"x","type":"int","value":-388},{"name":"y","type":"int","value":-193},{"name":"bS","type":"string","value":"login"},{"name":"cx","type":"int","value":1400},{"name":"cy","type":"int","value":0},{"name":"no","type":"int","value":1},{"name":"rx","type":"int","value":12},{"name":"ry","type":"int","value":-80},{"name":"ani","type":"int","value":1},{"name":"type","type":"int","value":4},{"name":"front","type":"int","value":0}]},{"id":22,"name":"background_back_16","type":"imagelayer","visible":true,"opacity":1,"image":"../../images/29491.png","imagewidth":10,"imageheight":7,"offsetx":-407,"offsety":-203,"repeatx":true,"repeaty":false,"parallaxx":1,"parallaxy":1,"properties":[{"name":"a","type":"int","value":255},{"name":"f","type":"int","value":0},{"name":"x","type":"int","value":-403},{"name":"y","type":"int","value":-206},{"name":"bS","type":"string","value":"login"},{"name":"cx","type":"int","value":1400},{"name":"cy","type":"int","value":0},{"name":"no","type":"int","value":1},{"name":"rx","type":"int","value":12},{"name":"ry","type":"int","value":-80},{"name":"ani","type":"int","value":1},{"name":"type","type":"int","value":4},{"name":"front","type":"int","value":0}]},{"id":23,"name":"background_back_17","type":"imagelayer","visible":true,"opacity":1,"image":"../../images/29488.png","imagewidth":10,"imageheight":7,"offsetx":-383,"offsety":-209,"repeatx":true,"repeaty":false,"parallaxx":1,"parallaxy":1,"properties":[{"name":"a","type":"int","value":255},{"name":"f","type":"int","value":0},{"name":"x","type":"int","value":-379},{"name":"y","type":"int","value":-212},{"name":"bS","type":"string","value":"login"},{"name":"cx","type":"int","value":1400},{"name":"cy","type":"int","value":0},{"name":"no","type":"int","value":0},{"name":"rx","type":"int","value":12},{"name":"ry","type":"int","value":-80},{"name":"ani","type":"int","value":1},{"name":"type","type":"int","value":4},{"name":"front","type":"int","value":0}]},{"id":24,"name":"background_back_18","type":"imagelayer","visible":true,"opacity":1,"image":"../../images/29709.png","imagewidth":492,"imageheight":600,"offsetx":-329,"offsety":-328,"repeatx":false,"repeaty":true,"parallaxx":1,"parallaxy":1,"properties":[{"name":"a","type":"int","value":255},{"name":"f","type":"int","value":0},{"name":"x","type":"int","value":-83},{"name":"y","type":"int","value":-28},{"name":"bS","type":"string","value":"shineWood3"},{"name":"cx","type":"int","value":1400},{"name":"cy","type":"int","value":0},{"name":"no","type":"int","value":1},{"name":"rx","type":"int","value":-75},{"name":"ry","type":"int","value":-30},{"name":"ani","type":"int","value":0},{"name":"type","type":"int","value":2},{"name":"front","type":"int","value":0}]},{"id":25,"name":"background_back_19","type":"imagelayer","visible":true,"opacity":1,"image":"../../images/27996.png","imagewidth":301,"imageheight":602,"offsetx":-317,"offsety":-249,"repeatx":false,"repeaty":true,"parallaxx":1,"parallaxy":1,"properties":[{"name":"a","type":"int","value":255},{"name":"f","type":"int","value":0},{"name":"x","type":"int","value":-167},{"name":"y","type":"int","value":52},{"name":"bS","type":"string","value":"shineWood"},{"name":"cx","type":"int","value":1400},{"name":"cy","type":"int","value":0},{"name":"no","type":"int","value":8},{"name":"rx","type":"int","value":-80},{"name":"ry","type":"int","value":-40},{"name":"ani","type":"int","value":0},{"name":"type","type":"int","value":2},{"name":"front","type":"int","value":0}]},{"id":26,"name":"background_back_20","type":"imagelayer","visible":true,"opacity":1,"image":"../../images/29710.png","imagewidth":248,"imageheight":224,"offsetx":-165,"offsety":-469,"repeatx":false,"repeaty":false,"parallaxx":1,"parallaxy":1,"properties":[{"name":"a","type":"int","value":255},{"name":"f","type":"int","value":0},{"name":"x","type":"int","value":-41},{"name":"y","type":"int","value":-335},{"name":"bS","type":"string","value":"shineWood3"},{"name":"cx","type":"int","value":0},{"name":"cy","type":"int","value":0},{"name":"no","type":"int","value":0},{"name":"rx","type":"int","value":-85},{"name":"ry","type":"int","value":-45},{"name":"ani","type":"int","value":1},{"name":"type","type":"int","value":0},{"name":"front","type":"int","value":0}]},{"id":27,"name":"background_back_21","type":"imagelayer","visible":true,"opacity":1,"image":"../../images/29712.png","imagewidth":275,"imageheight":260,"offsetx":-60,"offsety":-245,"repeatx":false,"repeaty":false,"parallaxx":1,"parallaxy":1,"properties":[{"name":"a","type":"int","value":255},{"name":"f","type":"int","value":0},{"name":"x","type":"int","value":77},{"name":"y","type":"int","value":-115},{"name":"bS","type":"string","value":"shineWood3"},{"name":"cx","type":"int","value":0},{"name":"cy","type":"int","value":0},{"name":"no","type":"int","value":1},{"name":"rx","type":"int","value":-85},{"name":"ry","type":"int","value":-45},{"name":"ani","type":"int","value":1},{"name":"type","type":"int","value":0},{"name":"front","type":"int","value":0}]},{"id":28,"name":"background_back_22","type":"imagelayer","visible":true,"opacity":1,"image":"../../images/29714.png","imagewidth":248,"imageheight":268,"offsetx":66,"offsety":15,"repeatx":false,"repeaty":false,"parallaxx":1,"parallaxy":1,"properties":[{"name":"a","type":"int","value":255},{"name":"f","type":"int","value":0},{"name":"x","type":"int","value":190},{"name":"y","type":"int","value":149},{"name":"bS","type":"string","value":"shineWood3"},{"name":"cx","type":"int","value":0},{"name":"cy","type":"int","value":0},{"name":"no","type":"int","value":2},{"name":"rx","type":"int","value":-85},{"name":"ry","type":"int","value":-45},{"name":"ani","type":"int","value":1},{"name":"type","type":"int","value":0},{"name":"front","type":"int","value":0}]},{"id":29,"name":"background_back_23","type":"imagelayer","visible":true,"opacity":1,"image":"../../images/29716.png","imagewidth":152,"imageheight":193,"offsetx":-6,"offsety":-411,"repeatx":false,"repeaty":false,"parallaxx":1,"parallaxy":1,"properties":[{"name":"a","type":"int","value":255},{"name":"f","type":"int","value":0},{"name":"x","type":"int","value":70},{"name":"y","type":"int","value":-315},{"name":"bS","type":"string","value":"shineWood3"},{"name":"cx","type":"int","value":0},{"name":"cy","type":"int","value":0},{"name":"no","type":"int","value":3},{"name":"rx","type":"int","value":-85},{"name":"ry","type":"int","value":-45},{"name":"ani","type":"int","value":1},{"name":"type","type":"int","value":0},{"name":"front","type":"int","value":0}]},{"id":30,"name":"background_back_24","type":"imagelayer","visible":true,"opacity":1,"image":"../../images/29718.png","imagewidth":176,"imageheight":236,"offsetx":91,"offsety":-218,"repeatx":false,"repeaty":false,"parallaxx":1,"parallaxy":1,"properties":[{"name":"a","type":"int","value":255},{"name":"f","type":"int","value":0},{"name":"x","type":"int","value":179},{"name":"y","type":"int","value":-100},{"name":"bS","type":"string","value":"shineWood3"},{"name":"cx","type":"int","value":0},{"name":"cy","type":"int","value":0},{"name":"no","type":"int","value":4},{"name":"rx","type":"int","value":-85},{"name":"ry","type":"int","value":-45},{"name":"ani","type":"int","value":1},{"name":"type","type":"int","value":0},{"name":"front","type":"int","value":0}]},{"id":31,"name":"background_back_25","type":"imagelayer","visible":true,"opacity":1,"image":"../../images/29720.png","imagewidth":128,"imageheight":179,"offsetx":214,"offsety":18,"repeatx":false,"repeaty":false,"parallaxx":1,"parallaxy":1,"properties":[{"name":"a","type":"int","value":255},{"name":"f","type":"int","value":0},{"name":"x","type":"int","value":278},{"name":"y","type":"int","value":107},{"name":"bS","type":"string","value":"shineWood3"},{"name":"cx","type":"int","value":0},{"name":"cy","type":"int","value":0},{"name":"no","type":"int","value":5},{"name":"rx","type":"int","value":-85},{"name":"ry","type":"int","value":-45},{"name":"ani","type":"int","value":1},{"name":"type","type":"int","value":0},{"name":"front","type":"int","value":0}]},{"id":32,"name":"background_back_26","type":"imagelayer","visible":true,"opacity":1,"image":"../../images/29722.png","imagewidth":239,"imageheight":239,"offsetx":-268,"offsety":-419,"repeatx":false,"repeaty":false,"parallaxx":1,"parallaxy":1,"properties":[{"name":"a","type":"int","value":255},{"name":"f","type":"int","value":0},{"name":"x","type":"int","value":-149},{"name":"y","type":"int","value":-300},{"name":"bS","type":"string","value":"shineWood3"},{"name":"cx","type":"int","value":0},{"name":"cy","type":"int","value":0},{"name":"no","type":"int","value":6},{"name":"rx","type":"int","value":-88},{"name":"ry","type":"int","value":-48},{"name":"ani","type":"int","value":1},{"name":"type","type":"int","value":0},{"name":"front","type":"int","value":0}]},{"id":33,"name":"background_back_27","type":"imagelayer","visible":true,"opacity":1,"image":"../../images/29724.png","imagewidth":257,"imageheight":255,"offsetx":-160,"offsety":-180,"repeatx":false,"repeaty":false,"parallaxx":1,"parallaxy":1,"properties":[{"name":"a","type":"int","value":255},{"name":"f","type":"int","value":0},{"name":"x","type":"int","value":-32},{"name":"y","type":"int","value":-53},{"name":"bS","type":"string","value":"shineWood3"},{"name":"cx","type":"int","value":0},{"name":"cy","type":"int","value":0},{"name":"no","type":"int","value":7},{"name":"rx","type":"int","value":-88},{"name":"ry","type":"int","value":-48},{"name":"ani","type":"int","value":1},{"name":"type","type":"int","value":0},{"name":"front","type":"int","value":0}]},{"id":34,"name":"background_back_28","type":"imagelayer","visible":true,"opacity":1,"image":"../../images/29726.png","imagewidth":222,"imageheight":237,"offsetx":-45,"offsety":75,"repeatx":false,"repeaty":false,"parallaxx":1,"parallaxy":1,"properties":[{"name":"a","type":"int","value":255},{"name":"f","type":"int","value":0},{"name":"x","type":"int","value":66},{"name":"y","type":"int","value":193},{"name":"bS","type":"string","value":"shineWood3"},{"name":"cx","type":"int","value":0},{"name":"cy","type":"int","value":0},{"name":"no","type":"int","value":8},{"name":"rx","type":"int","value":-88},{"name":"ry","type":"int","value":-48},{"name":"ani","type":"int","value":1},{"name":"type","type":"int","value":0},{"name":"front","type":"int","value":0}]},{"id":35,"name":"background_back_29","type":"imagelayer","visible":true,"opacity":1,"image":"../../images/28009.png","imagewidth":276,"imageheight":400,"offsetx":-460,"offsety":-433,"repeatx":false,"repeaty":true,"parallaxx":1,"parallaxy":1,"properties":[{"name":"a","type":"int","value":255},{"name":"f","type":"int","value":0},{"name":"x","type":"int","value":-322},{"name":"y","type":"int","value":-33},{"name":"bS","type":"string","value":"shineWood"},{"name":"cx","type":"int","value":0},{"name":"cy","type":"int","value":0},{"name":"no","type":"int","value":21},{"name":"rx","type":"int","value":-100},{"name":"ry","type":"int","value":-100},{"name":"ani","type":"int","value":0},{"name":"type","type":"int","value":2},{"name":"front","type":"int","value":0}]},{"id":42,"name":"background_back","type":"objectgroup","visible":true,"opacity":1,"objects":[{"id":43,"x":45,"y":137,"visible":true,"properties":[{"name":"image_layer_name","type":"string","value":"background_back_1"},{"name":"a","type":"int","value":255},{"name":"f","type":"int","value":0},{"name":"x","type":"int","value":45},{"name":"y","type":"int","value":137},{"name":"bS","type":"string","value":"portTown"},{"name":"cx","type":"int","value":600},{"name":"cy","type":"int","value":0},{"name":"no","type":"int","value":2},{"name":"rx","type":"int","value":-2},{"name":"ry","type":"int","value":-15},{"name":"ani","type":"int","value":0},{"name":"type","type":"int","value":4},{"name":"front","type":"int","value":0}],"point":true},{"id":44,"x":185,"y":74,"visible":true,"properties":[{"name":"image_layer_name","type":"string","value":"background_back_2"},{"name":"a","type":"int","value":255},{"name":"f","type":"int","value":0},{"name":"x","type":"int","value":185},{"name":"y","type":"int","value":74},{"name":"bS","type":"string","value":"portTown"},{"name":"cx","type":"int","value":700},{"name":"cy","type":"int","value":0},{"name":"no","type":"int","value":2},{"name":"rx","type":"int","value":-3},{"name":"ry","type":"int","value":-15},{"name":"ani","type":"int","value":0},{"name":"type","type":"int","value":4},{"name":"front","type":"int","value":0}],"point":true},{"id":45,"x":239,"y":-201,"visible":true,"properties":[{"name":"image_layer_name","type":"string","value":"background_back_3"},{"name":"a","type":"int","value":255},{"name":"f","type":"int","value":0},{"name":"x","type":"int","value":239},{"name":"y","type":"int","value":-201},{"name":"bS","type":"string","value":"portTown"},{"name":"cx","type":"int","value":750},{"name":"cy","type":"int","value":0},{"name":"no","type":"int","value":3},{"name":"rx","type":"int","value":-3},{"name":"ry","type":"int","value":-15},{"name":"ani","type":"int","value":0},{"name":"type","type":"int","value":4},{"name":"front","type":"int","value":0}],"point":true},{"id":46,"x":-381,"y":95,"visible":true,"properties":[{"name":"image_layer_name","type":"string","value":"background_back_4"},{"name":"a","type":"int","value":255},{"name":"f","type":"int","value":0},{"name":"x","type":"int","value":-381},{"name":"y","type":"int","value":95},{"name":"bS","type":"string","value":"login"},{"name":"cx","type":"int","value":900},{"name":"cy","type":"int","value":0},{"name":"no","type":"int","value":5},{"name":"rx","type":"int","value":-4},{"name":"ry","type":"int","value":-17},{"name":"ani","type":"int","value":0},{"name":"type","type":"int","value":4},{"name":"front","type":"int","value":0}],"point":true},{"id":47,"x":34,"y":85,"visible":true,"properties":[{"name":"image_layer_name","type":"string","value":"background_back_5"},{"name":"a","type":"int","value":255},{"name":"f","type":"int","value":0},{"name":"x","type":"int","value":34},{"name":"y","type":"int","value":85},{"name":"bS","type":"string","value":"portTown"},{"name":"cx","type":"int","value":500},{"name":"cy","type":"int","value":0},{"name":"no","type":"int","value":6},{"name":"rx","type":"int","value":-5},{"name":"ry","type":"int","value":-19},{"name":"ani","type":"int","value":0},{"name":"type","type":"int","value":4},{"name":"front","type":"int","value":0}],"point":true},{"id":48,"x":152,"y":134,"visible":true,"properties":[{"name":"image_layer_name","type":"string","value":"background_back_6"},{"name":"a","type":"int","value":255},{"name":"f","type":"int","value":0},{"name":"x","type":"int","value":152},{"name":"y","type":"int","value":134},{"name":"bS","type":"string","value":"portTown"},{"name":"cx","type":"int","value":750},{"name":"cy","type":"int","value":0},{"name":"no","type":"int","value":6},{"name":"rx","type":"int","value":-6},{"name":"ry","type":"int","value":-20},{"name":"ani","type":"int","value":0},{"name":"type","type":"int","value":4},{"name":"front","type":"int","value":0}],"point":true},{"id":49,"x":125,"y":-216,"visible":true,"properties":[{"name":"image_layer_name","type":"string","value":"background_back_7"},{"name":"a","type":"int","value":255},{"name":"f","type":"int","value":0},{"name":"x","type":"int","value":125},{"name":"y","type":"int","value":-216},{"name":"bS","type":"string","value":"portTown"},{"name":"cx","type":"int","value":1200},{"name":"cy","type":"int","value":0},{"name":"no","type":"int","value":5},{"name":"rx","type":"int","value":-5},{"name":"ry","type":"int","value":-20},{"name":"ani","type":"int","value":0},{"name":"type","type":"int","value":4},{"name":"front","type":"int","value":0}],"point":true},{"id":50,"x":342,"y":-40,"visible":true,"properties":[{"name":"image_layer_name","type":"string","value":"background_back_8"},{"name":"a","type":"int","value":255},{"name":"f","type":"int","value":0},{"name":"x","type":"int","value":342},{"name":"y","type":"int","value":-40},{"name":"bS","type":"string","value":"portTown"},{"name":"cx","type":"int","value":1000},{"name":"cy","type":"int","value":0},{"name":"no","type":"int","value":4},{"name":"rx","type":"int","value":-6},{"name":"ry","type":"int","value":-20},{"name":"ani","type":"int","value":0},{"name":"type","type":"int","value":4},{"name":"front","type":"int","value":0}],"point":true},{"id":51,"x":-298,"y":-211,"visible":true,"properties":[{"name":"image_layer_name","type":"string","value":"background_back_9"},{"name":"a","type":"int","value":255},{"name":"f","type":"int","value":0},{"name":"x","type":"int","value":-298},{"name":"y","type":"int","value":-211},{"name":"bS","type":"string","value":"login"},{"name":"cx","type":"int","value":1400},{"name":"cy","type":"int","value":0},{"name":"no","type":"int","value":0},{"name":"rx","type":"int","value":12},{"name":"ry","type":"int","value":-80},{"name":"ani","type":"int","value":1},{"name":"type","type":"int","value":4},{"name":"front","type":"int","value":0}],"point":true},{"id":52,"x":-315,"y":-199,"visible":true,"properties":[{"name":"image_layer_name","type":"string","value":"background_back_10"},{"name":"a","type":"int","value":255},{"name":"f","type":"int","value":0},{"name":"x","type":"int","value":-315},{"name":"y","type":"int","value":-199},{"name":"bS","type":"string","value":"login"},{"name":"cx","type":"int","value":1400},{"name":"cy","type":"int","value":0},{"name":"no","type":"int","value":1},{"name":"rx","type":"int","value":12},{"name":"ry","type":"int","value":-80},{"name":"ani","type":"int","value":1},{"name":"type","type":"int","value":4},{"name":"front","type":"int","value":0}],"point":true},{"id":53,"x":-333,"y":-210,"visible":true,"properties":[{"name":"image_layer_name","type":"string","value":"background_back_11"},{"name":"a","type":"int","value":255},{"name":"f","type":"int","value":0},{"name":"x","type":"int","value":-333},{"name":"y","type":"int","value":-210},{"name":"bS","type":"string","value":"login"},{"name":"cx","type":"int","value":1400},{"name":"cy","type":"int","value":0},{"name":"no","type":"int","value":2},{"name":"rx","type":"int","value":12},{"name":"ry","type":"int","value":-80},{"name":"ani","type":"int","value":1},{"name":"type","type":"int","value":4},{"name":"front","type":"int","value":0}],"point":true},{"id":54,"x":-348,"y":-218,"visible":true,"properties":[{"name":"image_layer_name","type":"string","value":"background_back_12"},{"name":"a","type":"int","value":255},{"name":"f","type":"int","value":0},{"name":"x","type":"int","value":-348},{"name":"y","type":"int","value":-218},{"name":"bS","type":"string","value":"login"},{"name":"cx","type":"int","value":1400},{"name":"cy","type":"int","value":0},{"name":"no","type":"int","value":1},{"name":"rx","type":"int","value":12},{"name":"ry","type":"int","value":-80},{"name":"ani","type":"int","value":1},{"name":"type","type":"int","value":4},{"name":"front","type":"int","value":0}],"point":true},{"id":55,"x":-337,"y":-191,"visible":true,"properties":[{"name":"image_layer_name","type":"string","value":"background_back_13"},{"name":"a","type":"int","value":255},{"name":"f","type":"int","value":0},{"name":"x","type":"int","value":-337},{"name":"y","type":"int","value":-191},{"name":"bS","type":"string","value":"login"},{"name":"cx","type":"int","value":1400},{"name":"cy","type":"int","value":0},{"name":"no","type":"int","value":0},{"name":"rx","type":"int","value":12},{"name":"ry","type":"int","value":-80},{"name":"ani","type":"int","value":1},{"name":"type","type":"int","value":4},{"name":"front","type":"int","value":0}],"point":true},{"id":56,"x":-367,"y":-205,"visible":true,"properties":[{"name":"image_layer_name","type":"string","value":"background_back_14"},{"name":"a","type":"int","value":255},{"name":"f","type":"int","value":0},{"name":"x","type":"int","value":-367},{"name":"y","type":"int","value":-205},{"name":"bS","type":"string","value":"login"},{"name":"cx","type":"int","value":1400},{"name":"cy","type":"int","value":0},{"name":"no","type":"int","value":2},{"name":"rx","type":"int","value":12},{"name":"ry","type":"int","value":-80},{"name":"ani","type":"int","value":1},{"name":"type","type":"int","value":4},{"name":"front","type":"int","value":0}],"point":true},{"id":57,"x":-388,"y":-193,"visible":true,"properties":[{"name":"image_layer_name","type":"string","value":"background_back_15"},{"name":"a","type":"int","value":255},{"name":"f","type":"int","value":0},{"name":"x","type":"int","value":-388},{"name":"y","type":"int","value":-193},{"name":"bS","type":"string","value":"login"},{"name":"cx","type":"int","value":1400},{"name":"cy","type":"int","value":0},{"name":"no","type":"int","value":1},{"name":"rx","type":"int","value":12},{"name":"ry","type":"int","value":-80},{"name":"ani","type":"int","value":1},{"name":"type","type":"int","value":4},{"name":"front","type":"int","value":0}],"point":true},{"id":58,"x":-403,"y":-206,"visible":true,"properties":[{"name":"image_layer_name","type":"string","value":"background_back_16"},{"name":"a","type":"int","value":255},{"name":"f","type":"int","value":0},{"name":"x","type":"int","value":-403},{"name":"y","type":"int","value":-206},{"name":"bS","type":"string","value":"login"},{"name":"cx","type":"int","value":1400},{"name":"cy","type":"int","value":0},{"name":"no","type":"int","value":1},{"name":"rx","type":"int","value":12},{"name":"ry","type":"int","value":-80},{"name":"ani","type":"int","value":1},{"name":"type","type":"int","value":4},{"name":"front","type":"int","value":0}],"point":true},{"id":59,"x":-379,"y":-212,"visible":true,"properties":[{"name":"image_layer_name","type":"string","value":"background_back_17"},{"name":"a","type":"int","value":255},{"name":"f","type":"int","value":0},{"name":"x","type":"int","value":-379},{"name":"y","type":"int","value":-212},{"name":"bS","type":"string","value":"login"},{"name":"cx","type":"int","value":1400},{"name":"cy","type":"int","value":0},{"name":"no","type":"int","value":0},{"name":"rx","type":"int","value":12},{"name":"ry","type":"int","value":-80},{"name":"ani","type":"int","value":1},{"name":"type","type":"int","value":4},{"name":"front","type":"int","value":0}],"point":true}]},{"id":36,"name":"background_front_30","type":"imagelayer","visible":true,"opacity":1,"image":"../../images/29728.png","imagewidth":283,"imageheight":258,"offsetx":-401,"offsety":-537,"repeatx":false,"repeaty":false,"parallaxx":1,"parallaxy":1,"properties":[{"name":"a","type":"int","value":255},{"name":"f","type":"int","value":0},{"name":"x","type":"int","value":-260},{"name":"y","type":"int","value":-408},{"name":"bS","type":"string","value":"shineWood3"},{"name":"cx","type":"int","value":0},{"name":"cy","type":"int","value":0},{"name":"no","type":"int","value":9},{"name":"rx","type":"int","value":-100},{"name":"ry","type":"int","value":-100},{"name":"ani","type":"int","value":1},{"name":"type","type":"int","value":0},{"name":"front","type":"int","value":1}]},{"id":37,"name":"background_front_31","type":"imagelayer","visible":true,"opacity":1,"image":"../../images/29731.png","imagewidth":293,"imageheight":251,"offsetx":-282,"offsety":-279,"repeatx":false,"repeaty":false,"parallaxx":1,"parallaxy":1,"properties":[{"name":"a","type":"int","value":255},{"name":"f","type":"int","value":0},{"name":"x","type":"int","value":-136},{"name":"y","type":"int","value":-154},{"name":"bS","type":"string","value":"shineWood3"},{"name":"cx","type":"int","value":0},{"name":"cy","type":"int","value":0},{"name":"no","type":"int","value":10},{"name":"rx","type":"int","value":-100},{"name":"ry","type":"int","value":-100},{"name":"ani","type":"int","value":1},{"name":"type","type":"int","value":0},{"name":"front","type":"int","value":1}]},{"id":38,"name":"background_front_32","type":"imagelayer","visible":true,"opacity":1,"image":"../../images/29734.png","imagewidth":220,"imageheight":218,"offsetx":-165,"offsety":-28,"repeatx":false,"repeaty":false,"parallaxx":1,"parallaxy":1,"properties":[{"name":"a","type":"int","value":255},{"name":"f","type":"int","value":0},{"name":"x","type":"int","value":-55},{"name":"y","type":"int","value":81},{"name":"bS","type":"string","value":"shineWood3"},{"name":"cx","type":"int","value":0},{"name":"cy","type":"int","value":0},{"name":"no","type":"int","value":11},{"name":"rx","type":"int","value":-100},{"name":"ry","type":"int","value":-100},{"name":"ani","type":"int","value":1},{"name":"type","type":"int","value":0},{"name":"front","type":"int","value":1}]},{"id":39,"name":"background_front_33","type":"imagelayer","visible":true,"opacity":1,"image":"../../images/29737.png","imagewidth":242,"imageheight":240,"offsetx":-217,"offsety":-533,"repeatx":false,"repeaty":false,"parallaxx":1,"parallaxy":1,"properties":[{"name":"a","type":"int","value":255},{"name":"f","type":"int","value":0},{"name":"x","type":"int","value":-96},{"name":"y","type":"int","value":-413},{"name":"bS","type":"string","value":"shineWood3"},{"name":"cx","type":"int","value":0},{"name":"cy","type":"int","value":0},{"name":"no","type":"int","value":12},{"name":"rx","type":"int","value":-100},{"name":"ry","type":"int","value":-100},{"name":"ani","type":"int","value":1},{"name":"type","type":"int","value":0},{"name":"front","type":"int","value":1}]},{"id":40,"name":"background_front_34","type":"imagelayer","visible":true,"opacity":1,"image":"../../images/29739.png","imagewidth":224,"imageheight":201,"offsetx":-97,"offsety":-293,"repeatx":false,"repeaty":false,"parallaxx":1,"parallaxy":1,"properties":[{"name":"a","type":"int","value":255},{"name":"f","type":"int","value":0},{"name":"x","type":"int","value":15},{"name":"y","type":"int","value":-193},{"name":"bS","type":"string","value":"shineWood3"},{"name":"cx","type":"int","value":0},{"name":"cy","type":"int","value":0},{"name":"no","type":"int","value":13},{"name":"rx","type":"int","value":-100},{"name":"ry","type":"int","value":-100},{"name":"ani","type":"int","value":1},{"name":"type","type":"int","value":0},{"name":"front","type":"int","value":1}]},{"id":41,"name":"background_front_35","type":"imagelayer","visible":true,"opacity":1,"image":"../../images/29741.png","imagewidth":151,"imageheight":179,"offsetx":4,"offsety":-92,"repeatx":false,"repeaty":false,"parallaxx":1,"parallaxy":1,"properties":[{"name":"a","type":"int","value":255},{"name":"f","type":"int","value":0},{"name":"x","type":"int","value":79},{"name":"y","type":"int","value":-3},{"name":"bS","type":"string","value":"shineWood3"},{"name":"cx","type":"int","value":0},{"name":"cy","type":"int","value":0},{"name":"no","type":"int","value":14},{"name":"rx","type":"int","value":-100},{"name":"ry","type":"int","value":-100},{"name":"ani","type":"int","value":1},{"name":"type","type":"int","value":0},{"name":"front","type":"int","value":1}]},{"id":43,"name":"portal","type":"objectgroup","visible":true,"opacity":1,"objects":[{"id":60,"x":0,"y":0,"visible":true,"properties":[{"name":"x","type":"int","value":0},{"name":"y","type":"int","value":0},{"name":"pn","type":"string","value":"sp"},{"name":"pt","type":"int","value":0},{"name":"tm","type":"int","value":999999999},{"name":"tn","type":"string","value":""}],"point":true},{"id":61,"x":1442,"y":-120,"visible":true,"properties":[{"name":"x","type":"int","value":1442},{"name":"y","type":"int","value":-120},{"name":"pn","type":"string","value":"come00"},{"name":"pt","type":"int","value":1},{"name":"tm","type":"int","value":999999999},{"name":"tn","type":"string","value":""}],"point":true},{"id":62,"x":-221,"y":82,"visible":true,"properties":[{"name":"x","type":"int","value":-221},{"name":"y","type":"int","value":82},{"name":"pn","type":"string","value":"out00"},{"name":"pt","type":"int","value":2},{"name":"tm","type":"int","value":101000000},{"name":"tn","type":"string","value":"in03"}],"point":true}]},{"id":44,"name":"life","type":"objectgroup","visible":true,"opacity":1,"objects":[{"id":63,"x":482,"y":39,"visible":true,"properties":[{"name":"f","type":"int","value":0},{"name":"x","type":"int","value":482},{"name":"y","type":"int","value":39},{"name":"cy","type":"int","value":39},{"name":"fh","type":"int","value":1},{"name":"id","type":"int","value":1032007},{"name":"rx0","type":"int","value":453},{"name":"rx1","type":"int","value":532},{"name":"type","type":"string","value":"n"},{"name":"mobTime","type":"int","value":0}],"point":true},{"id":64,"x":1592,"y":83,"visible":true,"properties":[{"name":"f","type":"int","value":0},{"name":"x","type":"int","value":1592},{"name":"y","type":"int","value":83},{"name":"cy","type":"int","value":83},{"name":"fh","type":"int","value":12},{"name":"id","type":"int","value":1032008},{"name":"rx0","type":"int","value":1542},{"name":"rx1","type":"int","value":1642},{"name":"type","type":"string","value":"n"},{"name":"mobTime","type":"int","value":0}],"point":true}]},{"id":45,"name":"foothold","type":"objectgroup","visible":true,"opacity":1,"objects":[{"id":65,"x":433,"y":39,"visible":true,"properties":[{"name":"layer","type":"int","value":1},{"name":"group","type":"int","value":1},{"name":"id","type":"int","value":1},{"name":"fh_layer","type":"int","value":1},{"name":"fh_group","type":"int","value":1},{"name":"fh_id","type":"int","value":1},{"name":"x1","type":"int","value":433},{"name":"x2","type":"int","value":686},{"name":"y1","type":"int","value":39},{"name":"y2","type":"int","value":39},{"name":"next","type":"int","value":0},{"name":"prev","type":"int","value":0}],"polyline":[{"x":0,"y":0},{"x":253,"y":0}]},{"id":66,"x":882,"y":24,"visible":true,"properties":[{"name":"layer","type":"int","value":1},{"name":"group","type":"int","value":7},{"name":"id","type":"int","value":2},{"name":"fh_layer","type":"int","value":1},{"name":"fh_group","type":"int","value":7},{"name":"fh_id","type":"int","value":2},{"name":"x1","type":"int","value":882},{"name":"x2","type":"int","value":966},{"name":"y1","type":"int","value":24},{"name":"y2","type":"int","value":24},{"name":"next","type":"int","value":7},{"name":"prev","type":"int","value":0}],"polyline":[{"x":0,"y":0},{"x":84,"y":0}]},{"id":67,"x":1184,"y":69,"visible":true,"properties":[{"name":"layer","type":"int","value":1},{"name":"group","type":"int","value":10},{"name":"id","type":"int","value":3},{"name":"fh_layer","type":"int","value":1},{"name":"fh_group","type":"int","value":10},{"name":"fh_id","type":"int","value":3},{"name":"x1","type":"int","value":1184},{"name":"x2","type":"int","value":1388},{"name":"y1","type":"int","value":69},{"name":"y2","type":"int","value":-118},{"name":"next","type":"int","value":4},{"name":"prev","type":"int","value":0}],"polyline":[{"x":0,"y":0},{"x":204,"y":-187}]},{"id":68,"x":1388,"y":-118,"visible":true,"properties":[{"name":"layer","type":"int","value":1},{"name":"group","type":"int","value":10},{"name":"id","type":"int","value":4},{"name":"fh_layer","type":"int","value":1},{"name":"fh_group","type":"int","value":10},{"name":"fh_id","type":"int","value":4},{"name":"x1","type":"int","value":1388},{"name":"x2","type":"int","value":1508},{"name":"y1","type":"int","value":-118},{"name":"y2","type":"int","value":-118},{"name":"next","type":"int","value":0},{"name":"prev","type":"int","value":3}],"polyline":[{"x":0,"y":0},{"x":120,"y":0}]},{"id":69,"x":1011,"y":-10,"visible":true,"properties":[{"name":"layer","type":"int","value":1},{"name":"group","type":"int","value":10},{"name":"id","type":"int","value":5},{"name":"fh_layer","type":"int","value":1},{"name":"fh_group","type":"int","value":10},{"name":"fh_id","type":"int","value":5},{"name":"x1","type":"int","value":1011},{"name":"x2","type":"int","value":1117},{"name":"y1","type":"int","value":-10},{"name":"y2","type":"int","value":-15},{"name":"next","type":"int","value":6},{"name":"prev","type":"int","value":0}],"polyline":[{"x":0,"y":0},{"x":106,"y":-5}]},{"id":70,"x":1117,"y":-15,"visible":true,"properties":[{"name":"layer","type":"int","value":1},{"name":"group","type":"int","value":10},{"name":"id","type":"int","value":6},{"name":"fh_layer","type":"int","value":1},{"name":"fh_group","type":"int","value":10},{"name":"fh_id","type":"int","value":6},{"name":"x1","type":"int","value":1117},{"name":"x2","type":"int","value":1189},{"name":"y1","type":"int","value":-15},{"name":"y2","type":"int","value":-15},{"name":"next","type":"int","value":0},{"name":"prev","type":"int","value":5}],"polyline":[{"x":0,"y":0},{"x":72,"y":0}]},{"id":71,"x":966,"y":24,"visible":true,"properties":[{"name":"layer","type":"int","value":1},{"name":"group","type":"int","value":10},{"name":"id","type":"int","value":7},{"name":"fh_layer","type":"int","value":1},{"name":"fh_group","type":"int","value":10},{"name":"fh_id","type":"int","value":7},{"name":"x1","type":"int","value":966},{"name":"x2","type":"int","value":1024},{"name":"y1","type":"int","value":24},{"name":"y2","type":"int","value":24},{"name":"next","type":"int","value":0},{"name":"prev","type":"int","value":2}],"polyline":[{"x":0,"y":0},{"x":58,"y":0}]},{"id":72,"x":-408,"y":83,"visible":true,"properties":[{"name":"layer","type":"int","value":5},{"name":"group","type":"int","value":0},{"name":"id","type":"int","value":8},{"name":"fh_layer","type":"int","value":5},{"name":"fh_group","type":"int","value":0},{"name":"fh_id","type":"int","value":8},{"name":"x1","type":"int","value":-408},{"name":"x2","type":"int","value":28},{"name":"y1","type":"int","value":83},{"name":"y2","type":"int","value":83},{"name":"next","type":"int","value":9},{"name":"prev","type":"int","value":0}],"polyline":[{"x":0,"y":0},{"x":436,"y":0}]},{"id":73,"x":28,"y":83,"visible":true,"properties":[{"name":"layer","type":"int","value":5},{"name":"group","type":"int","value":0},{"name":"id","type":"int","value":9},{"name":"fh_layer","type":"int","value":5},{"name":"fh_group","type":"int","value":0},{"name":"fh_id","type":"int","value":9},{"name":"x1","type":"int","value":28},{"name":"x2","type":"int","value":451},{"name":"y1","type":"int","value":83},{"name":"y2","type":"int","value":83},{"name":"next","type":"int","value":10},{"name":"prev","type":"int","value":8}],"polyline":[{"x":0,"y":0},{"x":423,"y":0}]},{"id":74,"x":451,"y":83,"visible":true,"properties":[{"name":"layer","type":"int","value":5},{"name":"group","type":"int","value":0},{"name":"id","type":"int","value":10},{"name":"fh_layer","type":"int","value":5},{"name":"fh_group","type":"int","value":0},{"name":"fh_id","type":"int","value":10},{"name":"x1","type":"int","value":451},{"name":"x2","type":"int","value":902},{"name":"y1","type":"int","value":83},{"name":"y2","type":"int","value":83},{"name":"next","type":"int","value":11},{"name":"prev","type":"int","value":9}],"polyline":[{"x":0,"y":0},{"x":451,"y":0}]},{"id":75,"x":902,"y":83,"visible":true,"properties":[{"name":"layer","type":"int","value":5},{"name":"group","type":"int","value":0},{"name":"id","type":"int","value":11},{"name":"fh_layer","type":"int","value":5},{"name":"fh_group","type":"int","value":0},{"name":"fh_id","type":"int","value":11},{"name":"x1","type":"int","value":902},{"name":"x2","type":"int","value":1217},{"name":"y1","type":"int","value":83},{"name":"y2","type":"int","value":83},{"name":"next","type":"int","value":12},{"name":"prev","type":"int","value":10}],"polyline":[{"x":0,"y":0},{"x":315,"y":0}]},{"id":76,"x":1217,"y":83,"visible":true,"properties":[{"name":"layer","type":"int","value":5},{"name":"group","type":"int","value":0},{"name":"id","type":"int","value":12},{"name":"fh_layer","type":"int","value":5},{"name":"fh_group","type":"int","value":0},{"name":"fh_id","type":"int","value":12},{"name":"x1","type":"int","value":1217},{"name":"x2","type":"int","value":1688},{"name":"y1","type":"int","value":83},{"name":"y2","type":"int","value":83},{"name":"next","type":"int","value":13},{"name":"prev","type":"int","value":11}],"polyline":[{"x":0,"y":0},{"x":471,"y":0}]},{"id":77,"x":1688,"y":83,"visible":true,"properties":[{"name":"layer","type":"int","value":5},{"name":"group","type":"int","value":0},{"name":"id","type":"int","value":13},{"name":"fh_layer","type":"int","value":5},{"name":"fh_group","type":"int","value":0},{"name":"fh_id","type":"int","value":13},{"name":"x1","type":"int","value":1688},{"name":"x2","type":"int","value":1688},{"name":"y1","type":"int","value":83},{"name":"y2","type":"int","value":-582},{"name":"next","type":"int","value":0},{"name":"prev","type":"int","value":12}],"polyline":[{"x":0,"y":0},{"x":0,"y":-665}]}]},{"id":46,"name":"miniMap","type":"objectgroup","visible":true,"opacity":1,"objects":[{"id":78,"x":478,"y":647,"visible":true,"properties":[{"name":"mag","type":"int","value":4},{"name":"centerX","type":"int","value":478},{"name":"centerY","type":"int","value":647},{"name":"canvas_path","type":"string","value":"../../images/30721.png"},{"name":"canvas_width","type":"int","value":138},{"name":"canvas_height","type":"int","value":65},{"name":"canvas_origin_x","type":"int","value":0},{"name":"canvas_origin_y","type":"int","value":0}],"point":true}]}],"tilesets":[{"firstgid":1,"source":"../../tilesets/bg_login.tsj"},{"firstgid":5,"source":"../../tilesets/bg_portTown.tsj"},{"firstgid":10,"source":"../../tilesets/bg_shineWood.tsj"},{"firstgid":43,"source":"../../tilesets/bg_shineWood3.tsj"},{"firstgid":60,"source":"../../tilesets/obj_houseSW_house10_deco.tsj"},{"firstgid":61,"source":"../../tilesets/obj_houseSW_house11_deco.tsj"},{"firstgid":64,"source":"../../tilesets/obj_houseSW_house10_basic.tsj"},{"firstgid":66,"source":"../../tilesets/obj_houseSW_house11_basic.tsj"},{"firstgid":67,"source":"../../tilesets/obj_acc2_shineWood_station.tsj"},{"firstgid":95,"source":"../../tilesets/obj_acc1_portTown_artificiality.tsj"}],"properties":[{"name":"bgm","type":"string","value":"Bgm01/MoonlightShadow"},{"name":"town","type":"int","value":1},{"name":"VRTop","type":"int","value":-508},{"name":"cloud","type":"int","value":0},{"name":"VRLeft","type":"int","value":-405},{"name":"VRRight","type":"int","value":1910},{"name":"mapMark","type":"string","value":"Ellinia"},{"name":"mobRate","type":"float","value":1},{"name":"version","type":"int","value":10},{"name":"VRBottom","type":"int","value":230},{"name":"fieldType","type":"int","value":2},{"name":"returnMap","type":"int","value":101000000},{"name":"fieldLimit","type":"int","value":0},{"name":"hideMinimap","type":"int","value":0},{"name":"forcedReturn","type":"int","value":999999999}]}