{"type":"map","orientation":"orthogonal","renderorder":"right-down","infinite":false,"tilewidth":1,"tileheight":1,"width":800,"height":600,"nextlayerid":8,"nextobjectid":55,"layers":[{"id":1,"name":"layer_0_obj","type":"objectgroup","visible":true,"opacity":1,"objects":[{"id":1,"x":-400,"y":282,"visible":true,"properties":[{"name":"layer","type":"int","value":0},{"name":"resource_index","type":"int","value":0},{"name":"oS","type":"string","value":"shop"},{"name":"l0","type":"string","value":"shop"},{"name":"l1","type":"string","value":"groceryDR"},{"name":"l2","type":"string","value":"0"},{"name":"z","type":"int","value":1},{"name":"zM","type":"int","value":0},{"name":"f","type":"int","value":0}],"gid":1,"width":800,"height":600}]},{"id":2,"name":"layer_1_obj","type":"objectgroup","visible":true,"opacity":1,"objects":[{"id":2,"x":-80,"y":183,"visible":true,"properties":[{"name":"layer","type":"int","value":1},{"name":"resource_index","type":"int","value":0},{"name":"oS","type":"string","value":"shop"},{"name":"l0","type":"string","value":"shop"},{"name":"l1","type":"string","value":"groceryDR"},{"name":"l2","type":"string","value":"1"},{"name":"z","type":"int","value":5},{"name":"zM","type":"int","value":1},{"name":"f","type":"int","value":0}],"gid":2,"width":186,"height":126}]},{"id":3,"name":"layer_2_obj","type":"objectgroup","visible":true,"opacity":1,"objects":[{"id":3,"x":-139,"y":-21,"visible":true,"properties":[{"name":"layer","type":"int","value":2},{"name":"resource_index","type":"int","value":0},{"name":"oS","type":"string","value":"shop"},{"name":"l0","type":"string","value":"shop"},{"name":"l1","type":"string","value":"groceryDR"},{"name":"l2","type":"string","value":"2"},{"name":"z","type":"int","value":3},{"name":"zM","type":"int","value":3},{"name":"f","type":"int","value":0}],"gid":3,"width":268,"height":297}]},{"id":4,"name":"layer_3_obj","type":"objectgroup","visible":true,"opacity":1,"objects":[{"id":4,"x":158,"y":181,"visible":true,"properties":[{"name":"layer","type":"int","value":3},{"name":"resource_index","type":"int","value":0},{"name":"oS","type":"string","value":"shop"},{"name":"l0","type":"string","value":"shop"},{"name":"l1","type":"string","value":"groceryDR"},{"name":"l2","type":"string","value":"3"},{"name":"z","type":"int","value":3},{"name":"zM","type":"int","value":2},{"name":"f","type":"int","value":0}],"gid":4,"width":206,"height":133}]},{"id":5,"name":"portal","type":"objectgroup","visible":true,"opacity":1,"objects":[{"id":5,"x":-353,"y":99,"visible":true,"properties":[{"name":"x","type":"int","value":-353},{"name":"y","type":"int","value":99},{"name":"pn","type":"string","value":"sp"},{"name":"pt","type":"int","value":0},{"name":"tm","type":"int","value":999999999},{"name":"tn","type":"string","value":""}],"point":true},{"id":6,"x":-310,"y":98,"visible":true,"properties":[{"name":"x","type":"int","value":-310},{"name":"y","type":"int","value":98},{"name":"pn","type":"string","value":"sp"},{"name":"pt","type":"int","value":0},{"name":"tm","type":"int","value":999999999},{"name":"tn","type":"string","value":""}],"point":true},{"id":7,"x":-207,"y":154,"visible":true,"properties":[{"name":"x","type":"int","value":-207},{"name":"y","type":"int","value":154},{"name":"pn","type":"string","value":"sp"},{"name":"pt","type":"int","value":0},{"name":"tm","type":"int","value":999999999},{"name":"tn","type":"string","value":""}],"point":true},{"id":8,"x":-166,"y":153,"visible":true,"properties":[{"name":"x","type":"int","value":-166},{"name":"y","type":"int","value":153},{"name":"pn","type":"string","value":"sp"},{"name":"pt","type":"int","value":0},{"name":"tm","type":"int","value":999999999},{"name":"tn","type":"string","value":""}],"point":true},{"id":9,"x":-123,"y":154,"visible":true,"properties":[{"name":"x","type":"int","value":-123},{"name":"y","type":"int","value":154},{"name":"pn","type":"string","value":"sp"},{"name":"pt","type":"int","value":0},{"name":"tm","type":"int","value":999999999},{"name":"tn","type":"string","value":""}],"point":true},{"id":10,"x":157,"y":152,"visible":true,"properties":[{"name":"x","type":"int","value":157},{"name":"y","type":"int","value":152},{"name":"pn","type":"string","value":"sp"},{"name":"pt","type":"int","value":0},{"name":"tm","type":"int","value":999999999},{"name":"tn","type":"string","value":""}],"point":true},{"id":11,"x":199,"y":150,"visible":true,"properties":[{"name":"x","type":"int","value":199},{"name":"y","type":"int","value":150},{"name":"pn","type":"string","value":"sp"},{"name":"pt","type":"int","value":0},{"name":"tm","type":"int","value":999999999},{"name":"tn","type":"string","value":""}],"point":true},{"id":12,"x":357,"y":124,"visible":true,"properties":[{"name":"x","type":"int","value":357},{"name":"y","type":"int","value":124},{"name":"pn","type":"string","value":"sp"},{"name":"pt","type":"int","value":0},{"name":"tm","type":"int","value":999999999},{"name":"tn","type":"string","value":""}],"point":true},{"id":13,"x":241,"y":153,"visible":true,"properties":[{"name":"x","type":"int","value":241},{"name":"y","type":"int","value":153},{"name":"pn","type":"string","value":"sp"},{"name":"pt","type":"int","value":0},{"name":"tm","type":"int","value":999999999},{"name":"tn","type":"string","value":""}],"point":true},{"id":14,"x":302,"y":144,"visible":true,"properties":[{"name":"x","type":"int","value":302},{"name":"y","type":"int","value":144},{"name":"pn","type":"string","value":"out01"},{"name":"pt","type":"int","value":2},{"name":"tm","type":"int","value":102000000},{"name":"tn","type":"string","value":"in01"}],"point":true}]},{"id":6,"name":"life","type":"objectgroup","visible":true,"opacity":1,"objects":[{"id":15,"x":-16,"y":120,"visible":true,"properties":[{"name":"f","type":"int","value":0},{"name":"x","type":"int","value":-16},{"name":"y","type":"int","value":120},{"name":"cy","type":"int","value":121},{"name":"fh","type":"int","value":1},{"name":"id","type":"int","value":1021100},{"name":"rx0","type":"int","value":-22},{"name":"rx1","type":"int","value":-1},{"name":"type","type":"string","value":"n"}],"point":true},{"id":16,"x":-303,"y":136,"visible":true,"properties":[{"name":"f","type":"int","value":1},{"name":"x","type":"int","value":-303},{"name":"y","type":"int","value":136},{"name":"cy","type":"int","value":139},{"name":"fh","type":"int","value":15},{"name":"id","type":"int","value":1022100},{"name":"rx0","type":"int","value":-353},{"name":"rx1","type":"int","value":-253},{"name":"type","type":"string","value":"n"}],"point":true}]},{"id":7,"name":"foothold","type":"objectgroup","visible":true,"opacity":1,"objects":[{"id":17,"x":-42,"y":121,"visible":true,"properties":[{"name":"layer","type":"int","value":0},{"name":"group","type":"int","value":0},{"name":"id","type":"int","value":1},{"name":"fh_layer","type":"int","value":0},{"name":"fh_group","type":"int","value":0},{"name":"fh_id","type":"int","value":1},{"name":"x1","type":"int","value":-42},{"name":"x2","type":"int","value":19},{"name":"y1","type":"int","value":121},{"name":"y2","type":"int","value":121},{"name":"next","type":"int","value":2},{"name":"prev","type":"int","value":4}],"polyline":[{"x":0,"y":0},{"x":61,"y":0}]},{"id":18,"x":19,"y":121,"visible":true,"properties":[{"name":"layer","type":"int","value":0},{"name":"group","type":"int","value":0},{"name":"id","type":"int","value":2},{"name":"fh_layer","type":"int","value":0},{"name":"fh_group","type":"int","value":0},{"name":"fh_id","type":"int","value":2},{"name":"x1","type":"int","value":19},{"name":"x2","type":"int","value":19},{"name":"y1","type":"int","value":121},{"name":"y2","type":"int","value":-1},{"name":"next","type":"int","value":3},{"name":"prev","type":"int","value":1}],"polyline":[{"x":0,"y":0},{"x":0,"y":-122}]},{"id":19,"x":19,"y":-1,"visible":true,"properties":[{"name":"layer","type":"int","value":0},{"name":"group","type":"int","value":0},{"name":"id","type":"int","value":3},{"name":"fh_layer","type":"int","value":0},{"name":"fh_group","type":"int","value":0},{"name":"fh_id","type":"int","value":3},{"name":"x1","type":"int","value":19},{"name":"x2","type":"int","value":-42},{"name":"y1","type":"int","value":-1},{"name":"y2","type":"int","value":-1},{"name":"next","type":"int","value":4},{"name":"prev","type":"int","value":2}],"polyline":[{"x":0,"y":0},{"x":-61,"y":0}]},{"id":20,"x":-42,"y":-1,"visible":true,"properties":[{"name":"layer","type":"int","value":0},{"name":"group","type":"int","value":0},{"name":"id","type":"int","value":4},{"name":"fh_layer","type":"int","value":0},{"name":"fh_group","type":"int","value":0},{"name":"fh_id","type":"int","value":4},{"name":"x1","type":"int","value":-42},{"name":"x2","type":"int","value":-42},{"name":"y1","type":"int","value":-1},{"name":"y2","type":"int","value":121},{"name":"next","type":"int","value":1},{"name":"prev","type":"int","value":3}],"polyline":[{"x":0,"y":0},{"x":0,"y":122}]},{"id":21,"x":-124,"y":-55,"visible":true,"properties":[{"name":"layer","type":"int","value":2},{"name":"group","type":"int","value":3},{"name":"id","type":"int","value":5},{"name":"fh_layer","type":"int","value":2},{"name":"fh_group","type":"int","value":3},{"name":"fh_id","type":"int","value":5},{"name":"x1","type":"int","value":-124},{"name":"x2","type":"int","value":8},{"name":"y1","type":"int","value":-55},{"name":"y2","type":"int","value":-54},{"name":"next","type":"int","value":6},{"name":"prev","type":"int","value":0}],"polyline":[{"x":0,"y":0},{"x":132,"y":1}]},{"id":22,"x":8,"y":-54,"visible":true,"properties":[{"name":"layer","type":"int","value":2},{"name":"group","type":"int","value":3},{"name":"id","type":"int","value":6},{"name":"fh_layer","type":"int","value":2},{"name":"fh_group","type":"int","value":3},{"name":"fh_id","type":"int","value":6},{"name":"x1","type":"int","value":8},{"name":"x2","type":"int","value":110},{"name":"y1","type":"int","value":-54},{"name":"y2","type":"int","value":-57},{"name":"next","type":"int","value":0},{"name":"prev","type":"int","value":5}],"polyline":[{"x":0,"y":0},{"x":102,"y":-3}]},{"id":23,"x":-125,"y":-108,"visible":true,"properties":[{"name":"layer","type":"int","value":2},{"name":"group","type":"int","value":3},{"name":"id","type":"int","value":7},{"name":"fh_layer","type":"int","value":2},{"name":"fh_group","type":"int","value":3},{"name":"fh_id","type":"int","value":7},{"name":"x1","type":"int","value":-125},{"name":"x2","type":"int","value":-72},{"name":"y1","type":"int","value":-108},{"name":"y2","type":"int","value":-107},{"name":"next","type":"int","value":8},{"name":"prev","type":"int","value":0}],"polyline":[{"x":0,"y":0},{"x":53,"y":1}]},{"id":24,"x":-72,"y":-107,"visible":true,"properties":[{"name":"layer","type":"int","value":2},{"name":"group","type":"int","value":3},{"name":"id","type":"int","value":8},{"name":"fh_layer","type":"int","value":2},{"name":"fh_group","type":"int","value":3},{"name":"fh_id","type":"int","value":8},{"name":"x1","type":"int","value":-72},{"name":"x2","type":"int","value":-37},{"name":"y1","type":"int","value":-107},{"name":"y2","type":"int","value":-109},{"name":"next","type":"int","value":9},{"name":"prev","type":"int","value":7}],"polyline":[{"x":0,"y":0},{"x":35,"y":-2}]},{"id":25,"x":-37,"y":-109,"visible":true,"properties":[{"name":"layer","type":"int","value":2},{"name":"group","type":"int","value":3},{"name":"id","type":"int","value":9},{"name":"fh_layer","type":"int","value":2},{"name":"fh_group","type":"int","value":3},{"name":"fh_id","type":"int","value":9},{"name":"x1","type":"int","value":-37},{"name":"x2","type":"int","value":-7},{"name":"y1","type":"int","value":-109},{"name":"y2","type":"int","value":-107},{"name":"next","type":"int","value":10},{"name":"prev","type":"int","value":8}],"polyline":[{"x":0,"y":0},{"x":30,"y":2}]},{"id":26,"x":-7,"y":-107,"visible":true,"properties":[{"name":"layer","type":"int","value":2},{"name":"group","type":"int","value":3},{"name":"id","type":"int","value":10},{"name":"fh_layer","type":"int","value":2},{"name":"fh_group","type":"int","value":3},{"name":"fh_id","type":"int","value":10},{"name":"x1","type":"int","value":-7},{"name":"x2","type":"int","value":21},{"name":"y1","type":"int","value":-107},{"name":"y2","type":"int","value":-106},{"name":"next","type":"int","value":11},{"name":"prev","type":"int","value":9}],"polyline":[{"x":0,"y":0},{"x":28,"y":1}]},{"id":27,"x":21,"y":-106,"visible":true,"properties":[{"name":"layer","type":"int","value":2},{"name":"group","type":"int","value":3},{"name":"id","type":"int","value":11},{"name":"fh_layer","type":"int","value":2},{"name":"fh_group","type":"int","value":3},{"name":"fh_id","type":"int","value":11},{"name":"x1","type":"int","value":21},{"name":"x2","type":"int","value":109},{"name":"y1","type":"int","value":-106},{"name":"y2","type":"int","value":-106},{"name":"next","type":"int","value":0},{"name":"prev","type":"int","value":10}],"polyline":[{"x":0,"y":0},{"x":88,"y":0}]},{"id":28,"x":-121,"y":-163,"visible":true,"properties":[{"name":"layer","type":"int","value":2},{"name":"group","type":"int","value":3},{"name":"id","type":"int","value":12},{"name":"fh_layer","type":"int","value":2},{"name":"fh_group","type":"int","value":3},{"name":"fh_id","type":"int","value":12},{"name":"x1","type":"int","value":-121},{"name":"x2","type":"int","value":-69},{"name":"y1","type":"int","value":-163},{"name":"y2","type":"int","value":-161},{"name":"next","type":"int","value":13},{"name":"prev","type":"int","value":0}],"polyline":[{"x":0,"y":0},{"x":52,"y":2}]},{"id":29,"x":-69,"y":-161,"visible":true,"properties":[{"name":"layer","type":"int","value":2},{"name":"group","type":"int","value":3},{"name":"id","type":"int","value":13},{"name":"fh_layer","type":"int","value":2},{"name":"fh_group","type":"int","value":3},{"name":"fh_id","type":"int","value":13},{"name":"x1","type":"int","value":-69},{"name":"x2","type":"int","value":0},{"name":"y1","type":"int","value":-161},{"name":"y2","type":"int","value":-162},{"name":"next","type":"int","value":14},{"name":"prev","type":"int","value":12}],"polyline":[{"x":0,"y":0},{"x":69,"y":-1}]},{"id":30,"x":0,"y":-162,"visible":true,"properties":[{"name":"layer","type":"int","value":2},{"name":"group","type":"int","value":3},{"name":"id","type":"int","value":14},{"name":"fh_layer","type":"int","value":2},{"name":"fh_group","type":"int","value":3},{"name":"fh_id","type":"int","value":14},{"name":"x1","type":"int","value":0},{"name":"x2","type":"int","value":107},{"name":"y1","type":"int","value":-162},{"name":"y2","type":"int","value":-161},{"name":"next","type":"int","value":0},{"name":"prev","type":"int","value":13}],"polyline":[{"x":0,"y":0},{"x":107,"y":1}]},{"id":31,"x":-400,"y":139,"visible":true,"properties":[{"name":"layer","type":"int","value":2},{"name":"group","type":"int","value":3},{"name":"id","type":"int","value":15},{"name":"fh_layer","type":"int","value":2},{"name":"fh_group","type":"int","value":3},{"name":"fh_id","type":"int","value":15},{"name":"x1","type":"int","value":-400},{"name":"x2","type":"int","value":-251},{"name":"y1","type":"int","value":139},{"name":"y2","type":"int","value":138},{"name":"next","type":"int","value":16},{"name":"prev","type":"int","value":0}],"polyline":[{"x":0,"y":0},{"x":149,"y":-1}]},{"id":32,"x":-251,"y":138,"visible":true,"properties":[{"name":"layer","type":"int","value":2},{"name":"group","type":"int","value":3},{"name":"id","type":"int","value":16},{"name":"fh_layer","type":"int","value":2},{"name":"fh_group","type":"int","value":3},{"name":"fh_id","type":"int","value":16},{"name":"x1","type":"int","value":-251},{"name":"x2","type":"int","value":-235},{"name":"y1","type":"int","value":138},{"name":"y2","type":"int","value":167},{"name":"next","type":"int","value":17},{"name":"prev","type":"int","value":15}],"polyline":[{"x":0,"y":0},{"x":16,"y":29}]},{"id":33,"x":-235,"y":167,"visible":true,"properties":[{"name":"layer","type":"int","value":2},{"name":"group","type":"int","value":3},{"name":"id","type":"int","value":17},{"name":"fh_layer","type":"int","value":2},{"name":"fh_group","type":"int","value":3},{"name":"fh_id","type":"int","value":17},{"name":"x1","type":"int","value":-235},{"name":"x2","type":"int","value":-216},{"name":"y1","type":"int","value":167},{"name":"y2","type":"int","value":176},{"name":"next","type":"int","value":18},{"name":"prev","type":"int","value":16}],"polyline":[{"x":0,"y":0},{"x":19,"y":9}]},{"id":34,"x":-216,"y":176,"visible":true,"properties":[{"name":"layer","type":"int","value":2},{"name":"group","type":"int","value":3},{"name":"id","type":"int","value":18},{"name":"fh_layer","type":"int","value":2},{"name":"fh_group","type":"int","value":3},{"name":"fh_id","type":"int","value":18},{"name":"x1","type":"int","value":-216},{"name":"x2","type":"int","value":-97},{"name":"y1","type":"int","value":176},{"name":"y2","type":"int","value":179},{"name":"next","type":"int","value":19},{"name":"prev","type":"int","value":17}],"polyline":[{"x":0,"y":0},{"x":119,"y":3}]},{"id":35,"x":-97,"y":179,"visible":true,"properties":[{"name":"layer","type":"int","value":2},{"name":"group","type":"int","value":3},{"name":"id","type":"int","value":19},{"name":"fh_layer","type":"int","value":2},{"name":"fh_group","type":"int","value":3},{"name":"fh_id","type":"int","value":19},{"name":"x1","type":"int","value":-97},{"name":"x2","type":"int","value":-80},{"name":"y1","type":"int","value":179},{"name":"y2","type":"int","value":178},{"name":"next","type":"int","value":20},{"name":"prev","type":"int","value":18}],"polyline":[{"x":0,"y":0},{"x":17,"y":-1}]},{"id":36,"x":-80,"y":178,"visible":true,"properties":[{"name":"layer","type":"int","value":2},{"name":"group","type":"int","value":3},{"name":"id","type":"int","value":20},{"name":"fh_layer","type":"int","value":2},{"name":"fh_group","type":"int","value":3},{"name":"fh_id","type":"int","value":20},{"name":"x1","type":"int","value":-80},{"name":"x2","type":"int","value":7},{"name":"y1","type":"int","value":178},{"name":"y2","type":"int","value":180},{"name":"next","type":"int","value":21},{"name":"prev","type":"int","value":19}],"polyline":[{"x":0,"y":0},{"x":87,"y":2}]},{"id":37,"x":7,"y":180,"visible":true,"properties":[{"name":"layer","type":"int","value":2},{"name":"group","type":"int","value":3},{"name":"id","type":"int","value":21},{"name":"fh_layer","type":"int","value":2},{"name":"fh_group","type":"int","value":3},{"name":"fh_id","type":"int","value":21},{"name":"x1","type":"int","value":7},{"name":"x2","type":"int","value":60},{"name":"y1","type":"int","value":180},{"name":"y2","type":"int","value":179},{"name":"next","type":"int","value":22},{"name":"prev","type":"int","value":20}],"polyline":[{"x":0,"y":0},{"x":53,"y":-1}]},{"id":38,"x":60,"y":179,"visible":true,"properties":[{"name":"layer","type":"int","value":2},{"name":"group","type":"int","value":3},{"name":"id","type":"int","value":22},{"name":"fh_layer","type":"int","value":2},{"name":"fh_group","type":"int","value":3},{"name":"fh_id","type":"int","value":22},{"name":"x1","type":"int","value":60},{"name":"x2","type":"int","value":87},{"name":"y1","type":"int","value":179},{"name":"y2","type":"int","value":181},{"name":"next","type":"int","value":23},{"name":"prev","type":"int","value":21}],"polyline":[{"x":0,"y":0},{"x":27,"y":2}]},{"id":39,"x":87,"y":181,"visible":true,"properties":[{"name":"layer","type":"int","value":2},{"name":"group","type":"int","value":3},{"name":"id","type":"int","value":23},{"name":"fh_layer","type":"int","value":2},{"name":"fh_group","type":"int","value":3},{"name":"fh_id","type":"int","value":23},{"name":"x1","type":"int","value":87},{"name":"x2","type":"int","value":104},{"name":"y1","type":"int","value":181},{"name":"y2","type":"int","value":178},{"name":"next","type":"int","value":24},{"name":"prev","type":"int","value":22}],"polyline":[{"x":0,"y":0},{"x":17,"y":-3}]},{"id":40,"x":104,"y":178,"visible":true,"properties":[{"name":"layer","type":"int","value":2},{"name":"group","type":"int","value":3},{"name":"id","type":"int","value":24},{"name":"fh_layer","type":"int","value":2},{"name":"fh_group","type":"int","value":3},{"name":"fh_id","type":"int","value":24},{"name":"x1","type":"int","value":104},{"name":"x2","type":"int","value":135},{"name":"y1","type":"int","value":178},{"name":"y2","type":"int","value":179},{"name":"next","type":"int","value":25},{"name":"prev","type":"int","value":23}],"polyline":[{"x":0,"y":0},{"x":31,"y":1}]},{"id":41,"x":135,"y":179,"visible":true,"properties":[{"name":"layer","type":"int","value":2},{"name":"group","type":"int","value":3},{"name":"id","type":"int","value":25},{"name":"fh_layer","type":"int","value":2},{"name":"fh_group","type":"int","value":3},{"name":"fh_id","type":"int","value":25},{"name":"x1","type":"int","value":135},{"name":"x2","type":"int","value":228},{"name":"y1","type":"int","value":179},{"name":"y2","type":"int","value":180},{"name":"next","type":"int","value":26},{"name":"prev","type":"int","value":24}],"polyline":[{"x":0,"y":0},{"x":93,"y":1}]},{"id":42,"x":228,"y":180,"visible":true,"properties":[{"name":"layer","type":"int","value":2},{"name":"group","type":"int","value":3},{"name":"id","type":"int","value":26},{"name":"fh_layer","type":"int","value":2},{"name":"fh_group","type":"int","value":3},{"name":"fh_id","type":"int","value":26},{"name":"x1","type":"int","value":228},{"name":"x2","type":"int","value":254},{"name":"y1","type":"int","value":180},{"name":"y2","type":"int","value":175},{"name":"next","type":"int","value":27},{"name":"prev","type":"int","value":25}],"polyline":[{"x":0,"y":0},{"x":26,"y":-5}]},{"id":43,"x":254,"y":175,"visible":true,"properties":[{"name":"layer","type":"int","value":2},{"name":"group","type":"int","value":3},{"name":"id","type":"int","value":27},{"name":"fh_layer","type":"int","value":2},{"name":"fh_group","type":"int","value":3},{"name":"fh_id","type":"int","value":27},{"name":"x1","type":"int","value":254},{"name":"x2","type":"int","value":286},{"name":"y1","type":"int","value":175},{"name":"y2","type":"int","value":144},{"name":"next","type":"int","value":28},{"name":"prev","type":"int","value":26}],"polyline":[{"x":0,"y":0},{"x":32,"y":-31}]},{"id":44,"x":286,"y":144,"visible":true,"properties":[{"name":"layer","type":"int","value":2},{"name":"group","type":"int","value":3},{"name":"id","type":"int","value":28},{"name":"fh_layer","type":"int","value":2},{"name":"fh_group","type":"int","value":3},{"name":"fh_id","type":"int","value":28},{"name":"x1","type":"int","value":286},{"name":"x2","type":"int","value":400},{"name":"y1","type":"int","value":144},{"name":"y2","type":"int","value":141},{"name":"next","type":"int","value":0},{"name":"prev","type":"int","value":27}],"polyline":[{"x":0,"y":0},{"x":114,"y":-3}]},{"id":45,"x":-251,"y":117,"visible":true,"properties":[{"name":"layer","type":"int","value":2},{"name":"group","type":"int","value":3},{"name":"id","type":"int","value":29},{"name":"fh_layer","type":"int","value":2},{"name":"fh_group","type":"int","value":3},{"name":"fh_id","type":"int","value":29},{"name":"x1","type":"int","value":-251},{"name":"x2","type":"int","value":-159},{"name":"y1","type":"int","value":117},{"name":"y2","type":"int","value":117},{"name":"next","type":"int","value":0},{"name":"prev","type":"int","value":0}],"polyline":[{"x":0,"y":0},{"x":92,"y":0}]},{"id":46,"x":-263,"y":71,"visible":true,"properties":[{"name":"layer","type":"int","value":2},{"name":"group","type":"int","value":3},{"name":"id","type":"int","value":30},{"name":"fh_layer","type":"int","value":2},{"name":"fh_group","type":"int","value":3},{"name":"fh_id","type":"int","value":30},{"name":"x1","type":"int","value":-263},{"name":"x2","type":"int","value":-172},{"name":"y1","type":"int","value":71},{"name":"y2","type":"int","value":70},{"name":"next","type":"int","value":0},{"name":"prev","type":"int","value":0}],"polyline":[{"x":0,"y":0},{"x":91,"y":-1}]},{"id":47,"x":-268,"y":26,"visible":true,"properties":[{"name":"layer","type":"int","value":2},{"name":"group","type":"int","value":3},{"name":"id","type":"int","value":31},{"name":"fh_layer","type":"int","value":2},{"name":"fh_group","type":"int","value":3},{"name":"fh_id","type":"int","value":31},{"name":"x1","type":"int","value":-268},{"name":"x2","type":"int","value":-218},{"name":"y1","type":"int","value":26},{"name":"y2","type":"int","value":26},{"name":"next","type":"int","value":32},{"name":"prev","type":"int","value":0}],"polyline":[{"x":0,"y":0},{"x":50,"y":0}]},{"id":48,"x":-218,"y":26,"visible":true,"properties":[{"name":"layer","type":"int","value":2},{"name":"group","type":"int","value":3},{"name":"id","type":"int","value":32},{"name":"fh_layer","type":"int","value":2},{"name":"fh_group","type":"int","value":3},{"name":"fh_id","type":"int","value":32},{"name":"x1","type":"int","value":-218},{"name":"x2","type":"int","value":-213},{"name":"y1","type":"int","value":26},{"name":"y2","type":"int","value":24},{"name":"next","type":"int","value":33},{"name":"prev","type":"int","value":31}],"polyline":[{"x":0,"y":0},{"x":5,"y":-2}]},{"id":49,"x":-213,"y":24,"visible":true,"properties":[{"name":"layer","type":"int","value":2},{"name":"group","type":"int","value":3},{"name":"id","type":"int","value":33},{"name":"fh_layer","type":"int","value":2},{"name":"fh_group","type":"int","value":3},{"name":"fh_id","type":"int","value":33},{"name":"x1","type":"int","value":-213},{"name":"x2","type":"int","value":-178},{"name":"y1","type":"int","value":24},{"name":"y2","type":"int","value":24},{"name":"next","type":"int","value":0},{"name":"prev","type":"int","value":32}],"polyline":[{"x":0,"y":0},{"x":35,"y":0}]},{"id":50,"x":-204,"y":-32,"visible":true,"properties":[{"name":"layer","type":"int","value":2},{"name":"group","type":"int","value":3},{"name":"id","type":"int","value":34},{"name":"fh_layer","type":"int","value":2},{"name":"fh_group","type":"int","value":3},{"name":"fh_id","type":"int","value":34},{"name":"x1","type":"int","value":-204},{"name":"x2","type":"int","value":-159},{"name":"y1","type":"int","value":-32},{"name":"y2","type":"int","value":-50},{"name":"next","type":"int","value":0},{"name":"prev","type":"int","value":0}],"polyline":[{"x":0,"y":0},{"x":45,"y":-18}]},{"id":51,"x":22,"y":123,"visible":true,"properties":[{"name":"layer","type":"int","value":2},{"name":"group","type":"int","value":3},{"name":"id","type":"int","value":35},{"name":"fh_layer","type":"int","value":2},{"name":"fh_group","type":"int","value":3},{"name":"fh_id","type":"int","value":35},{"name":"x1","type":"int","value":22},{"name":"x2","type":"int","value":-45},{"name":"y1","type":"int","value":123},{"name":"y2","type":"int","value":123},{"name":"next","type":"int","value":36},{"name":"prev","type":"int","value":38}],"polyline":[{"x":0,"y":0},{"x":-67,"y":0}]},{"id":52,"x":-45,"y":123,"visible":true,"properties":[{"name":"layer","type":"int","value":2},{"name":"group","type":"int","value":3},{"name":"id","type":"int","value":36},{"name":"fh_layer","type":"int","value":2},{"name":"fh_group","type":"int","value":3},{"name":"fh_id","type":"int","value":36},{"name":"x1","type":"int","value":-45},{"name":"x2","type":"int","value":-45},{"name":"y1","type":"int","value":123},{"name":"y2","type":"int","value":-3},{"name":"next","type":"int","value":37},{"name":"prev","type":"int","value":35}],"polyline":[{"x":0,"y":0},{"x":0,"y":-126}]},{"id":53,"x":-45,"y":-3,"visible":true,"properties":[{"name":"layer","type":"int","value":2},{"name":"group","type":"int","value":3},{"name":"id","type":"int","value":37},{"name":"fh_layer","type":"int","value":2},{"name":"fh_group","type":"int","value":3},{"name":"fh_id","type":"int","value":37},{"name":"x1","type":"int","value":-45},{"name":"x2","type":"int","value":22},{"name":"y1","type":"int","value":-3},{"name":"y2","type":"int","value":-3},{"name":"next","type":"int","value":38},{"name":"prev","type":"int","value":36}],"polyline":[{"x":0,"y":0},{"x":67,"y":0}]},{"id":54,"x":22,"y":-3,"visible":true,"properties":[{"name":"layer","type":"int","value":2},{"name":"group","type":"int","value":3},{"name":"id","type":"int","value":38},{"name":"fh_layer","type":"int","value":2},{"name":"fh_group","type":"int","value":3},{"name":"fh_id","type":"int","value":38},{"name":"x1","type":"int","value":22},{"name":"x2","type":"int","value":22},{"name":"y1","type":"int","value":-3},{"name":"y2","type":"int","value":123},{"name":"next","type":"int","value":35},{"name":"prev","type":"int","value":37}],"polyline":[{"x":0,"y":0},{"x":0,"y":126}]}]}],"tilesets":[{"firstgid":1,"source":"../../tilesets/obj_shop_shop_groceryDR.tsj"}],"properties":[{"name":"bgm","type":"string","value":"Bgm00/Nightmare"},{"name":"town","type":"int","value":1},{"name":"VRTop","type":"int","value":-300},{"name":"cloud","type":"int","value":0},{"name":"VRLeft","type":"int","value":-400},{"name":"VRRight","type":"int","value":400},{"name":"mapMark","type":"string","value":"Perion"},{"name":"mobRate","type":"float","value":1},{"name":"version","type":"int","value":10},{"name":"VRBottom","type":"int","value":300},{"name":"returnMap","type":"int","value":102000000},{"name":"fieldLimit","type":"int","value":0},{"name":"hideMinimap","type":"int","value":0},{"name":"forcedReturn","type":"int","value":999999999}]}