{"type":"map","orientation":"orthogonal","renderorder":"right-down","infinite":false,"tilewidth":1,"tileheight":1,"width":1014,"height":1225,"nextlayerid":14,"nextobjectid":216,"layers":[{"id":1,"name":"layer_0_obj","type":"objectgroup","visible":true,"opacity":1,"objects":[{"id":1,"x":-416,"y":297,"visible":true,"properties":[{"name":"layer","type":"int","value":0},{"name":"resource_index","type":"int","value":0},{"name":"oS","type":"string","value":"acc1"},{"name":"l0","type":"string","value":"grassySoil"},{"name":"l1","type":"string","value":"nature"},{"name":"l2","type":"string","value":"13"},{"name":"z","type":"int","value":3},{"name":"zM","type":"int","value":1},{"name":"f","type":"int","value":0}],"gid":77,"width":223,"height":128},{"id":2,"x":155,"y":291,"visible":true,"properties":[{"name":"layer","type":"int","value":0},{"name":"resource_index","type":"int","value":1},{"name":"oS","type":"string","value":"acc1"},{"name":"l0","type":"string","value":"grassySoil"},{"name":"l1","type":"string","value":"nature"},{"name":"l2","type":"string","value":"13"},{"name":"z","type":"int","value":3},{"name":"zM","type":"int","value":2},{"name":"f","type":"int","value":0}],"gid":77,"width":223,"height":128}]},{"id":2,"name":"layer_1_obj","type":"objectgroup","visible":true,"opacity":1,"objects":[{"id":103,"x":-256,"y":246,"visible":true,"properties":[{"name":"layer","type":"int","value":1},{"name":"resource_index","type":"int","value":0},{"name":"oS","type":"string","value":"insideGS"},{"name":"l0","type":"string","value":"house1"},{"name":"l1","type":"string","value":"basic"},{"name":"l2","type":"string","value":"4"},{"name":"z","type":"int","value":2},{"name":"zM","type":"int","value":0},{"name":"f","type":"int","value":0}],"gid":72,"width":470,"height":199},{"id":104,"x":-86,"y":250,"visible":true,"properties":[{"name":"layer","type":"int","value":1},{"name":"resource_index","type":"int","value":1},{"name":"oS","type":"string","value":"prop"},{"name":"l0","type":"string","value":"grassySoil"},{"name":"l1","type":"string","value":"fur"},{"name":"l2","type":"string","value":"0"},{"name":"z","type":"int","value":4},{"name":"zM","type":"int","value":0},{"name":"f","type":"int","value":0}],"gid":34,"width":90,"height":85},{"id":105,"x":-130,"y":49,"visible":true,"properties":[{"name":"layer","type":"int","value":1},{"name":"resource_index","type":"int","value":2},{"name":"oS","type":"string","value":"prop"},{"name":"l0","type":"string","value":"grassySoil"},{"name":"l1","type":"string","value":"fur"},{"name":"l2","type":"string","value":"1"},{"name":"z","type":"int","value":4},{"name":"zM","type":"int","value":0},{"name":"f","type":"int","value":0}],"gid":35,"width":128,"height":67},{"id":106,"x":42,"y":48,"visible":true,"properties":[{"name":"layer","type":"int","value":1},{"name":"resource_index","type":"int","value":3},{"name":"oS","type":"string","value":"prop"},{"name":"l0","type":"string","value":"grassySoil"},{"name":"l1","type":"string","value":"fur"},{"name":"l2","type":"string","value":"2"},{"name":"z","type":"int","value":3},{"name":"zM","type":"int","value":0},{"name":"f","type":"int","value":0}],"gid":36,"width":77,"height":41},{"id":107,"x":-275,"y":274,"visible":true,"properties":[{"name":"layer","type":"int","value":1},{"name":"resource_index","type":"int","value":4},{"name":"oS","type":"string","value":"insideGS"},{"name":"l0","type":"string","value":"house1"},{"name":"l1","type":"string","value":"basic"},{"name":"l2","type":"string","value":"0"},{"name":"z","type":"int","value":1},{"name":"zM","type":"int","value":0},{"name":"f","type":"int","value":0}],"gid":73,"width":615,"height":533},{"id":108,"x":-208,"y":47,"visible":true,"properties":[{"name":"layer","type":"int","value":1},{"name":"resource_index","type":"int","value":5},{"name":"oS","type":"string","value":"insideGS"},{"name":"l0","type":"string","value":"house1"},{"name":"l1","type":"string","value":"basic"},{"name":"l2","type":"string","value":"1"},{"name":"z","type":"int","value":2},{"name":"zM","type":"int","value":0},{"name":"f","type":"int","value":0}],"gid":74,"width":445,"height":264},{"id":109,"x":-206,"y":254,"visible":true,"properties":[{"name":"layer","type":"int","value":1},{"name":"resource_index","type":"int","value":6},{"name":"oS","type":"string","value":"insideGS"},{"name":"l0","type":"string","value":"house1"},{"name":"l1","type":"string","value":"basic"},{"name":"l2","type":"string","value":"2"},{"name":"z","type":"int","value":3},{"name":"zM","type":"int","value":0},{"name":"f","type":"int","value":0}],"gid":75,"width":406,"height":10},{"id":110,"x":-164,"y":69,"visible":true,"properties":[{"name":"layer","type":"int","value":1},{"name":"resource_index","type":"int","value":7},{"name":"oS","type":"string","value":"insideGS"},{"name":"l0","type":"string","value":"house1"},{"name":"l1","type":"string","value":"basic"},{"name":"l2","type":"string","value":"3"},{"name":"z","type":"int","value":3},{"name":"zM","type":"int","value":0},{"name":"f","type":"int","value":0}],"gid":76,"width":350,"height":22},{"id":111,"x":-254,"y":246,"visible":true,"properties":[{"name":"layer","type":"int","value":1},{"name":"resource_index","type":"int","value":8},{"name":"oS","type":"string","value":"prop"},{"name":"l0","type":"string","value":"grassySoil"},{"name":"l1","type":"string","value":"door"},{"name":"l2","type":"string","value":"0"},{"name":"z","type":"int","value":3},{"name":"zM","type":"int","value":0},{"name":"f","type":"int","value":0}],"gid":70,"width":68,"height":87},{"id":112,"x":-12,"y":-70,"visible":true,"properties":[{"name":"layer","type":"int","value":1},{"name":"resource_index","type":"int","value":9},{"name":"oS","type":"string","value":"prop"},{"name":"l0","type":"string","value":"grassySoil"},{"name":"l1","type":"string","value":"lamp"},{"name":"l2","type":"string","value":"0"},{"name":"z","type":"int","value":3},{"name":"zM","type":"int","value":0},{"name":"f","type":"int","value":0}],"gid":71,"width":34,"height":60},{"id":113,"x":-8,"y":128,"visible":true,"properties":[{"name":"layer","type":"int","value":1},{"name":"resource_index","type":"int","value":10},{"name":"oS","type":"string","value":"prop"},{"name":"l0","type":"string","value":"grassySoil"},{"name":"l1","type":"string","value":"lamp"},{"name":"l2","type":"string","value":"0"},{"name":"z","type":"int","value":3},{"name":"zM","type":"int","value":0},{"name":"f","type":"int","value":0}],"gid":71,"width":34,"height":60},{"id":114,"x":1,"y":-6,"visible":true,"properties":[{"name":"layer","type":"int","value":1},{"name":"resource_index","type":"int","value":11},{"name":"oS","type":"string","value":"prop"},{"name":"l0","type":"string","value":"grassySoil"},{"name":"l1","type":"string","value":"win"},{"name":"l2","type":"string","value":"0"},{"name":"z","type":"int","value":3},{"name":"zM","type":"int","value":0},{"name":"f","type":"int","value":0}],"gid":38,"width":73,"height":62},{"id":115,"x":43,"y":245,"visible":true,"properties":[{"name":"layer","type":"int","value":1},{"name":"resource_index","type":"int","value":12},{"name":"oS","type":"string","value":"connect"},{"name":"l0","type":"string","value":"ladder"},{"name":"l1","type":"string","value":"1"},{"name":"l2","type":"string","value":"0"},{"name":"z","type":"int","value":3},{"name":"zM","type":"int","value":0},{"name":"f","type":"int","value":0}],"gid":33,"width":68,"height":206},{"id":116,"x":214,"y":279,"visible":true,"properties":[{"name":"layer","type":"int","value":1},{"name":"resource_index","type":"int","value":13},{"name":"oS","type":"string","value":"acc1"},{"name":"l0","type":"string","value":"grassySoil"},{"name":"l1","type":"string","value":"nature"},{"name":"l2","type":"string","value":"9"},{"name":"z","type":"int","value":4},{"name":"zM","type":"int","value":0},{"name":"f","type":"int","value":0}],"gid":97,"width":60,"height":63},{"id":117,"x":244,"y":277,"visible":true,"properties":[{"name":"layer","type":"int","value":1},{"name":"resource_index","type":"int","value":14},{"name":"oS","type":"string","value":"acc1"},{"name":"l0","type":"string","value":"grassySoil"},{"name":"l1","type":"string","value":"nature"},{"name":"l2","type":"string","value":"9"},{"name":"z","type":"int","value":5},{"name":"zM","type":"int","value":0},{"name":"f","type":"int","value":0}],"gid":97,"width":60,"height":63},{"id":118,"x":283,"y":281,"visible":true,"properties":[{"name":"layer","type":"int","value":1},{"name":"resource_index","type":"int","value":15},{"name":"oS","type":"string","value":"acc1"},{"name":"l0","type":"string","value":"grassySoil"},{"name":"l1","type":"string","value":"nature"},{"name":"l2","type":"string","value":"9"},{"name":"z","type":"int","value":3},{"name":"zM","type":"int","value":0},{"name":"f","type":"int","value":0}],"gid":97,"width":60,"height":63},{"id":119,"x":-347,"y":276,"visible":true,"properties":[{"name":"layer","type":"int","value":1},{"name":"resource_index","type":"int","value":16},{"name":"oS","type":"string","value":"acc1"},{"name":"l0","type":"string","value":"grassySoil"},{"name":"l1","type":"string","value":"nature"},{"name":"l2","type":"string","value":"9"},{"name":"z","type":"int","value":3},{"name":"zM","type":"int","value":0},{"name":"f","type":"int","value":0}],"gid":97,"width":60,"height":63},{"id":120,"x":-434,"y":278,"visible":true,"properties":[{"name":"layer","type":"int","value":1},{"name":"resource_index","type":"int","value":17},{"name":"oS","type":"string","value":"acc1"},{"name":"l0","type":"string","value":"grassySoil"},{"name":"l1","type":"string","value":"nature"},{"name":"l2","type":"string","value":"9"},{"name":"z","type":"int","value":3},{"name":"zM","type":"int","value":0},{"name":"f","type":"int","value":0}],"gid":97,"width":60,"height":63},{"id":121,"x":-154,"y":-445,"visible":true,"properties":[{"name":"layer","type":"int","value":1},{"name":"resource_index","type":"int","value":18},{"name":"oS","type":"string","value":"acc1"},{"name":"l0","type":"string","value":"grassySoil"},{"name":"l1","type":"string","value":"artificiality"},{"name":"l2","type":"string","value":"18"},{"name":"z","type":"int","value":3},{"name":"zM","type":"int","value":13},{"name":"f","type":"int","value":0}],"gid":111,"width":184,"height":111},{"id":122,"x":-124,"y":-468,"visible":true,"properties":[{"name":"layer","type":"int","value":1},{"name":"resource_index","type":"int","value":19},{"name":"oS","type":"string","value":"acc1"},{"name":"l0","type":"string","value":"grassySoil"},{"name":"l1","type":"string","value":"artificiality"},{"name":"l2","type":"string","value":"19"},{"name":"z","type":"int","value":4},{"name":"zM","type":"int","value":13},{"name":"f","type":"int","value":0}],"gid":132,"width":38,"height":53},{"id":123,"x":-75,"y":-471,"visible":true,"properties":[{"name":"layer","type":"int","value":1},{"name":"resource_index","type":"int","value":20},{"name":"oS","type":"string","value":"acc1"},{"name":"l0","type":"string","value":"grassySoil"},{"name":"l1","type":"string","value":"artificiality"},{"name":"l2","type":"string","value":"20"},{"name":"z","type":"int","value":4},{"name":"zM","type":"int","value":13},{"name":"f","type":"int","value":0}],"gid":133,"width":66,"height":47},{"id":124,"x":-33,"y":-440,"visible":true,"properties":[{"name":"layer","type":"int","value":1},{"name":"resource_index","type":"int","value":21},{"name":"oS","type":"string","value":"acc1"},{"name":"l0","type":"string","value":"darkWood"},{"name":"l1","type":"string","value":"nature"},{"name":"l2","type":"string","value":"20"},{"name":"z","type":"int","value":5},{"name":"zM","type":"int","value":13},{"name":"f","type":"int","value":0}],"gid":39,"width":149,"height":67},{"id":125,"x":78,"y":-442,"visible":true,"properties":[{"name":"layer","type":"int","value":1},{"name":"resource_index","type":"int","value":22},{"name":"oS","type":"string","value":"acc1"},{"name":"l0","type":"string","value":"darkWood"},{"name":"l1","type":"string","value":"nature"},{"name":"l2","type":"string","value":"20"},{"name":"z","type":"int","value":3},{"name":"zM","type":"int","value":13},{"name":"f","type":"int","value":0}],"gid":39,"width":149,"height":67}]},{"id":3,"name":"layer_1_tile","type":"objectgroup","visible":true,"opacity":1,"objects":[{"id":3,"x":-478,"y":300,"visible":true,"properties":[{"name":"layer","type":"int","value":1},{"name":"resource_index","type":"int","value":0},{"name":"u","type":"string","value":"edU"},{"name":"no","type":"int","value":1},{"name":"zM","type":"int","value":0}],"gid":12,"width":54,"height":32},{"id":4,"x":-477,"y":360,"visible":true,"properties":[{"name":"layer","type":"int","value":1},{"name":"resource_index","type":"int","value":1},{"name":"u","type":"string","value":"enV0"},{"name":"no","type":"int","value":1},{"name":"zM","type":"int","value":0}],"gid":25,"width":27,"height":60},{"id":5,"x":-450,"y":360,"visible":true,"properties":[{"name":"layer","type":"int","value":1},{"name":"resource_index","type":"int","value":2},{"name":"u","type":"string","value":"bsc"},{"name":"no","type":"int","value":2},{"name":"zM","type":"int","value":0}],"gid":11,"width":90,"height":60},{"id":6,"x":-450,"y":300,"visible":true,"properties":[{"name":"layer","type":"int","value":1},{"name":"resource_index","type":"int","value":3},{"name":"u","type":"string","value":"enH0"},{"name":"no","type":"int","value":2},{"name":"zM","type":"int","value":0}],"gid":22,"width":90,"height":32},{"id":7,"x":-270,"y":360,"visible":true,"properties":[{"name":"layer","type":"int","value":1},{"name":"resource_index","type":"int","value":4},{"name":"u","type":"string","value":"bsc"},{"name":"no","type":"int","value":4},{"name":"zM","type":"int","value":0}],"gid":9,"width":90,"height":60},{"id":8,"x":-270,"y":300,"visible":true,"properties":[{"name":"layer","type":"int","value":1},{"name":"resource_index","type":"int","value":5},{"name":"u","type":"string","value":"enH0"},{"name":"no","type":"int","value":0},{"name":"zM","type":"int","value":0}],"gid":26,"width":90,"height":33},{"id":9,"x":-360,"y":360,"visible":true,"properties":[{"name":"layer","type":"int","value":1},{"name":"resource_index","type":"int","value":6},{"name":"u","type":"string","value":"bsc"},{"name":"no","type":"int","value":1},{"name":"zM","type":"int","value":0}],"gid":14,"width":90,"height":60},{"id":10,"x":-360,"y":300,"visible":true,"properties":[{"name":"layer","type":"int","value":1},{"name":"resource_index","type":"int","value":7},{"name":"u","type":"string","value":"enH0"},{"name":"no","type":"int","value":1},{"name":"zM","type":"int","value":0}],"gid":23,"width":90,"height":32},{"id":11,"x":-180,"y":360,"visible":true,"properties":[{"name":"layer","type":"int","value":1},{"name":"resource_index","type":"int","value":8},{"name":"u","type":"string","value":"bsc"},{"name":"no","type":"int","value":2},{"name":"zM","type":"int","value":0}],"gid":11,"width":90,"height":60},{"id":12,"x":-180,"y":300,"visible":true,"properties":[{"name":"layer","type":"int","value":1},{"name":"resource_index","type":"int","value":9},{"name":"u","type":"string","value":"enH0"},{"name":"no","type":"int","value":1},{"name":"zM","type":"int","value":0}],"gid":23,"width":90,"height":32},{"id":13,"x":0,"y":360,"visible":true,"properties":[{"name":"layer","type":"int","value":1},{"name":"resource_index","type":"int","value":10},{"name":"u","type":"string","value":"bsc"},{"name":"no","type":"int","value":1},{"name":"zM","type":"int","value":0}],"gid":14,"width":90,"height":60},{"id":14,"x":90,"y":420,"visible":true,"properties":[{"name":"layer","type":"int","value":1},{"name":"resource_index","type":"int","value":11},{"name":"u","type":"string","value":"bsc"},{"name":"no","type":"int","value":1},{"name":"zM","type":"int","value":0}],"gid":14,"width":90,"height":60},{"id":15,"x":-90,"y":300,"visible":true,"properties":[{"name":"layer","type":"int","value":1},{"name":"resource_index","type":"int","value":12},{"name":"u","type":"string","value":"enH0"},{"name":"no","type":"int","value":2},{"name":"zM","type":"int","value":0}],"gid":22,"width":90,"height":32},{"id":16,"x":-90,"y":360,"visible":true,"properties":[{"name":"layer","type":"int","value":1},{"name":"resource_index","type":"int","value":13},{"name":"u","type":"string","value":"bsc"},{"name":"no","type":"int","value":1},{"name":"zM","type":"int","value":0}],"gid":14,"width":90,"height":60},{"id":17,"x":-450,"y":420,"visible":true,"properties":[{"name":"layer","type":"int","value":1},{"name":"resource_index","type":"int","value":14},{"name":"u","type":"string","value":"bsc"},{"name":"no","type":"int","value":3},{"name":"zM","type":"int","value":0}],"gid":13,"width":91,"height":60},{"id":18,"x":-477,"y":420,"visible":true,"properties":[{"name":"layer","type":"int","value":1},{"name":"resource_index","type":"int","value":15},{"name":"u","type":"string","value":"enV0"},{"name":"no","type":"int","value":1},{"name":"zM","type":"int","value":0}],"gid":25,"width":27,"height":60},{"id":19,"x":-90,"y":420,"visible":true,"properties":[{"name":"layer","type":"int","value":1},{"name":"resource_index","type":"int","value":16},{"name":"u","type":"string","value":"bsc"},{"name":"no","type":"int","value":3},{"name":"zM","type":"int","value":0}],"gid":13,"width":91,"height":60},{"id":20,"x":-270,"y":420,"visible":true,"properties":[{"name":"layer","type":"int","value":1},{"name":"resource_index","type":"int","value":17},{"name":"u","type":"string","value":"bsc"},{"name":"no","type":"int","value":2},{"name":"zM","type":"int","value":0}],"gid":11,"width":90,"height":60},{"id":21,"x":-360,"y":420,"visible":true,"properties":[{"name":"layer","type":"int","value":1},{"name":"resource_index","type":"int","value":18},{"name":"u","type":"string","value":"bsc"},{"name":"no","type":"int","value":0},{"name":"zM","type":"int","value":0}],"gid":17,"width":90,"height":60},{"id":22,"x":-180,"y":420,"visible":true,"properties":[{"name":"layer","type":"int","value":1},{"name":"resource_index","type":"int","value":19},{"name":"u","type":"string","value":"bsc"},{"name":"no","type":"int","value":0},{"name":"zM","type":"int","value":0}],"gid":17,"width":90,"height":60},{"id":23,"x":0,"y":420,"visible":true,"properties":[{"name":"layer","type":"int","value":1},{"name":"resource_index","type":"int","value":20},{"name":"u","type":"string","value":"bsc"},{"name":"no","type":"int","value":0},{"name":"zM","type":"int","value":0}],"gid":17,"width":90,"height":60},{"id":24,"x":180,"y":360,"visible":true,"properties":[{"name":"layer","type":"int","value":1},{"name":"resource_index","type":"int","value":21},{"name":"u","type":"string","value":"bsc"},{"name":"no","type":"int","value":0},{"name":"zM","type":"int","value":0}],"gid":17,"width":90,"height":60},{"id":25,"x":180,"y":300,"visible":true,"properties":[{"name":"layer","type":"int","value":1},{"name":"resource_index","type":"int","value":22},{"name":"u","type":"string","value":"enH0"},{"name":"no","type":"int","value":0},{"name":"zM","type":"int","value":0}],"gid":26,"width":90,"height":33},{"id":26,"x":270,"y":360,"visible":true,"properties":[{"name":"layer","type":"int","value":1},{"name":"resource_index","type":"int","value":23},{"name":"u","type":"string","value":"bsc"},{"name":"no","type":"int","value":2},{"name":"zM","type":"int","value":0}],"gid":11,"width":90,"height":60},{"id":27,"x":270,"y":300,"visible":true,"properties":[{"name":"layer","type":"int","value":1},{"name":"resource_index","type":"int","value":24},{"name":"u","type":"string","value":"enH0"},{"name":"no","type":"int","value":2},{"name":"zM","type":"int","value":0}],"gid":22,"width":90,"height":32},{"id":28,"x":0,"y":300,"visible":true,"properties":[{"name":"layer","type":"int","value":1},{"name":"resource_index","type":"int","value":25},{"name":"u","type":"string","value":"enH0"},{"name":"no","type":"int","value":1},{"name":"zM","type":"int","value":0}],"gid":23,"width":90,"height":32},{"id":29,"x":360,"y":360,"visible":true,"properties":[{"name":"layer","type":"int","value":1},{"name":"resource_index","type":"int","value":26},{"name":"u","type":"string","value":"enV1"},{"name":"no","type":"int","value":1},{"name":"zM","type":"int","value":0}],"gid":21,"width":26,"height":60},{"id":30,"x":90,"y":300,"visible":true,"properties":[{"name":"layer","type":"int","value":1},{"name":"resource_index","type":"int","value":27},{"name":"u","type":"string","value":"enH0"},{"name":"no","type":"int","value":3},{"name":"zM","type":"int","value":0}],"gid":15,"width":90,"height":32},{"id":31,"x":90,"y":360,"visible":true,"properties":[{"name":"layer","type":"int","value":1},{"name":"resource_index","type":"int","value":28},{"name":"u","type":"string","value":"bsc"},{"name":"no","type":"int","value":2},{"name":"zM","type":"int","value":0}],"gid":11,"width":90,"height":60},{"id":32,"x":330,"y":300,"visible":true,"properties":[{"name":"layer","type":"int","value":1},{"name":"resource_index","type":"int","value":29},{"name":"u","type":"string","value":"edU"},{"name":"no","type":"int","value":0},{"name":"zM","type":"int","value":0}],"gid":16,"width":61,"height":33},{"id":33,"x":270,"y":420,"visible":true,"properties":[{"name":"layer","type":"int","value":1},{"name":"resource_index","type":"int","value":30},{"name":"u","type":"string","value":"bsc"},{"name":"no","type":"int","value":1},{"name":"zM","type":"int","value":0}],"gid":14,"width":90,"height":60},{"id":34,"x":180,"y":420,"visible":true,"properties":[{"name":"layer","type":"int","value":1},{"name":"resource_index","type":"int","value":31},{"name":"u","type":"string","value":"bsc"},{"name":"no","type":"int","value":1},{"name":"zM","type":"int","value":0}],"gid":14,"width":90,"height":60},{"id":35,"x":270,"y":480,"visible":true,"properties":[{"name":"layer","type":"int","value":1},{"name":"resource_index","type":"int","value":32},{"name":"u","type":"string","value":"bsc"},{"name":"no","type":"int","value":1},{"name":"zM","type":"int","value":0}],"gid":14,"width":90,"height":60},{"id":36,"x":90,"y":480,"visible":true,"properties":[{"name":"layer","type":"int","value":1},{"name":"resource_index","type":"int","value":33},{"name":"u","type":"string","value":"bsc"},{"name":"no","type":"int","value":3},{"name":"zM","type":"int","value":0}],"gid":13,"width":91,"height":60},{"id":37,"x":360,"y":480,"visible":true,"properties":[{"name":"layer","type":"int","value":1},{"name":"resource_index","type":"int","value":34},{"name":"u","type":"string","value":"enV1"},{"name":"no","type":"int","value":0},{"name":"zM","type":"int","value":0}],"gid":19,"width":28,"height":60},{"id":38,"x":360,"y":420,"visible":true,"properties":[{"name":"layer","type":"int","value":1},{"name":"resource_index","type":"int","value":35},{"name":"u","type":"string","value":"enV1"},{"name":"no","type":"int","value":1},{"name":"zM","type":"int","value":0}],"gid":21,"width":26,"height":60},{"id":39,"x":180,"y":480,"visible":true,"properties":[{"name":"layer","type":"int","value":1},{"name":"resource_index","type":"int","value":36},{"name":"u","type":"string","value":"bsc"},{"name":"no","type":"int","value":1},{"name":"zM","type":"int","value":0}],"gid":14,"width":90,"height":60},{"id":40,"x":0,"y":480,"visible":true,"properties":[{"name":"layer","type":"int","value":1},{"name":"resource_index","type":"int","value":37},{"name":"u","type":"string","value":"bsc"},{"name":"no","type":"int","value":0},{"name":"zM","type":"int","value":0}],"gid":17,"width":90,"height":60},{"id":41,"x":0,"y":500,"visible":true,"properties":[{"name":"layer","type":"int","value":1},{"name":"resource_index","type":"int","value":38},{"name":"u","type":"string","value":"enH1"},{"name":"no","type":"int","value":2},{"name":"zM","type":"int","value":0}],"gid":18,"width":90,"height":20},{"id":42,"x":336,"y":493,"visible":true,"properties":[{"name":"layer","type":"int","value":1},{"name":"resource_index","type":"int","value":39},{"name":"u","type":"string","value":"edD"},{"name":"no","type":"int","value":0},{"name":"zM","type":"int","value":0}],"gid":24,"width":45,"height":13},{"id":43,"x":180,"y":500,"visible":true,"properties":[{"name":"layer","type":"int","value":1},{"name":"resource_index","type":"int","value":40},{"name":"u","type":"string","value":"enH1"},{"name":"no","type":"int","value":2},{"name":"zM","type":"int","value":0}],"gid":18,"width":90,"height":20},{"id":44,"x":-90,"y":480,"visible":true,"properties":[{"name":"layer","type":"int","value":1},{"name":"resource_index","type":"int","value":41},{"name":"u","type":"string","value":"bsc"},{"name":"no","type":"int","value":3},{"name":"zM","type":"int","value":0}],"gid":13,"width":91,"height":60},{"id":45,"x":270,"y":502,"visible":true,"properties":[{"name":"layer","type":"int","value":1},{"name":"resource_index","type":"int","value":42},{"name":"u","type":"string","value":"enH1"},{"name":"no","type":"int","value":3},{"name":"zM","type":"int","value":0}],"gid":28,"width":90,"height":22},{"id":46,"x":90,"y":501,"visible":true,"properties":[{"name":"layer","type":"int","value":1},{"name":"resource_index","type":"int","value":43},{"name":"u","type":"string","value":"enH1"},{"name":"no","type":"int","value":0},{"name":"zM","type":"int","value":0}],"gid":20,"width":90,"height":21},{"id":47,"x":-180,"y":501,"visible":true,"properties":[{"name":"layer","type":"int","value":1},{"name":"resource_index","type":"int","value":44},{"name":"u","type":"string","value":"enH1"},{"name":"no","type":"int","value":0},{"name":"zM","type":"int","value":0}],"gid":20,"width":90,"height":21},{"id":48,"x":-90,"y":501,"visible":true,"properties":[{"name":"layer","type":"int","value":1},{"name":"resource_index","type":"int","value":45},{"name":"u","type":"string","value":"enH1"},{"name":"no","type":"int","value":0},{"name":"zM","type":"int","value":0}],"gid":20,"width":90,"height":21},{"id":49,"x":-180,"y":480,"visible":true,"properties":[{"name":"layer","type":"int","value":1},{"name":"resource_index","type":"int","value":46},{"name":"u","type":"string","value":"bsc"},{"name":"no","type":"int","value":1},{"name":"zM","type":"int","value":0}],"gid":14,"width":90,"height":60},{"id":50,"x":-270,"y":502,"visible":true,"properties":[{"name":"layer","type":"int","value":1},{"name":"resource_index","type":"int","value":47},{"name":"u","type":"string","value":"enH1"},{"name":"no","type":"int","value":3},{"name":"zM","type":"int","value":0}],"gid":28,"width":90,"height":22},{"id":51,"x":-477,"y":480,"visible":true,"properties":[{"name":"layer","type":"int","value":1},{"name":"resource_index","type":"int","value":48},{"name":"u","type":"string","value":"enV0"},{"name":"no","type":"int","value":1},{"name":"zM","type":"int","value":0}],"gid":25,"width":27,"height":60},{"id":52,"x":-270,"y":480,"visible":true,"properties":[{"name":"layer","type":"int","value":1},{"name":"resource_index","type":"int","value":49},{"name":"u","type":"string","value":"bsc"},{"name":"no","type":"int","value":3},{"name":"zM","type":"int","value":0}],"gid":13,"width":91,"height":60},{"id":53,"x":-450,"y":480,"visible":true,"properties":[{"name":"layer","type":"int","value":1},{"name":"resource_index","type":"int","value":50},{"name":"u","type":"string","value":"bsc"},{"name":"no","type":"int","value":2},{"name":"zM","type":"int","value":0}],"gid":11,"width":90,"height":60},{"id":54,"x":-360,"y":480,"visible":true,"properties":[{"name":"layer","type":"int","value":1},{"name":"resource_index","type":"int","value":51},{"name":"u","type":"string","value":"bsc"},{"name":"no","type":"int","value":4},{"name":"zM","type":"int","value":0}],"gid":9,"width":90,"height":60},{"id":55,"x":-360,"y":500,"visible":true,"properties":[{"name":"layer","type":"int","value":1},{"name":"resource_index","type":"int","value":52},{"name":"u","type":"string","value":"enH1"},{"name":"no","type":"int","value":2},{"name":"zM","type":"int","value":0}],"gid":18,"width":90,"height":20},{"id":56,"x":-475,"y":495,"visible":true,"properties":[{"name":"layer","type":"int","value":1},{"name":"resource_index","type":"int","value":53},{"name":"u","type":"string","value":"edD"},{"name":"no","type":"int","value":1},{"name":"zM","type":"int","value":0}],"gid":8,"width":46,"height":15},{"id":57,"x":-450,"y":502,"visible":true,"properties":[{"name":"layer","type":"int","value":1},{"name":"resource_index","type":"int","value":54},{"name":"u","type":"string","value":"enH1"},{"name":"no","type":"int","value":3},{"name":"zM","type":"int","value":0}],"gid":28,"width":90,"height":22},{"id":58,"x":90,"y":-360,"visible":true,"properties":[{"name":"layer","type":"int","value":1},{"name":"resource_index","type":"int","value":55},{"name":"u","type":"string","value":"bsc"},{"name":"no","type":"int","value":3},{"name":"zM","type":"int","value":13}],"gid":13,"width":91,"height":60},{"id":59,"x":90,"y":-420,"visible":true,"properties":[{"name":"layer","type":"int","value":1},{"name":"resource_index","type":"int","value":56},{"name":"u","type":"string","value":"enH0"},{"name":"no","type":"int","value":3},{"name":"zM","type":"int","value":13}],"gid":15,"width":90,"height":32},{"id":60,"x":240,"y":-420,"visible":true,"properties":[{"name":"layer","type":"int","value":1},{"name":"resource_index","type":"int","value":57},{"name":"u","type":"string","value":"edU"},{"name":"no","type":"int","value":0},{"name":"zM","type":"int","value":13}],"gid":16,"width":61,"height":33},{"id":61,"x":270,"y":-360,"visible":true,"properties":[{"name":"layer","type":"int","value":1},{"name":"resource_index","type":"int","value":58},{"name":"u","type":"string","value":"enV1"},{"name":"no","type":"int","value":1},{"name":"zM","type":"int","value":13}],"gid":21,"width":26,"height":60},{"id":62,"x":-180,"y":-360,"visible":true,"properties":[{"name":"layer","type":"int","value":1},{"name":"resource_index","type":"int","value":59},{"name":"u","type":"string","value":"bsc"},{"name":"no","type":"int","value":3},{"name":"zM","type":"int","value":13}],"gid":13,"width":91,"height":60},{"id":63,"x":-180,"y":-420,"visible":true,"properties":[{"name":"layer","type":"int","value":1},{"name":"resource_index","type":"int","value":60},{"name":"u","type":"string","value":"enH0"},{"name":"no","type":"int","value":0},{"name":"zM","type":"int","value":13}],"gid":26,"width":90,"height":33},{"id":64,"x":-90,"y":-360,"visible":true,"properties":[{"name":"layer","type":"int","value":1},{"name":"resource_index","type":"int","value":61},{"name":"u","type":"string","value":"bsc"},{"name":"no","type":"int","value":0},{"name":"zM","type":"int","value":13}],"gid":17,"width":90,"height":60},{"id":65,"x":-90,"y":-420,"visible":true,"properties":[{"name":"layer","type":"int","value":1},{"name":"resource_index","type":"int","value":62},{"name":"u","type":"string","value":"enH0"},{"name":"no","type":"int","value":2},{"name":"zM","type":"int","value":13}],"gid":22,"width":90,"height":32},{"id":66,"x":0,"y":-360,"visible":true,"properties":[{"name":"layer","type":"int","value":1},{"name":"resource_index","type":"int","value":63},{"name":"u","type":"string","value":"bsc"},{"name":"no","type":"int","value":3},{"name":"zM","type":"int","value":13}],"gid":13,"width":91,"height":60},{"id":67,"x":0,"y":-420,"visible":true,"properties":[{"name":"layer","type":"int","value":1},{"name":"resource_index","type":"int","value":64},{"name":"u","type":"string","value":"enH0"},{"name":"no","type":"int","value":0},{"name":"zM","type":"int","value":13}],"gid":26,"width":90,"height":33},{"id":68,"x":180,"y":-360,"visible":true,"properties":[{"name":"layer","type":"int","value":1},{"name":"resource_index","type":"int","value":65},{"name":"u","type":"string","value":"bsc"},{"name":"no","type":"int","value":0},{"name":"zM","type":"int","value":13}],"gid":17,"width":90,"height":60},{"id":69,"x":180,"y":-420,"visible":true,"properties":[{"name":"layer","type":"int","value":1},{"name":"resource_index","type":"int","value":66},{"name":"u","type":"string","value":"enH0"},{"name":"no","type":"int","value":0},{"name":"zM","type":"int","value":13}],"gid":26,"width":90,"height":33},{"id":70,"x":-208,"y":-420,"visible":true,"properties":[{"name":"layer","type":"int","value":1},{"name":"resource_index","type":"int","value":67},{"name":"u","type":"string","value":"edU"},{"name":"no","type":"int","value":1},{"name":"zM","type":"int","value":13}],"gid":12,"width":54,"height":32},{"id":71,"x":0,"y":-340,"visible":true,"properties":[{"name":"layer","type":"int","value":1},{"name":"resource_index","type":"int","value":68},{"name":"u","type":"string","value":"enH1"},{"name":"no","type":"int","value":2},{"name":"zM","type":"int","value":13}],"gid":18,"width":90,"height":20},{"id":72,"x":-180,"y":-338,"visible":true,"properties":[{"name":"layer","type":"int","value":1},{"name":"resource_index","type":"int","value":69},{"name":"u","type":"string","value":"enH1"},{"name":"no","type":"int","value":3},{"name":"zM","type":"int","value":13}],"gid":28,"width":90,"height":22},{"id":73,"x":-205,"y":-345,"visible":true,"properties":[{"name":"layer","type":"int","value":1},{"name":"resource_index","type":"int","value":70},{"name":"u","type":"string","value":"edD"},{"name":"no","type":"int","value":1},{"name":"zM","type":"int","value":13}],"gid":8,"width":46,"height":15},{"id":74,"x":-90,"y":-340,"visible":true,"properties":[{"name":"layer","type":"int","value":1},{"name":"resource_index","type":"int","value":71},{"name":"u","type":"string","value":"enH1"},{"name":"no","type":"int","value":2},{"name":"zM","type":"int","value":13}],"gid":18,"width":90,"height":20},{"id":75,"x":-210,"y":-360,"visible":true,"properties":[{"name":"layer","type":"int","value":1},{"name":"resource_index","type":"int","value":72},{"name":"u","type":"string","value":"enV0"},{"name":"no","type":"int","value":0},{"name":"zM","type":"int","value":13}],"gid":27,"width":30,"height":60},{"id":76,"x":180,"y":-338,"visible":true,"properties":[{"name":"layer","type":"int","value":1},{"name":"resource_index","type":"int","value":73},{"name":"u","type":"string","value":"enH1"},{"name":"no","type":"int","value":3},{"name":"zM","type":"int","value":13}],"gid":28,"width":90,"height":22},{"id":77,"x":90,"y":-339,"visible":true,"properties":[{"name":"layer","type":"int","value":1},{"name":"resource_index","type":"int","value":74},{"name":"u","type":"string","value":"enH1"},{"name":"no","type":"int","value":0},{"name":"zM","type":"int","value":13}],"gid":20,"width":90,"height":21},{"id":78,"x":246,"y":-347,"visible":true,"properties":[{"name":"layer","type":"int","value":1},{"name":"resource_index","type":"int","value":75},{"name":"u","type":"string","value":"edD"},{"name":"no","type":"int","value":0},{"name":"zM","type":"int","value":13}],"gid":24,"width":45,"height":13},{"id":79,"x":-300,"y":-420,"visible":true,"properties":[{"name":"layer","type":"int","value":1},{"name":"resource_index","type":"int","value":76},{"name":"u","type":"string","value":"edU"},{"name":"no","type":"int","value":0},{"name":"zM","type":"int","value":15}],"gid":16,"width":61,"height":33},{"id":80,"x":-295,"y":-405,"visible":true,"properties":[{"name":"layer","type":"int","value":1},{"name":"resource_index","type":"int","value":77},{"name":"u","type":"string","value":"edD"},{"name":"no","type":"int","value":1},{"name":"zM","type":"int","value":15}],"gid":8,"width":46,"height":15},{"id":81,"x":-390,"y":-360,"visible":true,"properties":[{"name":"layer","type":"int","value":1},{"name":"resource_index","type":"int","value":78},{"name":"u","type":"string","value":"edU"},{"name":"no","type":"int","value":0},{"name":"zM","type":"int","value":14}],"gid":16,"width":61,"height":33},{"id":82,"x":-384,"y":-347,"visible":true,"properties":[{"name":"layer","type":"int","value":1},{"name":"resource_index","type":"int","value":79},{"name":"u","type":"string","value":"edD"},{"name":"no","type":"int","value":0},{"name":"zM","type":"int","value":14}],"gid":24,"width":45,"height":13},{"id":83,"x":-390,"y":-300,"visible":true,"properties":[{"name":"layer","type":"int","value":1},{"name":"resource_index","type":"int","value":80},{"name":"u","type":"string","value":"edU"},{"name":"no","type":"int","value":0},{"name":"zM","type":"int","value":12}],"gid":16,"width":61,"height":33},{"id":84,"x":-384,"y":-287,"visible":true,"properties":[{"name":"layer","type":"int","value":1},{"name":"resource_index","type":"int","value":81},{"name":"u","type":"string","value":"edD"},{"name":"no","type":"int","value":0},{"name":"zM","type":"int","value":12}],"gid":24,"width":45,"height":13},{"id":85,"x":-388,"y":-240,"visible":true,"properties":[{"name":"layer","type":"int","value":1},{"name":"resource_index","type":"int","value":82},{"name":"u","type":"string","value":"edU"},{"name":"no","type":"int","value":1},{"name":"zM","type":"int","value":11}],"gid":12,"width":54,"height":32},{"id":86,"x":-384,"y":-227,"visible":true,"properties":[{"name":"layer","type":"int","value":1},{"name":"resource_index","type":"int","value":83},{"name":"u","type":"string","value":"edD"},{"name":"no","type":"int","value":0},{"name":"zM","type":"int","value":11}],"gid":24,"width":45,"height":13},{"id":87,"x":-388,"y":-180,"visible":true,"properties":[{"name":"layer","type":"int","value":1},{"name":"resource_index","type":"int","value":84},{"name":"u","type":"string","value":"edU"},{"name":"no","type":"int","value":1},{"name":"zM","type":"int","value":10}],"gid":12,"width":54,"height":32},{"id":88,"x":-384,"y":-167,"visible":true,"properties":[{"name":"layer","type":"int","value":1},{"name":"resource_index","type":"int","value":85},{"name":"u","type":"string","value":"edD"},{"name":"no","type":"int","value":0},{"name":"zM","type":"int","value":10}],"gid":24,"width":45,"height":13},{"id":89,"x":-390,"y":-120,"visible":true,"properties":[{"name":"layer","type":"int","value":1},{"name":"resource_index","type":"int","value":86},{"name":"u","type":"string","value":"edU"},{"name":"no","type":"int","value":0},{"name":"zM","type":"int","value":9}],"gid":16,"width":61,"height":33},{"id":90,"x":-385,"y":-105,"visible":true,"properties":[{"name":"layer","type":"int","value":1},{"name":"resource_index","type":"int","value":87},{"name":"u","type":"string","value":"edD"},{"name":"no","type":"int","value":1},{"name":"zM","type":"int","value":9}],"gid":8,"width":46,"height":15},{"id":91,"x":-388,"y":-60,"visible":true,"properties":[{"name":"layer","type":"int","value":1},{"name":"resource_index","type":"int","value":88},{"name":"u","type":"string","value":"edU"},{"name":"no","type":"int","value":1},{"name":"zM","type":"int","value":8}],"gid":12,"width":54,"height":32},{"id":92,"x":-385,"y":-45,"visible":true,"properties":[{"name":"layer","type":"int","value":1},{"name":"resource_index","type":"int","value":89},{"name":"u","type":"string","value":"edD"},{"name":"no","type":"int","value":1},{"name":"zM","type":"int","value":8}],"gid":8,"width":46,"height":15},{"id":93,"x":-388,"y":0,"visible":true,"properties":[{"name":"layer","type":"int","value":1},{"name":"resource_index","type":"int","value":90},{"name":"u","type":"string","value":"edU"},{"name":"no","type":"int","value":1},{"name":"zM","type":"int","value":7}],"gid":12,"width":54,"height":32},{"id":94,"x":-385,"y":15,"visible":true,"properties":[{"name":"layer","type":"int","value":1},{"name":"resource_index","type":"int","value":91},{"name":"u","type":"string","value":"edD"},{"name":"no","type":"int","value":1},{"name":"zM","type":"int","value":7}],"gid":8,"width":46,"height":15},{"id":95,"x":-388,"y":60,"visible":true,"properties":[{"name":"layer","type":"int","value":1},{"name":"resource_index","type":"int","value":92},{"name":"u","type":"string","value":"edU"},{"name":"no","type":"int","value":1},{"name":"zM","type":"int","value":6}],"gid":12,"width":54,"height":32},{"id":96,"x":-384,"y":73,"visible":true,"properties":[{"name":"layer","type":"int","value":1},{"name":"resource_index","type":"int","value":93},{"name":"u","type":"string","value":"edD"},{"name":"no","type":"int","value":0},{"name":"zM","type":"int","value":6}],"gid":24,"width":45,"height":13},{"id":97,"x":-390,"y":120,"visible":true,"properties":[{"name":"layer","type":"int","value":1},{"name":"resource_index","type":"int","value":94},{"name":"u","type":"string","value":"edU"},{"name":"no","type":"int","value":0},{"name":"zM","type":"int","value":5}],"gid":16,"width":61,"height":33},{"id":98,"x":-384,"y":133,"visible":true,"properties":[{"name":"layer","type":"int","value":1},{"name":"resource_index","type":"int","value":95},{"name":"u","type":"string","value":"edD"},{"name":"no","type":"int","value":0},{"name":"zM","type":"int","value":5}],"gid":24,"width":45,"height":13},{"id":99,"x":-388,"y":180,"visible":true,"properties":[{"name":"layer","type":"int","value":1},{"name":"resource_index","type":"int","value":96},{"name":"u","type":"string","value":"edU"},{"name":"no","type":"int","value":1},{"name":"zM","type":"int","value":4}],"gid":12,"width":54,"height":32},{"id":100,"x":-385,"y":195,"visible":true,"properties":[{"name":"layer","type":"int","value":1},{"name":"resource_index","type":"int","value":97},{"name":"u","type":"string","value":"edD"},{"name":"no","type":"int","value":1},{"name":"zM","type":"int","value":4}],"gid":8,"width":46,"height":15},{"id":101,"x":-390,"y":240,"visible":true,"properties":[{"name":"layer","type":"int","value":1},{"name":"resource_index","type":"int","value":98},{"name":"u","type":"string","value":"edU"},{"name":"no","type":"int","value":0},{"name":"zM","type":"int","value":3}],"gid":16,"width":61,"height":33},{"id":102,"x":-385,"y":255,"visible":true,"properties":[{"name":"layer","type":"int","value":1},{"name":"resource_index","type":"int","value":99},{"name":"u","type":"string","value":"edD"},{"name":"no","type":"int","value":1},{"name":"zM","type":"int","value":3}],"gid":8,"width":46,"height":15}]},{"id":4,"name":"background_back_0","type":"imagelayer","visible":true,"opacity":1,"image":"../../images/29098.png","imagewidth":256,"imageheight":256,"offsetx":-128,"offsety":-128,"repeatx":true,"repeaty":true,"parallaxx":1,"parallaxy":1,"properties":[{"name":"a","type":"int","value":255},{"name":"f","type":"int","value":0},{"name":"x","type":"int","value":0},{"name":"y","type":"int","value":0},{"name":"bS","type":"string","value":"grassySoil"},{"name":"cx","type":"int","value":0},{"name":"cy","type":"int","value":0},{"name":"no","type":"int","value":0},{"name":"rx","type":"int","value":0},{"name":"ry","type":"int","value":0},{"name":"ani","type":"int","value":0},{"name":"type","type":"int","value":3},{"name":"front","type":"int","value":0}]},{"id":5,"name":"background_back_1","type":"imagelayer","visible":true,"opacity":1,"image":"../../images/29099.png","imagewidth":1024,"imageheight":579,"offsetx":-400,"offsety":-279,"repeatx":true,"repeaty":false,"parallaxx":1,"parallaxy":1,"properties":[{"name":"a","type":"int","value":255},{"name":"f","type":"int","value":0},{"name":"x","type":"int","value":112},{"name":"y","type":"int","value":10},{"name":"bS","type":"string","value":"grassySoil"},{"name":"cx","type":"int","value":0},{"name":"cy","type":"int","value":0},{"name":"no","type":"int","value":1},{"name":"rx","type":"int","value":-5},{"name":"ry","type":"int","value":0},{"name":"ani","type":"int","value":0},{"name":"type","type":"int","value":4},{"name":"front","type":"int","value":0}]},{"id":6,"name":"background_back_2","type":"imagelayer","visible":true,"opacity":1,"image":"../../images/29100.png","imagewidth":2493,"imageheight":340,"offsetx":-922,"offsety":-7,"repeatx":false,"repeaty":false,"parallaxx":1,"parallaxy":1,"properties":[{"name":"a","type":"int","value":255},{"name":"f","type":"int","value":0},{"name":"x","type":"int","value":324},{"name":"y","type":"int","value":163},{"name":"bS","type":"string","value":"grassySoil"},{"name":"cx","type":"int","value":0},{"name":"cy","type":"int","value":0},{"name":"no","type":"int","value":2},{"name":"rx","type":"int","value":0},{"name":"ry","type":"int","value":0},{"name":"ani","type":"int","value":0},{"name":"type","type":"int","value":0},{"name":"front","type":"int","value":0}]},{"id":7,"name":"background_back_3","type":"imagelayer","visible":true,"opacity":1,"image":"../../images/29101.png","imagewidth":315,"imageheight":268,"offsetx":46,"offsety":-275,"repeatx":false,"repeaty":false,"parallaxx":1,"parallaxy":1,"properties":[{"name":"a","type":"int","value":255},{"name":"f","type":"int","value":0},{"name":"x","type":"int","value":203},{"name":"y","type":"int","value":-141},{"name":"bS","type":"string","value":"grassySoil"},{"name":"cx","type":"int","value":0},{"name":"cy","type":"int","value":0},{"name":"no","type":"int","value":3},{"name":"rx","type":"int","value":0},{"name":"ry","type":"int","value":0},{"name":"ani","type":"int","value":0},{"name":"type","type":"int","value":0},{"name":"front","type":"int","value":0}]},{"id":8,"name":"background_back","type":"objectgroup","visible":true,"opacity":1,"objects":[{"id":126,"x":112,"y":10,"visible":true,"properties":[{"name":"image_layer_name","type":"string","value":"background_back_1"},{"name":"a","type":"int","value":255},{"name":"f","type":"int","value":0},{"name":"x","type":"int","value":112},{"name":"y","type":"int","value":10},{"name":"bS","type":"string","value":"grassySoil"},{"name":"cx","type":"int","value":0},{"name":"cy","type":"int","value":0},{"name":"no","type":"int","value":1},{"name":"rx","type":"int","value":-5},{"name":"ry","type":"int","value":0},{"name":"ani","type":"int","value":0},{"name":"type","type":"int","value":4},{"name":"front","type":"int","value":0}],"point":true}]},{"id":9,"name":"portal","type":"objectgroup","visible":true,"opacity":1,"objects":[{"id":127,"x":133,"y":-480,"visible":true,"properties":[{"name":"x","type":"int","value":133},{"name":"y","type":"int","value":-480},{"name":"pn","type":"string","value":"sp"},{"name":"pt","type":"int","value":0},{"name":"tm","type":"int","value":999999999},{"name":"tn","type":"string","value":""}],"point":true},{"id":128,"x":190,"y":-446,"visible":true,"properties":[{"name":"x","type":"int","value":190},{"name":"y","type":"int","value":-446},{"name":"pn","type":"string","value":"out00"},{"name":"pt","type":"int","value":2},{"name":"tm","type":"int","value":109010100},{"name":"tn","type":"string","value":"st01"},{"name":"script","type":"string","value":""}],"point":true}]},{"id":10,"name":"reactor","type":"objectgroup","visible":true,"opacity":1,"objects":[{"id":129,"x":-19,"y":47,"visible":true,"properties":[{"name":"f","type":"int","value":0},{"name":"x","type":"int","value":-19},{"name":"y","type":"int","value":47},{"name":"id","type":"int","value":9002002},{"name":"name","type":"string","value":""},{"name":"reactorTime","type":"int","value":280}],"point":true},{"id":130,"x":273,"y":273,"visible":true,"properties":[{"name":"f","type":"int","value":0},{"name":"x","type":"int","value":273},{"name":"y","type":"int","value":273},{"name":"id","type":"int","value":9002001},{"name":"name","type":"string","value":""},{"name":"reactorTime","type":"int","value":150}],"point":true},{"id":131,"x":30,"y":47,"visible":true,"properties":[{"name":"f","type":"int","value":0},{"name":"x","type":"int","value":30},{"name":"y","type":"int","value":47},{"name":"id","type":"int","value":9002000},{"name":"name","type":"string","value":""},{"name":"reactorTime","type":"int","value":120}],"point":true},{"id":132,"x":-137,"y":244,"visible":true,"properties":[{"name":"f","type":"int","value":0},{"name":"x","type":"int","value":-137},{"name":"y","type":"int","value":244},{"name":"id","type":"int","value":9002000},{"name":"name","type":"string","value":""},{"name":"reactorTime","type":"int","value":90}],"point":true},{"id":133,"x":-70,"y":-446,"visible":true,"properties":[{"name":"f","type":"int","value":0},{"name":"x","type":"int","value":-70},{"name":"y","type":"int","value":-446},{"name":"id","type":"int","value":9002000},{"name":"name","type":"string","value":""},{"name":"reactorTime","type":"int","value":90}],"point":true}]},{"id":11,"name":"foothold","type":"objectgroup","visible":true,"opacity":1,"objects":[{"id":134,"x":-488,"y":300,"visible":true,"properties":[{"name":"layer","type":"int","value":1},{"name":"group","type":"int","value":0},{"name":"id","type":"int","value":1},{"name":"fh_layer","type":"int","value":1},{"name":"fh_group","type":"int","value":0},{"name":"fh_id","type":"int","value":1},{"name":"x1","type":"int","value":-488},{"name":"x2","type":"int","value":-488},{"name":"y1","type":"int","value":300},{"name":"y2","type":"int","value":274},{"name":"next","type":"int","value":2},{"name":"prev","type":"int","value":3}],"polyline":[{"x":0,"y":0},{"x":0,"y":-26}]},{"id":135,"x":-488,"y":274,"visible":true,"properties":[{"name":"layer","type":"int","value":1},{"name":"group","type":"int","value":0},{"name":"id","type":"int","value":2},{"name":"fh_layer","type":"int","value":1},{"name":"fh_group","type":"int","value":0},{"name":"fh_id","type":"int","value":2},{"name":"x1","type":"int","value":-488},{"name":"x2","type":"int","value":-412},{"name":"y1","type":"int","value":274},{"name":"y2","type":"int","value":274},{"name":"next","type":"int","value":4},{"name":"prev","type":"int","value":1}],"polyline":[{"x":0,"y":0},{"x":76,"y":0}]},{"id":136,"x":-488,"y":360,"visible":true,"properties":[{"name":"layer","type":"int","value":1},{"name":"group","type":"int","value":0},{"name":"id","type":"int","value":3},{"name":"fh_layer","type":"int","value":1},{"name":"fh_group","type":"int","value":0},{"name":"fh_id","type":"int","value":3},{"name":"x1","type":"int","value":-488},{"name":"x2","type":"int","value":-488},{"name":"y1","type":"int","value":360},{"name":"y2","type":"int","value":300},{"name":"next","type":"int","value":1},{"name":"prev","type":"int","value":9}],"polyline":[{"x":0,"y":0},{"x":0,"y":-60}]},{"id":137,"x":-412,"y":274,"visible":true,"properties":[{"name":"layer","type":"int","value":1},{"name":"group","type":"int","value":0},{"name":"id","type":"int","value":4},{"name":"fh_layer","type":"int","value":1},{"name":"fh_group","type":"int","value":0},{"name":"fh_id","type":"int","value":4},{"name":"x1","type":"int","value":-412},{"name":"x2","type":"int","value":-360},{"name":"y1","type":"int","value":274},{"name":"y2","type":"int","value":274},{"name":"next","type":"int","value":6},{"name":"prev","type":"int","value":2}],"polyline":[{"x":0,"y":0},{"x":52,"y":0}]},{"id":138,"x":-270,"y":274,"visible":true,"properties":[{"name":"layer","type":"int","value":1},{"name":"group","type":"int","value":0},{"name":"id","type":"int","value":5},{"name":"fh_layer","type":"int","value":1},{"name":"fh_group","type":"int","value":0},{"name":"fh_id","type":"int","value":5},{"name":"x1","type":"int","value":-270},{"name":"x2","type":"int","value":-180},{"name":"y1","type":"int","value":274},{"name":"y2","type":"int","value":274},{"name":"next","type":"int","value":7},{"name":"prev","type":"int","value":6}],"polyline":[{"x":0,"y":0},{"x":90,"y":0}]},{"id":139,"x":-360,"y":274,"visible":true,"properties":[{"name":"layer","type":"int","value":1},{"name":"group","type":"int","value":0},{"name":"id","type":"int","value":6},{"name":"fh_layer","type":"int","value":1},{"name":"fh_group","type":"int","value":0},{"name":"fh_id","type":"int","value":6},{"name":"x1","type":"int","value":-360},{"name":"x2","type":"int","value":-270},{"name":"y1","type":"int","value":274},{"name":"y2","type":"int","value":274},{"name":"next","type":"int","value":5},{"name":"prev","type":"int","value":4}],"polyline":[{"x":0,"y":0},{"x":90,"y":0}]},{"id":140,"x":-180,"y":274,"visible":true,"properties":[{"name":"layer","type":"int","value":1},{"name":"group","type":"int","value":0},{"name":"id","type":"int","value":7},{"name":"fh_layer","type":"int","value":1},{"name":"fh_group","type":"int","value":0},{"name":"fh_id","type":"int","value":7},{"name":"x1","type":"int","value":-180},{"name":"x2","type":"int","value":-90},{"name":"y1","type":"int","value":274},{"name":"y2","type":"int","value":274},{"name":"next","type":"int","value":8},{"name":"prev","type":"int","value":5}],"polyline":[{"x":0,"y":0},{"x":90,"y":0}]},{"id":141,"x":-90,"y":274,"visible":true,"properties":[{"name":"layer","type":"int","value":1},{"name":"group","type":"int","value":0},{"name":"id","type":"int","value":8},{"name":"fh_layer","type":"int","value":1},{"name":"fh_group","type":"int","value":0},{"name":"fh_id","type":"int","value":8},{"name":"x1","type":"int","value":-90},{"name":"x2","type":"int","value":0},{"name":"y1","type":"int","value":274},{"name":"y2","type":"int","value":274},{"name":"next","type":"int","value":12},{"name":"prev","type":"int","value":7}],"polyline":[{"x":0,"y":0},{"x":90,"y":0}]},{"id":142,"x":-488,"y":420,"visible":true,"properties":[{"name":"layer","type":"int","value":1},{"name":"group","type":"int","value":0},{"name":"id","type":"int","value":9},{"name":"fh_layer","type":"int","value":1},{"name":"fh_group","type":"int","value":0},{"name":"fh_id","type":"int","value":9},{"name":"x1","type":"int","value":-488},{"name":"x2","type":"int","value":-488},{"name":"y1","type":"int","value":420},{"name":"y2","type":"int","value":360},{"name":"next","type":"int","value":3},{"name":"prev","type":"int","value":20}],"polyline":[{"x":0,"y":0},{"x":0,"y":-60}]},{"id":143,"x":180,"y":274,"visible":true,"properties":[{"name":"layer","type":"int","value":1},{"name":"group","type":"int","value":0},{"name":"id","type":"int","value":10},{"name":"fh_layer","type":"int","value":1},{"name":"fh_group","type":"int","value":0},{"name":"fh_id","type":"int","value":10},{"name":"x1","type":"int","value":180},{"name":"x2","type":"int","value":270},{"name":"y1","type":"int","value":274},{"name":"y2","type":"int","value":274},{"name":"next","type":"int","value":11},{"name":"prev","type":"int","value":14}],"polyline":[{"x":0,"y":0},{"x":90,"y":0}]},{"id":144,"x":270,"y":274,"visible":true,"properties":[{"name":"layer","type":"int","value":1},{"name":"group","type":"int","value":0},{"name":"id","type":"int","value":11},{"name":"fh_layer","type":"int","value":1},{"name":"fh_group","type":"int","value":0},{"name":"fh_id","type":"int","value":11},{"name":"x1","type":"int","value":270},{"name":"x2","type":"int","value":322},{"name":"y1","type":"int","value":274},{"name":"y2","type":"int","value":274},{"name":"next","type":"int","value":15},{"name":"prev","type":"int","value":10}],"polyline":[{"x":0,"y":0},{"x":52,"y":0}]},{"id":145,"x":0,"y":274,"visible":true,"properties":[{"name":"layer","type":"int","value":1},{"name":"group","type":"int","value":0},{"name":"id","type":"int","value":12},{"name":"fh_layer","type":"int","value":1},{"name":"fh_group","type":"int","value":0},{"name":"fh_id","type":"int","value":12},{"name":"x1","type":"int","value":0},{"name":"x2","type":"int","value":90},{"name":"y1","type":"int","value":274},{"name":"y2","type":"int","value":274},{"name":"next","type":"int","value":14},{"name":"prev","type":"int","value":8}],"polyline":[{"x":0,"y":0},{"x":90,"y":0}]},{"id":146,"x":398,"y":300,"visible":true,"properties":[{"name":"layer","type":"int","value":1},{"name":"group","type":"int","value":0},{"name":"id","type":"int","value":13},{"name":"fh_layer","type":"int","value":1},{"name":"fh_group","type":"int","value":0},{"name":"fh_id","type":"int","value":13},{"name":"x1","type":"int","value":398},{"name":"x2","type":"int","value":398},{"name":"y1","type":"int","value":300},{"name":"y2","type":"int","value":360},{"name":"next","type":"int","value":19},{"name":"prev","type":"int","value":17}],"polyline":[{"x":0,"y":0},{"x":0,"y":60}]},{"id":147,"x":90,"y":274,"visible":true,"properties":[{"name":"layer","type":"int","value":1},{"name":"group","type":"int","value":0},{"name":"id","type":"int","value":14},{"name":"fh_layer","type":"int","value":1},{"name":"fh_group","type":"int","value":0},{"name":"fh_id","type":"int","value":14},{"name":"x1","type":"int","value":90},{"name":"x2","type":"int","value":180},{"name":"y1","type":"int","value":274},{"name":"y2","type":"int","value":274},{"name":"next","type":"int","value":10},{"name":"prev","type":"int","value":12}],"polyline":[{"x":0,"y":0},{"x":90,"y":0}]},{"id":148,"x":322,"y":274,"visible":true,"properties":[{"name":"layer","type":"int","value":1},{"name":"group","type":"int","value":0},{"name":"id","type":"int","value":15},{"name":"fh_layer","type":"int","value":1},{"name":"fh_group","type":"int","value":0},{"name":"fh_id","type":"int","value":15},{"name":"x1","type":"int","value":322},{"name":"x2","type":"int","value":360},{"name":"y1","type":"int","value":274},{"name":"y2","type":"int","value":274},{"name":"next","type":"int","value":16},{"name":"prev","type":"int","value":11}],"polyline":[{"x":0,"y":0},{"x":38,"y":0}]},{"id":149,"x":360,"y":274,"visible":true,"properties":[{"name":"layer","type":"int","value":1},{"name":"group","type":"int","value":0},{"name":"id","type":"int","value":16},{"name":"fh_layer","type":"int","value":1},{"name":"fh_group","type":"int","value":0},{"name":"fh_id","type":"int","value":16},{"name":"x1","type":"int","value":360},{"name":"x2","type":"int","value":398},{"name":"y1","type":"int","value":274},{"name":"y2","type":"int","value":274},{"name":"next","type":"int","value":17},{"name":"prev","type":"int","value":15}],"polyline":[{"x":0,"y":0},{"x":38,"y":0}]},{"id":150,"x":398,"y":274,"visible":true,"properties":[{"name":"layer","type":"int","value":1},{"name":"group","type":"int","value":0},{"name":"id","type":"int","value":17},{"name":"fh_layer","type":"int","value":1},{"name":"fh_group","type":"int","value":0},{"name":"fh_id","type":"int","value":17},{"name":"x1","type":"int","value":398},{"name":"x2","type":"int","value":398},{"name":"y1","type":"int","value":274},{"name":"y2","type":"int","value":300},{"name":"next","type":"int","value":13},{"name":"prev","type":"int","value":16}],"polyline":[{"x":0,"y":0},{"x":0,"y":26}]},{"id":151,"x":398,"y":420,"visible":true,"properties":[{"name":"layer","type":"int","value":1},{"name":"group","type":"int","value":0},{"name":"id","type":"int","value":18},{"name":"fh_layer","type":"int","value":1},{"name":"fh_group","type":"int","value":0},{"name":"fh_id","type":"int","value":18},{"name":"x1","type":"int","value":398},{"name":"x2","type":"int","value":398},{"name":"y1","type":"int","value":420},{"name":"y2","type":"int","value":480},{"name":"next","type":"int","value":0},{"name":"prev","type":"int","value":19}],"polyline":[{"x":0,"y":0},{"x":0,"y":60}]},{"id":152,"x":398,"y":360,"visible":true,"properties":[{"name":"layer","type":"int","value":1},{"name":"group","type":"int","value":0},{"name":"id","type":"int","value":19},{"name":"fh_layer","type":"int","value":1},{"name":"fh_group","type":"int","value":0},{"name":"fh_id","type":"int","value":19},{"name":"x1","type":"int","value":398},{"name":"x2","type":"int","value":398},{"name":"y1","type":"int","value":360},{"name":"y2","type":"int","value":420},{"name":"next","type":"int","value":18},{"name":"prev","type":"int","value":13}],"polyline":[{"x":0,"y":0},{"x":0,"y":60}]},{"id":153,"x":-488,"y":480,"visible":true,"properties":[{"name":"layer","type":"int","value":1},{"name":"group","type":"int","value":0},{"name":"id","type":"int","value":20},{"name":"fh_layer","type":"int","value":1},{"name":"fh_group","type":"int","value":0},{"name":"fh_id","type":"int","value":20},{"name":"x1","type":"int","value":-488},{"name":"x2","type":"int","value":-488},{"name":"y1","type":"int","value":480},{"name":"y2","type":"int","value":420},{"name":"next","type":"int","value":9},{"name":"prev","type":"int","value":0}],"polyline":[{"x":0,"y":0},{"x":0,"y":-60}]},{"id":154,"x":130,"y":258,"visible":true,"properties":[{"name":"layer","type":"int","value":1},{"name":"group","type":"int","value":0},{"name":"id","type":"int","value":21},{"name":"fh_layer","type":"int","value":1},{"name":"fh_group","type":"int","value":0},{"name":"fh_id","type":"int","value":21},{"name":"x1","type":"int","value":130},{"name":"x2","type":"int","value":-221},{"name":"y1","type":"int","value":258},{"name":"y2","type":"int","value":258},{"name":"next","type":"int","value":22},{"name":"prev","type":"int","value":0}],"polyline":[{"x":0,"y":0},{"x":-351,"y":0}]},{"id":155,"x":-221,"y":258,"visible":true,"properties":[{"name":"layer","type":"int","value":1},{"name":"group","type":"int","value":0},{"name":"id","type":"int","value":22},{"name":"fh_layer","type":"int","value":1},{"name":"fh_group","type":"int","value":0},{"name":"fh_id","type":"int","value":22},{"name":"x1","type":"int","value":-221},{"name":"x2","type":"int","value":-221},{"name":"y1","type":"int","value":258},{"name":"y2","type":"int","value":246},{"name":"next","type":"int","value":23},{"name":"prev","type":"int","value":21}],"polyline":[{"x":0,"y":0},{"x":0,"y":-12}]},{"id":156,"x":-221,"y":246,"visible":true,"properties":[{"name":"layer","type":"int","value":1},{"name":"group","type":"int","value":0},{"name":"id","type":"int","value":23},{"name":"fh_layer","type":"int","value":1},{"name":"fh_group","type":"int","value":0},{"name":"fh_id","type":"int","value":23},{"name":"x1","type":"int","value":-221},{"name":"x2","type":"int","value":129},{"name":"y1","type":"int","value":246},{"name":"y2","type":"int","value":246},{"name":"next","type":"int","value":24},{"name":"prev","type":"int","value":22}],"polyline":[{"x":0,"y":0},{"x":350,"y":0}]},{"id":157,"x":129,"y":246,"visible":true,"properties":[{"name":"layer","type":"int","value":1},{"name":"group","type":"int","value":0},{"name":"id","type":"int","value":24},{"name":"fh_layer","type":"int","value":1},{"name":"fh_group","type":"int","value":0},{"name":"fh_id","type":"int","value":24},{"name":"x1","type":"int","value":129},{"name":"x2","type":"int","value":129},{"name":"y1","type":"int","value":246},{"name":"y2","type":"int","value":69},{"name":"next","type":"int","value":25},{"name":"prev","type":"int","value":23}],"polyline":[{"x":0,"y":0},{"x":0,"y":-177}]},{"id":158,"x":129,"y":69,"visible":true,"properties":[{"name":"layer","type":"int","value":1},{"name":"group","type":"int","value":0},{"name":"id","type":"int","value":25},{"name":"fh_layer","type":"int","value":1},{"name":"fh_group","type":"int","value":0},{"name":"fh_id","type":"int","value":25},{"name":"x1","type":"int","value":129},{"name":"x2","type":"int","value":-141},{"name":"y1","type":"int","value":69},{"name":"y2","type":"int","value":69},{"name":"next","type":"int","value":26},{"name":"prev","type":"int","value":24}],"polyline":[{"x":0,"y":0},{"x":-270,"y":0}]},{"id":159,"x":-141,"y":69,"visible":true,"properties":[{"name":"layer","type":"int","value":1},{"name":"group","type":"int","value":0},{"name":"id","type":"int","value":26},{"name":"fh_layer","type":"int","value":1},{"name":"fh_group","type":"int","value":0},{"name":"fh_id","type":"int","value":26},{"name":"x1","type":"int","value":-141},{"name":"x2","type":"int","value":-141},{"name":"y1","type":"int","value":69},{"name":"y2","type":"int","value":152},{"name":"next","type":"int","value":0},{"name":"prev","type":"int","value":25}],"polyline":[{"x":0,"y":0},{"x":0,"y":83}]},{"id":160,"x":-142,"y":-117,"visible":true,"properties":[{"name":"layer","type":"int","value":1},{"name":"group","type":"int","value":0},{"name":"id","type":"int","value":27},{"name":"fh_layer","type":"int","value":1},{"name":"fh_group","type":"int","value":0},{"name":"fh_id","type":"int","value":27},{"name":"x1","type":"int","value":-142},{"name":"x2","type":"int","value":-142},{"name":"y1","type":"int","value":-117},{"name":"y2","type":"int","value":47},{"name":"next","type":"int","value":28},{"name":"prev","type":"int","value":30}],"polyline":[{"x":0,"y":0},{"x":0,"y":164}]},{"id":161,"x":-142,"y":47,"visible":true,"properties":[{"name":"layer","type":"int","value":1},{"name":"group","type":"int","value":0},{"name":"id","type":"int","value":28},{"name":"fh_layer","type":"int","value":1},{"name":"fh_group","type":"int","value":0},{"name":"fh_id","type":"int","value":28},{"name":"x1","type":"int","value":-142},{"name":"x2","type":"int","value":138},{"name":"y1","type":"int","value":47},{"name":"y2","type":"int","value":47},{"name":"next","type":"int","value":29},{"name":"prev","type":"int","value":27}],"polyline":[{"x":0,"y":0},{"x":280,"y":0}]},{"id":162,"x":138,"y":47,"visible":true,"properties":[{"name":"layer","type":"int","value":1},{"name":"group","type":"int","value":0},{"name":"id","type":"int","value":29},{"name":"fh_layer","type":"int","value":1},{"name":"fh_group","type":"int","value":0},{"name":"fh_id","type":"int","value":29},{"name":"x1","type":"int","value":138},{"name":"x2","type":"int","value":138},{"name":"y1","type":"int","value":47},{"name":"y2","type":"int","value":-117},{"name":"next","type":"int","value":30},{"name":"prev","type":"int","value":28}],"polyline":[{"x":0,"y":0},{"x":0,"y":-164}]},{"id":163,"x":138,"y":-117,"visible":true,"properties":[{"name":"layer","type":"int","value":1},{"name":"group","type":"int","value":0},{"name":"id","type":"int","value":30},{"name":"fh_layer","type":"int","value":1},{"name":"fh_group","type":"int","value":0},{"name":"fh_id","type":"int","value":30},{"name":"x1","type":"int","value":138},{"name":"x2","type":"int","value":-142},{"name":"y1","type":"int","value":-117},{"name":"y2","type":"int","value":-117},{"name":"next","type":"int","value":27},{"name":"prev","type":"int","value":29}],"polyline":[{"x":0,"y":0},{"x":-280,"y":0}]},{"id":164,"x":-398,"y":240,"visible":true,"properties":[{"name":"layer","type":"int","value":1},{"name":"group","type":"int","value":3},{"name":"id","type":"int","value":78},{"name":"fh_layer","type":"int","value":1},{"name":"fh_group","type":"int","value":3},{"name":"fh_id","type":"int","value":78},{"name":"x1","type":"int","value":-398},{"name":"x2","type":"int","value":-398},{"name":"y1","type":"int","value":240},{"name":"y2","type":"int","value":214},{"name":"next","type":"int","value":79},{"name":"prev","type":"int","value":0}],"polyline":[{"x":0,"y":0},{"x":0,"y":-26}]},{"id":165,"x":-398,"y":214,"visible":true,"properties":[{"name":"layer","type":"int","value":1},{"name":"group","type":"int","value":3},{"name":"id","type":"int","value":79},{"name":"fh_layer","type":"int","value":1},{"name":"fh_group","type":"int","value":3},{"name":"fh_id","type":"int","value":79},{"name":"x1","type":"int","value":-398},{"name":"x2","type":"int","value":-322},{"name":"y1","type":"int","value":214},{"name":"y2","type":"int","value":214},{"name":"next","type":"int","value":80},{"name":"prev","type":"int","value":78}],"polyline":[{"x":0,"y":0},{"x":76,"y":0}]},{"id":166,"x":-322,"y":214,"visible":true,"properties":[{"name":"layer","type":"int","value":1},{"name":"group","type":"int","value":3},{"name":"id","type":"int","value":80},{"name":"fh_layer","type":"int","value":1},{"name":"fh_group","type":"int","value":3},{"name":"fh_id","type":"int","value":80},{"name":"x1","type":"int","value":-322},{"name":"x2","type":"int","value":-322},{"name":"y1","type":"int","value":214},{"name":"y2","type":"int","value":240},{"name":"next","type":"int","value":0},{"name":"prev","type":"int","value":79}],"polyline":[{"x":0,"y":0},{"x":0,"y":26}]},{"id":167,"x":-398,"y":180,"visible":true,"properties":[{"name":"layer","type":"int","value":1},{"name":"group","type":"int","value":4},{"name":"id","type":"int","value":75},{"name":"fh_layer","type":"int","value":1},{"name":"fh_group","type":"int","value":4},{"name":"fh_id","type":"int","value":75},{"name":"x1","type":"int","value":-398},{"name":"x2","type":"int","value":-398},{"name":"y1","type":"int","value":180},{"name":"y2","type":"int","value":154},{"name":"next","type":"int","value":76},{"name":"prev","type":"int","value":0}],"polyline":[{"x":0,"y":0},{"x":0,"y":-26}]},{"id":168,"x":-398,"y":154,"visible":true,"properties":[{"name":"layer","type":"int","value":1},{"name":"group","type":"int","value":4},{"name":"id","type":"int","value":76},{"name":"fh_layer","type":"int","value":1},{"name":"fh_group","type":"int","value":4},{"name":"fh_id","type":"int","value":76},{"name":"x1","type":"int","value":-398},{"name":"x2","type":"int","value":-322},{"name":"y1","type":"int","value":154},{"name":"y2","type":"int","value":154},{"name":"next","type":"int","value":77},{"name":"prev","type":"int","value":75}],"polyline":[{"x":0,"y":0},{"x":76,"y":0}]},{"id":169,"x":-322,"y":154,"visible":true,"properties":[{"name":"layer","type":"int","value":1},{"name":"group","type":"int","value":4},{"name":"id","type":"int","value":77},{"name":"fh_layer","type":"int","value":1},{"name":"fh_group","type":"int","value":4},{"name":"fh_id","type":"int","value":77},{"name":"x1","type":"int","value":-322},{"name":"x2","type":"int","value":-322},{"name":"y1","type":"int","value":154},{"name":"y2","type":"int","value":180},{"name":"next","type":"int","value":0},{"name":"prev","type":"int","value":76}],"polyline":[{"x":0,"y":0},{"x":0,"y":26}]},{"id":170,"x":-398,"y":120,"visible":true,"properties":[{"name":"layer","type":"int","value":1},{"name":"group","type":"int","value":5},{"name":"id","type":"int","value":72},{"name":"fh_layer","type":"int","value":1},{"name":"fh_group","type":"int","value":5},{"name":"fh_id","type":"int","value":72},{"name":"x1","type":"int","value":-398},{"name":"x2","type":"int","value":-398},{"name":"y1","type":"int","value":120},{"name":"y2","type":"int","value":94},{"name":"next","type":"int","value":73},{"name":"prev","type":"int","value":0}],"polyline":[{"x":0,"y":0},{"x":0,"y":-26}]},{"id":171,"x":-398,"y":94,"visible":true,"properties":[{"name":"layer","type":"int","value":1},{"name":"group","type":"int","value":5},{"name":"id","type":"int","value":73},{"name":"fh_layer","type":"int","value":1},{"name":"fh_group","type":"int","value":5},{"name":"fh_id","type":"int","value":73},{"name":"x1","type":"int","value":-398},{"name":"x2","type":"int","value":-322},{"name":"y1","type":"int","value":94},{"name":"y2","type":"int","value":94},{"name":"next","type":"int","value":74},{"name":"prev","type":"int","value":72}],"polyline":[{"x":0,"y":0},{"x":76,"y":0}]},{"id":172,"x":-322,"y":94,"visible":true,"properties":[{"name":"layer","type":"int","value":1},{"name":"group","type":"int","value":5},{"name":"id","type":"int","value":74},{"name":"fh_layer","type":"int","value":1},{"name":"fh_group","type":"int","value":5},{"name":"fh_id","type":"int","value":74},{"name":"x1","type":"int","value":-322},{"name":"x2","type":"int","value":-322},{"name":"y1","type":"int","value":94},{"name":"y2","type":"int","value":120},{"name":"next","type":"int","value":0},{"name":"prev","type":"int","value":73}],"polyline":[{"x":0,"y":0},{"x":0,"y":26}]},{"id":173,"x":-398,"y":60,"visible":true,"properties":[{"name":"layer","type":"int","value":1},{"name":"group","type":"int","value":6},{"name":"id","type":"int","value":69},{"name":"fh_layer","type":"int","value":1},{"name":"fh_group","type":"int","value":6},{"name":"fh_id","type":"int","value":69},{"name":"x1","type":"int","value":-398},{"name":"x2","type":"int","value":-398},{"name":"y1","type":"int","value":60},{"name":"y2","type":"int","value":34},{"name":"next","type":"int","value":70},{"name":"prev","type":"int","value":0}],"polyline":[{"x":0,"y":0},{"x":0,"y":-26}]},{"id":174,"x":-398,"y":34,"visible":true,"properties":[{"name":"layer","type":"int","value":1},{"name":"group","type":"int","value":6},{"name":"id","type":"int","value":70},{"name":"fh_layer","type":"int","value":1},{"name":"fh_group","type":"int","value":6},{"name":"fh_id","type":"int","value":70},{"name":"x1","type":"int","value":-398},{"name":"x2","type":"int","value":-322},{"name":"y1","type":"int","value":34},{"name":"y2","type":"int","value":34},{"name":"next","type":"int","value":71},{"name":"prev","type":"int","value":69}],"polyline":[{"x":0,"y":0},{"x":76,"y":0}]},{"id":175,"x":-322,"y":34,"visible":true,"properties":[{"name":"layer","type":"int","value":1},{"name":"group","type":"int","value":6},{"name":"id","type":"int","value":71},{"name":"fh_layer","type":"int","value":1},{"name":"fh_group","type":"int","value":6},{"name":"fh_id","type":"int","value":71},{"name":"x1","type":"int","value":-322},{"name":"x2","type":"int","value":-322},{"name":"y1","type":"int","value":34},{"name":"y2","type":"int","value":60},{"name":"next","type":"int","value":0},{"name":"prev","type":"int","value":70}],"polyline":[{"x":0,"y":0},{"x":0,"y":26}]},{"id":176,"x":-398,"y":0,"visible":true,"properties":[{"name":"layer","type":"int","value":1},{"name":"group","type":"int","value":7},{"name":"id","type":"int","value":66},{"name":"fh_layer","type":"int","value":1},{"name":"fh_group","type":"int","value":7},{"name":"fh_id","type":"int","value":66},{"name":"x1","type":"int","value":-398},{"name":"x2","type":"int","value":-398},{"name":"y1","type":"int","value":0},{"name":"y2","type":"int","value":-26},{"name":"next","type":"int","value":67},{"name":"prev","type":"int","value":0}],"polyline":[{"x":0,"y":0},{"x":0,"y":-26}]},{"id":177,"x":-398,"y":-26,"visible":true,"properties":[{"name":"layer","type":"int","value":1},{"name":"group","type":"int","value":7},{"name":"id","type":"int","value":67},{"name":"fh_layer","type":"int","value":1},{"name":"fh_group","type":"int","value":7},{"name":"fh_id","type":"int","value":67},{"name":"x1","type":"int","value":-398},{"name":"x2","type":"int","value":-322},{"name":"y1","type":"int","value":-26},{"name":"y2","type":"int","value":-26},{"name":"next","type":"int","value":68},{"name":"prev","type":"int","value":66}],"polyline":[{"x":0,"y":0},{"x":76,"y":0}]},{"id":178,"x":-322,"y":-26,"visible":true,"properties":[{"name":"layer","type":"int","value":1},{"name":"group","type":"int","value":7},{"name":"id","type":"int","value":68},{"name":"fh_layer","type":"int","value":1},{"name":"fh_group","type":"int","value":7},{"name":"fh_id","type":"int","value":68},{"name":"x1","type":"int","value":-322},{"name":"x2","type":"int","value":-322},{"name":"y1","type":"int","value":-26},{"name":"y2","type":"int","value":0},{"name":"next","type":"int","value":0},{"name":"prev","type":"int","value":67}],"polyline":[{"x":0,"y":0},{"x":0,"y":26}]},{"id":179,"x":-398,"y":-60,"visible":true,"properties":[{"name":"layer","type":"int","value":1},{"name":"group","type":"int","value":8},{"name":"id","type":"int","value":63},{"name":"fh_layer","type":"int","value":1},{"name":"fh_group","type":"int","value":8},{"name":"fh_id","type":"int","value":63},{"name":"x1","type":"int","value":-398},{"name":"x2","type":"int","value":-398},{"name":"y1","type":"int","value":-60},{"name":"y2","type":"int","value":-86},{"name":"next","type":"int","value":64},{"name":"prev","type":"int","value":0}],"polyline":[{"x":0,"y":0},{"x":0,"y":-26}]},{"id":180,"x":-398,"y":-86,"visible":true,"properties":[{"name":"layer","type":"int","value":1},{"name":"group","type":"int","value":8},{"name":"id","type":"int","value":64},{"name":"fh_layer","type":"int","value":1},{"name":"fh_group","type":"int","value":8},{"name":"fh_id","type":"int","value":64},{"name":"x1","type":"int","value":-398},{"name":"x2","type":"int","value":-322},{"name":"y1","type":"int","value":-86},{"name":"y2","type":"int","value":-86},{"name":"next","type":"int","value":65},{"name":"prev","type":"int","value":63}],"polyline":[{"x":0,"y":0},{"x":76,"y":0}]},{"id":181,"x":-322,"y":-86,"visible":true,"properties":[{"name":"layer","type":"int","value":1},{"name":"group","type":"int","value":8},{"name":"id","type":"int","value":65},{"name":"fh_layer","type":"int","value":1},{"name":"fh_group","type":"int","value":8},{"name":"fh_id","type":"int","value":65},{"name":"x1","type":"int","value":-322},{"name":"x2","type":"int","value":-322},{"name":"y1","type":"int","value":-86},{"name":"y2","type":"int","value":-60},{"name":"next","type":"int","value":0},{"name":"prev","type":"int","value":64}],"polyline":[{"x":0,"y":0},{"x":0,"y":26}]},{"id":182,"x":-398,"y":-120,"visible":true,"properties":[{"name":"layer","type":"int","value":1},{"name":"group","type":"int","value":9},{"name":"id","type":"int","value":60},{"name":"fh_layer","type":"int","value":1},{"name":"fh_group","type":"int","value":9},{"name":"fh_id","type":"int","value":60},{"name":"x1","type":"int","value":-398},{"name":"x2","type":"int","value":-398},{"name":"y1","type":"int","value":-120},{"name":"y2","type":"int","value":-146},{"name":"next","type":"int","value":61},{"name":"prev","type":"int","value":0}],"polyline":[{"x":0,"y":0},{"x":0,"y":-26}]},{"id":183,"x":-398,"y":-146,"visible":true,"properties":[{"name":"layer","type":"int","value":1},{"name":"group","type":"int","value":9},{"name":"id","type":"int","value":61},{"name":"fh_layer","type":"int","value":1},{"name":"fh_group","type":"int","value":9},{"name":"fh_id","type":"int","value":61},{"name":"x1","type":"int","value":-398},{"name":"x2","type":"int","value":-322},{"name":"y1","type":"int","value":-146},{"name":"y2","type":"int","value":-146},{"name":"next","type":"int","value":62},{"name":"prev","type":"int","value":60}],"polyline":[{"x":0,"y":0},{"x":76,"y":0}]},{"id":184,"x":-322,"y":-146,"visible":true,"properties":[{"name":"layer","type":"int","value":1},{"name":"group","type":"int","value":9},{"name":"id","type":"int","value":62},{"name":"fh_layer","type":"int","value":1},{"name":"fh_group","type":"int","value":9},{"name":"fh_id","type":"int","value":62},{"name":"x1","type":"int","value":-322},{"name":"x2","type":"int","value":-322},{"name":"y1","type":"int","value":-146},{"name":"y2","type":"int","value":-120},{"name":"next","type":"int","value":0},{"name":"prev","type":"int","value":61}],"polyline":[{"x":0,"y":0},{"x":0,"y":26}]},{"id":185,"x":-398,"y":-180,"visible":true,"properties":[{"name":"layer","type":"int","value":1},{"name":"group","type":"int","value":10},{"name":"id","type":"int","value":57},{"name":"fh_layer","type":"int","value":1},{"name":"fh_group","type":"int","value":10},{"name":"fh_id","type":"int","value":57},{"name":"x1","type":"int","value":-398},{"name":"x2","type":"int","value":-398},{"name":"y1","type":"int","value":-180},{"name":"y2","type":"int","value":-206},{"name":"next","type":"int","value":58},{"name":"prev","type":"int","value":0}],"polyline":[{"x":0,"y":0},{"x":0,"y":-26}]},{"id":186,"x":-398,"y":-206,"visible":true,"properties":[{"name":"layer","type":"int","value":1},{"name":"group","type":"int","value":10},{"name":"id","type":"int","value":58},{"name":"fh_layer","type":"int","value":1},{"name":"fh_group","type":"int","value":10},{"name":"fh_id","type":"int","value":58},{"name":"x1","type":"int","value":-398},{"name":"x2","type":"int","value":-322},{"name":"y1","type":"int","value":-206},{"name":"y2","type":"int","value":-206},{"name":"next","type":"int","value":59},{"name":"prev","type":"int","value":57}],"polyline":[{"x":0,"y":0},{"x":76,"y":0}]},{"id":187,"x":-322,"y":-206,"visible":true,"properties":[{"name":"layer","type":"int","value":1},{"name":"group","type":"int","value":10},{"name":"id","type":"int","value":59},{"name":"fh_layer","type":"int","value":1},{"name":"fh_group","type":"int","value":10},{"name":"fh_id","type":"int","value":59},{"name":"x1","type":"int","value":-322},{"name":"x2","type":"int","value":-322},{"name":"y1","type":"int","value":-206},{"name":"y2","type":"int","value":-180},{"name":"next","type":"int","value":0},{"name":"prev","type":"int","value":58}],"polyline":[{"x":0,"y":0},{"x":0,"y":26}]},{"id":188,"x":-398,"y":-240,"visible":true,"properties":[{"name":"layer","type":"int","value":1},{"name":"group","type":"int","value":11},{"name":"id","type":"int","value":54},{"name":"fh_layer","type":"int","value":1},{"name":"fh_group","type":"int","value":11},{"name":"fh_id","type":"int","value":54},{"name":"x1","type":"int","value":-398},{"name":"x2","type":"int","value":-398},{"name":"y1","type":"int","value":-240},{"name":"y2","type":"int","value":-266},{"name":"next","type":"int","value":55},{"name":"prev","type":"int","value":0}],"polyline":[{"x":0,"y":0},{"x":0,"y":-26}]},{"id":189,"x":-398,"y":-266,"visible":true,"properties":[{"name":"layer","type":"int","value":1},{"name":"group","type":"int","value":11},{"name":"id","type":"int","value":55},{"name":"fh_layer","type":"int","value":1},{"name":"fh_group","type":"int","value":11},{"name":"fh_id","type":"int","value":55},{"name":"x1","type":"int","value":-398},{"name":"x2","type":"int","value":-322},{"name":"y1","type":"int","value":-266},{"name":"y2","type":"int","value":-266},{"name":"next","type":"int","value":56},{"name":"prev","type":"int","value":54}],"polyline":[{"x":0,"y":0},{"x":76,"y":0}]},{"id":190,"x":-322,"y":-266,"visible":true,"properties":[{"name":"layer","type":"int","value":1},{"name":"group","type":"int","value":11},{"name":"id","type":"int","value":56},{"name":"fh_layer","type":"int","value":1},{"name":"fh_group","type":"int","value":11},{"name":"fh_id","type":"int","value":56},{"name":"x1","type":"int","value":-322},{"name":"x2","type":"int","value":-322},{"name":"y1","type":"int","value":-266},{"name":"y2","type":"int","value":-240},{"name":"next","type":"int","value":0},{"name":"prev","type":"int","value":55}],"polyline":[{"x":0,"y":0},{"x":0,"y":26}]},{"id":191,"x":-398,"y":-300,"visible":true,"properties":[{"name":"layer","type":"int","value":1},{"name":"group","type":"int","value":12},{"name":"id","type":"int","value":51},{"name":"fh_layer","type":"int","value":1},{"name":"fh_group","type":"int","value":12},{"name":"fh_id","type":"int","value":51},{"name":"x1","type":"int","value":-398},{"name":"x2","type":"int","value":-398},{"name":"y1","type":"int","value":-300},{"name":"y2","type":"int","value":-326},{"name":"next","type":"int","value":52},{"name":"prev","type":"int","value":0}],"polyline":[{"x":0,"y":0},{"x":0,"y":-26}]},{"id":192,"x":-398,"y":-326,"visible":true,"properties":[{"name":"layer","type":"int","value":1},{"name":"group","type":"int","value":12},{"name":"id","type":"int","value":52},{"name":"fh_layer","type":"int","value":1},{"name":"fh_group","type":"int","value":12},{"name":"fh_id","type":"int","value":52},{"name":"x1","type":"int","value":-398},{"name":"x2","type":"int","value":-322},{"name":"y1","type":"int","value":-326},{"name":"y2","type":"int","value":-326},{"name":"next","type":"int","value":53},{"name":"prev","type":"int","value":51}],"polyline":[{"x":0,"y":0},{"x":76,"y":0}]},{"id":193,"x":-322,"y":-326,"visible":true,"properties":[{"name":"layer","type":"int","value":1},{"name":"group","type":"int","value":12},{"name":"id","type":"int","value":53},{"name":"fh_layer","type":"int","value":1},{"name":"fh_group","type":"int","value":12},{"name":"fh_id","type":"int","value":53},{"name":"x1","type":"int","value":-322},{"name":"x2","type":"int","value":-322},{"name":"y1","type":"int","value":-326},{"name":"y2","type":"int","value":-300},{"name":"next","type":"int","value":0},{"name":"prev","type":"int","value":52}],"polyline":[{"x":0,"y":0},{"x":0,"y":26}]},{"id":194,"x":90,"y":-446,"visible":true,"properties":[{"name":"layer","type":"int","value":1},{"name":"group","type":"int","value":13},{"name":"id","type":"int","value":31},{"name":"fh_layer","type":"int","value":1},{"name":"fh_group","type":"int","value":13},{"name":"fh_id","type":"int","value":31},{"name":"x1","type":"int","value":90},{"name":"x2","type":"int","value":180},{"name":"y1","type":"int","value":-446},{"name":"y2","type":"int","value":-446},{"name":"next","type":"int","value":38},{"name":"prev","type":"int","value":37}],"polyline":[{"x":0,"y":0},{"x":90,"y":0}]},{"id":195,"x":232,"y":-446,"visible":true,"properties":[{"name":"layer","type":"int","value":1},{"name":"group","type":"int","value":13},{"name":"id","type":"int","value":32},{"name":"fh_layer","type":"int","value":1},{"name":"fh_group","type":"int","value":13},{"name":"fh_id","type":"int","value":32},{"name":"x1","type":"int","value":232},{"name":"x2","type":"int","value":308},{"name":"y1","type":"int","value":-446},{"name":"y2","type":"int","value":-446},{"name":"next","type":"int","value":33},{"name":"prev","type":"int","value":38}],"polyline":[{"x":0,"y":0},{"x":76,"y":0}]},{"id":196,"x":308,"y":-446,"visible":true,"properties":[{"name":"layer","type":"int","value":1},{"name":"group","type":"int","value":13},{"name":"id","type":"int","value":33},{"name":"fh_layer","type":"int","value":1},{"name":"fh_group","type":"int","value":13},{"name":"fh_id","type":"int","value":33},{"name":"x1","type":"int","value":308},{"name":"x2","type":"int","value":308},{"name":"y1","type":"int","value":-446},{"name":"y2","type":"int","value":-420},{"name":"next","type":"int","value":34},{"name":"prev","type":"int","value":32}],"polyline":[{"x":0,"y":0},{"x":0,"y":26}]},{"id":197,"x":308,"y":-420,"visible":true,"properties":[{"name":"layer","type":"int","value":1},{"name":"group","type":"int","value":13},{"name":"id","type":"int","value":34},{"name":"fh_layer","type":"int","value":1},{"name":"fh_group","type":"int","value":13},{"name":"fh_id","type":"int","value":34},{"name":"x1","type":"int","value":308},{"name":"x2","type":"int","value":308},{"name":"y1","type":"int","value":-420},{"name":"y2","type":"int","value":-360},{"name":"next","type":"int","value":0},{"name":"prev","type":"int","value":33}],"polyline":[{"x":0,"y":0},{"x":0,"y":60}]},{"id":198,"x":-180,"y":-446,"visible":true,"properties":[{"name":"layer","type":"int","value":1},{"name":"group","type":"int","value":13},{"name":"id","type":"int","value":35},{"name":"fh_layer","type":"int","value":1},{"name":"fh_group","type":"int","value":13},{"name":"fh_id","type":"int","value":35},{"name":"x1","type":"int","value":-180},{"name":"x2","type":"int","value":-142},{"name":"y1","type":"int","value":-446},{"name":"y2","type":"int","value":-446},{"name":"next","type":"int","value":41},{"name":"prev","type":"int","value":40}],"polyline":[{"x":0,"y":0},{"x":38,"y":0}]},{"id":199,"x":-90,"y":-446,"visible":true,"properties":[{"name":"layer","type":"int","value":1},{"name":"group","type":"int","value":13},{"name":"id","type":"int","value":36},{"name":"fh_layer","type":"int","value":1},{"name":"fh_group","type":"int","value":13},{"name":"fh_id","type":"int","value":36},{"name":"x1","type":"int","value":-90},{"name":"x2","type":"int","value":0},{"name":"y1","type":"int","value":-446},{"name":"y2","type":"int","value":-446},{"name":"next","type":"int","value":37},{"name":"prev","type":"int","value":41}],"polyline":[{"x":0,"y":0},{"x":90,"y":0}]},{"id":200,"x":0,"y":-446,"visible":true,"properties":[{"name":"layer","type":"int","value":1},{"name":"group","type":"int","value":13},{"name":"id","type":"int","value":37},{"name":"fh_layer","type":"int","value":1},{"name":"fh_group","type":"int","value":13},{"name":"fh_id","type":"int","value":37},{"name":"x1","type":"int","value":0},{"name":"x2","type":"int","value":90},{"name":"y1","type":"int","value":-446},{"name":"y2","type":"int","value":-446},{"name":"next","type":"int","value":31},{"name":"prev","type":"int","value":36}],"polyline":[{"x":0,"y":0},{"x":90,"y":0}]},{"id":201,"x":180,"y":-446,"visible":true,"properties":[{"name":"layer","type":"int","value":1},{"name":"group","type":"int","value":13},{"name":"id","type":"int","value":38},{"name":"fh_layer","type":"int","value":1},{"name":"fh_group","type":"int","value":13},{"name":"fh_id","type":"int","value":38},{"name":"x1","type":"int","value":180},{"name":"x2","type":"int","value":232},{"name":"y1","type":"int","value":-446},{"name":"y2","type":"int","value":-446},{"name":"next","type":"int","value":32},{"name":"prev","type":"int","value":31}],"polyline":[{"x":0,"y":0},{"x":52,"y":0}]},{"id":202,"x":-218,"y":-420,"visible":true,"properties":[{"name":"layer","type":"int","value":1},{"name":"group","type":"int","value":13},{"name":"id","type":"int","value":39},{"name":"fh_layer","type":"int","value":1},{"name":"fh_group","type":"int","value":13},{"name":"fh_id","type":"int","value":39},{"name":"x1","type":"int","value":-218},{"name":"x2","type":"int","value":-218},{"name":"y1","type":"int","value":-420},{"name":"y2","type":"int","value":-446},{"name":"next","type":"int","value":40},{"name":"prev","type":"int","value":42}],"polyline":[{"x":0,"y":0},{"x":0,"y":-26}]},{"id":203,"x":-218,"y":-446,"visible":true,"properties":[{"name":"layer","type":"int","value":1},{"name":"group","type":"int","value":13},{"name":"id","type":"int","value":40},{"name":"fh_layer","type":"int","value":1},{"name":"fh_group","type":"int","value":13},{"name":"fh_id","type":"int","value":40},{"name":"x1","type":"int","value":-218},{"name":"x2","type":"int","value":-180},{"name":"y1","type":"int","value":-446},{"name":"y2","type":"int","value":-446},{"name":"next","type":"int","value":35},{"name":"prev","type":"int","value":39}],"polyline":[{"x":0,"y":0},{"x":38,"y":0}]},{"id":204,"x":-142,"y":-446,"visible":true,"properties":[{"name":"layer","type":"int","value":1},{"name":"group","type":"int","value":13},{"name":"id","type":"int","value":41},{"name":"fh_layer","type":"int","value":1},{"name":"fh_group","type":"int","value":13},{"name":"fh_id","type":"int","value":41},{"name":"x1","type":"int","value":-142},{"name":"x2","type":"int","value":-90},{"name":"y1","type":"int","value":-446},{"name":"y2","type":"int","value":-446},{"name":"next","type":"int","value":36},{"name":"prev","type":"int","value":35}],"polyline":[{"x":0,"y":0},{"x":52,"y":0}]},{"id":205,"x":-218,"y":-360,"visible":true,"properties":[{"name":"layer","type":"int","value":1},{"name":"group","type":"int","value":13},{"name":"id","type":"int","value":42},{"name":"fh_layer","type":"int","value":1},{"name":"fh_group","type":"int","value":13},{"name":"fh_id","type":"int","value":42},{"name":"x1","type":"int","value":-218},{"name":"x2","type":"int","value":-218},{"name":"y1","type":"int","value":-360},{"name":"y2","type":"int","value":-420},{"name":"next","type":"int","value":39},{"name":"prev","type":"int","value":0}],"polyline":[{"x":0,"y":0},{"x":0,"y":-60}]},{"id":206,"x":-121,"y":-519,"visible":true,"properties":[{"name":"layer","type":"int","value":1},{"name":"group","type":"int","value":13},{"name":"id","type":"int","value":43},{"name":"fh_layer","type":"int","value":1},{"name":"fh_group","type":"int","value":13},{"name":"fh_id","type":"int","value":43},{"name":"x1","type":"int","value":-121},{"name":"x2","type":"int","value":-95},{"name":"y1","type":"int","value":-519},{"name":"y2","type":"int","value":-515},{"name":"next","type":"int","value":44},{"name":"prev","type":"int","value":0}],"polyline":[{"x":0,"y":0},{"x":26,"y":4}]},{"id":207,"x":-95,"y":-515,"visible":true,"properties":[{"name":"layer","type":"int","value":1},{"name":"group","type":"int","value":13},{"name":"id","type":"int","value":44},{"name":"fh_layer","type":"int","value":1},{"name":"fh_group","type":"int","value":13},{"name":"fh_id","type":"int","value":44},{"name":"x1","type":"int","value":-95},{"name":"x2","type":"int","value":-8},{"name":"y1","type":"int","value":-515},{"name":"y2","type":"int","value":-517},{"name":"next","type":"int","value":0},{"name":"prev","type":"int","value":43}],"polyline":[{"x":0,"y":0},{"x":87,"y":-2}]},{"id":208,"x":-398,"y":-360,"visible":true,"properties":[{"name":"layer","type":"int","value":1},{"name":"group","type":"int","value":14},{"name":"id","type":"int","value":48},{"name":"fh_layer","type":"int","value":1},{"name":"fh_group","type":"int","value":14},{"name":"fh_id","type":"int","value":48},{"name":"x1","type":"int","value":-398},{"name":"x2","type":"int","value":-398},{"name":"y1","type":"int","value":-360},{"name":"y2","type":"int","value":-386},{"name":"next","type":"int","value":49},{"name":"prev","type":"int","value":0}],"polyline":[{"x":0,"y":0},{"x":0,"y":-26}]},{"id":209,"x":-398,"y":-386,"visible":true,"properties":[{"name":"layer","type":"int","value":1},{"name":"group","type":"int","value":14},{"name":"id","type":"int","value":49},{"name":"fh_layer","type":"int","value":1},{"name":"fh_group","type":"int","value":14},{"name":"fh_id","type":"int","value":49},{"name":"x1","type":"int","value":-398},{"name":"x2","type":"int","value":-322},{"name":"y1","type":"int","value":-386},{"name":"y2","type":"int","value":-386},{"name":"next","type":"int","value":50},{"name":"prev","type":"int","value":48}],"polyline":[{"x":0,"y":0},{"x":76,"y":0}]},{"id":210,"x":-322,"y":-386,"visible":true,"properties":[{"name":"layer","type":"int","value":1},{"name":"group","type":"int","value":14},{"name":"id","type":"int","value":50},{"name":"fh_layer","type":"int","value":1},{"name":"fh_group","type":"int","value":14},{"name":"fh_id","type":"int","value":50},{"name":"x1","type":"int","value":-322},{"name":"x2","type":"int","value":-322},{"name":"y1","type":"int","value":-386},{"name":"y2","type":"int","value":-360},{"name":"next","type":"int","value":0},{"name":"prev","type":"int","value":49}],"polyline":[{"x":0,"y":0},{"x":0,"y":26}]},{"id":211,"x":-308,"y":-420,"visible":true,"properties":[{"name":"layer","type":"int","value":1},{"name":"group","type":"int","value":15},{"name":"id","type":"int","value":45},{"name":"fh_layer","type":"int","value":1},{"name":"fh_group","type":"int","value":15},{"name":"fh_id","type":"int","value":45},{"name":"x1","type":"int","value":-308},{"name":"x2","type":"int","value":-308},{"name":"y1","type":"int","value":-420},{"name":"y2","type":"int","value":-446},{"name":"next","type":"int","value":46},{"name":"prev","type":"int","value":0}],"polyline":[{"x":0,"y":0},{"x":0,"y":-26}]},{"id":212,"x":-308,"y":-446,"visible":true,"properties":[{"name":"layer","type":"int","value":1},{"name":"group","type":"int","value":15},{"name":"id","type":"int","value":46},{"name":"fh_layer","type":"int","value":1},{"name":"fh_group","type":"int","value":15},{"name":"fh_id","type":"int","value":46},{"name":"x1","type":"int","value":-308},{"name":"x2","type":"int","value":-232},{"name":"y1","type":"int","value":-446},{"name":"y2","type":"int","value":-446},{"name":"next","type":"int","value":47},{"name":"prev","type":"int","value":45}],"polyline":[{"x":0,"y":0},{"x":76,"y":0}]},{"id":213,"x":-232,"y":-446,"visible":true,"properties":[{"name":"layer","type":"int","value":1},{"name":"group","type":"int","value":15},{"name":"id","type":"int","value":47},{"name":"fh_layer","type":"int","value":1},{"name":"fh_group","type":"int","value":15},{"name":"fh_id","type":"int","value":47},{"name":"x1","type":"int","value":-232},{"name":"x2","type":"int","value":-232},{"name":"y1","type":"int","value":-446},{"name":"y2","type":"int","value":-420},{"name":"next","type":"int","value":0},{"name":"prev","type":"int","value":46}],"polyline":[{"x":0,"y":0},{"x":0,"y":26}]}]},{"id":12,"name":"ladderRope","type":"objectgroup","visible":true,"opacity":1,"objects":[{"id":214,"x":77,"y":49,"visible":true,"properties":[{"name":"ladder_id","type":"int","value":1},{"name":"l","type":"int","value":1},{"name":"x","type":"int","value":77},{"name":"uf","type":"int","value":1},{"name":"y1","type":"int","value":49},{"name":"y2","type":"int","value":244},{"name":"page","type":"int","value":1}],"polyline":[{"x":0,"y":0},{"x":0,"y":195}]}]},{"id":13,"name":"miniMap","type":"objectgroup","visible":true,"opacity":1,"objects":[{"id":215,"x":526,"y":706,"visible":true,"properties":[{"name":"mag","type":"int","value":4},{"name":"centerX","type":"int","value":526},{"name":"centerY","type":"int","value":706},{"name":"canvas_path","type":"string","value":"../../images/30585.png"},{"name":"canvas_width","type":"int","value":60},{"name":"canvas_height","type":"int","value":78},{"name":"canvas_origin_x","type":"int","value":0},{"name":"canvas_origin_y","type":"int","value":0}],"point":true}]}],"tilesets":[{"firstgid":1,"source":"../../tilesets/bg_grassySoil.tsj"},{"firstgid":8,"source":"../../tilesets/tile_woodMarble.tsj"},{"firstgid":33,"source":"../../tilesets/obj_connect_ladder_1.tsj"},{"firstgid":34,"source":"../../tilesets/obj_prop_grassySoil_fur.tsj"},{"firstgid":37,"source":"../../tilesets/obj_prop_grassySoil_win.tsj"},{"firstgid":39,"source":"../../tilesets/obj_acc1_darkWood_nature.tsj"},{"firstgid":70,"source":"../../tilesets/obj_prop_grassySoil_door.tsj"},{"firstgid":71,"source":"../../tilesets/obj_prop_grassySoil_lamp.tsj"},{"firstgid":72,"source":"../../tilesets/obj_insideGS_house1_basic.tsj"},{"firstgid":77,"source":"../../tilesets/obj_acc1_grassySoil_nature.tsj"},{"firstgid":105,"source":"../../tilesets/obj_acc1_grassySoil_artificiality.tsj"}],"properties":[{"name":"bgm","type":"string","value":"Bgm00/RestNPeace"},{"name":"swim","type":"int","value":0},{"name":"town","type":"int","value":0},{"name":"cloud","type":"int","value":0},{"name":"mapDesc","type":"string","value":""},{"name":"mapMark","type":"string","value":"Event"},{"name":"mobRate","type":"float","value":1},{"name":"version","type":"int","value":10},{"name":"returnMap","type":"int","value":109050001},{"name":"fieldLimit","type":"int","value":336510},{"name":"hideMinimap","type":"int","value":0},{"name":"forcedReturn","type":"int","value":109050001}]}