{"type":"map","orientation":"orthogonal","renderorder":"right-down","infinite":false,"tilewidth":1,"tileheight":1,"width":844,"height":773,"nextlayerid":43,"nextobjectid":28,"layers":[{"id":1,"name":"layer_1_obj","type":"objectgroup","visible":true,"opacity":1,"objects":[{"id":1,"x":72,"y":91,"visible":true,"properties":[{"name":"layer","type":"int","value":1},{"name":"resource_index","type":"int","value":0},{"name":"oS","type":"string","value":"acc11"},{"name":"l0","type":"string","value":"erebTW"},{"name":"l1","type":"string","value":"ship"},{"name":"l2","type":"string","value":"2"},{"name":"z","type":"int","value":9},{"name":"zM","type":"int","value":0},{"name":"f","type":"int","value":0}],"gid":61,"width":433,"height":326}]},{"id":2,"name":"layer_5_obj","type":"objectgroup","visible":true,"opacity":1,"objects":[{"id":2,"x":-412,"y":360,"visible":true,"properties":[{"name":"layer","type":"int","value":5},{"name":"resource_index","type":"int","value":0},{"name":"oS","type":"string","value":"acc2"},{"name":"l0","type":"string","value":"shineWood"},{"name":"l1","type":"string","value":"station"},{"name":"l2","type":"string","value":"4"},{"name":"z","type":"int","value":9},{"name":"zM","type":"int","value":0},{"name":"f","type":"int","value":0}],"gid":83,"width":458,"height":283},{"id":3,"x":46,"y":231,"visible":true,"properties":[{"name":"layer","type":"int","value":5},{"name":"resource_index","type":"int","value":1},{"name":"oS","type":"string","value":"acc2"},{"name":"l0","type":"string","value":"shineWood"},{"name":"l1","type":"string","value":"station"},{"name":"l2","type":"string","value":"5"},{"name":"z","type":"int","value":9},{"name":"zM","type":"int","value":1},{"name":"f","type":"int","value":0}],"gid":84,"width":417,"height":157},{"id":4,"x":-387,"y":101,"visible":true,"properties":[{"name":"layer","type":"int","value":5},{"name":"resource_index","type":"int","value":2},{"name":"oS","type":"string","value":"acc11"},{"name":"l0","type":"string","value":"erebTW"},{"name":"l1","type":"string","value":"ship"},{"name":"l2","type":"string","value":"0"},{"name":"z","type":"int","value":9},{"name":"zM","type":"int","value":0},{"name":"f","type":"int","value":0}],"gid":60,"width":277,"height":399}]},{"id":3,"name":"background_back_0","type":"imagelayer","visible":true,"opacity":1,"image":"../../images/29708.png","imagewidth":135,"imageheight":135,"offsetx":-67,"offsety":-67,"repeatx":true,"repeaty":true,"parallaxx":1,"parallaxy":1,"properties":[{"name":"a","type":"int","value":255},{"name":"f","type":"int","value":0},{"name":"x","type":"int","value":0},{"name":"y","type":"int","value":0},{"name":"bS","type":"string","value":"shineWood3"},{"name":"cx","type":"int","value":0},{"name":"cy","type":"int","value":0},{"name":"no","type":"int","value":0},{"name":"rx","type":"int","value":0},{"name":"ry","type":"int","value":0},{"name":"ani","type":"int","value":0},{"name":"type","type":"int","value":3},{"name":"front","type":"int","value":0}]},{"id":4,"name":"background_back_1","type":"imagelayer","visible":true,"opacity":1,"image":"../../images/29790.png","imagewidth":397,"imageheight":182,"offsetx":-153,"offsety":46,"repeatx":true,"repeaty":false,"parallaxx":1,"parallaxy":1,"properties":[{"name":"a","type":"int","value":255},{"name":"f","type":"int","value":0},{"name":"x","type":"int","value":45},{"name":"y","type":"int","value":137},{"name":"bS","type":"string","value":"portTown"},{"name":"cx","type":"int","value":600},{"name":"cy","type":"int","value":0},{"name":"no","type":"int","value":2},{"name":"rx","type":"int","value":-2},{"name":"ry","type":"int","value":-15},{"name":"ani","type":"int","value":0},{"name":"type","type":"int","value":4},{"name":"front","type":"int","value":0}]},{"id":5,"name":"background_back_2","type":"imagelayer","visible":true,"opacity":1,"image":"../../images/29790.png","imagewidth":397,"imageheight":182,"offsetx":-13,"offsety":-17,"repeatx":true,"repeaty":false,"parallaxx":1,"parallaxy":1,"properties":[{"name":"a","type":"int","value":255},{"name":"f","type":"int","value":0},{"name":"x","type":"int","value":185},{"name":"y","type":"int","value":74},{"name":"bS","type":"string","value":"portTown"},{"name":"cx","type":"int","value":700},{"name":"cy","type":"int","value":0},{"name":"no","type":"int","value":2},{"name":"rx","type":"int","value":-3},{"name":"ry","type":"int","value":-15},{"name":"ani","type":"int","value":0},{"name":"type","type":"int","value":4},{"name":"front","type":"int","value":0}]},{"id":6,"name":"background_back_3","type":"imagelayer","visible":true,"opacity":1,"image":"../../images/29791.png","imagewidth":281,"imageheight":102,"offsetx":99,"offsety":-252,"repeatx":true,"repeaty":false,"parallaxx":1,"parallaxy":1,"properties":[{"name":"a","type":"int","value":255},{"name":"f","type":"int","value":0},{"name":"x","type":"int","value":239},{"name":"y","type":"int","value":-201},{"name":"bS","type":"string","value":"portTown"},{"name":"cx","type":"int","value":750},{"name":"cy","type":"int","value":0},{"name":"no","type":"int","value":3},{"name":"rx","type":"int","value":-3},{"name":"ry","type":"int","value":-15},{"name":"ani","type":"int","value":0},{"name":"type","type":"int","value":4},{"name":"front","type":"int","value":0}]},{"id":7,"name":"background_back_4","type":"imagelayer","visible":true,"opacity":1,"image":"../../images/29459.png","imagewidth":473,"imageheight":205,"offsetx":-622,"offsety":-53,"repeatx":true,"repeaty":false,"parallaxx":1,"parallaxy":1,"properties":[{"name":"a","type":"int","value":255},{"name":"f","type":"int","value":0},{"name":"x","type":"int","value":-381},{"name":"y","type":"int","value":95},{"name":"bS","type":"string","value":"login"},{"name":"cx","type":"int","value":900},{"name":"cy","type":"int","value":0},{"name":"no","type":"int","value":5},{"name":"rx","type":"int","value":-4},{"name":"ry","type":"int","value":-17},{"name":"ani","type":"int","value":0},{"name":"type","type":"int","value":4},{"name":"front","type":"int","value":0}]},{"id":8,"name":"background_back_5","type":"imagelayer","visible":true,"opacity":1,"image":"../../images/29794.png","imagewidth":649,"imageheight":293,"offsetx":-290,"offsety":-61,"repeatx":true,"repeaty":false,"parallaxx":1,"parallaxy":1,"properties":[{"name":"a","type":"int","value":255},{"name":"f","type":"int","value":0},{"name":"x","type":"int","value":34},{"name":"y","type":"int","value":85},{"name":"bS","type":"string","value":"portTown"},{"name":"cx","type":"int","value":500},{"name":"cy","type":"int","value":0},{"name":"no","type":"int","value":6},{"name":"rx","type":"int","value":-5},{"name":"ry","type":"int","value":-19},{"name":"ani","type":"int","value":0},{"name":"type","type":"int","value":4},{"name":"front","type":"int","value":0}]},{"id":9,"name":"background_back_6","type":"imagelayer","visible":true,"opacity":1,"image":"../../images/29794.png","imagewidth":649,"imageheight":293,"offsetx":-172,"offsety":-12,"repeatx":true,"repeaty":false,"parallaxx":1,"parallaxy":1,"properties":[{"name":"a","type":"int","value":255},{"name":"f","type":"int","value":0},{"name":"x","type":"int","value":152},{"name":"y","type":"int","value":134},{"name":"bS","type":"string","value":"portTown"},{"name":"cx","type":"int","value":750},{"name":"cy","type":"int","value":0},{"name":"no","type":"int","value":6},{"name":"rx","type":"int","value":-6},{"name":"ry","type":"int","value":-20},{"name":"ani","type":"int","value":0},{"name":"type","type":"int","value":4},{"name":"front","type":"int","value":0}]},{"id":10,"name":"background_back_7","type":"imagelayer","visible":true,"opacity":1,"image":"../../images/29793.png","imagewidth":358,"imageheight":275,"offsetx":-54,"offsety":-353,"repeatx":true,"repeaty":false,"parallaxx":1,"parallaxy":1,"properties":[{"name":"a","type":"int","value":255},{"name":"f","type":"int","value":0},{"name":"x","type":"int","value":125},{"name":"y","type":"int","value":-216},{"name":"bS","type":"string","value":"portTown"},{"name":"cx","type":"int","value":1200},{"name":"cy","type":"int","value":0},{"name":"no","type":"int","value":5},{"name":"rx","type":"int","value":-5},{"name":"ry","type":"int","value":-20},{"name":"ani","type":"int","value":0},{"name":"type","type":"int","value":4},{"name":"front","type":"int","value":0}]},{"id":11,"name":"background_back_8","type":"imagelayer","visible":true,"opacity":1,"image":"../../images/29792.png","imagewidth":291,"imageheight":165,"offsetx":197,"offsety":-122,"repeatx":true,"repeaty":false,"parallaxx":1,"parallaxy":1,"properties":[{"name":"a","type":"int","value":255},{"name":"f","type":"int","value":0},{"name":"x","type":"int","value":342},{"name":"y","type":"int","value":-40},{"name":"bS","type":"string","value":"portTown"},{"name":"cx","type":"int","value":1000},{"name":"cy","type":"int","value":0},{"name":"no","type":"int","value":4},{"name":"rx","type":"int","value":-6},{"name":"ry","type":"int","value":-20},{"name":"ani","type":"int","value":0},{"name":"type","type":"int","value":4},{"name":"front","type":"int","value":0}]},{"id":12,"name":"background_back_9","type":"imagelayer","visible":true,"opacity":1,"image":"../../images/29488.png","imagewidth":10,"imageheight":7,"offsetx":-302,"offsety":-208,"repeatx":true,"repeaty":false,"parallaxx":1,"parallaxy":1,"properties":[{"name":"a","type":"int","value":255},{"name":"f","type":"int","value":0},{"name":"x","type":"int","value":-298},{"name":"y","type":"int","value":-211},{"name":"bS","type":"string","value":"login"},{"name":"cx","type":"int","value":1400},{"name":"cy","type":"int","value":0},{"name":"no","type":"int","value":0},{"name":"rx","type":"int","value":12},{"name":"ry","type":"int","value":-80},{"name":"ani","type":"int","value":1},{"name":"type","type":"int","value":4},{"name":"front","type":"int","value":0}]},{"id":13,"name":"background_back_10","type":"imagelayer","visible":true,"opacity":1,"image":"../../images/29491.png","imagewidth":10,"imageheight":7,"offsetx":-319,"offsety":-196,"repeatx":true,"repeaty":false,"parallaxx":1,"parallaxy":1,"properties":[{"name":"a","type":"int","value":255},{"name":"f","type":"int","value":0},{"name":"x","type":"int","value":-315},{"name":"y","type":"int","value":-199},{"name":"bS","type":"string","value":"login"},{"name":"cx","type":"int","value":1400},{"name":"cy","type":"int","value":0},{"name":"no","type":"int","value":1},{"name":"rx","type":"int","value":12},{"name":"ry","type":"int","value":-80},{"name":"ani","type":"int","value":1},{"name":"type","type":"int","value":4},{"name":"front","type":"int","value":0}]},{"id":14,"name":"background_back_11","type":"imagelayer","visible":true,"opacity":1,"image":"../../images/29494.png","imagewidth":12,"imageheight":9,"offsetx":-338,"offsety":-207,"repeatx":true,"repeaty":false,"parallaxx":1,"parallaxy":1,"properties":[{"name":"a","type":"int","value":255},{"name":"f","type":"int","value":0},{"name":"x","type":"int","value":-333},{"name":"y","type":"int","value":-210},{"name":"bS","type":"string","value":"login"},{"name":"cx","type":"int","value":1400},{"name":"cy","type":"int","value":0},{"name":"no","type":"int","value":2},{"name":"rx","type":"int","value":12},{"name":"ry","type":"int","value":-80},{"name":"ani","type":"int","value":1},{"name":"type","type":"int","value":4},{"name":"front","type":"int","value":0}]},{"id":15,"name":"background_back_12","type":"imagelayer","visible":true,"opacity":1,"image":"../../images/29491.png","imagewidth":10,"imageheight":7,"offsetx":-352,"offsety":-215,"repeatx":true,"repeaty":false,"parallaxx":1,"parallaxy":1,"properties":[{"name":"a","type":"int","value":255},{"name":"f","type":"int","value":0},{"name":"x","type":"int","value":-348},{"name":"y","type":"int","value":-218},{"name":"bS","type":"string","value":"login"},{"name":"cx","type":"int","value":1400},{"name":"cy","type":"int","value":0},{"name":"no","type":"int","value":1},{"name":"rx","type":"int","value":12},{"name":"ry","type":"int","value":-80},{"name":"ani","type":"int","value":1},{"name":"type","type":"int","value":4},{"name":"front","type":"int","value":0}]},{"id":16,"name":"background_back_13","type":"imagelayer","visible":true,"opacity":1,"image":"../../images/29488.png","imagewidth":10,"imageheight":7,"offsetx":-341,"offsety":-188,"repeatx":true,"repeaty":false,"parallaxx":1,"parallaxy":1,"properties":[{"name":"a","type":"int","value":255},{"name":"f","type":"int","value":0},{"name":"x","type":"int","value":-337},{"name":"y","type":"int","value":-191},{"name":"bS","type":"string","value":"login"},{"name":"cx","type":"int","value":1400},{"name":"cy","type":"int","value":0},{"name":"no","type":"int","value":0},{"name":"rx","type":"int","value":12},{"name":"ry","type":"int","value":-80},{"name":"ani","type":"int","value":1},{"name":"type","type":"int","value":4},{"name":"front","type":"int","value":0}]},{"id":17,"name":"background_back_14","type":"imagelayer","visible":true,"opacity":1,"image":"../../images/29494.png","imagewidth":12,"imageheight":9,"offsetx":-372,"offsety":-202,"repeatx":true,"repeaty":false,"parallaxx":1,"parallaxy":1,"properties":[{"name":"a","type":"int","value":255},{"name":"f","type":"int","value":0},{"name":"x","type":"int","value":-367},{"name":"y","type":"int","value":-205},{"name":"bS","type":"string","value":"login"},{"name":"cx","type":"int","value":1400},{"name":"cy","type":"int","value":0},{"name":"no","type":"int","value":2},{"name":"rx","type":"int","value":12},{"name":"ry","type":"int","value":-80},{"name":"ani","type":"int","value":1},{"name":"type","type":"int","value":4},{"name":"front","type":"int","value":0}]},{"id":18,"name":"background_back_15","type":"imagelayer","visible":true,"opacity":1,"image":"../../images/29491.png","imagewidth":10,"imageheight":7,"offsetx":-392,"offsety":-190,"repeatx":true,"repeaty":false,"parallaxx":1,"parallaxy":1,"properties":[{"name":"a","type":"int","value":255},{"name":"f","type":"int","value":0},{"name":"x","type":"int","value":-388},{"name":"y","type":"int","value":-193},{"name":"bS","type":"string","value":"login"},{"name":"cx","type":"int","value":1400},{"name":"cy","type":"int","value":0},{"name":"no","type":"int","value":1},{"name":"rx","type":"int","value":12},{"name":"ry","type":"int","value":-80},{"name":"ani","type":"int","value":1},{"name":"type","type":"int","value":4},{"name":"front","type":"int","value":0}]},{"id":19,"name":"background_back_16","type":"imagelayer","visible":true,"opacity":1,"image":"../../images/29491.png","imagewidth":10,"imageheight":7,"offsetx":-407,"offsety":-203,"repeatx":true,"repeaty":false,"parallaxx":1,"parallaxy":1,"properties":[{"name":"a","type":"int","value":255},{"name":"f","type":"int","value":0},{"name":"x","type":"int","value":-403},{"name":"y","type":"int","value":-206},{"name":"bS","type":"string","value":"login"},{"name":"cx","type":"int","value":1400},{"name":"cy","type":"int","value":0},{"name":"no","type":"int","value":1},{"name":"rx","type":"int","value":12},{"name":"ry","type":"int","value":-80},{"name":"ani","type":"int","value":1},{"name":"type","type":"int","value":4},{"name":"front","type":"int","value":0}]},{"id":20,"name":"background_back_17","type":"imagelayer","visible":true,"opacity":1,"image":"../../images/29488.png","imagewidth":10,"imageheight":7,"offsetx":-383,"offsety":-209,"repeatx":true,"repeaty":false,"parallaxx":1,"parallaxy":1,"properties":[{"name":"a","type":"int","value":255},{"name":"f","type":"int","value":0},{"name":"x","type":"int","value":-379},{"name":"y","type":"int","value":-212},{"name":"bS","type":"string","value":"login"},{"name":"cx","type":"int","value":1400},{"name":"cy","type":"int","value":0},{"name":"no","type":"int","value":0},{"name":"rx","type":"int","value":12},{"name":"ry","type":"int","value":-80},{"name":"ani","type":"int","value":1},{"name":"type","type":"int","value":4},{"name":"front","type":"int","value":0}]},{"id":21,"name":"background_back_18","type":"imagelayer","visible":true,"opacity":1,"image":"../../images/29709.png","imagewidth":492,"imageheight":600,"offsetx":-329,"offsety":-328,"repeatx":false,"repeaty":true,"parallaxx":1,"parallaxy":1,"properties":[{"name":"a","type":"int","value":255},{"name":"f","type":"int","value":0},{"name":"x","type":"int","value":-83},{"name":"y","type":"int","value":-28},{"name":"bS","type":"string","value":"shineWood3"},{"name":"cx","type":"int","value":1400},{"name":"cy","type":"int","value":0},{"name":"no","type":"int","value":1},{"name":"rx","type":"int","value":-75},{"name":"ry","type":"int","value":-30},{"name":"ani","type":"int","value":0},{"name":"type","type":"int","value":2},{"name":"front","type":"int","value":0}]},{"id":22,"name":"background_back_19","type":"imagelayer","visible":true,"opacity":1,"image":"../../images/27996.png","imagewidth":301,"imageheight":602,"offsetx":-317,"offsety":-249,"repeatx":false,"repeaty":true,"parallaxx":1,"parallaxy":1,"properties":[{"name":"a","type":"int","value":255},{"name":"f","type":"int","value":0},{"name":"x","type":"int","value":-167},{"name":"y","type":"int","value":52},{"name":"bS","type":"string","value":"shineWood"},{"name":"cx","type":"int","value":1400},{"name":"cy","type":"int","value":0},{"name":"no","type":"int","value":8},{"name":"rx","type":"int","value":-80},{"name":"ry","type":"int","value":-40},{"name":"ani","type":"int","value":0},{"name":"type","type":"int","value":2},{"name":"front","type":"int","value":0}]},{"id":23,"name":"background_back_20","type":"imagelayer","visible":true,"opacity":1,"image":"../../images/29710.png","imagewidth":248,"imageheight":224,"offsetx":-165,"offsety":-469,"repeatx":false,"repeaty":false,"parallaxx":1,"parallaxy":1,"properties":[{"name":"a","type":"int","value":255},{"name":"f","type":"int","value":0},{"name":"x","type":"int","value":-41},{"name":"y","type":"int","value":-335},{"name":"bS","type":"string","value":"shineWood3"},{"name":"cx","type":"int","value":0},{"name":"cy","type":"int","value":0},{"name":"no","type":"int","value":0},{"name":"rx","type":"int","value":-85},{"name":"ry","type":"int","value":-45},{"name":"ani","type":"int","value":1},{"name":"type","type":"int","value":0},{"name":"front","type":"int","value":0}]},{"id":24,"name":"background_back_21","type":"imagelayer","visible":true,"opacity":1,"image":"../../images/29712.png","imagewidth":275,"imageheight":260,"offsetx":-60,"offsety":-245,"repeatx":false,"repeaty":false,"parallaxx":1,"parallaxy":1,"properties":[{"name":"a","type":"int","value":255},{"name":"f","type":"int","value":0},{"name":"x","type":"int","value":77},{"name":"y","type":"int","value":-115},{"name":"bS","type":"string","value":"shineWood3"},{"name":"cx","type":"int","value":0},{"name":"cy","type":"int","value":0},{"name":"no","type":"int","value":1},{"name":"rx","type":"int","value":-85},{"name":"ry","type":"int","value":-45},{"name":"ani","type":"int","value":1},{"name":"type","type":"int","value":0},{"name":"front","type":"int","value":0}]},{"id":25,"name":"background_back_22","type":"imagelayer","visible":true,"opacity":1,"image":"../../images/29714.png","imagewidth":248,"imageheight":268,"offsetx":66,"offsety":15,"repeatx":false,"repeaty":false,"parallaxx":1,"parallaxy":1,"properties":[{"name":"a","type":"int","value":255},{"name":"f","type":"int","value":0},{"name":"x","type":"int","value":190},{"name":"y","type":"int","value":149},{"name":"bS","type":"string","value":"shineWood3"},{"name":"cx","type":"int","value":0},{"name":"cy","type":"int","value":0},{"name":"no","type":"int","value":2},{"name":"rx","type":"int","value":-85},{"name":"ry","type":"int","value":-45},{"name":"ani","type":"int","value":1},{"name":"type","type":"int","value":0},{"name":"front","type":"int","value":0}]},{"id":26,"name":"background_back_23","type":"imagelayer","visible":true,"opacity":1,"image":"../../images/29716.png","imagewidth":152,"imageheight":193,"offsetx":-6,"offsety":-411,"repeatx":false,"repeaty":false,"parallaxx":1,"parallaxy":1,"properties":[{"name":"a","type":"int","value":255},{"name":"f","type":"int","value":0},{"name":"x","type":"int","value":70},{"name":"y","type":"int","value":-315},{"name":"bS","type":"string","value":"shineWood3"},{"name":"cx","type":"int","value":0},{"name":"cy","type":"int","value":0},{"name":"no","type":"int","value":3},{"name":"rx","type":"int","value":-85},{"name":"ry","type":"int","value":-45},{"name":"ani","type":"int","value":1},{"name":"type","type":"int","value":0},{"name":"front","type":"int","value":0}]},{"id":27,"name":"background_back_24","type":"imagelayer","visible":true,"opacity":1,"image":"../../images/29718.png","imagewidth":176,"imageheight":236,"offsetx":91,"offsety":-218,"repeatx":false,"repeaty":false,"parallaxx":1,"parallaxy":1,"properties":[{"name":"a","type":"int","value":255},{"name":"f","type":"int","value":0},{"name":"x","type":"int","value":179},{"name":"y","type":"int","value":-100},{"name":"bS","type":"string","value":"shineWood3"},{"name":"cx","type":"int","value":0},{"name":"cy","type":"int","value":0},{"name":"no","type":"int","value":4},{"name":"rx","type":"int","value":-85},{"name":"ry","type":"int","value":-45},{"name":"ani","type":"int","value":1},{"name":"type","type":"int","value":0},{"name":"front","type":"int","value":0}]},{"id":28,"name":"background_back_25","type":"imagelayer","visible":true,"opacity":1,"image":"../../images/29720.png","imagewidth":128,"imageheight":179,"offsetx":214,"offsety":18,"repeatx":false,"repeaty":false,"parallaxx":1,"parallaxy":1,"properties":[{"name":"a","type":"int","value":255},{"name":"f","type":"int","value":0},{"name":"x","type":"int","value":278},{"name":"y","type":"int","value":107},{"name":"bS","type":"string","value":"shineWood3"},{"name":"cx","type":"int","value":0},{"name":"cy","type":"int","value":0},{"name":"no","type":"int","value":5},{"name":"rx","type":"int","value":-85},{"name":"ry","type":"int","value":-45},{"name":"ani","type":"int","value":1},{"name":"type","type":"int","value":0},{"name":"front","type":"int","value":0}]},{"id":29,"name":"background_back_26","type":"imagelayer","visible":true,"opacity":1,"image":"../../images/29722.png","imagewidth":239,"imageheight":239,"offsetx":-268,"offsety":-419,"repeatx":false,"repeaty":false,"parallaxx":1,"parallaxy":1,"properties":[{"name":"a","type":"int","value":255},{"name":"f","type":"int","value":0},{"name":"x","type":"int","value":-149},{"name":"y","type":"int","value":-300},{"name":"bS","type":"string","value":"shineWood3"},{"name":"cx","type":"int","value":0},{"name":"cy","type":"int","value":0},{"name":"no","type":"int","value":6},{"name":"rx","type":"int","value":-88},{"name":"ry","type":"int","value":-48},{"name":"ani","type":"int","value":1},{"name":"type","type":"int","value":0},{"name":"front","type":"int","value":0}]},{"id":30,"name":"background_back_27","type":"imagelayer","visible":true,"opacity":1,"image":"../../images/29724.png","imagewidth":257,"imageheight":255,"offsetx":-160,"offsety":-180,"repeatx":false,"repeaty":false,"parallaxx":1,"parallaxy":1,"properties":[{"name":"a","type":"int","value":255},{"name":"f","type":"int","value":0},{"name":"x","type":"int","value":-32},{"name":"y","type":"int","value":-53},{"name":"bS","type":"string","value":"shineWood3"},{"name":"cx","type":"int","value":0},{"name":"cy","type":"int","value":0},{"name":"no","type":"int","value":7},{"name":"rx","type":"int","value":-88},{"name":"ry","type":"int","value":-48},{"name":"ani","type":"int","value":1},{"name":"type","type":"int","value":0},{"name":"front","type":"int","value":0}]},{"id":31,"name":"background_back_28","type":"imagelayer","visible":true,"opacity":1,"image":"../../images/29726.png","imagewidth":222,"imageheight":237,"offsetx":-45,"offsety":75,"repeatx":false,"repeaty":false,"parallaxx":1,"parallaxy":1,"properties":[{"name":"a","type":"int","value":255},{"name":"f","type":"int","value":0},{"name":"x","type":"int","value":66},{"name":"y","type":"int","value":193},{"name":"bS","type":"string","value":"shineWood3"},{"name":"cx","type":"int","value":0},{"name":"cy","type":"int","value":0},{"name":"no","type":"int","value":8},{"name":"rx","type":"int","value":-88},{"name":"ry","type":"int","value":-48},{"name":"ani","type":"int","value":1},{"name":"type","type":"int","value":0},{"name":"front","type":"int","value":0}]},{"id":32,"name":"background_back_29","type":"imagelayer","visible":true,"opacity":1,"image":"../../images/28009.png","imagewidth":276,"imageheight":400,"offsetx":-460,"offsety":-433,"repeatx":false,"repeaty":true,"parallaxx":1,"parallaxy":1,"properties":[{"name":"a","type":"int","value":255},{"name":"f","type":"int","value":0},{"name":"x","type":"int","value":-322},{"name":"y","type":"int","value":-33},{"name":"bS","type":"string","value":"shineWood"},{"name":"cx","type":"int","value":0},{"name":"cy","type":"int","value":0},{"name":"no","type":"int","value":21},{"name":"rx","type":"int","value":-100},{"name":"ry","type":"int","value":-100},{"name":"ani","type":"int","value":0},{"name":"type","type":"int","value":2},{"name":"front","type":"int","value":0}]},{"id":39,"name":"background_back","type":"objectgroup","visible":true,"opacity":1,"objects":[{"id":5,"x":45,"y":137,"visible":true,"properties":[{"name":"image_layer_name","type":"string","value":"background_back_1"},{"name":"a","type":"int","value":255},{"name":"f","type":"int","value":0},{"name":"x","type":"int","value":45},{"name":"y","type":"int","value":137},{"name":"bS","type":"string","value":"portTown"},{"name":"cx","type":"int","value":600},{"name":"cy","type":"int","value":0},{"name":"no","type":"int","value":2},{"name":"rx","type":"int","value":-2},{"name":"ry","type":"int","value":-15},{"name":"ani","type":"int","value":0},{"name":"type","type":"int","value":4},{"name":"front","type":"int","value":0}],"point":true},{"id":6,"x":185,"y":74,"visible":true,"properties":[{"name":"image_layer_name","type":"string","value":"background_back_2"},{"name":"a","type":"int","value":255},{"name":"f","type":"int","value":0},{"name":"x","type":"int","value":185},{"name":"y","type":"int","value":74},{"name":"bS","type":"string","value":"portTown"},{"name":"cx","type":"int","value":700},{"name":"cy","type":"int","value":0},{"name":"no","type":"int","value":2},{"name":"rx","type":"int","value":-3},{"name":"ry","type":"int","value":-15},{"name":"ani","type":"int","value":0},{"name":"type","type":"int","value":4},{"name":"front","type":"int","value":0}],"point":true},{"id":7,"x":239,"y":-201,"visible":true,"properties":[{"name":"image_layer_name","type":"string","value":"background_back_3"},{"name":"a","type":"int","value":255},{"name":"f","type":"int","value":0},{"name":"x","type":"int","value":239},{"name":"y","type":"int","value":-201},{"name":"bS","type":"string","value":"portTown"},{"name":"cx","type":"int","value":750},{"name":"cy","type":"int","value":0},{"name":"no","type":"int","value":3},{"name":"rx","type":"int","value":-3},{"name":"ry","type":"int","value":-15},{"name":"ani","type":"int","value":0},{"name":"type","type":"int","value":4},{"name":"front","type":"int","value":0}],"point":true},{"id":8,"x":-381,"y":95,"visible":true,"properties":[{"name":"image_layer_name","type":"string","value":"background_back_4"},{"name":"a","type":"int","value":255},{"name":"f","type":"int","value":0},{"name":"x","type":"int","value":-381},{"name":"y","type":"int","value":95},{"name":"bS","type":"string","value":"login"},{"name":"cx","type":"int","value":900},{"name":"cy","type":"int","value":0},{"name":"no","type":"int","value":5},{"name":"rx","type":"int","value":-4},{"name":"ry","type":"int","value":-17},{"name":"ani","type":"int","value":0},{"name":"type","type":"int","value":4},{"name":"front","type":"int","value":0}],"point":true},{"id":9,"x":34,"y":85,"visible":true,"properties":[{"name":"image_layer_name","type":"string","value":"background_back_5"},{"name":"a","type":"int","value":255},{"name":"f","type":"int","value":0},{"name":"x","type":"int","value":34},{"name":"y","type":"int","value":85},{"name":"bS","type":"string","value":"portTown"},{"name":"cx","type":"int","value":500},{"name":"cy","type":"int","value":0},{"name":"no","type":"int","value":6},{"name":"rx","type":"int","value":-5},{"name":"ry","type":"int","value":-19},{"name":"ani","type":"int","value":0},{"name":"type","type":"int","value":4},{"name":"front","type":"int","value":0}],"point":true},{"id":10,"x":152,"y":134,"visible":true,"properties":[{"name":"image_layer_name","type":"string","value":"background_back_6"},{"name":"a","type":"int","value":255},{"name":"f","type":"int","value":0},{"name":"x","type":"int","value":152},{"name":"y","type":"int","value":134},{"name":"bS","type":"string","value":"portTown"},{"name":"cx","type":"int","value":750},{"name":"cy","type":"int","value":0},{"name":"no","type":"int","value":6},{"name":"rx","type":"int","value":-6},{"name":"ry","type":"int","value":-20},{"name":"ani","type":"int","value":0},{"name":"type","type":"int","value":4},{"name":"front","type":"int","value":0}],"point":true},{"id":11,"x":125,"y":-216,"visible":true,"properties":[{"name":"image_layer_name","type":"string","value":"background_back_7"},{"name":"a","type":"int","value":255},{"name":"f","type":"int","value":0},{"name":"x","type":"int","value":125},{"name":"y","type":"int","value":-216},{"name":"bS","type":"string","value":"portTown"},{"name":"cx","type":"int","value":1200},{"name":"cy","type":"int","value":0},{"name":"no","type":"int","value":5},{"name":"rx","type":"int","value":-5},{"name":"ry","type":"int","value":-20},{"name":"ani","type":"int","value":0},{"name":"type","type":"int","value":4},{"name":"front","type":"int","value":0}],"point":true},{"id":12,"x":342,"y":-40,"visible":true,"properties":[{"name":"image_layer_name","type":"string","value":"background_back_8"},{"name":"a","type":"int","value":255},{"name":"f","type":"int","value":0},{"name":"x","type":"int","value":342},{"name":"y","type":"int","value":-40},{"name":"bS","type":"string","value":"portTown"},{"name":"cx","type":"int","value":1000},{"name":"cy","type":"int","value":0},{"name":"no","type":"int","value":4},{"name":"rx","type":"int","value":-6},{"name":"ry","type":"int","value":-20},{"name":"ani","type":"int","value":0},{"name":"type","type":"int","value":4},{"name":"front","type":"int","value":0}],"point":true},{"id":13,"x":-298,"y":-211,"visible":true,"properties":[{"name":"image_layer_name","type":"string","value":"background_back_9"},{"name":"a","type":"int","value":255},{"name":"f","type":"int","value":0},{"name":"x","type":"int","value":-298},{"name":"y","type":"int","value":-211},{"name":"bS","type":"string","value":"login"},{"name":"cx","type":"int","value":1400},{"name":"cy","type":"int","value":0},{"name":"no","type":"int","value":0},{"name":"rx","type":"int","value":12},{"name":"ry","type":"int","value":-80},{"name":"ani","type":"int","value":1},{"name":"type","type":"int","value":4},{"name":"front","type":"int","value":0}],"point":true},{"id":14,"x":-315,"y":-199,"visible":true,"properties":[{"name":"image_layer_name","type":"string","value":"background_back_10"},{"name":"a","type":"int","value":255},{"name":"f","type":"int","value":0},{"name":"x","type":"int","value":-315},{"name":"y","type":"int","value":-199},{"name":"bS","type":"string","value":"login"},{"name":"cx","type":"int","value":1400},{"name":"cy","type":"int","value":0},{"name":"no","type":"int","value":1},{"name":"rx","type":"int","value":12},{"name":"ry","type":"int","value":-80},{"name":"ani","type":"int","value":1},{"name":"type","type":"int","value":4},{"name":"front","type":"int","value":0}],"point":true},{"id":15,"x":-333,"y":-210,"visible":true,"properties":[{"name":"image_layer_name","type":"string","value":"background_back_11"},{"name":"a","type":"int","value":255},{"name":"f","type":"int","value":0},{"name":"x","type":"int","value":-333},{"name":"y","type":"int","value":-210},{"name":"bS","type":"string","value":"login"},{"name":"cx","type":"int","value":1400},{"name":"cy","type":"int","value":0},{"name":"no","type":"int","value":2},{"name":"rx","type":"int","value":12},{"name":"ry","type":"int","value":-80},{"name":"ani","type":"int","value":1},{"name":"type","type":"int","value":4},{"name":"front","type":"int","value":0}],"point":true},{"id":16,"x":-348,"y":-218,"visible":true,"properties":[{"name":"image_layer_name","type":"string","value":"background_back_12"},{"name":"a","type":"int","value":255},{"name":"f","type":"int","value":0},{"name":"x","type":"int","value":-348},{"name":"y","type":"int","value":-218},{"name":"bS","type":"string","value":"login"},{"name":"cx","type":"int","value":1400},{"name":"cy","type":"int","value":0},{"name":"no","type":"int","value":1},{"name":"rx","type":"int","value":12},{"name":"ry","type":"int","value":-80},{"name":"ani","type":"int","value":1},{"name":"type","type":"int","value":4},{"name":"front","type":"int","value":0}],"point":true},{"id":17,"x":-337,"y":-191,"visible":true,"properties":[{"name":"image_layer_name","type":"string","value":"background_back_13"},{"name":"a","type":"int","value":255},{"name":"f","type":"int","value":0},{"name":"x","type":"int","value":-337},{"name":"y","type":"int","value":-191},{"name":"bS","type":"string","value":"login"},{"name":"cx","type":"int","value":1400},{"name":"cy","type":"int","value":0},{"name":"no","type":"int","value":0},{"name":"rx","type":"int","value":12},{"name":"ry","type":"int","value":-80},{"name":"ani","type":"int","value":1},{"name":"type","type":"int","value":4},{"name":"front","type":"int","value":0}],"point":true},{"id":18,"x":-367,"y":-205,"visible":true,"properties":[{"name":"image_layer_name","type":"string","value":"background_back_14"},{"name":"a","type":"int","value":255},{"name":"f","type":"int","value":0},{"name":"x","type":"int","value":-367},{"name":"y","type":"int","value":-205},{"name":"bS","type":"string","value":"login"},{"name":"cx","type":"int","value":1400},{"name":"cy","type":"int","value":0},{"name":"no","type":"int","value":2},{"name":"rx","type":"int","value":12},{"name":"ry","type":"int","value":-80},{"name":"ani","type":"int","value":1},{"name":"type","type":"int","value":4},{"name":"front","type":"int","value":0}],"point":true},{"id":19,"x":-388,"y":-193,"visible":true,"properties":[{"name":"image_layer_name","type":"string","value":"background_back_15"},{"name":"a","type":"int","value":255},{"name":"f","type":"int","value":0},{"name":"x","type":"int","value":-388},{"name":"y","type":"int","value":-193},{"name":"bS","type":"string","value":"login"},{"name":"cx","type":"int","value":1400},{"name":"cy","type":"int","value":0},{"name":"no","type":"int","value":1},{"name":"rx","type":"int","value":12},{"name":"ry","type":"int","value":-80},{"name":"ani","type":"int","value":1},{"name":"type","type":"int","value":4},{"name":"front","type":"int","value":0}],"point":true},{"id":20,"x":-403,"y":-206,"visible":true,"properties":[{"name":"image_layer_name","type":"string","value":"background_back_16"},{"name":"a","type":"int","value":255},{"name":"f","type":"int","value":0},{"name":"x","type":"int","value":-403},{"name":"y","type":"int","value":-206},{"name":"bS","type":"string","value":"login"},{"name":"cx","type":"int","value":1400},{"name":"cy","type":"int","value":0},{"name":"no","type":"int","value":1},{"name":"rx","type":"int","value":12},{"name":"ry","type":"int","value":-80},{"name":"ani","type":"int","value":1},{"name":"type","type":"int","value":4},{"name":"front","type":"int","value":0}],"point":true},{"id":21,"x":-379,"y":-212,"visible":true,"properties":[{"name":"image_layer_name","type":"string","value":"background_back_17"},{"name":"a","type":"int","value":255},{"name":"f","type":"int","value":0},{"name":"x","type":"int","value":-379},{"name":"y","type":"int","value":-212},{"name":"bS","type":"string","value":"login"},{"name":"cx","type":"int","value":1400},{"name":"cy","type":"int","value":0},{"name":"no","type":"int","value":0},{"name":"rx","type":"int","value":12},{"name":"ry","type":"int","value":-80},{"name":"ani","type":"int","value":1},{"name":"type","type":"int","value":4},{"name":"front","type":"int","value":0}],"point":true}]},{"id":33,"name":"background_front_30","type":"imagelayer","visible":true,"opacity":1,"image":"../../images/29728.png","imagewidth":283,"imageheight":258,"offsetx":-401,"offsety":-537,"repeatx":false,"repeaty":false,"parallaxx":1,"parallaxy":1,"properties":[{"name":"a","type":"int","value":255},{"name":"f","type":"int","value":0},{"name":"x","type":"int","value":-260},{"name":"y","type":"int","value":-408},{"name":"bS","type":"string","value":"shineWood3"},{"name":"cx","type":"int","value":0},{"name":"cy","type":"int","value":0},{"name":"no","type":"int","value":9},{"name":"rx","type":"int","value":-100},{"name":"ry","type":"int","value":-100},{"name":"ani","type":"int","value":1},{"name":"type","type":"int","value":0},{"name":"front","type":"int","value":1}]},{"id":34,"name":"background_front_31","type":"imagelayer","visible":true,"opacity":1,"image":"../../images/29731.png","imagewidth":293,"imageheight":251,"offsetx":-282,"offsety":-279,"repeatx":false,"repeaty":false,"parallaxx":1,"parallaxy":1,"properties":[{"name":"a","type":"int","value":255},{"name":"f","type":"int","value":0},{"name":"x","type":"int","value":-136},{"name":"y","type":"int","value":-154},{"name":"bS","type":"string","value":"shineWood3"},{"name":"cx","type":"int","value":0},{"name":"cy","type":"int","value":0},{"name":"no","type":"int","value":10},{"name":"rx","type":"int","value":-100},{"name":"ry","type":"int","value":-100},{"name":"ani","type":"int","value":1},{"name":"type","type":"int","value":0},{"name":"front","type":"int","value":1}]},{"id":35,"name":"background_front_32","type":"imagelayer","visible":true,"opacity":1,"image":"../../images/29734.png","imagewidth":220,"imageheight":218,"offsetx":-165,"offsety":-28,"repeatx":false,"repeaty":false,"parallaxx":1,"parallaxy":1,"properties":[{"name":"a","type":"int","value":255},{"name":"f","type":"int","value":0},{"name":"x","type":"int","value":-55},{"name":"y","type":"int","value":81},{"name":"bS","type":"string","value":"shineWood3"},{"name":"cx","type":"int","value":0},{"name":"cy","type":"int","value":0},{"name":"no","type":"int","value":11},{"name":"rx","type":"int","value":-100},{"name":"ry","type":"int","value":-100},{"name":"ani","type":"int","value":1},{"name":"type","type":"int","value":0},{"name":"front","type":"int","value":1}]},{"id":36,"name":"background_front_33","type":"imagelayer","visible":true,"opacity":1,"image":"../../images/29737.png","imagewidth":242,"imageheight":240,"offsetx":-217,"offsety":-533,"repeatx":false,"repeaty":false,"parallaxx":1,"parallaxy":1,"properties":[{"name":"a","type":"int","value":255},{"name":"f","type":"int","value":0},{"name":"x","type":"int","value":-96},{"name":"y","type":"int","value":-413},{"name":"bS","type":"string","value":"shineWood3"},{"name":"cx","type":"int","value":0},{"name":"cy","type":"int","value":0},{"name":"no","type":"int","value":12},{"name":"rx","type":"int","value":-100},{"name":"ry","type":"int","value":-100},{"name":"ani","type":"int","value":1},{"name":"type","type":"int","value":0},{"name":"front","type":"int","value":1}]},{"id":37,"name":"background_front_34","type":"imagelayer","visible":true,"opacity":1,"image":"../../images/29739.png","imagewidth":224,"imageheight":201,"offsetx":-97,"offsety":-293,"repeatx":false,"repeaty":false,"parallaxx":1,"parallaxy":1,"properties":[{"name":"a","type":"int","value":255},{"name":"f","type":"int","value":0},{"name":"x","type":"int","value":15},{"name":"y","type":"int","value":-193},{"name":"bS","type":"string","value":"shineWood3"},{"name":"cx","type":"int","value":0},{"name":"cy","type":"int","value":0},{"name":"no","type":"int","value":13},{"name":"rx","type":"int","value":-100},{"name":"ry","type":"int","value":-100},{"name":"ani","type":"int","value":1},{"name":"type","type":"int","value":0},{"name":"front","type":"int","value":1}]},{"id":38,"name":"background_front_35","type":"imagelayer","visible":true,"opacity":1,"image":"../../images/29741.png","imagewidth":151,"imageheight":179,"offsetx":4,"offsety":-92,"repeatx":false,"repeaty":false,"parallaxx":1,"parallaxy":1,"properties":[{"name":"a","type":"int","value":255},{"name":"f","type":"int","value":0},{"name":"x","type":"int","value":79},{"name":"y","type":"int","value":-3},{"name":"bS","type":"string","value":"shineWood3"},{"name":"cx","type":"int","value":0},{"name":"cy","type":"int","value":0},{"name":"no","type":"int","value":14},{"name":"rx","type":"int","value":-100},{"name":"ry","type":"int","value":-100},{"name":"ani","type":"int","value":1},{"name":"type","type":"int","value":0},{"name":"front","type":"int","value":1}]},{"id":40,"name":"portal","type":"objectgroup","visible":true,"opacity":1,"objects":[{"id":22,"x":0,"y":0,"visible":true,"properties":[{"name":"x","type":"int","value":0},{"name":"y","type":"int","value":0},{"name":"pn","type":"string","value":"sp"},{"name":"pt","type":"int","value":0},{"name":"tm","type":"int","value":999999999},{"name":"tn","type":"string","value":""}],"point":true},{"id":23,"x":1442,"y":-120,"visible":true,"properties":[{"name":"x","type":"int","value":1442},{"name":"y","type":"int","value":-120},{"name":"pn","type":"string","value":"come00"},{"name":"pt","type":"int","value":1},{"name":"tm","type":"int","value":999999999},{"name":"tn","type":"string","value":""}],"point":true},{"id":24,"x":-242,"y":96,"visible":true,"properties":[{"name":"x","type":"int","value":-242},{"name":"y","type":"int","value":96},{"name":"pn","type":"string","value":"out00"},{"name":"pt","type":"int","value":2},{"name":"tm","type":"int","value":101000000},{"name":"tn","type":"string","value":"in04"}],"point":true}]},{"id":41,"name":"life","type":"objectgroup","visible":true,"opacity":1,"objects":[{"id":25,"x":83,"y":85,"visible":true,"properties":[{"name":"f","type":"int","value":0},{"name":"x","type":"int","value":83},{"name":"y","type":"int","value":85},{"name":"cy","type":"int","value":97},{"name":"fh","type":"int","value":2},{"name":"id","type":"int","value":1100007},{"name":"rx0","type":"int","value":66},{"name":"rx1","type":"int","value":133},{"name":"hide","type":"int","value":0},{"name":"type","type":"string","value":"n"},{"name":"mobTime","type":"int","value":0}],"point":true}]},{"id":42,"name":"foothold","type":"objectgroup","visible":true,"opacity":1,"objects":[{"id":26,"x":-390,"y":97,"visible":true,"properties":[{"name":"layer","type":"int","value":5},{"name":"group","type":"int","value":0},{"name":"id","type":"int","value":1},{"name":"fh_layer","type":"int","value":5},{"name":"fh_group","type":"int","value":0},{"name":"fh_id","type":"int","value":1},{"name":"x1","type":"int","value":-390},{"name":"x2","type":"int","value":46},{"name":"y1","type":"int","value":97},{"name":"y2","type":"int","value":97},{"name":"next","type":"int","value":2},{"name":"prev","type":"int","value":0}],"polyline":[{"x":0,"y":0},{"x":436,"y":0}]},{"id":27,"x":46,"y":97,"visible":true,"properties":[{"name":"layer","type":"int","value":5},{"name":"group","type":"int","value":1},{"name":"id","type":"int","value":2},{"name":"fh_layer","type":"int","value":5},{"name":"fh_group","type":"int","value":1},{"name":"fh_id","type":"int","value":2},{"name":"x1","type":"int","value":46},{"name":"x2","type":"int","value":471},{"name":"y1","type":"int","value":97},{"name":"y2","type":"int","value":97},{"name":"next","type":"int","value":0},{"name":"prev","type":"int","value":1}],"polyline":[{"x":0,"y":0},{"x":425,"y":0}]}]}],"tilesets":[{"firstgid":1,"source":"../../tilesets/bg_login.tsj"},{"firstgid":5,"source":"../../tilesets/bg_portTown.tsj"},{"firstgid":10,"source":"../../tilesets/bg_shineWood.tsj"},{"firstgid":43,"source":"../../tilesets/bg_shineWood3.tsj"},{"firstgid":60,"source":"../../tilesets/obj_acc11_erebTW_ship.tsj"},{"firstgid":62,"source":"../../tilesets/obj_acc2_shineWood_station.tsj"}],"properties":[{"name":"bgm","type":"string","value":"Bgm01/MoonlightShadow"},{"name":"fly","type":"int","value":0},{"name":"swim","type":"int","value":0},{"name":"town","type":"int","value":1},{"name":"VRTop","type":"int","value":-508},{"name":"cloud","type":"int","value":0},{"name":"VRLeft","type":"int","value":-405},{"name":"VRRight","type":"int","value":439},{"name":"mapMark","type":"string","value":"Ellinia"},{"name":"mobRate","type":"float","value":1},{"name":"version","type":"int","value":10},{"name":"VRBottom","type":"int","value":265},{"name":"returnMap","type":"int","value":101000000},{"name":"fieldLimit","type":"int","value":0},{"name":"hideMinimap","type":"int","value":0},{"name":"onUserEnter","type":"string","value":""},{"name":"forcedReturn","type":"int","value":999999999},{"name":"onFirstUserEnter","type":"string","value":""}]}