{"type":"map","orientation":"orthogonal","renderorder":"right-down","infinite":false,"tilewidth":1,"tileheight":1,"width":800,"height":960,"nextlayerid":11,"nextobjectid":109,"layers":[{"id":1,"name":"layer_0_obj","type":"objectgroup","visible":true,"opacity":1,"objects":[{"id":1,"x":-364,"y":226,"visible":true,"properties":[{"name":"layer","type":"int","value":0},{"name":"resource_index","type":"int","value":0},{"name":"oS","type":"string","value":"job"},{"name":"l0","type":"string","value":"job"},{"name":"l1","type":"string","value":"rogue"},{"name":"l2","type":"string","value":"0"},{"name":"z","type":"int","value":3},{"name":"zM","type":"int","value":1},{"name":"f","type":"int","value":0}],"gid":22,"width":756,"height":554},{"id":2,"x":270,"y":88,"visible":true,"properties":[{"name":"layer","type":"int","value":0},{"name":"resource_index","type":"int","value":1},{"name":"oS","type":"string","value":"job"},{"name":"l0","type":"string","value":"job"},{"name":"l1","type":"string","value":"rogue"},{"name":"l2","type":"string","value":"6"},{"name":"z","type":"int","value":4},{"name":"zM","type":"int","value":1},{"name":"f","type":"int","value":0}],"gid":23,"width":54,"height":56}]},{"id":2,"name":"layer_1_obj","type":"objectgroup","visible":true,"opacity":1,"objects":[{"id":47,"x":-252,"y":181,"visible":true,"properties":[{"name":"layer","type":"int","value":1},{"name":"resource_index","type":"int","value":0},{"name":"oS","type":"string","value":"job"},{"name":"l0","type":"string","value":"job"},{"name":"l1","type":"string","value":"rogue"},{"name":"l2","type":"string","value":"1"},{"name":"z","type":"int","value":2},{"name":"zM","type":"int","value":3},{"name":"f","type":"int","value":0}],"gid":24,"width":594,"height":560},{"id":48,"x":-335,"y":-186,"visible":true,"properties":[{"name":"layer","type":"int","value":1},{"name":"resource_index","type":"int","value":1},{"name":"oS","type":"string","value":"job"},{"name":"l0","type":"string","value":"job"},{"name":"l1","type":"string","value":"rogue"},{"name":"l2","type":"string","value":"3"},{"name":"z","type":"int","value":1},{"name":"zM","type":"int","value":3},{"name":"f","type":"int","value":0}],"gid":25,"width":164,"height":173},{"id":49,"x":-115,"y":-257,"visible":true,"properties":[{"name":"layer","type":"int","value":1},{"name":"resource_index","type":"int","value":2},{"name":"oS","type":"string","value":"job"},{"name":"l0","type":"string","value":"job"},{"name":"l1","type":"string","value":"rogue"},{"name":"l2","type":"string","value":"4"},{"name":"z","type":"int","value":4},{"name":"zM","type":"int","value":3},{"name":"f","type":"int","value":0}],"gid":26,"width":47,"height":45},{"id":50,"x":-107,"y":-264,"visible":true,"properties":[{"name":"layer","type":"int","value":1},{"name":"resource_index","type":"int","value":3},{"name":"oS","type":"string","value":"job"},{"name":"l0","type":"string","value":"job"},{"name":"l1","type":"string","value":"rogue"},{"name":"l2","type":"string","value":"5"},{"name":"z","type":"int","value":5},{"name":"zM","type":"int","value":3},{"name":"f","type":"int","value":0}],"gid":27,"width":49,"height":47},{"id":51,"x":-109,"y":-262,"visible":true,"properties":[{"name":"layer","type":"int","value":1},{"name":"resource_index","type":"int","value":4},{"name":"oS","type":"string","value":"job"},{"name":"l0","type":"string","value":"job"},{"name":"l1","type":"string","value":"rogue"},{"name":"l2","type":"string","value":"10"},{"name":"z","type":"int","value":5},{"name":"zM","type":"int","value":3},{"name":"f","type":"int","value":0}],"gid":28,"width":47,"height":44},{"id":52,"x":52,"y":-215,"visible":true,"properties":[{"name":"layer","type":"int","value":1},{"name":"resource_index","type":"int","value":5},{"name":"oS","type":"string","value":"signboard"},{"name":"l0","type":"string","value":"market"},{"name":"l1","type":"string","value":"arrow"},{"name":"l2","type":"string","value":"4"},{"name":"z","type":"int","value":9},{"name":"zM","type":"int","value":0},{"name":"f","type":"int","value":0}],"gid":39,"width":45,"height":54}]},{"id":3,"name":"layer_1_tile","type":"objectgroup","visible":true,"opacity":1,"objects":[{"id":3,"x":-180,"y":-420,"visible":true,"properties":[{"name":"layer","type":"int","value":1},{"name":"resource_index","type":"int","value":0},{"name":"u","type":"string","value":"bsc"},{"name":"no","type":"int","value":3},{"name":"zM","type":"int","value":6}],"gid":4,"width":90,"height":60},{"id":4,"x":-450,"y":-390,"visible":true,"properties":[{"name":"layer","type":"int","value":1},{"name":"resource_index","type":"int","value":1},{"name":"u","type":"string","value":"enH1"},{"name":"no","type":"int","value":0},{"name":"zM","type":"int","value":6}],"gid":13,"width":90,"height":30},{"id":5,"x":360,"y":-480,"visible":true,"properties":[{"name":"layer","type":"int","value":1},{"name":"resource_index","type":"int","value":2},{"name":"u","type":"string","value":"bsc"},{"name":"no","type":"int","value":3},{"name":"zM","type":"int","value":6}],"gid":4,"width":90,"height":60},{"id":6,"x":180,"y":-420,"visible":true,"properties":[{"name":"layer","type":"int","value":1},{"name":"resource_index","type":"int","value":3},{"name":"u","type":"string","value":"bsc"},{"name":"no","type":"int","value":1},{"name":"zM","type":"int","value":6}],"gid":7,"width":90,"height":60},{"id":7,"x":270,"y":-420,"visible":true,"properties":[{"name":"layer","type":"int","value":1},{"name":"resource_index","type":"int","value":4},{"name":"u","type":"string","value":"bsc"},{"name":"no","type":"int","value":3},{"name":"zM","type":"int","value":6}],"gid":4,"width":90,"height":60},{"id":8,"x":270,"y":-380,"visible":true,"properties":[{"name":"layer","type":"int","value":1},{"name":"resource_index","type":"int","value":5},{"name":"u","type":"string","value":"enH1"},{"name":"no","type":"int","value":1},{"name":"zM","type":"int","value":6}],"gid":11,"width":90,"height":40},{"id":9,"x":360,"y":-420,"visible":true,"properties":[{"name":"layer","type":"int","value":1},{"name":"resource_index","type":"int","value":6},{"name":"u","type":"string","value":"bsc"},{"name":"no","type":"int","value":4},{"name":"zM","type":"int","value":6}],"gid":5,"width":90,"height":60},{"id":10,"x":270,"y":-480,"visible":true,"properties":[{"name":"layer","type":"int","value":1},{"name":"resource_index","type":"int","value":7},{"name":"u","type":"string","value":"bsc"},{"name":"no","type":"int","value":2},{"name":"zM","type":"int","value":6}],"gid":8,"width":90,"height":60},{"id":11,"x":-360,"y":-380,"visible":true,"properties":[{"name":"layer","type":"int","value":1},{"name":"resource_index","type":"int","value":8},{"name":"u","type":"string","value":"enH1"},{"name":"no","type":"int","value":1},{"name":"zM","type":"int","value":6}],"gid":11,"width":90,"height":40},{"id":12,"x":-360,"y":-420,"visible":true,"properties":[{"name":"layer","type":"int","value":1},{"name":"resource_index","type":"int","value":9},{"name":"u","type":"string","value":"bsc"},{"name":"no","type":"int","value":4},{"name":"zM","type":"int","value":6}],"gid":5,"width":90,"height":60},{"id":13,"x":180,"y":-390,"visible":true,"properties":[{"name":"layer","type":"int","value":1},{"name":"resource_index","type":"int","value":10},{"name":"u","type":"string","value":"enH1"},{"name":"no","type":"int","value":2},{"name":"zM","type":"int","value":6}],"gid":1,"width":90,"height":30},{"id":14,"x":90,"y":-480,"visible":true,"properties":[{"name":"layer","type":"int","value":1},{"name":"resource_index","type":"int","value":11},{"name":"u","type":"string","value":"bsc"},{"name":"no","type":"int","value":4},{"name":"zM","type":"int","value":6}],"gid":5,"width":90,"height":60},{"id":15,"x":180,"y":-480,"visible":true,"properties":[{"name":"layer","type":"int","value":1},{"name":"resource_index","type":"int","value":12},{"name":"u","type":"string","value":"bsc"},{"name":"no","type":"int","value":2},{"name":"zM","type":"int","value":6}],"gid":8,"width":90,"height":60},{"id":16,"x":-270,"y":-380,"visible":true,"properties":[{"name":"layer","type":"int","value":1},{"name":"resource_index","type":"int","value":13},{"name":"u","type":"string","value":"enH1"},{"name":"no","type":"int","value":1},{"name":"zM","type":"int","value":6}],"gid":11,"width":90,"height":40},{"id":17,"x":-270,"y":-420,"visible":true,"properties":[{"name":"layer","type":"int","value":1},{"name":"resource_index","type":"int","value":14},{"name":"u","type":"string","value":"bsc"},{"name":"no","type":"int","value":2},{"name":"zM","type":"int","value":6}],"gid":8,"width":90,"height":60},{"id":18,"x":-360,"y":-480,"visible":true,"properties":[{"name":"layer","type":"int","value":1},{"name":"resource_index","type":"int","value":15},{"name":"u","type":"string","value":"bsc"},{"name":"no","type":"int","value":0},{"name":"zM","type":"int","value":6}],"gid":6,"width":90,"height":60},{"id":19,"x":-270,"y":-480,"visible":true,"properties":[{"name":"layer","type":"int","value":1},{"name":"resource_index","type":"int","value":16},{"name":"u","type":"string","value":"bsc"},{"name":"no","type":"int","value":1},{"name":"zM","type":"int","value":6}],"gid":7,"width":90,"height":60},{"id":20,"x":-450,"y":-420,"visible":true,"properties":[{"name":"layer","type":"int","value":1},{"name":"resource_index","type":"int","value":17},{"name":"u","type":"string","value":"bsc"},{"name":"no","type":"int","value":1},{"name":"zM","type":"int","value":6}],"gid":7,"width":90,"height":60},{"id":21,"x":360,"y":-390,"visible":true,"properties":[{"name":"layer","type":"int","value":1},{"name":"resource_index","type":"int","value":18},{"name":"u","type":"string","value":"enH1"},{"name":"no","type":"int","value":2},{"name":"zM","type":"int","value":6}],"gid":1,"width":90,"height":30},{"id":22,"x":-180,"y":-480,"visible":true,"properties":[{"name":"layer","type":"int","value":1},{"name":"resource_index","type":"int","value":19},{"name":"u","type":"string","value":"bsc"},{"name":"no","type":"int","value":4},{"name":"zM","type":"int","value":6}],"gid":5,"width":90,"height":60},{"id":23,"x":-90,"y":-480,"visible":true,"properties":[{"name":"layer","type":"int","value":1},{"name":"resource_index","type":"int","value":20},{"name":"u","type":"string","value":"bsc"},{"name":"no","type":"int","value":0},{"name":"zM","type":"int","value":6}],"gid":6,"width":90,"height":60},{"id":24,"x":-114,"y":-466,"visible":true,"properties":[{"name":"layer","type":"int","value":1},{"name":"resource_index","type":"int","value":21},{"name":"u","type":"string","value":"edD"},{"name":"no","type":"int","value":0},{"name":"zM","type":"int","value":6}],"gid":15,"width":53,"height":14},{"id":25,"x":360,"y":-540,"visible":true,"properties":[{"name":"layer","type":"int","value":1},{"name":"resource_index","type":"int","value":22},{"name":"u","type":"string","value":"bsc"},{"name":"no","type":"int","value":1},{"name":"zM","type":"int","value":6}],"gid":7,"width":90,"height":60},{"id":26,"x":0,"y":-480,"visible":true,"properties":[{"name":"layer","type":"int","value":1},{"name":"resource_index","type":"int","value":23},{"name":"u","type":"string","value":"bsc"},{"name":"no","type":"int","value":2},{"name":"zM","type":"int","value":6}],"gid":8,"width":90,"height":60},{"id":27,"x":-450,"y":-540,"visible":true,"properties":[{"name":"layer","type":"int","value":1},{"name":"resource_index","type":"int","value":24},{"name":"u","type":"string","value":"bsc"},{"name":"no","type":"int","value":2},{"name":"zM","type":"int","value":6}],"gid":8,"width":90,"height":60},{"id":28,"x":270,"y":-540,"visible":true,"properties":[{"name":"layer","type":"int","value":1},{"name":"resource_index","type":"int","value":25},{"name":"u","type":"string","value":"bsc"},{"name":"no","type":"int","value":2},{"name":"zM","type":"int","value":6}],"gid":8,"width":90,"height":60},{"id":29,"x":180,"y":-540,"visible":true,"properties":[{"name":"layer","type":"int","value":1},{"name":"resource_index","type":"int","value":26},{"name":"u","type":"string","value":"bsc"},{"name":"no","type":"int","value":3},{"name":"zM","type":"int","value":6}],"gid":4,"width":90,"height":60},{"id":30,"x":0,"y":-600,"visible":true,"properties":[{"name":"layer","type":"int","value":1},{"name":"resource_index","type":"int","value":27},{"name":"u","type":"string","value":"bsc"},{"name":"no","type":"int","value":4},{"name":"zM","type":"int","value":6}],"gid":5,"width":90,"height":60},{"id":31,"x":-450,"y":-600,"visible":true,"properties":[{"name":"layer","type":"int","value":1},{"name":"resource_index","type":"int","value":28},{"name":"u","type":"string","value":"bsc"},{"name":"no","type":"int","value":0},{"name":"zM","type":"int","value":6}],"gid":6,"width":90,"height":60},{"id":32,"x":180,"y":-600,"visible":true,"properties":[{"name":"layer","type":"int","value":1},{"name":"resource_index","type":"int","value":29},{"name":"u","type":"string","value":"bsc"},{"name":"no","type":"int","value":3},{"name":"zM","type":"int","value":6}],"gid":4,"width":90,"height":60},{"id":33,"x":90,"y":-600,"visible":true,"properties":[{"name":"layer","type":"int","value":1},{"name":"resource_index","type":"int","value":30},{"name":"u","type":"string","value":"bsc"},{"name":"no","type":"int","value":0},{"name":"zM","type":"int","value":6}],"gid":6,"width":90,"height":60},{"id":34,"x":-90,"y":-540,"visible":true,"properties":[{"name":"layer","type":"int","value":1},{"name":"resource_index","type":"int","value":31},{"name":"u","type":"string","value":"bsc"},{"name":"no","type":"int","value":0},{"name":"zM","type":"int","value":6}],"gid":6,"width":90,"height":60},{"id":35,"x":-180,"y":-540,"visible":true,"properties":[{"name":"layer","type":"int","value":1},{"name":"resource_index","type":"int","value":32},{"name":"u","type":"string","value":"bsc"},{"name":"no","type":"int","value":4},{"name":"zM","type":"int","value":6}],"gid":5,"width":90,"height":60},{"id":36,"x":0,"y":-540,"visible":true,"properties":[{"name":"layer","type":"int","value":1},{"name":"resource_index","type":"int","value":33},{"name":"u","type":"string","value":"bsc"},{"name":"no","type":"int","value":2},{"name":"zM","type":"int","value":6}],"gid":8,"width":90,"height":60},{"id":37,"x":360,"y":-600,"visible":true,"properties":[{"name":"layer","type":"int","value":1},{"name":"resource_index","type":"int","value":34},{"name":"u","type":"string","value":"bsc"},{"name":"no","type":"int","value":2},{"name":"zM","type":"int","value":6}],"gid":8,"width":90,"height":60},{"id":38,"x":-270,"y":-600,"visible":true,"properties":[{"name":"layer","type":"int","value":1},{"name":"resource_index","type":"int","value":35},{"name":"u","type":"string","value":"bsc"},{"name":"no","type":"int","value":3},{"name":"zM","type":"int","value":6}],"gid":4,"width":90,"height":60},{"id":39,"x":-360,"y":-540,"visible":true,"properties":[{"name":"layer","type":"int","value":1},{"name":"resource_index","type":"int","value":36},{"name":"u","type":"string","value":"bsc"},{"name":"no","type":"int","value":2},{"name":"zM","type":"int","value":6}],"gid":8,"width":90,"height":60},{"id":40,"x":270,"y":-600,"visible":true,"properties":[{"name":"layer","type":"int","value":1},{"name":"resource_index","type":"int","value":37},{"name":"u","type":"string","value":"bsc"},{"name":"no","type":"int","value":3},{"name":"zM","type":"int","value":6}],"gid":4,"width":90,"height":60},{"id":41,"x":-180,"y":-600,"visible":true,"properties":[{"name":"layer","type":"int","value":1},{"name":"resource_index","type":"int","value":38},{"name":"u","type":"string","value":"bsc"},{"name":"no","type":"int","value":0},{"name":"zM","type":"int","value":6}],"gid":6,"width":90,"height":60},{"id":42,"x":-450,"y":-480,"visible":true,"properties":[{"name":"layer","type":"int","value":1},{"name":"resource_index","type":"int","value":39},{"name":"u","type":"string","value":"bsc"},{"name":"no","type":"int","value":4},{"name":"zM","type":"int","value":6}],"gid":5,"width":90,"height":60},{"id":43,"x":-360,"y":-600,"visible":true,"properties":[{"name":"layer","type":"int","value":1},{"name":"resource_index","type":"int","value":40},{"name":"u","type":"string","value":"bsc"},{"name":"no","type":"int","value":1},{"name":"zM","type":"int","value":6}],"gid":7,"width":90,"height":60},{"id":44,"x":-270,"y":-540,"visible":true,"properties":[{"name":"layer","type":"int","value":1},{"name":"resource_index","type":"int","value":41},{"name":"u","type":"string","value":"bsc"},{"name":"no","type":"int","value":3},{"name":"zM","type":"int","value":6}],"gid":4,"width":90,"height":60},{"id":45,"x":90,"y":-540,"visible":true,"properties":[{"name":"layer","type":"int","value":1},{"name":"resource_index","type":"int","value":42},{"name":"u","type":"string","value":"bsc"},{"name":"no","type":"int","value":1},{"name":"zM","type":"int","value":6}],"gid":7,"width":90,"height":60},{"id":46,"x":-90,"y":-600,"visible":true,"properties":[{"name":"layer","type":"int","value":1},{"name":"resource_index","type":"int","value":43},{"name":"u","type":"string","value":"bsc"},{"name":"no","type":"int","value":2},{"name":"zM","type":"int","value":6}],"gid":8,"width":90,"height":60}]},{"id":4,"name":"layer_2_obj","type":"objectgroup","visible":true,"opacity":1,"objects":[{"id":53,"x":194,"y":164,"visible":true,"properties":[{"name":"layer","type":"int","value":2},{"name":"resource_index","type":"int","value":0},{"name":"oS","type":"string","value":"job"},{"name":"l0","type":"string","value":"job"},{"name":"l1","type":"string","value":"rogue"},{"name":"l2","type":"string","value":"8"},{"name":"z","type":"int","value":3},{"name":"zM","type":"int","value":4},{"name":"f","type":"int","value":0}],"gid":29,"width":43,"height":75},{"id":54,"x":-327,"y":131,"visible":true,"properties":[{"name":"layer","type":"int","value":2},{"name":"resource_index","type":"int","value":1},{"name":"oS","type":"string","value":"job"},{"name":"l0","type":"string","value":"job"},{"name":"l1","type":"string","value":"rogue"},{"name":"l2","type":"string","value":"7"},{"name":"z","type":"int","value":3},{"name":"zM","type":"int","value":5},{"name":"f","type":"int","value":0}],"gid":30,"width":43,"height":296},{"id":55,"x":118,"y":181,"visible":true,"properties":[{"name":"layer","type":"int","value":2},{"name":"resource_index","type":"int","value":2},{"name":"oS","type":"string","value":"job"},{"name":"l0","type":"string","value":"job"},{"name":"l1","type":"string","value":"rogue"},{"name":"l2","type":"string","value":"11"},{"name":"z","type":"int","value":2},{"name":"zM","type":"int","value":2},{"name":"f","type":"int","value":0}],"gid":31,"width":51,"height":186}]},{"id":5,"name":"layer_3_obj","type":"objectgroup","visible":true,"opacity":1,"objects":[{"id":56,"x":-400,"y":299,"visible":true,"properties":[{"name":"layer","type":"int","value":3},{"name":"resource_index","type":"int","value":0},{"name":"oS","type":"string","value":"job"},{"name":"l0","type":"string","value":"job"},{"name":"l1","type":"string","value":"rogue"},{"name":"l2","type":"string","value":"2"},{"name":"z","type":"int","value":3},{"name":"zM","type":"int","value":0},{"name":"f","type":"int","value":0}],"gid":32,"width":800,"height":789},{"id":57,"x":70,"y":181,"visible":true,"properties":[{"name":"layer","type":"int","value":3},{"name":"resource_index","type":"int","value":1},{"name":"oS","type":"string","value":"job"},{"name":"l0","type":"string","value":"job"},{"name":"l1","type":"string","value":"rogue"},{"name":"l2","type":"string","value":"12"},{"name":"z","type":"int","value":3},{"name":"zM","type":"int","value":0},{"name":"f","type":"int","value":0}],"gid":33,"width":69,"height":81},{"id":58,"x":227,"y":183,"visible":true,"properties":[{"name":"layer","type":"int","value":3},{"name":"resource_index","type":"int","value":2},{"name":"oS","type":"string","value":"guide"},{"name":"l0","type":"string","value":"miniD"},{"name":"l1","type":"string","value":"portalEff"},{"name":"l2","type":"string","value":"0"},{"name":"z","type":"int","value":9},{"name":"zM","type":"int","value":0},{"name":"f","type":"int","value":0}],"gid":34,"width":131,"height":166}]},{"id":6,"name":"portal","type":"objectgroup","visible":true,"opacity":1,"objects":[{"id":59,"x":166,"y":-273,"visible":true,"properties":[{"name":"x","type":"int","value":166},{"name":"y","type":"int","value":-273},{"name":"pn","type":"string","value":"sp"},{"name":"pt","type":"int","value":0},{"name":"tm","type":"int","value":999999999},{"name":"tn","type":"string","value":""}],"point":true},{"id":60,"x":198,"y":-278,"visible":true,"properties":[{"name":"x","type":"int","value":198},{"name":"y","type":"int","value":-278},{"name":"pn","type":"string","value":"sp"},{"name":"pt","type":"int","value":0},{"name":"tm","type":"int","value":999999999},{"name":"tn","type":"string","value":""}],"point":true},{"id":61,"x":235,"y":-277,"visible":true,"properties":[{"name":"x","type":"int","value":235},{"name":"y","type":"int","value":-277},{"name":"pn","type":"string","value":"sp"},{"name":"pt","type":"int","value":0},{"name":"tm","type":"int","value":999999999},{"name":"tn","type":"string","value":""}],"point":true},{"id":62,"x":201,"y":-266,"visible":true,"properties":[{"name":"x","type":"int","value":201},{"name":"y","type":"int","value":-266},{"name":"pn","type":"string","value":"out00"},{"name":"pt","type":"int","value":1},{"name":"tm","type":"int","value":103000000},{"name":"tn","type":"string","value":"in03"}],"point":true},{"id":63,"x":291,"y":181,"visible":true,"properties":[{"name":"x","type":"int","value":291},{"name":"y","type":"int","value":181},{"name":"pn","type":"string","value":"rank00"},{"name":"pt","type":"int","value":7},{"name":"tm","type":"int","value":999999999},{"name":"tn","type":"string","value":""},{"name":"script","type":"string","value":"rankRoom"},{"name":"horizontalImpact","type":"int","value":0}],"point":true},{"id":64,"x":135,"y":-141,"visible":true,"properties":[{"name":"x","type":"int","value":135},{"name":"y","type":"int","value":-141},{"name":"pn","type":"string","value":"tutorial"},{"name":"pt","type":"int","value":9},{"name":"tm","type":"int","value":999999999},{"name":"tn","type":"string","value":""},{"name":"delay","type":"int","value":1000},{"name":"script","type":"string","value":"tutorialNPC"},{"name":"onlyOnce","type":"int","value":1},{"name":"hideTooltip","type":"int","value":0}],"point":true}]},{"id":7,"name":"life","type":"objectgroup","visible":true,"opacity":1,"objects":[{"id":65,"x":113,"y":122,"visible":true,"properties":[{"name":"f","type":"int","value":0},{"name":"x","type":"int","value":113},{"name":"y","type":"int","value":122},{"name":"cy","type":"int","value":128},{"name":"fh","type":"int","value":39},{"name":"id","type":"int","value":1052001},{"name":"rx0","type":"int","value":63},{"name":"rx1","type":"int","value":163},{"name":"type","type":"string","value":"n"}],"point":true}]},{"id":8,"name":"foothold","type":"objectgroup","visible":true,"opacity":1,"objects":[{"id":66,"x":-345,"y":-341,"visible":true,"properties":[{"name":"layer","type":"int","value":1},{"name":"group","type":"int","value":3},{"name":"id","type":"int","value":1},{"name":"fh_layer","type":"int","value":1},{"name":"fh_group","type":"int","value":3},{"name":"fh_id","type":"int","value":1},{"name":"x1","type":"int","value":-345},{"name":"x2","type":"int","value":-345},{"name":"y1","type":"int","value":-341},{"name":"y2","type":"int","value":-158},{"name":"next","type":"int","value":2},{"name":"prev","type":"int","value":0}],"polyline":[{"x":0,"y":0},{"x":0,"y":183}]},{"id":67,"x":-345,"y":-158,"visible":true,"properties":[{"name":"layer","type":"int","value":1},{"name":"group","type":"int","value":3},{"name":"id","type":"int","value":2},{"name":"fh_layer","type":"int","value":1},{"name":"fh_group","type":"int","value":3},{"name":"fh_id","type":"int","value":2},{"name":"x1","type":"int","value":-345},{"name":"x2","type":"int","value":-270},{"name":"y1","type":"int","value":-158},{"name":"y2","type":"int","value":-158},{"name":"next","type":"int","value":3},{"name":"prev","type":"int","value":1}],"polyline":[{"x":0,"y":0},{"x":75,"y":0}]},{"id":68,"x":-270,"y":-158,"visible":true,"properties":[{"name":"layer","type":"int","value":1},{"name":"group","type":"int","value":3},{"name":"id","type":"int","value":3},{"name":"fh_layer","type":"int","value":1},{"name":"fh_group","type":"int","value":3},{"name":"fh_id","type":"int","value":3},{"name":"x1","type":"int","value":-270},{"name":"x2","type":"int","value":-270},{"name":"y1","type":"int","value":-158},{"name":"y2","type":"int","value":-180},{"name":"next","type":"int","value":4},{"name":"prev","type":"int","value":2}],"polyline":[{"x":0,"y":0},{"x":0,"y":-22}]},{"id":69,"x":-270,"y":-180,"visible":true,"properties":[{"name":"layer","type":"int","value":1},{"name":"group","type":"int","value":3},{"name":"id","type":"int","value":4},{"name":"fh_layer","type":"int","value":1},{"name":"fh_group","type":"int","value":3},{"name":"fh_id","type":"int","value":4},{"name":"x1","type":"int","value":-270},{"name":"x2","type":"int","value":-142},{"name":"y1","type":"int","value":-180},{"name":"y2","type":"int","value":-180},{"name":"next","type":"int","value":0},{"name":"prev","type":"int","value":3}],"polyline":[{"x":0,"y":0},{"x":128,"y":0}]},{"id":70,"x":-206,"y":-158,"visible":true,"properties":[{"name":"layer","type":"int","value":1},{"name":"group","type":"int","value":3},{"name":"id","type":"int","value":5},{"name":"fh_layer","type":"int","value":1},{"name":"fh_group","type":"int","value":3},{"name":"fh_id","type":"int","value":5},{"name":"x1","type":"int","value":-206},{"name":"x2","type":"int","value":-123},{"name":"y1","type":"int","value":-158},{"name":"y2","type":"int","value":-158},{"name":"next","type":"int","value":0},{"name":"prev","type":"int","value":0}],"polyline":[{"x":0,"y":0},{"x":83,"y":0}]},{"id":71,"x":-185,"y":-137,"visible":true,"properties":[{"name":"layer","type":"int","value":1},{"name":"group","type":"int","value":3},{"name":"id","type":"int","value":6},{"name":"fh_layer","type":"int","value":1},{"name":"fh_group","type":"int","value":3},{"name":"fh_id","type":"int","value":6},{"name":"x1","type":"int","value":-185},{"name":"x2","type":"int","value":-100},{"name":"y1","type":"int","value":-137},{"name":"y2","type":"int","value":-137},{"name":"next","type":"int","value":0},{"name":"prev","type":"int","value":0}],"polyline":[{"x":0,"y":0},{"x":85,"y":0}]},{"id":72,"x":-167,"y":-116,"visible":true,"properties":[{"name":"layer","type":"int","value":1},{"name":"group","type":"int","value":3},{"name":"id","type":"int","value":7},{"name":"fh_layer","type":"int","value":1},{"name":"fh_group","type":"int","value":3},{"name":"fh_id","type":"int","value":7},{"name":"x1","type":"int","value":-167},{"name":"x2","type":"int","value":-76},{"name":"y1","type":"int","value":-116},{"name":"y2","type":"int","value":-116},{"name":"next","type":"int","value":0},{"name":"prev","type":"int","value":0}],"polyline":[{"x":0,"y":0},{"x":91,"y":0}]},{"id":73,"x":-236,"y":-177,"visible":true,"properties":[{"name":"layer","type":"int","value":1},{"name":"group","type":"int","value":3},{"name":"id","type":"int","value":8},{"name":"fh_layer","type":"int","value":1},{"name":"fh_group","type":"int","value":3},{"name":"fh_id","type":"int","value":8},{"name":"x1","type":"int","value":-236},{"name":"x2","type":"int","value":-236},{"name":"y1","type":"int","value":-177},{"name":"y2","type":"int","value":-95},{"name":"next","type":"int","value":9},{"name":"prev","type":"int","value":0}],"polyline":[{"x":0,"y":0},{"x":0,"y":82}]},{"id":74,"x":-236,"y":-95,"visible":true,"properties":[{"name":"layer","type":"int","value":1},{"name":"group","type":"int","value":3},{"name":"id","type":"int","value":9},{"name":"fh_layer","type":"int","value":1},{"name":"fh_group","type":"int","value":3},{"name":"fh_id","type":"int","value":9},{"name":"x1","type":"int","value":-236},{"name":"x2","type":"int","value":367},{"name":"y1","type":"int","value":-95},{"name":"y2","type":"int","value":-95},{"name":"next","type":"int","value":10},{"name":"prev","type":"int","value":8}],"polyline":[{"x":0,"y":0},{"x":603,"y":0}]},{"id":75,"x":367,"y":-95,"visible":true,"properties":[{"name":"layer","type":"int","value":1},{"name":"group","type":"int","value":3},{"name":"id","type":"int","value":10},{"name":"fh_layer","type":"int","value":1},{"name":"fh_group","type":"int","value":3},{"name":"fh_id","type":"int","value":10},{"name":"x1","type":"int","value":367},{"name":"x2","type":"int","value":367},{"name":"y1","type":"int","value":-95},{"name":"y2","type":"int","value":-382},{"name":"next","type":"int","value":0},{"name":"prev","type":"int","value":9}],"polyline":[{"x":0,"y":0},{"x":0,"y":-287}]},{"id":76,"x":153,"y":-263,"visible":true,"properties":[{"name":"layer","type":"int","value":1},{"name":"group","type":"int","value":3},{"name":"id","type":"int","value":11},{"name":"fh_layer","type":"int","value":1},{"name":"fh_group","type":"int","value":3},{"name":"fh_id","type":"int","value":11},{"name":"x1","type":"int","value":153},{"name":"x2","type":"int","value":260},{"name":"y1","type":"int","value":-263},{"name":"y2","type":"int","value":-263},{"name":"next","type":"int","value":0},{"name":"prev","type":"int","value":0}],"polyline":[{"x":0,"y":0},{"x":107,"y":0}]},{"id":77,"x":195,"y":-243,"visible":true,"properties":[{"name":"layer","type":"int","value":1},{"name":"group","type":"int","value":3},{"name":"id","type":"int","value":12},{"name":"fh_layer","type":"int","value":1},{"name":"fh_group","type":"int","value":3},{"name":"fh_id","type":"int","value":12},{"name":"x1","type":"int","value":195},{"name":"x2","type":"int","value":280},{"name":"y1","type":"int","value":-243},{"name":"y2","type":"int","value":-243},{"name":"next","type":"int","value":0},{"name":"prev","type":"int","value":0}],"polyline":[{"x":0,"y":0},{"x":85,"y":0}]},{"id":78,"x":217,"y":-221,"visible":true,"properties":[{"name":"layer","type":"int","value":1},{"name":"group","type":"int","value":3},{"name":"id","type":"int","value":13},{"name":"fh_layer","type":"int","value":1},{"name":"fh_group","type":"int","value":3},{"name":"fh_id","type":"int","value":13},{"name":"x1","type":"int","value":217},{"name":"x2","type":"int","value":301},{"name":"y1","type":"int","value":-221},{"name":"y2","type":"int","value":-221},{"name":"next","type":"int","value":0},{"name":"prev","type":"int","value":0}],"polyline":[{"x":0,"y":0},{"x":84,"y":0}]},{"id":79,"x":238,"y":-200,"visible":true,"properties":[{"name":"layer","type":"int","value":1},{"name":"group","type":"int","value":3},{"name":"id","type":"int","value":14},{"name":"fh_layer","type":"int","value":1},{"name":"fh_group","type":"int","value":3},{"name":"fh_id","type":"int","value":14},{"name":"x1","type":"int","value":238},{"name":"x2","type":"int","value":323},{"name":"y1","type":"int","value":-200},{"name":"y2","type":"int","value":-200},{"name":"next","type":"int","value":0},{"name":"prev","type":"int","value":0}],"polyline":[{"x":0,"y":0},{"x":85,"y":0}]},{"id":80,"x":256,"y":-179,"visible":true,"properties":[{"name":"layer","type":"int","value":1},{"name":"group","type":"int","value":3},{"name":"id","type":"int","value":15},{"name":"fh_layer","type":"int","value":1},{"name":"fh_group","type":"int","value":3},{"name":"fh_id","type":"int","value":15},{"name":"x1","type":"int","value":256},{"name":"x2","type":"int","value":363},{"name":"y1","type":"int","value":-179},{"name":"y2","type":"int","value":-179},{"name":"next","type":"int","value":0},{"name":"prev","type":"int","value":0}],"polyline":[{"x":0,"y":0},{"x":107,"y":0}]},{"id":81,"x":235,"y":-159,"visible":true,"properties":[{"name":"layer","type":"int","value":1},{"name":"group","type":"int","value":3},{"name":"id","type":"int","value":16},{"name":"fh_layer","type":"int","value":1},{"name":"fh_group","type":"int","value":3},{"name":"fh_id","type":"int","value":16},{"name":"x1","type":"int","value":235},{"name":"x2","type":"int","value":321},{"name":"y1","type":"int","value":-159},{"name":"y2","type":"int","value":-159},{"name":"next","type":"int","value":0},{"name":"prev","type":"int","value":0}],"polyline":[{"x":0,"y":0},{"x":86,"y":0}]},{"id":82,"x":214,"y":-137,"visible":true,"properties":[{"name":"layer","type":"int","value":1},{"name":"group","type":"int","value":3},{"name":"id","type":"int","value":17},{"name":"fh_layer","type":"int","value":1},{"name":"fh_group","type":"int","value":3},{"name":"fh_id","type":"int","value":17},{"name":"x1","type":"int","value":214},{"name":"x2","type":"int","value":297},{"name":"y1","type":"int","value":-137},{"name":"y2","type":"int","value":-137},{"name":"next","type":"int","value":0},{"name":"prev","type":"int","value":0}],"polyline":[{"x":0,"y":0},{"x":83,"y":0}]},{"id":83,"x":193,"y":-116,"visible":true,"properties":[{"name":"layer","type":"int","value":1},{"name":"group","type":"int","value":3},{"name":"id","type":"int","value":18},{"name":"fh_layer","type":"int","value":1},{"name":"fh_group","type":"int","value":3},{"name":"fh_id","type":"int","value":18},{"name":"x1","type":"int","value":193},{"name":"x2","type":"int","value":277},{"name":"y1","type":"int","value":-116},{"name":"y2","type":"int","value":-116},{"name":"next","type":"int","value":0},{"name":"prev","type":"int","value":0}],"polyline":[{"x":0,"y":0},{"x":84,"y":0}]},{"id":84,"x":-346,"y":-171,"visible":true,"properties":[{"name":"layer","type":"int","value":1},{"name":"group","type":"int","value":3},{"name":"id","type":"int","value":19},{"name":"fh_layer","type":"int","value":1},{"name":"fh_group","type":"int","value":3},{"name":"fh_id","type":"int","value":19},{"name":"x1","type":"int","value":-346},{"name":"x2","type":"int","value":-346},{"name":"y1","type":"int","value":-171},{"name":"y2","type":"int","value":181},{"name":"next","type":"int","value":20},{"name":"prev","type":"int","value":0}],"polyline":[{"x":0,"y":0},{"x":0,"y":352}]},{"id":85,"x":-346,"y":181,"visible":true,"properties":[{"name":"layer","type":"int","value":1},{"name":"group","type":"int","value":3},{"name":"id","type":"int","value":20},{"name":"fh_layer","type":"int","value":1},{"name":"fh_group","type":"int","value":3},{"name":"fh_id","type":"int","value":20},{"name":"x1","type":"int","value":-346},{"name":"x2","type":"int","value":-228},{"name":"y1","type":"int","value":181},{"name":"y2","type":"int","value":181},{"name":"next","type":"int","value":21},{"name":"prev","type":"int","value":19}],"polyline":[{"x":0,"y":0},{"x":118,"y":0}]},{"id":86,"x":-228,"y":181,"visible":true,"properties":[{"name":"layer","type":"int","value":1},{"name":"group","type":"int","value":3},{"name":"id","type":"int","value":21},{"name":"fh_layer","type":"int","value":1},{"name":"fh_group","type":"int","value":3},{"name":"fh_id","type":"int","value":21},{"name":"x1","type":"int","value":-228},{"name":"x2","type":"int","value":-227},{"name":"y1","type":"int","value":181},{"name":"y2","type":"int","value":165},{"name":"next","type":"int","value":22},{"name":"prev","type":"int","value":20}],"polyline":[{"x":0,"y":0},{"x":1,"y":-16}]},{"id":87,"x":-227,"y":165,"visible":true,"properties":[{"name":"layer","type":"int","value":1},{"name":"group","type":"int","value":3},{"name":"id","type":"int","value":22},{"name":"fh_layer","type":"int","value":1},{"name":"fh_group","type":"int","value":3},{"name":"fh_id","type":"int","value":22},{"name":"x1","type":"int","value":-227},{"name":"x2","type":"int","value":-210},{"name":"y1","type":"int","value":165},{"name":"y2","type":"int","value":166},{"name":"next","type":"int","value":23},{"name":"prev","type":"int","value":21}],"polyline":[{"x":0,"y":0},{"x":17,"y":1}]},{"id":88,"x":-210,"y":166,"visible":true,"properties":[{"name":"layer","type":"int","value":1},{"name":"group","type":"int","value":3},{"name":"id","type":"int","value":23},{"name":"fh_layer","type":"int","value":1},{"name":"fh_group","type":"int","value":3},{"name":"fh_id","type":"int","value":23},{"name":"x1","type":"int","value":-210},{"name":"x2","type":"int","value":-210},{"name":"y1","type":"int","value":166},{"name":"y2","type":"int","value":148},{"name":"next","type":"int","value":24},{"name":"prev","type":"int","value":22}],"polyline":[{"x":0,"y":0},{"x":0,"y":-18}]},{"id":89,"x":-210,"y":148,"visible":true,"properties":[{"name":"layer","type":"int","value":1},{"name":"group","type":"int","value":3},{"name":"id","type":"int","value":24},{"name":"fh_layer","type":"int","value":1},{"name":"fh_group","type":"int","value":3},{"name":"fh_id","type":"int","value":24},{"name":"x1","type":"int","value":-210},{"name":"x2","type":"int","value":-194},{"name":"y1","type":"int","value":148},{"name":"y2","type":"int","value":148},{"name":"next","type":"int","value":25},{"name":"prev","type":"int","value":23}],"polyline":[{"x":0,"y":0},{"x":16,"y":0}]},{"id":90,"x":-194,"y":148,"visible":true,"properties":[{"name":"layer","type":"int","value":1},{"name":"group","type":"int","value":3},{"name":"id","type":"int","value":25},{"name":"fh_layer","type":"int","value":1},{"name":"fh_group","type":"int","value":3},{"name":"fh_id","type":"int","value":25},{"name":"x1","type":"int","value":-194},{"name":"x2","type":"int","value":-194},{"name":"y1","type":"int","value":148},{"name":"y2","type":"int","value":131},{"name":"next","type":"int","value":26},{"name":"prev","type":"int","value":24}],"polyline":[{"x":0,"y":0},{"x":0,"y":-17}]},{"id":91,"x":-194,"y":131,"visible":true,"properties":[{"name":"layer","type":"int","value":1},{"name":"group","type":"int","value":3},{"name":"id","type":"int","value":26},{"name":"fh_layer","type":"int","value":1},{"name":"fh_group","type":"int","value":3},{"name":"fh_id","type":"int","value":26},{"name":"x1","type":"int","value":-194},{"name":"x2","type":"int","value":-176},{"name":"y1","type":"int","value":131},{"name":"y2","type":"int","value":131},{"name":"next","type":"int","value":27},{"name":"prev","type":"int","value":25}],"polyline":[{"x":0,"y":0},{"x":18,"y":0}]},{"id":92,"x":-176,"y":131,"visible":true,"properties":[{"name":"layer","type":"int","value":1},{"name":"group","type":"int","value":3},{"name":"id","type":"int","value":27},{"name":"fh_layer","type":"int","value":1},{"name":"fh_group","type":"int","value":3},{"name":"fh_id","type":"int","value":27},{"name":"x1","type":"int","value":-176},{"name":"x2","type":"int","value":-176},{"name":"y1","type":"int","value":131},{"name":"y2","type":"int","value":114},{"name":"next","type":"int","value":28},{"name":"prev","type":"int","value":26}],"polyline":[{"x":0,"y":0},{"x":0,"y":-17}]},{"id":93,"x":-176,"y":114,"visible":true,"properties":[{"name":"layer","type":"int","value":1},{"name":"group","type":"int","value":3},{"name":"id","type":"int","value":28},{"name":"fh_layer","type":"int","value":1},{"name":"fh_group","type":"int","value":3},{"name":"fh_id","type":"int","value":28},{"name":"x1","type":"int","value":-176},{"name":"x2","type":"int","value":-159},{"name":"y1","type":"int","value":114},{"name":"y2","type":"int","value":114},{"name":"next","type":"int","value":29},{"name":"prev","type":"int","value":27}],"polyline":[{"x":0,"y":0},{"x":17,"y":0}]},{"id":94,"x":-159,"y":114,"visible":true,"properties":[{"name":"layer","type":"int","value":1},{"name":"group","type":"int","value":3},{"name":"id","type":"int","value":29},{"name":"fh_layer","type":"int","value":1},{"name":"fh_group","type":"int","value":3},{"name":"fh_id","type":"int","value":29},{"name":"x1","type":"int","value":-159},{"name":"x2","type":"int","value":-159},{"name":"y1","type":"int","value":114},{"name":"y2","type":"int","value":96},{"name":"next","type":"int","value":30},{"name":"prev","type":"int","value":28}],"polyline":[{"x":0,"y":0},{"x":0,"y":-18}]},{"id":95,"x":-159,"y":96,"visible":true,"properties":[{"name":"layer","type":"int","value":1},{"name":"group","type":"int","value":3},{"name":"id","type":"int","value":30},{"name":"fh_layer","type":"int","value":1},{"name":"fh_group","type":"int","value":3},{"name":"fh_id","type":"int","value":30},{"name":"x1","type":"int","value":-159},{"name":"x2","type":"int","value":-109},{"name":"y1","type":"int","value":96},{"name":"y2","type":"int","value":96},{"name":"next","type":"int","value":31},{"name":"prev","type":"int","value":29}],"polyline":[{"x":0,"y":0},{"x":50,"y":0}]},{"id":96,"x":-109,"y":96,"visible":true,"properties":[{"name":"layer","type":"int","value":1},{"name":"group","type":"int","value":3},{"name":"id","type":"int","value":31},{"name":"fh_layer","type":"int","value":1},{"name":"fh_group","type":"int","value":3},{"name":"fh_id","type":"int","value":31},{"name":"x1","type":"int","value":-109},{"name":"x2","type":"int","value":-109},{"name":"y1","type":"int","value":96},{"name":"y2","type":"int","value":143},{"name":"next","type":"int","value":32},{"name":"prev","type":"int","value":30}],"polyline":[{"x":0,"y":0},{"x":0,"y":47}]},{"id":97,"x":-109,"y":143,"visible":true,"properties":[{"name":"layer","type":"int","value":1},{"name":"group","type":"int","value":3},{"name":"id","type":"int","value":32},{"name":"fh_layer","type":"int","value":1},{"name":"fh_group","type":"int","value":3},{"name":"fh_id","type":"int","value":32},{"name":"x1","type":"int","value":-109},{"name":"x2","type":"int","value":97},{"name":"y1","type":"int","value":143},{"name":"y2","type":"int","value":143},{"name":"next","type":"int","value":33},{"name":"prev","type":"int","value":31}],"polyline":[{"x":0,"y":0},{"x":206,"y":0}]},{"id":98,"x":97,"y":143,"visible":true,"properties":[{"name":"layer","type":"int","value":1},{"name":"group","type":"int","value":3},{"name":"id","type":"int","value":33},{"name":"fh_layer","type":"int","value":1},{"name":"fh_group","type":"int","value":3},{"name":"fh_id","type":"int","value":33},{"name":"x1","type":"int","value":97},{"name":"x2","type":"int","value":97},{"name":"y1","type":"int","value":143},{"name":"y2","type":"int","value":96},{"name":"next","type":"int","value":34},{"name":"prev","type":"int","value":32}],"polyline":[{"x":0,"y":0},{"x":0,"y":-47}]},{"id":99,"x":97,"y":96,"visible":true,"properties":[{"name":"layer","type":"int","value":1},{"name":"group","type":"int","value":3},{"name":"id","type":"int","value":34},{"name":"fh_layer","type":"int","value":1},{"name":"fh_group","type":"int","value":3},{"name":"fh_id","type":"int","value":34},{"name":"x1","type":"int","value":97},{"name":"x2","type":"int","value":251},{"name":"y1","type":"int","value":96},{"name":"y2","type":"int","value":96},{"name":"next","type":"int","value":35},{"name":"prev","type":"int","value":33}],"polyline":[{"x":0,"y":0},{"x":154,"y":0}]},{"id":100,"x":251,"y":96,"visible":true,"properties":[{"name":"layer","type":"int","value":1},{"name":"group","type":"int","value":3},{"name":"id","type":"int","value":35},{"name":"fh_layer","type":"int","value":1},{"name":"fh_group","type":"int","value":3},{"name":"fh_id","type":"int","value":35},{"name":"x1","type":"int","value":251},{"name":"x2","type":"int","value":251},{"name":"y1","type":"int","value":96},{"name":"y2","type":"int","value":-49},{"name":"next","type":"int","value":0},{"name":"prev","type":"int","value":34}],"polyline":[{"x":0,"y":0},{"x":0,"y":-145}]},{"id":101,"x":162,"y":98,"visible":true,"properties":[{"name":"layer","type":"int","value":1},{"name":"group","type":"int","value":3},{"name":"id","type":"int","value":36},{"name":"fh_layer","type":"int","value":1},{"name":"fh_group","type":"int","value":3},{"name":"fh_id","type":"int","value":36},{"name":"x1","type":"int","value":162},{"name":"x2","type":"int","value":162},{"name":"y1","type":"int","value":98},{"name":"y2","type":"int","value":181},{"name":"next","type":"int","value":37},{"name":"prev","type":"int","value":0}],"polyline":[{"x":0,"y":0},{"x":0,"y":83}]},{"id":102,"x":162,"y":181,"visible":true,"properties":[{"name":"layer","type":"int","value":1},{"name":"group","type":"int","value":3},{"name":"id","type":"int","value":37},{"name":"fh_layer","type":"int","value":1},{"name":"fh_group","type":"int","value":3},{"name":"fh_id","type":"int","value":37},{"name":"x1","type":"int","value":162},{"name":"x2","type":"int","value":334},{"name":"y1","type":"int","value":181},{"name":"y2","type":"int","value":181},{"name":"next","type":"int","value":38},{"name":"prev","type":"int","value":36}],"polyline":[{"x":0,"y":0},{"x":172,"y":0}]},{"id":103,"x":334,"y":181,"visible":true,"properties":[{"name":"layer","type":"int","value":1},{"name":"group","type":"int","value":3},{"name":"id","type":"int","value":38},{"name":"fh_layer","type":"int","value":1},{"name":"fh_group","type":"int","value":3},{"name":"fh_id","type":"int","value":38},{"name":"x1","type":"int","value":334},{"name":"x2","type":"int","value":334},{"name":"y1","type":"int","value":181},{"name":"y2","type":"int","value":16},{"name":"next","type":"int","value":0},{"name":"prev","type":"int","value":37}],"polyline":[{"x":0,"y":0},{"x":0,"y":-165}]},{"id":104,"x":111,"y":128,"visible":true,"properties":[{"name":"layer","type":"int","value":2},{"name":"group","type":"int","value":2},{"name":"id","type":"int","value":39},{"name":"fh_layer","type":"int","value":2},{"name":"fh_group","type":"int","value":2},{"name":"fh_id","type":"int","value":39},{"name":"x1","type":"int","value":111},{"name":"x2","type":"int","value":156},{"name":"y1","type":"int","value":128},{"name":"y2","type":"int","value":128},{"name":"next","type":"int","value":0},{"name":"prev","type":"int","value":0}],"polyline":[{"x":0,"y":0},{"x":45,"y":0}]},{"id":105,"x":-382,"y":183,"visible":true,"properties":[{"name":"layer","type":"int","value":2},{"name":"group","type":"int","value":2},{"name":"id","type":"int","value":40},{"name":"fh_layer","type":"int","value":2},{"name":"fh_group","type":"int","value":2},{"name":"fh_id","type":"int","value":40},{"name":"x1","type":"int","value":-382},{"name":"x2","type":"int","value":383},{"name":"y1","type":"int","value":183},{"name":"y2","type":"int","value":183},{"name":"next","type":"int","value":0},{"name":"prev","type":"int","value":0}],"polyline":[{"x":0,"y":0},{"x":765,"y":0}]}]},{"id":9,"name":"ladderRope","type":"objectgroup","visible":true,"opacity":1,"objects":[{"id":106,"x":213,"y":98,"visible":true,"properties":[{"name":"ladder_id","type":"int","value":1},{"name":"l","type":"int","value":1},{"name":"x","type":"int","value":213},{"name":"uf","type":"int","value":1},{"name":"y1","type":"int","value":98},{"name":"y2","type":"int","value":179},{"name":"page","type":"int","value":2}],"polyline":[{"x":0,"y":0},{"x":0,"y":81}]},{"id":107,"x":-304,"y":-156,"visible":true,"properties":[{"name":"ladder_id","type":"int","value":2},{"name":"l","type":"int","value":1},{"name":"x","type":"int","value":-304},{"name":"uf","type":"int","value":1},{"name":"y1","type":"int","value":-156},{"name":"y2","type":"int","value":140},{"name":"page","type":"int","value":2}],"polyline":[{"x":0,"y":0},{"x":0,"y":296}]}]},{"id":10,"name":"miniMap","type":"objectgroup","visible":true,"opacity":1,"objects":[{"id":108,"x":498,"y":810,"visible":true,"properties":[{"name":"mag","type":"int","value":4},{"name":"centerX","type":"int","value":498},{"name":"centerY","type":"int","value":810},{"name":"canvas_path","type":"string","value":"../../images/30570.png"},{"name":"canvas_width","type":"int","value":62},{"name":"canvas_height","type":"int","value":72},{"name":"canvas_origin_x","type":"int","value":0},{"name":"canvas_origin_y","type":"int","value":0}],"point":true}]}],"tilesets":[{"firstgid":1,"source":"../../tilesets/tile_brownBrick.tsj"},{"firstgid":22,"source":"../../tilesets/obj_job_job_rogue.tsj"},{"firstgid":34,"source":"../../tilesets/obj_guide_miniD_portalEff.tsj"},{"firstgid":35,"source":"../../tilesets/obj_signboard_market_arrow.tsj"}],"properties":[{"name":"bgm","type":"string","value":"Bgm01/BadGuys"},{"name":"town","type":"int","value":1},{"name":"VRTop","type":"int","value":-660},{"name":"cloud","type":"int","value":0},{"name":"VRLeft","type":"int","value":-400},{"name":"VRRight","type":"int","value":400},{"name":"mapDesc","type":"string","value":""},{"name":"mapMark","type":"string","value":"KerningCity"},{"name":"mobRate","type":"float","value":1},{"name":"version","type":"int","value":10},{"name":"VRBottom","type":"int","value":300},{"name":"returnMap","type":"int","value":103000000},{"name":"forcedReturn","type":"int","value":999999999}]}