{"type":"map","orientation":"orthogonal","renderorder":"right-down","infinite":false,"tilewidth":1,"tileheight":1,"width":963,"height":600,"nextlayerid":23,"nextobjectid":54,"layers":[{"id":1,"name":"layer_1_obj","type":"objectgroup","visible":true,"opacity":1,"objects":[{"id":1,"x":-34,"y":23,"visible":true,"properties":[{"name":"layer","type":"int","value":1},{"name":"resource_index","type":"int","value":0},{"name":"oS","type":"string","value":"acc9"},{"name":"l0","type":"string","value":"nautilus"},{"name":"l1","type":"string","value":"land"},{"name":"l2","type":"string","value":"12"},{"name":"z","type":"int","value":9},{"name":"zM","type":"int","value":5},{"name":"f","type":"int","value":0}],"gid":35,"width":311,"height":111},{"id":2,"x":-36,"y":-85,"visible":true,"properties":[{"name":"layer","type":"int","value":1},{"name":"resource_index","type":"int","value":1},{"name":"oS","type":"string","value":"guide"},{"name":"l0","type":"string","value":"tutorial"},{"name":"l1","type":"string","value":"suryun"},{"name":"l2","type":"string","value":"4"},{"name":"z","type":"int","value":9},{"name":"zM","type":"int","value":5},{"name":"f","type":"int","value":0}],"gid":42,"width":316,"height":205},{"id":3,"x":134,"y":78,"visible":true,"properties":[{"name":"layer","type":"int","value":1},{"name":"resource_index","type":"int","value":2},{"name":"oS","type":"string","value":"signboard"},{"name":"l0","type":"string","value":"market"},{"name":"l1","type":"string","value":"arrow"},{"name":"l2","type":"string","value":"5"},{"name":"z","type":"int","value":9},{"name":"zM","type":"int","value":4},{"name":"f","type":"int","value":0}],"gid":57,"width":44,"height":54}]},{"id":2,"name":"layer_3_obj","type":"objectgroup","visible":true,"opacity":1,"objects":[{"id":4,"x":-318,"y":149,"visible":true,"properties":[{"name":"layer","type":"int","value":3},{"name":"resource_index","type":"int","value":0},{"name":"oS","type":"string","value":"acc9"},{"name":"l0","type":"string","value":"nautilusPort"},{"name":"l1","type":"string","value":"land"},{"name":"l2","type":"string","value":"2"},{"name":"z","type":"int","value":6},{"name":"zM","type":"int","value":3},{"name":"f","type":"int","value":0}],"gid":43,"width":294,"height":366},{"id":5,"x":-75,"y":135,"visible":true,"properties":[{"name":"layer","type":"int","value":3},{"name":"resource_index","type":"int","value":1},{"name":"oS","type":"string","value":"guide"},{"name":"l0","type":"string","value":"milepost"},{"name":"l1","type":"string","value":"common"},{"name":"l2","type":"string","value":"1"},{"name":"z","type":"int","value":8},{"name":"zM","type":"int","value":3},{"name":"f","type":"int","value":0}],"gid":36,"width":21,"height":60},{"id":6,"x":-75,"y":101,"visible":true,"properties":[{"name":"layer","type":"int","value":3},{"name":"resource_index","type":"int","value":2},{"name":"oS","type":"string","value":"guide"},{"name":"l0","type":"string","value":"milepost"},{"name":"l1","type":"string","value":"common"},{"name":"l2","type":"string","value":"1"},{"name":"z","type":"int","value":8},{"name":"zM","type":"int","value":3},{"name":"f","type":"int","value":0}],"gid":36,"width":21,"height":60},{"id":7,"x":-104,"y":69,"visible":true,"properties":[{"name":"layer","type":"int","value":3},{"name":"resource_index","type":"int","value":3},{"name":"oS","type":"string","value":"guide"},{"name":"l0","type":"string","value":"milepost"},{"name":"l1","type":"string","value":"backcho"},{"name":"l2","type":"string","value":"2"},{"name":"z","type":"int","value":9},{"name":"zM","type":"int","value":3},{"name":"f","type":"int","value":0}],"gid":47,"width":63,"height":40},{"id":8,"x":-89,"y":116,"visible":true,"properties":[{"name":"layer","type":"int","value":3},{"name":"resource_index","type":"int","value":4},{"name":"oS","type":"string","value":"guide"},{"name":"l0","type":"string","value":"milepost"},{"name":"l1","type":"string","value":"backcho"},{"name":"l2","type":"string","value":"5"},{"name":"z","type":"int","value":9},{"name":"zM","type":"int","value":3},{"name":"f","type":"int","value":0}],"gid":49,"width":64,"height":40}]},{"id":3,"name":"layer_4_obj","type":"objectgroup","visible":true,"opacity":1,"objects":[{"id":9,"x":-317,"y":284,"visible":true,"properties":[{"name":"layer","type":"int","value":4},{"name":"resource_index","type":"int","value":0},{"name":"oS","type":"string","value":"acc9"},{"name":"l0","type":"string","value":"nautilusPort"},{"name":"l1","type":"string","value":"land"},{"name":"l2","type":"string","value":"0"},{"name":"z","type":"int","value":9},{"name":"zM","type":"int","value":0},{"name":"f","type":"int","value":0}],"gid":44,"width":472,"height":158},{"id":10,"x":155,"y":284,"visible":true,"properties":[{"name":"layer","type":"int","value":4},{"name":"resource_index","type":"int","value":1},{"name":"oS","type":"string","value":"acc9"},{"name":"l0","type":"string","value":"nautilusPort"},{"name":"l1","type":"string","value":"land"},{"name":"l2","type":"string","value":"1"},{"name":"z","type":"int","value":9},{"name":"zM","type":"int","value":1},{"name":"f","type":"int","value":0}],"gid":45,"width":167,"height":130},{"id":11,"x":322,"y":284,"visible":true,"properties":[{"name":"layer","type":"int","value":4},{"name":"resource_index","type":"int","value":2},{"name":"oS","type":"string","value":"acc9"},{"name":"l0","type":"string","value":"nautilusPort"},{"name":"l1","type":"string","value":"land"},{"name":"l2","type":"string","value":"1"},{"name":"z","type":"int","value":9},{"name":"zM","type":"int","value":2},{"name":"f","type":"int","value":0}],"gid":45,"width":167,"height":130},{"id":12,"x":406,"y":158,"visible":true,"properties":[{"name":"layer","type":"int","value":4},{"name":"resource_index","type":"int","value":3},{"name":"oS","type":"string","value":"acc9"},{"name":"l0","type":"string","value":"nautilusPort"},{"name":"l1","type":"string","value":"portal"},{"name":"l2","type":"string","value":"0"},{"name":"z","type":"int","value":8},{"name":"zM","type":"int","value":2},{"name":"f","type":"int","value":0}],"gid":61,"width":217,"height":268},{"id":13,"x":489,"y":284,"visible":true,"properties":[{"name":"layer","type":"int","value":4},{"name":"resource_index","type":"int","value":4},{"name":"oS","type":"string","value":"acc9"},{"name":"l0","type":"string","value":"nautilusPort"},{"name":"l1","type":"string","value":"land"},{"name":"l2","type":"string","value":"1"},{"name":"z","type":"int","value":9},{"name":"zM","type":"int","value":2},{"name":"f","type":"int","value":0}],"gid":45,"width":167,"height":130}]},{"id":4,"name":"background_back_0","type":"imagelayer","visible":true,"opacity":1,"image":"../../images/26717.png","imagewidth":58,"imageheight":64,"offsetx":20,"offsety":52,"repeatx":true,"repeaty":true,"parallaxx":1,"parallaxy":1,"properties":[{"name":"a","type":"int","value":255},{"name":"f","type":"int","value":0},{"name":"x","type":"int","value":49},{"name":"y","type":"int","value":84},{"name":"bS","type":"string","value":"nautilusPort"},{"name":"cx","type":"int","value":0},{"name":"cy","type":"int","value":0},{"name":"no","type":"int","value":0},{"name":"rx","type":"int","value":0},{"name":"ry","type":"int","value":0},{"name":"ani","type":"int","value":0},{"name":"type","type":"int","value":3},{"name":"front","type":"int","value":0}]},{"id":5,"name":"background_back_1","type":"imagelayer","visible":true,"opacity":1,"image":"../../images/26718.png","imagewidth":60,"imageheight":578,"offsetx":27,"offsety":-569,"repeatx":true,"repeaty":false,"parallaxx":1,"parallaxy":1,"properties":[{"name":"a","type":"int","value":255},{"name":"f","type":"int","value":0},{"name":"x","type":"int","value":57},{"name":"y","type":"int","value":-280},{"name":"bS","type":"string","value":"nautilusPort"},{"name":"cx","type":"int","value":0},{"name":"cy","type":"int","value":0},{"name":"no","type":"int","value":1},{"name":"rx","type":"int","value":-7},{"name":"ry","type":"int","value":-20},{"name":"ani","type":"int","value":0},{"name":"type","type":"int","value":1},{"name":"front","type":"int","value":0}]},{"id":6,"name":"background_back_2","type":"imagelayer","visible":true,"opacity":1,"image":"../../images/26719.png","imagewidth":800,"imageheight":366,"offsetx":-770,"offsety":-383,"repeatx":true,"repeaty":false,"parallaxx":1,"parallaxy":1,"properties":[{"name":"a","type":"int","value":255},{"name":"f","type":"int","value":0},{"name":"x","type":"int","value":-370},{"name":"y","type":"int","value":-200},{"name":"bS","type":"string","value":"nautilusPort"},{"name":"cx","type":"int","value":800},{"name":"cy","type":"int","value":0},{"name":"no","type":"int","value":2},{"name":"rx","type":"int","value":3},{"name":"ry","type":"int","value":0},{"name":"ani","type":"int","value":0},{"name":"type","type":"int","value":4},{"name":"front","type":"int","value":0}]},{"id":7,"name":"background_back_3","type":"imagelayer","visible":true,"opacity":1,"image":"../../images/26720.png","imagewidth":800,"imageheight":206,"offsetx":32,"offsety":-319,"repeatx":true,"repeaty":false,"parallaxx":1,"parallaxy":1,"properties":[{"name":"a","type":"int","value":255},{"name":"f","type":"int","value":0},{"name":"x","type":"int","value":432},{"name":"y","type":"int","value":-216},{"name":"bS","type":"string","value":"nautilusPort"},{"name":"cx","type":"int","value":800},{"name":"cy","type":"int","value":0},{"name":"no","type":"int","value":3},{"name":"rx","type":"int","value":3},{"name":"ry","type":"int","value":0},{"name":"ani","type":"int","value":0},{"name":"type","type":"int","value":4},{"name":"front","type":"int","value":0}]},{"id":8,"name":"background_back_4","type":"imagelayer","visible":true,"opacity":1,"image":"../../images/26727.png","imagewidth":304,"imageheight":296,"offsetx":247,"offsety":-215,"repeatx":true,"repeaty":false,"parallaxx":1,"parallaxy":1,"properties":[{"name":"a","type":"int","value":255},{"name":"f","type":"int","value":0},{"name":"x","type":"int","value":425},{"name":"y","type":"int","value":-198},{"name":"bS","type":"string","value":"nautilusPort"},{"name":"cx","type":"int","value":7600},{"name":"cy","type":"int","value":0},{"name":"no","type":"int","value":10},{"name":"rx","type":"int","value":10},{"name":"ry","type":"int","value":0},{"name":"ani","type":"int","value":0},{"name":"type","type":"int","value":4},{"name":"front","type":"int","value":0}]},{"id":9,"name":"background_back_5","type":"imagelayer","visible":true,"opacity":1,"image":"../../images/26728.png","imagewidth":328,"imageheight":330,"offsetx":-242,"offsety":-163,"repeatx":false,"repeaty":false,"parallaxx":1,"parallaxy":1,"properties":[{"name":"a","type":"int","value":255},{"name":"f","type":"int","value":0},{"name":"x","type":"int","value":-78},{"name":"y","type":"int","value":2},{"name":"bS","type":"string","value":"nautilusPort"},{"name":"cx","type":"int","value":0},{"name":"cy","type":"int","value":0},{"name":"no","type":"int","value":11},{"name":"rx","type":"int","value":-10},{"name":"ry","type":"int","value":-15},{"name":"ani","type":"int","value":0},{"name":"type","type":"int","value":0},{"name":"front","type":"int","value":0}]},{"id":10,"name":"background_back_6","type":"imagelayer","visible":true,"opacity":1,"image":"../../images/26742.png","imagewidth":33,"imageheight":11,"offsetx":236,"offsety":-187,"repeatx":false,"repeaty":false,"parallaxx":1,"parallaxy":1,"properties":[{"name":"a","type":"int","value":255},{"name":"f","type":"int","value":0},{"name":"x","type":"int","value":266},{"name":"y","type":"int","value":-179},{"name":"bS","type":"string","value":"nautilusPort"},{"name":"cx","type":"int","value":0},{"name":"cy","type":"int","value":0},{"name":"no","type":"int","value":3},{"name":"rx","type":"int","value":-15},{"name":"ry","type":"int","value":-20},{"name":"ani","type":"int","value":1},{"name":"type","type":"int","value":0},{"name":"front","type":"int","value":0}]},{"id":11,"name":"background_back_7","type":"imagelayer","visible":true,"opacity":1,"image":"../../images/26729.png","imagewidth":657,"imageheight":198,"offsetx":-414,"offsety":-185,"repeatx":false,"repeaty":false,"parallaxx":1,"parallaxy":1,"properties":[{"name":"a","type":"int","value":255},{"name":"f","type":"int","value":0},{"name":"x","type":"int","value":-86},{"name":"y","type":"int","value":-86},{"name":"bS","type":"string","value":"nautilusPort"},{"name":"cx","type":"int","value":0},{"name":"cy","type":"int","value":0},{"name":"no","type":"int","value":12},{"name":"rx","type":"int","value":-18},{"name":"ry","type":"int","value":-20},{"name":"ani","type":"int","value":0},{"name":"type","type":"int","value":0},{"name":"front","type":"int","value":0}]},{"id":12,"name":"background_back_8","type":"imagelayer","visible":true,"opacity":1,"image":"../../images/26737.png","imagewidth":61,"imageheight":17,"offsetx":-95,"offsety":-137,"repeatx":false,"repeaty":false,"parallaxx":1,"parallaxy":1,"properties":[{"name":"a","type":"int","value":255},{"name":"f","type":"int","value":0},{"name":"x","type":"int","value":-65},{"name":"y","type":"int","value":-129},{"name":"bS","type":"string","value":"nautilusPort"},{"name":"cx","type":"int","value":0},{"name":"cy","type":"int","value":0},{"name":"no","type":"int","value":2},{"name":"rx","type":"int","value":-25},{"name":"ry","type":"int","value":-30},{"name":"ani","type":"int","value":1},{"name":"type","type":"int","value":0},{"name":"front","type":"int","value":0}]},{"id":13,"name":"background_back_9","type":"imagelayer","visible":true,"opacity":1,"image":"../../images/26722.png","imagewidth":800,"imageheight":180,"offsetx":-349,"offsety":4,"repeatx":true,"repeaty":false,"parallaxx":1,"parallaxy":1,"properties":[{"name":"a","type":"int","value":255},{"name":"f","type":"int","value":0},{"name":"x","type":"int","value":51},{"name":"y","type":"int","value":94},{"name":"bS","type":"string","value":"nautilusPort"},{"name":"cx","type":"int","value":0},{"name":"cy","type":"int","value":0},{"name":"no","type":"int","value":5},{"name":"rx","type":"int","value":-18},{"name":"ry","type":"int","value":-20},{"name":"ani","type":"int","value":0},{"name":"type","type":"int","value":1},{"name":"front","type":"int","value":0}]},{"id":17,"name":"background_back","type":"objectgroup","visible":true,"opacity":1,"objects":[{"id":14,"x":-370,"y":-200,"visible":true,"properties":[{"name":"image_layer_name","type":"string","value":"background_back_2"},{"name":"a","type":"int","value":255},{"name":"f","type":"int","value":0},{"name":"x","type":"int","value":-370},{"name":"y","type":"int","value":-200},{"name":"bS","type":"string","value":"nautilusPort"},{"name":"cx","type":"int","value":800},{"name":"cy","type":"int","value":0},{"name":"no","type":"int","value":2},{"name":"rx","type":"int","value":3},{"name":"ry","type":"int","value":0},{"name":"ani","type":"int","value":0},{"name":"type","type":"int","value":4},{"name":"front","type":"int","value":0}],"point":true},{"id":15,"x":432,"y":-216,"visible":true,"properties":[{"name":"image_layer_name","type":"string","value":"background_back_3"},{"name":"a","type":"int","value":255},{"name":"f","type":"int","value":0},{"name":"x","type":"int","value":432},{"name":"y","type":"int","value":-216},{"name":"bS","type":"string","value":"nautilusPort"},{"name":"cx","type":"int","value":800},{"name":"cy","type":"int","value":0},{"name":"no","type":"int","value":3},{"name":"rx","type":"int","value":3},{"name":"ry","type":"int","value":0},{"name":"ani","type":"int","value":0},{"name":"type","type":"int","value":4},{"name":"front","type":"int","value":0}],"point":true},{"id":16,"x":425,"y":-198,"visible":true,"properties":[{"name":"image_layer_name","type":"string","value":"background_back_4"},{"name":"a","type":"int","value":255},{"name":"f","type":"int","value":0},{"name":"x","type":"int","value":425},{"name":"y","type":"int","value":-198},{"name":"bS","type":"string","value":"nautilusPort"},{"name":"cx","type":"int","value":7600},{"name":"cy","type":"int","value":0},{"name":"no","type":"int","value":10},{"name":"rx","type":"int","value":10},{"name":"ry","type":"int","value":0},{"name":"ani","type":"int","value":0},{"name":"type","type":"int","value":4},{"name":"front","type":"int","value":0}],"point":true}]},{"id":18,"name":"background_front","type":"objectgroup","visible":true,"opacity":1,"objects":[{"id":17,"x":-196,"y":241,"visible":true,"properties":[{"name":"image_layer_name","type":"string","value":"background_front_10"},{"name":"a","type":"int","value":255},{"name":"f","type":"int","value":0},{"name":"x","type":"int","value":-196},{"name":"y","type":"int","value":241},{"name":"bS","type":"string","value":"nautilusPort"},{"name":"cx","type":"int","value":0},{"name":"cy","type":"int","value":0},{"name":"no","type":"int","value":8},{"name":"rx","type":"int","value":-1},{"name":"ry","type":"int","value":-100},{"name":"ani","type":"int","value":0},{"name":"type","type":"int","value":4},{"name":"front","type":"int","value":1}],"point":true},{"id":18,"x":-261,"y":317,"visible":true,"properties":[{"name":"image_layer_name","type":"string","value":"background_front_11"},{"name":"a","type":"int","value":255},{"name":"f","type":"int","value":0},{"name":"x","type":"int","value":-261},{"name":"y","type":"int","value":317},{"name":"bS","type":"string","value":"nautilusPort"},{"name":"cx","type":"int","value":0},{"name":"cy","type":"int","value":0},{"name":"no","type":"int","value":9},{"name":"rx","type":"int","value":1},{"name":"ry","type":"int","value":-100},{"name":"ani","type":"int","value":0},{"name":"type","type":"int","value":4},{"name":"front","type":"int","value":1}],"point":true}]},{"id":14,"name":"background_front_10","type":"imagelayer","visible":true,"opacity":1,"image":"../../images/26725.png","imagewidth":400,"imageheight":123,"offsetx":-396,"offsety":180,"repeatx":true,"repeaty":false,"parallaxx":1,"parallaxy":1,"properties":[{"name":"a","type":"int","value":255},{"name":"f","type":"int","value":0},{"name":"x","type":"int","value":-196},{"name":"y","type":"int","value":241},{"name":"bS","type":"string","value":"nautilusPort"},{"name":"cx","type":"int","value":0},{"name":"cy","type":"int","value":0},{"name":"no","type":"int","value":8},{"name":"rx","type":"int","value":-1},{"name":"ry","type":"int","value":-100},{"name":"ani","type":"int","value":0},{"name":"type","type":"int","value":4},{"name":"front","type":"int","value":1}]},{"id":15,"name":"background_front_11","type":"imagelayer","visible":true,"opacity":1,"image":"../../images/26726.png","imagewidth":400,"imageheight":125,"offsetx":-475,"offsety":203,"repeatx":true,"repeaty":false,"parallaxx":1,"parallaxy":1,"properties":[{"name":"a","type":"int","value":255},{"name":"f","type":"int","value":0},{"name":"x","type":"int","value":-261},{"name":"y","type":"int","value":317},{"name":"bS","type":"string","value":"nautilusPort"},{"name":"cx","type":"int","value":0},{"name":"cy","type":"int","value":0},{"name":"no","type":"int","value":9},{"name":"rx","type":"int","value":1},{"name":"ry","type":"int","value":-100},{"name":"ani","type":"int","value":0},{"name":"type","type":"int","value":4},{"name":"front","type":"int","value":1}]},{"id":16,"name":"background_front_12","type":"imagelayer","visible":true,"opacity":1,"image":"../../images/26735.png","imagewidth":376,"imageheight":52,"offsetx":-410,"offsety":185,"repeatx":true,"repeaty":false,"parallaxx":1,"parallaxy":1,"properties":[{"name":"a","type":"int","value":255},{"name":"f","type":"int","value":0},{"name":"x","type":"int","value":-222},{"name":"y","type":"int","value":211},{"name":"bS","type":"string","value":"nautilusPort"},{"name":"cx","type":"int","value":0},{"name":"cy","type":"int","value":0},{"name":"no","type":"int","value":1},{"name":"rx","type":"int","value":-100},{"name":"ry","type":"int","value":-100},{"name":"ani","type":"int","value":1},{"name":"type","type":"int","value":1},{"name":"front","type":"int","value":1}]},{"id":19,"name":"portal","type":"objectgroup","visible":true,"opacity":1,"objects":[{"id":19,"x":171,"y":89,"visible":true,"properties":[{"name":"x","type":"int","value":171},{"name":"y","type":"int","value":89},{"name":"pn","type":"string","value":"sp"},{"name":"pt","type":"int","value":0},{"name":"tm","type":"int","value":999999999},{"name":"tn","type":"string","value":""}],"point":true},{"id":20,"x":516,"y":121,"visible":true,"properties":[{"name":"x","type":"int","value":516},{"name":"y","type":"int","value":121},{"name":"pn","type":"string","value":"hp00"},{"name":"pt","type":"int","value":1},{"name":"tm","type":"int","value":120000000},{"name":"tn","type":"string","value":"st00"}],"point":true},{"id":21,"x":202,"y":-83,"visible":true,"properties":[{"name":"x","type":"int","value":202},{"name":"y","type":"int","value":-83},{"name":"pn","type":"string","value":"st000"},{"name":"pt","type":"int","value":1},{"name":"tm","type":"int","value":999999999},{"name":"tn","type":"string","value":""},{"name":"horizontalImpact","type":"int","value":0}],"point":true},{"id":22,"x":-263,"y":138,"visible":true,"properties":[{"name":"x","type":"int","value":-263},{"name":"y","type":"int","value":138},{"name":"pn","type":"string","value":"nt01"},{"name":"pt","type":"int","value":2},{"name":"tm","type":"int","value":100030000},{"name":"tn","type":"string","value":"ntgo01"},{"name":"delay","type":"int","value":0},{"name":"script","type":"string","value":""},{"name":"hideTooltip","type":"int","value":0}],"point":true}]},{"id":20,"name":"life","type":"objectgroup","visible":true,"opacity":1,"objects":[{"id":23,"x":155,"y":132,"visible":true,"properties":[{"name":"f","type":"int","value":0},{"name":"x","type":"int","value":155},{"name":"y","type":"int","value":132},{"name":"cy","type":"int","value":155},{"name":"fh","type":"int","value":6},{"name":"id","type":"int","value":1210100},{"name":"rx0","type":"int","value":-297},{"name":"rx1","type":"int","value":155},{"name":"hide","type":"int","value":0},{"name":"type","type":"string","value":"m"},{"name":"mobTime","type":"int","value":0}],"point":true},{"id":24,"x":133,"y":-86,"visible":true,"properties":[{"name":"f","type":"int","value":0},{"name":"x","type":"int","value":133},{"name":"y","type":"int","value":-86},{"name":"cy","type":"int","value":-78},{"name":"fh","type":"int","value":2},{"name":"id","type":"int","value":1095002},{"name":"rx0","type":"int","value":83},{"name":"rx1","type":"int","value":183},{"name":"hide","type":"int","value":0},{"name":"type","type":"string","value":"n"},{"name":"mobTime","type":"int","value":0}],"point":true}]},{"id":21,"name":"foothold","type":"objectgroup","visible":true,"opacity":1,"objects":[{"id":25,"x":-32,"y":-61,"visible":true,"properties":[{"name":"layer","type":"int","value":1},{"name":"group","type":"int","value":5},{"name":"id","type":"int","value":1},{"name":"fh_layer","type":"int","value":1},{"name":"fh_group","type":"int","value":5},{"name":"fh_id","type":"int","value":1},{"name":"x1","type":"int","value":-32},{"name":"x2","type":"int","value":2},{"name":"y1","type":"int","value":-61},{"name":"y2","type":"int","value":-78},{"name":"next","type":"int","value":2},{"name":"prev","type":"int","value":0}],"polyline":[{"x":0,"y":0},{"x":34,"y":-17}]},{"id":26,"x":2,"y":-78,"visible":true,"properties":[{"name":"layer","type":"int","value":1},{"name":"group","type":"int","value":5},{"name":"id","type":"int","value":2},{"name":"fh_layer","type":"int","value":1},{"name":"fh_group","type":"int","value":5},{"name":"fh_id","type":"int","value":2},{"name":"x1","type":"int","value":2},{"name":"x2","type":"int","value":245},{"name":"y1","type":"int","value":-78},{"name":"y2","type":"int","value":-78},{"name":"next","type":"int","value":3},{"name":"prev","type":"int","value":1}],"polyline":[{"x":0,"y":0},{"x":243,"y":0}]},{"id":27,"x":245,"y":-78,"visible":true,"properties":[{"name":"layer","type":"int","value":1},{"name":"group","type":"int","value":5},{"name":"id","type":"int","value":3},{"name":"fh_layer","type":"int","value":1},{"name":"fh_group","type":"int","value":5},{"name":"fh_id","type":"int","value":3},{"name":"x1","type":"int","value":245},{"name":"x2","type":"int","value":276},{"name":"y1","type":"int","value":-78},{"name":"y2","type":"int","value":-55},{"name":"next","type":"int","value":0},{"name":"prev","type":"int","value":2}],"polyline":[{"x":0,"y":0},{"x":31,"y":23}]},{"id":28,"x":-317,"y":135,"visible":true,"properties":[{"name":"layer","type":"int","value":4},{"name":"group","type":"int","value":0},{"name":"id","type":"int","value":4},{"name":"fh_layer","type":"int","value":4},{"name":"fh_group","type":"int","value":0},{"name":"fh_id","type":"int","value":4},{"name":"x1","type":"int","value":-317},{"name":"x2","type":"int","value":-26},{"name":"y1","type":"int","value":135},{"name":"y2","type":"int","value":135},{"name":"next","type":"int","value":5},{"name":"prev","type":"int","value":0}],"polyline":[{"x":0,"y":0},{"x":291,"y":0}]},{"id":29,"x":-26,"y":135,"visible":true,"properties":[{"name":"layer","type":"int","value":4},{"name":"group","type":"int","value":0},{"name":"id","type":"int","value":5},{"name":"fh_layer","type":"int","value":4},{"name":"fh_group","type":"int","value":0},{"name":"fh_id","type":"int","value":5},{"name":"x1","type":"int","value":-26},{"name":"x2","type":"int","value":6},{"name":"y1","type":"int","value":135},{"name":"y2","type":"int","value":155},{"name":"next","type":"int","value":6},{"name":"prev","type":"int","value":4}],"polyline":[{"x":0,"y":0},{"x":32,"y":20}]},{"id":30,"x":6,"y":155,"visible":true,"properties":[{"name":"layer","type":"int","value":4},{"name":"group","type":"int","value":0},{"name":"id","type":"int","value":6},{"name":"fh_layer","type":"int","value":4},{"name":"fh_group","type":"int","value":0},{"name":"fh_id","type":"int","value":6},{"name":"x1","type":"int","value":6},{"name":"x2","type":"int","value":159},{"name":"y1","type":"int","value":155},{"name":"y2","type":"int","value":155},{"name":"next","type":"int","value":7},{"name":"prev","type":"int","value":5}],"polyline":[{"x":0,"y":0},{"x":153,"y":0}]},{"id":31,"x":159,"y":155,"visible":true,"properties":[{"name":"layer","type":"int","value":4},{"name":"group","type":"int","value":1},{"name":"id","type":"int","value":7},{"name":"fh_layer","type":"int","value":4},{"name":"fh_group","type":"int","value":1},{"name":"fh_id","type":"int","value":7},{"name":"x1","type":"int","value":159},{"name":"x2","type":"int","value":325},{"name":"y1","type":"int","value":155},{"name":"y2","type":"int","value":155},{"name":"next","type":"int","value":8},{"name":"prev","type":"int","value":6}],"polyline":[{"x":0,"y":0},{"x":166,"y":0}]},{"id":32,"x":325,"y":155,"visible":true,"properties":[{"name":"layer","type":"int","value":4},{"name":"group","type":"int","value":2},{"name":"id","type":"int","value":8},{"name":"fh_layer","type":"int","value":4},{"name":"fh_group","type":"int","value":2},{"name":"fh_id","type":"int","value":8},{"name":"x1","type":"int","value":325},{"name":"x2","type":"int","value":418},{"name":"y1","type":"int","value":155},{"name":"y2","type":"int","value":155},{"name":"next","type":"int","value":23},{"name":"prev","type":"int","value":7}],"polyline":[{"x":0,"y":0},{"x":93,"y":0}]},{"id":33,"x":456,"y":122,"visible":true,"properties":[{"name":"layer","type":"int","value":4},{"name":"group","type":"int","value":2},{"name":"id","type":"int","value":9},{"name":"fh_layer","type":"int","value":4},{"name":"fh_group","type":"int","value":2},{"name":"fh_id","type":"int","value":9},{"name":"x1","type":"int","value":456},{"name":"x2","type":"int","value":506},{"name":"y1","type":"int","value":122},{"name":"y2","type":"int","value":122},{"name":"next","type":"int","value":24},{"name":"prev","type":"int","value":0}],"polyline":[{"x":0,"y":0},{"x":50,"y":0}]},{"id":34,"x":475,"y":-8,"visible":true,"properties":[{"name":"layer","type":"int","value":4},{"name":"group","type":"int","value":2},{"name":"id","type":"int","value":10},{"name":"fh_layer","type":"int","value":4},{"name":"fh_group","type":"int","value":2},{"name":"fh_id","type":"int","value":10},{"name":"x1","type":"int","value":475},{"name":"x2","type":"int","value":504},{"name":"y1","type":"int","value":-8},{"name":"y2","type":"int","value":-15},{"name":"next","type":"int","value":11},{"name":"prev","type":"int","value":0}],"polyline":[{"x":0,"y":0},{"x":29,"y":-7}]},{"id":35,"x":504,"y":-15,"visible":true,"properties":[{"name":"layer","type":"int","value":4},{"name":"group","type":"int","value":2},{"name":"id","type":"int","value":11},{"name":"fh_layer","type":"int","value":4},{"name":"fh_group","type":"int","value":2},{"name":"fh_id","type":"int","value":11},{"name":"x1","type":"int","value":504},{"name":"x2","type":"int","value":554},{"name":"y1","type":"int","value":-15},{"name":"y2","type":"int","value":-14},{"name":"next","type":"int","value":12},{"name":"prev","type":"int","value":10}],"polyline":[{"x":0,"y":0},{"x":50,"y":1}]},{"id":36,"x":554,"y":-14,"visible":true,"properties":[{"name":"layer","type":"int","value":4},{"name":"group","type":"int","value":2},{"name":"id","type":"int","value":12},{"name":"fh_layer","type":"int","value":4},{"name":"fh_group","type":"int","value":2},{"name":"fh_id","type":"int","value":12},{"name":"x1","type":"int","value":554},{"name":"x2","type":"int","value":586},{"name":"y1","type":"int","value":-14},{"name":"y2","type":"int","value":-5},{"name":"next","type":"int","value":0},{"name":"prev","type":"int","value":11}],"polyline":[{"x":0,"y":0},{"x":32,"y":9}]},{"id":37,"x":447,"y":-64,"visible":true,"properties":[{"name":"layer","type":"int","value":4},{"name":"group","type":"int","value":2},{"name":"id","type":"int","value":13},{"name":"fh_layer","type":"int","value":4},{"name":"fh_group","type":"int","value":2},{"name":"fh_id","type":"int","value":13},{"name":"x1","type":"int","value":447},{"name":"x2","type":"int","value":453},{"name":"y1","type":"int","value":-64},{"name":"y2","type":"int","value":-70},{"name":"next","type":"int","value":14},{"name":"prev","type":"int","value":0}],"polyline":[{"x":0,"y":0},{"x":6,"y":-6}]},{"id":38,"x":453,"y":-70,"visible":true,"properties":[{"name":"layer","type":"int","value":4},{"name":"group","type":"int","value":2},{"name":"id","type":"int","value":14},{"name":"fh_layer","type":"int","value":4},{"name":"fh_group","type":"int","value":2},{"name":"fh_id","type":"int","value":14},{"name":"x1","type":"int","value":453},{"name":"x2","type":"int","value":465},{"name":"y1","type":"int","value":-70},{"name":"y2","type":"int","value":-69},{"name":"next","type":"int","value":15},{"name":"prev","type":"int","value":13}],"polyline":[{"x":0,"y":0},{"x":12,"y":1}]},{"id":39,"x":465,"y":-69,"visible":true,"properties":[{"name":"layer","type":"int","value":4},{"name":"group","type":"int","value":2},{"name":"id","type":"int","value":15},{"name":"fh_layer","type":"int","value":4},{"name":"fh_group","type":"int","value":2},{"name":"fh_id","type":"int","value":15},{"name":"x1","type":"int","value":465},{"name":"x2","type":"int","value":466},{"name":"y1","type":"int","value":-69},{"name":"y2","type":"int","value":-80},{"name":"next","type":"int","value":16},{"name":"prev","type":"int","value":14}],"polyline":[{"x":0,"y":0},{"x":1,"y":-11}]},{"id":40,"x":466,"y":-80,"visible":true,"properties":[{"name":"layer","type":"int","value":4},{"name":"group","type":"int","value":2},{"name":"id","type":"int","value":16},{"name":"fh_layer","type":"int","value":4},{"name":"fh_group","type":"int","value":2},{"name":"fh_id","type":"int","value":16},{"name":"x1","type":"int","value":466},{"name":"x2","type":"int","value":478},{"name":"y1","type":"int","value":-80},{"name":"y2","type":"int","value":-82},{"name":"next","type":"int","value":17},{"name":"prev","type":"int","value":15}],"polyline":[{"x":0,"y":0},{"x":12,"y":-2}]},{"id":41,"x":478,"y":-82,"visible":true,"properties":[{"name":"layer","type":"int","value":4},{"name":"group","type":"int","value":2},{"name":"id","type":"int","value":17},{"name":"fh_layer","type":"int","value":4},{"name":"fh_group","type":"int","value":2},{"name":"fh_id","type":"int","value":17},{"name":"x1","type":"int","value":478},{"name":"x2","type":"int","value":485},{"name":"y1","type":"int","value":-82},{"name":"y2","type":"int","value":-79},{"name":"next","type":"int","value":18},{"name":"prev","type":"int","value":16}],"polyline":[{"x":0,"y":0},{"x":7,"y":3}]},{"id":42,"x":485,"y":-79,"visible":true,"properties":[{"name":"layer","type":"int","value":4},{"name":"group","type":"int","value":2},{"name":"id","type":"int","value":18},{"name":"fh_layer","type":"int","value":4},{"name":"fh_group","type":"int","value":2},{"name":"fh_id","type":"int","value":18},{"name":"x1","type":"int","value":485},{"name":"x2","type":"int","value":489},{"name":"y1","type":"int","value":-79},{"name":"y2","type":"int","value":-74},{"name":"next","type":"int","value":0},{"name":"prev","type":"int","value":17}],"polyline":[{"x":0,"y":0},{"x":4,"y":5}]},{"id":43,"x":488,"y":-53,"visible":true,"properties":[{"name":"layer","type":"int","value":4},{"name":"group","type":"int","value":2},{"name":"id","type":"int","value":19},{"name":"fh_layer","type":"int","value":4},{"name":"fh_group","type":"int","value":2},{"name":"fh_id","type":"int","value":19},{"name":"x1","type":"int","value":488},{"name":"x2","type":"int","value":496},{"name":"y1","type":"int","value":-53},{"name":"y2","type":"int","value":-53},{"name":"next","type":"int","value":20},{"name":"prev","type":"int","value":0}],"polyline":[{"x":0,"y":0},{"x":8,"y":0}]},{"id":44,"x":496,"y":-53,"visible":true,"properties":[{"name":"layer","type":"int","value":4},{"name":"group","type":"int","value":2},{"name":"id","type":"int","value":20},{"name":"fh_layer","type":"int","value":4},{"name":"fh_group","type":"int","value":2},{"name":"fh_id","type":"int","value":20},{"name":"x1","type":"int","value":496},{"name":"x2","type":"int","value":509},{"name":"y1","type":"int","value":-53},{"name":"y2","type":"int","value":-49},{"name":"next","type":"int","value":21},{"name":"prev","type":"int","value":19}],"polyline":[{"x":0,"y":0},{"x":13,"y":4}]},{"id":45,"x":509,"y":-49,"visible":true,"properties":[{"name":"layer","type":"int","value":4},{"name":"group","type":"int","value":2},{"name":"id","type":"int","value":21},{"name":"fh_layer","type":"int","value":4},{"name":"fh_group","type":"int","value":2},{"name":"fh_id","type":"int","value":21},{"name":"x1","type":"int","value":509},{"name":"x2","type":"int","value":525},{"name":"y1","type":"int","value":-49},{"name":"y2","type":"int","value":-49},{"name":"next","type":"int","value":0},{"name":"prev","type":"int","value":20}],"polyline":[{"x":0,"y":0},{"x":16,"y":0}]},{"id":46,"x":418,"y":155,"visible":true,"properties":[{"name":"layer","type":"int","value":4},{"name":"group","type":"int","value":2},{"name":"id","type":"int","value":22},{"name":"fh_layer","type":"int","value":4},{"name":"fh_group","type":"int","value":2},{"name":"fh_id","type":"int","value":22},{"name":"x1","type":"int","value":418},{"name":"x2","type":"int","value":492},{"name":"y1","type":"int","value":155},{"name":"y2","type":"int","value":155},{"name":"next","type":"int","value":28},{"name":"prev","type":"int","value":8}],"polyline":[{"x":0,"y":0},{"x":74,"y":0}]},{"id":47,"x":418,"y":155,"visible":true,"properties":[{"name":"layer","type":"int","value":4},{"name":"group","type":"int","value":2},{"name":"id","type":"int","value":23},{"name":"fh_layer","type":"int","value":4},{"name":"fh_group","type":"int","value":2},{"name":"fh_id","type":"int","value":23},{"name":"x1","type":"int","value":418},{"name":"x2","type":"int","value":506},{"name":"y1","type":"int","value":155},{"name":"y2","type":"int","value":122},{"name":"next","type":"int","value":24},{"name":"prev","type":"int","value":8}],"polyline":[{"x":0,"y":0},{"x":88,"y":-33}]},{"id":48,"x":506,"y":122,"visible":true,"properties":[{"name":"layer","type":"int","value":4},{"name":"group","type":"int","value":2},{"name":"id","type":"int","value":24},{"name":"fh_layer","type":"int","value":4},{"name":"fh_group","type":"int","value":2},{"name":"fh_id","type":"int","value":24},{"name":"x1","type":"int","value":506},{"name":"x2","type":"int","value":607},{"name":"y1","type":"int","value":122},{"name":"y2","type":"int","value":122},{"name":"next","type":"int","value":0},{"name":"prev","type":"int","value":9}],"polyline":[{"x":0,"y":0},{"x":101,"y":0}]},{"id":49,"x":557,"y":55,"visible":true,"properties":[{"name":"layer","type":"int","value":4},{"name":"group","type":"int","value":2},{"name":"id","type":"int","value":25},{"name":"fh_layer","type":"int","value":4},{"name":"fh_group","type":"int","value":2},{"name":"fh_id","type":"int","value":25},{"name":"x1","type":"int","value":557},{"name":"x2","type":"int","value":602},{"name":"y1","type":"int","value":55},{"name":"y2","type":"int","value":55},{"name":"next","type":"int","value":0},{"name":"prev","type":"int","value":0}],"polyline":[{"x":0,"y":0},{"x":45,"y":0}]},{"id":50,"x":526,"y":-105,"visible":true,"properties":[{"name":"layer","type":"int","value":4},{"name":"group","type":"int","value":2},{"name":"id","type":"int","value":26},{"name":"fh_layer","type":"int","value":4},{"name":"fh_group","type":"int","value":2},{"name":"fh_id","type":"int","value":26},{"name":"x1","type":"int","value":526},{"name":"x2","type":"int","value":540},{"name":"y1","type":"int","value":-105},{"name":"y2","type":"int","value":-105},{"name":"next","type":"int","value":0},{"name":"prev","type":"int","value":0}],"polyline":[{"x":0,"y":0},{"x":14,"y":0}]},{"id":51,"x":452,"y":53,"visible":true,"properties":[{"name":"layer","type":"int","value":4},{"name":"group","type":"int","value":2},{"name":"id","type":"int","value":27},{"name":"fh_layer","type":"int","value":4},{"name":"fh_group","type":"int","value":2},{"name":"fh_id","type":"int","value":27},{"name":"x1","type":"int","value":452},{"name":"x2","type":"int","value":473},{"name":"y1","type":"int","value":53},{"name":"y2","type":"int","value":53},{"name":"next","type":"int","value":0},{"name":"prev","type":"int","value":0}],"polyline":[{"x":0,"y":0},{"x":21,"y":0}]},{"id":52,"x":492,"y":155,"visible":true,"properties":[{"name":"layer","type":"int","value":4},{"name":"group","type":"int","value":2},{"name":"id","type":"int","value":28},{"name":"fh_layer","type":"int","value":4},{"name":"fh_group","type":"int","value":2},{"name":"fh_id","type":"int","value":28},{"name":"x1","type":"int","value":492},{"name":"x2","type":"int","value":659},{"name":"y1","type":"int","value":155},{"name":"y2","type":"int","value":155},{"name":"next","type":"int","value":0},{"name":"prev","type":"int","value":22}],"polyline":[{"x":0,"y":0},{"x":167,"y":0}]}]},{"id":22,"name":"ladderRope","type":"objectgroup","visible":true,"opacity":1,"objects":[{"id":53,"x":538,"y":-103,"visible":true,"properties":[{"name":"ladder_id","type":"int","value":1},{"name":"l","type":"int","value":0},{"name":"x","type":"int","value":538},{"name":"uf","type":"int","value":1},{"name":"y1","type":"int","value":-103},{"name":"y2","type":"int","value":-16},{"name":"page","type":"int","value":4}],"polyline":[{"x":0,"y":0},{"x":0,"y":87}]}]}],"tilesets":[{"firstgid":1,"source":"../../tilesets/bg_nautilusPort.tsj"},{"firstgid":21,"source":"../../tilesets/obj_acc9_nautilus_land.tsj"},{"firstgid":36,"source":"../../tilesets/obj_guide_milepost_common.tsj"},{"firstgid":38,"source":"../../tilesets/obj_guide_tutorial_suryun.tsj"},{"firstgid":43,"source":"../../tilesets/obj_acc9_nautilusPort_land.tsj"},{"firstgid":46,"source":"../../tilesets/obj_guide_milepost_backcho.tsj"},{"firstgid":52,"source":"../../tilesets/obj_signboard_market_arrow.tsj"},{"firstgid":59,"source":"../../tilesets/obj_acc9_nautilusPort_portal.tsj"}],"properties":[{"name":"bgm","type":"string","value":"Bgm15/Nautilus"},{"name":"swim","type":"int","value":0},{"name":"town","type":"int","value":0},{"name":"VRTop","type":"int","value":-260},{"name":"cloud","type":"int","value":0},{"name":"VRLeft","type":"int","value":-313},{"name":"VRRight","type":"int","value":650},{"name":"mapMark","type":"string","value":"Nautilus"},{"name":"mobRate","type":"float","value":1},{"name":"version","type":"int","value":10},{"name":"VRBottom","type":"int","value":340},{"name":"returnMap","type":"int","value":120000000},{"name":"fieldLimit","type":"int","value":4},{"name":"hideMinimap","type":"int","value":0},{"name":"forcedReturn","type":"int","value":999999999}]}