{"type":"map","orientation":"orthogonal","renderorder":"right-down","infinite":false,"tilewidth":1,"tileheight":1,"width":1258,"height":731,"nextlayerid":47,"nextobjectid":135,"layers":[{"id":1,"name":"layer_2_obj","type":"objectgroup","visible":true,"opacity":1,"objects":[{"id":1,"x":-1871,"y":-1880,"visible":true,"properties":[{"name":"layer","type":"int","value":2},{"name":"resource_index","type":"int","value":0},{"name":"oS","type":"string","value":"acc11"},{"name":"l0","type":"string","value":"erebTW"},{"name":"l1","type":"string","value":"knights"},{"name":"l2","type":"string","value":"1"},{"name":"z","type":"int","value":9},{"name":"zM","type":"int","value":9},{"name":"f","type":"int","value":0}],"gid":43,"width":56,"height":219},{"id":2,"x":-2666,"y":-1881,"visible":true,"properties":[{"name":"layer","type":"int","value":2},{"name":"resource_index","type":"int","value":1},{"name":"oS","type":"string","value":"acc11"},{"name":"l0","type":"string","value":"erebTW"},{"name":"l1","type":"string","value":"knights"},{"name":"l2","type":"string","value":"1"},{"name":"z","type":"int","value":9},{"name":"zM","type":"int","value":16},{"name":"f","type":"int","value":0}],"gid":43,"width":56,"height":219},{"id":3,"x":-2508,"y":-1881,"visible":true,"properties":[{"name":"layer","type":"int","value":2},{"name":"resource_index","type":"int","value":2},{"name":"oS","type":"string","value":"acc11"},{"name":"l0","type":"string","value":"erebTW"},{"name":"l1","type":"string","value":"knights"},{"name":"l2","type":"string","value":"1"},{"name":"z","type":"int","value":9},{"name":"zM","type":"int","value":15},{"name":"f","type":"int","value":0}],"gid":43,"width":56,"height":219},{"id":4,"x":-2029,"y":-1880,"visible":true,"properties":[{"name":"layer","type":"int","value":2},{"name":"resource_index","type":"int","value":3},{"name":"oS","type":"string","value":"acc11"},{"name":"l0","type":"string","value":"erebTW"},{"name":"l1","type":"string","value":"knights"},{"name":"l2","type":"string","value":"1"},{"name":"z","type":"int","value":9},{"name":"zM","type":"int","value":14},{"name":"f","type":"int","value":0}],"gid":43,"width":56,"height":219},{"id":5,"x":-2875,"y":-1771,"visible":true,"properties":[{"name":"layer","type":"int","value":2},{"name":"resource_index","type":"int","value":4},{"name":"oS","type":"string","value":"acc11"},{"name":"l0","type":"string","value":"erebTW"},{"name":"l1","type":"string","value":"knights"},{"name":"l2","type":"string","value":"0"},{"name":"z","type":"int","value":10},{"name":"zM","type":"int","value":9},{"name":"f","type":"int","value":0}],"gid":42,"width":1267,"height":110},{"id":6,"x":-2875,"y":-2099,"visible":true,"properties":[{"name":"layer","type":"int","value":2},{"name":"resource_index","type":"int","value":5},{"name":"oS","type":"string","value":"acc11"},{"name":"l0","type":"string","value":"erebTW"},{"name":"l1","type":"string","value":"knights"},{"name":"l2","type":"string","value":"0"},{"name":"z","type":"int","value":10},{"name":"zM","type":"int","value":16},{"name":"f","type":"int","value":0}],"gid":42,"width":1267,"height":110}]},{"id":2,"name":"layer_3_obj","type":"objectgroup","visible":true,"opacity":1,"objects":[{"id":39,"x":-2916,"y":-2179,"visible":true,"properties":[{"name":"layer","type":"int","value":3},{"name":"resource_index","type":"int","value":0},{"name":"oS","type":"string","value":"acc11"},{"name":"l0","type":"string","value":"erebTW"},{"name":"l1","type":"string","value":"knights"},{"name":"l2","type":"string","value":"3"},{"name":"z","type":"int","value":9},{"name":"zM","type":"int","value":27},{"name":"f","type":"int","value":0}],"gid":45,"width":234,"height":329},{"id":40,"x":-1797,"y":-1850,"visible":true,"properties":[{"name":"layer","type":"int","value":3},{"name":"resource_index","type":"int","value":1},{"name":"oS","type":"string","value":"acc11"},{"name":"l0","type":"string","value":"erebTW"},{"name":"l1","type":"string","value":"knights"},{"name":"l2","type":"string","value":"3"},{"name":"z","type":"int","value":9},{"name":"zM","type":"int","value":12},{"name":"f","type":"int","value":1}],"gid":45,"width":234,"height":329},{"id":41,"x":-2916,"y":-1850,"visible":true,"properties":[{"name":"layer","type":"int","value":3},{"name":"resource_index","type":"int","value":2},{"name":"oS","type":"string","value":"acc11"},{"name":"l0","type":"string","value":"erebTW"},{"name":"l1","type":"string","value":"knights"},{"name":"l2","type":"string","value":"3"},{"name":"z","type":"int","value":9},{"name":"zM","type":"int","value":13},{"name":"f","type":"int","value":0}],"gid":45,"width":234,"height":329},{"id":42,"x":-1797,"y":-2179,"visible":true,"properties":[{"name":"layer","type":"int","value":3},{"name":"resource_index","type":"int","value":3},{"name":"oS","type":"string","value":"acc11"},{"name":"l0","type":"string","value":"erebTW"},{"name":"l1","type":"string","value":"knights"},{"name":"l2","type":"string","value":"3"},{"name":"z","type":"int","value":9},{"name":"zM","type":"int","value":28},{"name":"f","type":"int","value":1}],"gid":45,"width":234,"height":329}]},{"id":3,"name":"layer_3_tile","type":"objectgroup","visible":true,"opacity":1,"objects":[{"id":7,"x":-2880,"y":-1595,"visible":true,"properties":[{"name":"layer","type":"int","value":3},{"name":"resource_index","type":"int","value":0},{"name":"u","type":"string","value":"enH1"},{"name":"no","type":"int","value":0},{"name":"zM","type":"int","value":0}],"gid":30,"width":90,"height":25},{"id":8,"x":-2880,"y":-1620,"visible":true,"properties":[{"name":"layer","type":"int","value":3},{"name":"resource_index","type":"int","value":1},{"name":"u","type":"string","value":"enH0"},{"name":"no","type":"int","value":0},{"name":"zM","type":"int","value":0}],"gid":31,"width":90,"height":25},{"id":9,"x":-2700,"y":-1595,"visible":true,"properties":[{"name":"layer","type":"int","value":3},{"name":"resource_index","type":"int","value":2},{"name":"u","type":"string","value":"enH1"},{"name":"no","type":"int","value":0},{"name":"zM","type":"int","value":0}],"gid":30,"width":90,"height":25},{"id":10,"x":-2700,"y":-1620,"visible":true,"properties":[{"name":"layer","type":"int","value":3},{"name":"resource_index","type":"int","value":3},{"name":"u","type":"string","value":"enH0"},{"name":"no","type":"int","value":0},{"name":"zM","type":"int","value":0}],"gid":31,"width":90,"height":25},{"id":11,"x":-2790,"y":-1620,"visible":true,"properties":[{"name":"layer","type":"int","value":3},{"name":"resource_index","type":"int","value":4},{"name":"u","type":"string","value":"enH0"},{"name":"no","type":"int","value":0},{"name":"zM","type":"int","value":0}],"gid":31,"width":90,"height":25},{"id":12,"x":-2790,"y":-1595,"visible":true,"properties":[{"name":"layer","type":"int","value":3},{"name":"resource_index","type":"int","value":5},{"name":"u","type":"string","value":"enH1"},{"name":"no","type":"int","value":0},{"name":"zM","type":"int","value":0}],"gid":30,"width":90,"height":25},{"id":13,"x":-2610,"y":-1595,"visible":true,"properties":[{"name":"layer","type":"int","value":3},{"name":"resource_index","type":"int","value":6},{"name":"u","type":"string","value":"enH1"},{"name":"no","type":"int","value":0},{"name":"zM","type":"int","value":0}],"gid":30,"width":90,"height":25},{"id":14,"x":-2610,"y":-1620,"visible":true,"properties":[{"name":"layer","type":"int","value":3},{"name":"resource_index","type":"int","value":7},{"name":"u","type":"string","value":"enH0"},{"name":"no","type":"int","value":0},{"name":"zM","type":"int","value":0}],"gid":31,"width":90,"height":25},{"id":15,"x":-2520,"y":-1595,"visible":true,"properties":[{"name":"layer","type":"int","value":3},{"name":"resource_index","type":"int","value":8},{"name":"u","type":"string","value":"enH1"},{"name":"no","type":"int","value":0},{"name":"zM","type":"int","value":0}],"gid":30,"width":90,"height":25},{"id":16,"x":-2520,"y":-1620,"visible":true,"properties":[{"name":"layer","type":"int","value":3},{"name":"resource_index","type":"int","value":9},{"name":"u","type":"string","value":"enH0"},{"name":"no","type":"int","value":0},{"name":"zM","type":"int","value":0}],"gid":31,"width":90,"height":25},{"id":17,"x":-2430,"y":-1595,"visible":true,"properties":[{"name":"layer","type":"int","value":3},{"name":"resource_index","type":"int","value":10},{"name":"u","type":"string","value":"enH1"},{"name":"no","type":"int","value":0},{"name":"zM","type":"int","value":0}],"gid":30,"width":90,"height":25},{"id":18,"x":-2430,"y":-1620,"visible":true,"properties":[{"name":"layer","type":"int","value":3},{"name":"resource_index","type":"int","value":11},{"name":"u","type":"string","value":"enH0"},{"name":"no","type":"int","value":0},{"name":"zM","type":"int","value":0}],"gid":31,"width":90,"height":25},{"id":19,"x":-2340,"y":-1595,"visible":true,"properties":[{"name":"layer","type":"int","value":3},{"name":"resource_index","type":"int","value":12},{"name":"u","type":"string","value":"enH1"},{"name":"no","type":"int","value":0},{"name":"zM","type":"int","value":0}],"gid":30,"width":90,"height":25},{"id":20,"x":-2340,"y":-1620,"visible":true,"properties":[{"name":"layer","type":"int","value":3},{"name":"resource_index","type":"int","value":13},{"name":"u","type":"string","value":"enH0"},{"name":"no","type":"int","value":0},{"name":"zM","type":"int","value":0}],"gid":31,"width":90,"height":25},{"id":21,"x":-2250,"y":-1620,"visible":true,"properties":[{"name":"layer","type":"int","value":3},{"name":"resource_index","type":"int","value":14},{"name":"u","type":"string","value":"enH0"},{"name":"no","type":"int","value":0},{"name":"zM","type":"int","value":0}],"gid":31,"width":90,"height":25},{"id":22,"x":-2250,"y":-1595,"visible":true,"properties":[{"name":"layer","type":"int","value":3},{"name":"resource_index","type":"int","value":15},{"name":"u","type":"string","value":"enH1"},{"name":"no","type":"int","value":0},{"name":"zM","type":"int","value":0}],"gid":30,"width":90,"height":25},{"id":23,"x":-2070,"y":-1595,"visible":true,"properties":[{"name":"layer","type":"int","value":3},{"name":"resource_index","type":"int","value":16},{"name":"u","type":"string","value":"enH1"},{"name":"no","type":"int","value":0},{"name":"zM","type":"int","value":0}],"gid":30,"width":90,"height":25},{"id":24,"x":-2070,"y":-1620,"visible":true,"properties":[{"name":"layer","type":"int","value":3},{"name":"resource_index","type":"int","value":17},{"name":"u","type":"string","value":"enH0"},{"name":"no","type":"int","value":0},{"name":"zM","type":"int","value":0}],"gid":31,"width":90,"height":25},{"id":25,"x":-2160,"y":-1620,"visible":true,"properties":[{"name":"layer","type":"int","value":3},{"name":"resource_index","type":"int","value":18},{"name":"u","type":"string","value":"enH0"},{"name":"no","type":"int","value":0},{"name":"zM","type":"int","value":0}],"gid":31,"width":90,"height":25},{"id":26,"x":-2160,"y":-1595,"visible":true,"properties":[{"name":"layer","type":"int","value":3},{"name":"resource_index","type":"int","value":19},{"name":"u","type":"string","value":"enH1"},{"name":"no","type":"int","value":0},{"name":"zM","type":"int","value":0}],"gid":30,"width":90,"height":25},{"id":27,"x":-1800,"y":-1595,"visible":true,"properties":[{"name":"layer","type":"int","value":3},{"name":"resource_index","type":"int","value":20},{"name":"u","type":"string","value":"enH1"},{"name":"no","type":"int","value":0},{"name":"zM","type":"int","value":0}],"gid":30,"width":90,"height":25},{"id":28,"x":-1800,"y":-1620,"visible":true,"properties":[{"name":"layer","type":"int","value":3},{"name":"resource_index","type":"int","value":21},{"name":"u","type":"string","value":"enH0"},{"name":"no","type":"int","value":0},{"name":"zM","type":"int","value":0}],"gid":31,"width":90,"height":25},{"id":29,"x":-1890,"y":-1595,"visible":true,"properties":[{"name":"layer","type":"int","value":3},{"name":"resource_index","type":"int","value":22},{"name":"u","type":"string","value":"enH1"},{"name":"no","type":"int","value":0},{"name":"zM","type":"int","value":0}],"gid":30,"width":90,"height":25},{"id":30,"x":-1890,"y":-1620,"visible":true,"properties":[{"name":"layer","type":"int","value":3},{"name":"resource_index","type":"int","value":23},{"name":"u","type":"string","value":"enH0"},{"name":"no","type":"int","value":0},{"name":"zM","type":"int","value":0}],"gid":31,"width":90,"height":25},{"id":31,"x":-1980,"y":-1595,"visible":true,"properties":[{"name":"layer","type":"int","value":3},{"name":"resource_index","type":"int","value":24},{"name":"u","type":"string","value":"enH1"},{"name":"no","type":"int","value":0},{"name":"zM","type":"int","value":0}],"gid":30,"width":90,"height":25},{"id":32,"x":-1980,"y":-1620,"visible":true,"properties":[{"name":"layer","type":"int","value":3},{"name":"resource_index","type":"int","value":25},{"name":"u","type":"string","value":"enH0"},{"name":"no","type":"int","value":0},{"name":"zM","type":"int","value":0}],"gid":31,"width":90,"height":25},{"id":33,"x":-1710,"y":-1595,"visible":true,"properties":[{"name":"layer","type":"int","value":3},{"name":"resource_index","type":"int","value":26},{"name":"u","type":"string","value":"enH1"},{"name":"no","type":"int","value":0},{"name":"zM","type":"int","value":0}],"gid":30,"width":90,"height":25},{"id":34,"x":-1710,"y":-1620,"visible":true,"properties":[{"name":"layer","type":"int","value":3},{"name":"resource_index","type":"int","value":27},{"name":"u","type":"string","value":"enH0"},{"name":"no","type":"int","value":0},{"name":"zM","type":"int","value":0}],"gid":31,"width":90,"height":25},{"id":35,"x":-1620,"y":-1595,"visible":true,"properties":[{"name":"layer","type":"int","value":3},{"name":"resource_index","type":"int","value":28},{"name":"u","type":"string","value":"enH1"},{"name":"no","type":"int","value":0},{"name":"zM","type":"int","value":0}],"gid":30,"width":90,"height":25},{"id":36,"x":-1620,"y":-1620,"visible":true,"properties":[{"name":"layer","type":"int","value":3},{"name":"resource_index","type":"int","value":29},{"name":"u","type":"string","value":"enH0"},{"name":"no","type":"int","value":0},{"name":"zM","type":"int","value":0}],"gid":31,"width":90,"height":25},{"id":37,"x":-2970,"y":-1595,"visible":true,"properties":[{"name":"layer","type":"int","value":3},{"name":"resource_index","type":"int","value":30},{"name":"u","type":"string","value":"enH1"},{"name":"no","type":"int","value":0},{"name":"zM","type":"int","value":0}],"gid":30,"width":90,"height":25},{"id":38,"x":-2970,"y":-1620,"visible":true,"properties":[{"name":"layer","type":"int","value":3},{"name":"resource_index","type":"int","value":31},{"name":"u","type":"string","value":"enH0"},{"name":"no","type":"int","value":0},{"name":"zM","type":"int","value":0}],"gid":31,"width":90,"height":25}]},{"id":4,"name":"layer_4_obj","type":"objectgroup","visible":true,"opacity":1,"objects":[{"id":43,"x":-1945,"y":-1829,"visible":true,"properties":[{"name":"layer","type":"int","value":4},{"name":"resource_index","type":"int","value":0},{"name":"oS","type":"string","value":"connect"},{"name":"l0","type":"string","value":"ladder"},{"name":"l1","type":"string","value":"66"},{"name":"l2","type":"string","value":"0"},{"name":"z","type":"int","value":9},{"name":"zM","type":"int","value":10},{"name":"f","type":"int","value":0}],"gid":37,"width":56,"height":25},{"id":44,"x":-1945,"y":-1765,"visible":true,"properties":[{"name":"layer","type":"int","value":4},{"name":"resource_index","type":"int","value":1},{"name":"oS","type":"string","value":"connect"},{"name":"l0","type":"string","value":"ladder"},{"name":"l1","type":"string","value":"66"},{"name":"l2","type":"string","value":"3"},{"name":"z","type":"int","value":9},{"name":"zM","type":"int","value":8},{"name":"f","type":"int","value":0}],"gid":38,"width":48,"height":64},{"id":45,"x":-1945,"y":-1701,"visible":true,"properties":[{"name":"layer","type":"int","value":4},{"name":"resource_index","type":"int","value":2},{"name":"oS","type":"string","value":"connect"},{"name":"l0","type":"string","value":"ladder"},{"name":"l1","type":"string","value":"66"},{"name":"l2","type":"string","value":"3"},{"name":"z","type":"int","value":9},{"name":"zM","type":"int","value":5},{"name":"f","type":"int","value":0}],"gid":38,"width":48,"height":64},{"id":46,"x":-1945,"y":-1669,"visible":true,"properties":[{"name":"layer","type":"int","value":4},{"name":"resource_index","type":"int","value":3},{"name":"oS","type":"string","value":"connect"},{"name":"l0","type":"string","value":"ladder"},{"name":"l1","type":"string","value":"66"},{"name":"l2","type":"string","value":"1"},{"name":"z","type":"int","value":9},{"name":"zM","type":"int","value":4},{"name":"f","type":"int","value":0}],"gid":39,"width":48,"height":32},{"id":47,"x":-1945,"y":-1650,"visible":true,"properties":[{"name":"layer","type":"int","value":4},{"name":"resource_index","type":"int","value":4},{"name":"oS","type":"string","value":"connect"},{"name":"l0","type":"string","value":"ladder"},{"name":"l1","type":"string","value":"66"},{"name":"l2","type":"string","value":"2"},{"name":"z","type":"int","value":9},{"name":"zM","type":"int","value":1},{"name":"f","type":"int","value":0}],"gid":40,"width":48,"height":19},{"id":48,"x":-2586,"y":-2093,"visible":true,"properties":[{"name":"layer","type":"int","value":4},{"name":"resource_index","type":"int","value":5},{"name":"oS","type":"string","value":"connect"},{"name":"l0","type":"string","value":"ladder"},{"name":"l1","type":"string","value":"66"},{"name":"l2","type":"string","value":"3"},{"name":"z","type":"int","value":9},{"name":"zM","type":"int","value":24},{"name":"f","type":"int","value":0}],"gid":38,"width":48,"height":64},{"id":49,"x":-2586,"y":-2029,"visible":true,"properties":[{"name":"layer","type":"int","value":4},{"name":"resource_index","type":"int","value":6},{"name":"oS","type":"string","value":"connect"},{"name":"l0","type":"string","value":"ladder"},{"name":"l1","type":"string","value":"66"},{"name":"l2","type":"string","value":"3"},{"name":"z","type":"int","value":9},{"name":"zM","type":"int","value":21},{"name":"f","type":"int","value":0}],"gid":38,"width":48,"height":64},{"id":50,"x":-2586,"y":-1997,"visible":true,"properties":[{"name":"layer","type":"int","value":4},{"name":"resource_index","type":"int","value":7},{"name":"oS","type":"string","value":"connect"},{"name":"l0","type":"string","value":"ladder"},{"name":"l1","type":"string","value":"66"},{"name":"l2","type":"string","value":"1"},{"name":"z","type":"int","value":9},{"name":"zM","type":"int","value":20},{"name":"f","type":"int","value":0}],"gid":39,"width":48,"height":32},{"id":51,"x":-2586,"y":-1978,"visible":true,"properties":[{"name":"layer","type":"int","value":4},{"name":"resource_index","type":"int","value":8},{"name":"oS","type":"string","value":"connect"},{"name":"l0","type":"string","value":"ladder"},{"name":"l1","type":"string","value":"66"},{"name":"l2","type":"string","value":"2"},{"name":"z","type":"int","value":9},{"name":"zM","type":"int","value":17},{"name":"f","type":"int","value":0}],"gid":40,"width":48,"height":19},{"id":52,"x":-2586,"y":-2157,"visible":true,"properties":[{"name":"layer","type":"int","value":4},{"name":"resource_index","type":"int","value":9},{"name":"oS","type":"string","value":"connect"},{"name":"l0","type":"string","value":"ladder"},{"name":"l1","type":"string","value":"66"},{"name":"l2","type":"string","value":"0"},{"name":"z","type":"int","value":9},{"name":"zM","type":"int","value":25},{"name":"f","type":"int","value":0}],"gid":37,"width":56,"height":25},{"id":53,"x":-2586,"y":-1829,"visible":true,"properties":[{"name":"layer","type":"int","value":4},{"name":"resource_index","type":"int","value":10},{"name":"oS","type":"string","value":"connect"},{"name":"l0","type":"string","value":"ladder"},{"name":"l1","type":"string","value":"66"},{"name":"l2","type":"string","value":"0"},{"name":"z","type":"int","value":9},{"name":"zM","type":"int","value":11},{"name":"f","type":"int","value":0}],"gid":37,"width":56,"height":25},{"id":54,"x":-2586,"y":-1765,"visible":true,"properties":[{"name":"layer","type":"int","value":4},{"name":"resource_index","type":"int","value":11},{"name":"oS","type":"string","value":"connect"},{"name":"l0","type":"string","value":"ladder"},{"name":"l1","type":"string","value":"66"},{"name":"l2","type":"string","value":"3"},{"name":"z","type":"int","value":9},{"name":"zM","type":"int","value":7},{"name":"f","type":"int","value":0}],"gid":38,"width":48,"height":64},{"id":55,"x":-2586,"y":-1701,"visible":true,"properties":[{"name":"layer","type":"int","value":4},{"name":"resource_index","type":"int","value":12},{"name":"oS","type":"string","value":"connect"},{"name":"l0","type":"string","value":"ladder"},{"name":"l1","type":"string","value":"66"},{"name":"l2","type":"string","value":"3"},{"name":"z","type":"int","value":9},{"name":"zM","type":"int","value":6},{"name":"f","type":"int","value":0}],"gid":38,"width":48,"height":64},{"id":56,"x":-2586,"y":-1669,"visible":true,"properties":[{"name":"layer","type":"int","value":4},{"name":"resource_index","type":"int","value":13},{"name":"oS","type":"string","value":"connect"},{"name":"l0","type":"string","value":"ladder"},{"name":"l1","type":"string","value":"66"},{"name":"l2","type":"string","value":"1"},{"name":"z","type":"int","value":9},{"name":"zM","type":"int","value":3},{"name":"f","type":"int","value":0}],"gid":39,"width":48,"height":32},{"id":57,"x":-2586,"y":-1650,"visible":true,"properties":[{"name":"layer","type":"int","value":4},{"name":"resource_index","type":"int","value":14},{"name":"oS","type":"string","value":"connect"},{"name":"l0","type":"string","value":"ladder"},{"name":"l1","type":"string","value":"66"},{"name":"l2","type":"string","value":"2"},{"name":"z","type":"int","value":9},{"name":"zM","type":"int","value":2},{"name":"f","type":"int","value":0}],"gid":40,"width":48,"height":19},{"id":58,"x":-1945,"y":-2157,"visible":true,"properties":[{"name":"layer","type":"int","value":4},{"name":"resource_index","type":"int","value":15},{"name":"oS","type":"string","value":"connect"},{"name":"l0","type":"string","value":"ladder"},{"name":"l1","type":"string","value":"66"},{"name":"l2","type":"string","value":"0"},{"name":"z","type":"int","value":9},{"name":"zM","type":"int","value":26},{"name":"f","type":"int","value":0}],"gid":37,"width":56,"height":25},{"id":59,"x":-1945,"y":-2093,"visible":true,"properties":[{"name":"layer","type":"int","value":4},{"name":"resource_index","type":"int","value":16},{"name":"oS","type":"string","value":"connect"},{"name":"l0","type":"string","value":"ladder"},{"name":"l1","type":"string","value":"66"},{"name":"l2","type":"string","value":"3"},{"name":"z","type":"int","value":9},{"name":"zM","type":"int","value":23},{"name":"f","type":"int","value":0}],"gid":38,"width":48,"height":64},{"id":60,"x":-1945,"y":-2029,"visible":true,"properties":[{"name":"layer","type":"int","value":4},{"name":"resource_index","type":"int","value":17},{"name":"oS","type":"string","value":"connect"},{"name":"l0","type":"string","value":"ladder"},{"name":"l1","type":"string","value":"66"},{"name":"l2","type":"string","value":"3"},{"name":"z","type":"int","value":9},{"name":"zM","type":"int","value":22},{"name":"f","type":"int","value":0}],"gid":38,"width":48,"height":64},{"id":61,"x":-1945,"y":-1997,"visible":true,"properties":[{"name":"layer","type":"int","value":4},{"name":"resource_index","type":"int","value":18},{"name":"oS","type":"string","value":"connect"},{"name":"l0","type":"string","value":"ladder"},{"name":"l1","type":"string","value":"66"},{"name":"l2","type":"string","value":"1"},{"name":"z","type":"int","value":9},{"name":"zM","type":"int","value":19},{"name":"f","type":"int","value":0}],"gid":39,"width":48,"height":32},{"id":62,"x":-1945,"y":-1978,"visible":true,"properties":[{"name":"layer","type":"int","value":4},{"name":"resource_index","type":"int","value":19},{"name":"oS","type":"string","value":"connect"},{"name":"l0","type":"string","value":"ladder"},{"name":"l1","type":"string","value":"66"},{"name":"l2","type":"string","value":"2"},{"name":"z","type":"int","value":9},{"name":"zM","type":"int","value":18},{"name":"f","type":"int","value":0}],"gid":40,"width":48,"height":19}]},{"id":5,"name":"background_back_0","type":"imagelayer","visible":true,"opacity":1,"image":"../../images/27592.png","imagewidth":30,"imageheight":30,"offsetx":-15,"offsety":-15,"repeatx":true,"repeaty":true,"parallaxx":1,"parallaxy":1,"properties":[{"name":"a","type":"int","value":255},{"name":"f","type":"int","value":0},{"name":"x","type":"int","value":0},{"name":"y","type":"int","value":0},{"name":"bS","type":"string","value":"ereb"},{"name":"cx","type":"int","value":0},{"name":"cy","type":"int","value":0},{"name":"no","type":"int","value":0},{"name":"rx","type":"int","value":0},{"name":"ry","type":"int","value":0},{"name":"ani","type":"int","value":0},{"name":"type","type":"int","value":3},{"name":"front","type":"int","value":0}]},{"id":6,"name":"background_back_1","type":"imagelayer","visible":true,"opacity":1,"image":"../../images/27593.png","imagewidth":10,"imageheight":537,"offsetx":92,"offsety":-721,"repeatx":true,"repeaty":false,"parallaxx":1,"parallaxy":1,"properties":[{"name":"a","type":"int","value":255},{"name":"f","type":"int","value":0},{"name":"x","type":"int","value":97},{"name":"y","type":"int","value":-453},{"name":"bS","type":"string","value":"ereb"},{"name":"cx","type":"int","value":0},{"name":"cy","type":"int","value":0},{"name":"no","type":"int","value":1},{"name":"rx","type":"int","value":0},{"name":"ry","type":"int","value":-100},{"name":"ani","type":"int","value":0},{"name":"type","type":"int","value":1},{"name":"front","type":"int","value":0}]},{"id":7,"name":"background_back_2","type":"imagelayer","visible":true,"opacity":1,"image":"../../images/27594.png","imagewidth":331,"imageheight":175,"offsetx":-433,"offsety":-565,"repeatx":true,"repeaty":false,"parallaxx":1,"parallaxy":1,"properties":[{"name":"a","type":"int","value":255},{"name":"f","type":"int","value":0},{"name":"x","type":"int","value":-268},{"name":"y","type":"int","value":-478},{"name":"bS","type":"string","value":"ereb"},{"name":"cx","type":"int","value":1200},{"name":"cy","type":"int","value":0},{"name":"no","type":"int","value":2},{"name":"rx","type":"int","value":-3},{"name":"ry","type":"int","value":-50},{"name":"ani","type":"int","value":0},{"name":"type","type":"int","value":4},{"name":"front","type":"int","value":0}]},{"id":8,"name":"background_back_3","type":"imagelayer","visible":true,"opacity":1,"image":"../../images/27595.png","imagewidth":253,"imageheight":128,"offsetx":-389,"offsety":-591,"repeatx":true,"repeaty":false,"parallaxx":1,"parallaxy":1,"properties":[{"name":"a","type":"int","value":255},{"name":"f","type":"int","value":0},{"name":"x","type":"int","value":-386},{"name":"y","type":"int","value":-495},{"name":"bS","type":"string","value":"ereb"},{"name":"cx","type":"int","value":1200},{"name":"cy","type":"int","value":0},{"name":"no","type":"int","value":3},{"name":"rx","type":"int","value":-5},{"name":"ry","type":"int","value":-50},{"name":"ani","type":"int","value":0},{"name":"type","type":"int","value":4},{"name":"front","type":"int","value":0}]},{"id":9,"name":"background_back_4","type":"imagelayer","visible":true,"opacity":1,"image":"../../images/27596.png","imagewidth":333,"imageheight":141,"offsetx":84,"offsety":-474,"repeatx":true,"repeaty":false,"parallaxx":1,"parallaxy":1,"properties":[{"name":"a","type":"int","value":255},{"name":"f","type":"int","value":0},{"name":"x","type":"int","value":250},{"name":"y","type":"int","value":-404},{"name":"bS","type":"string","value":"ereb"},{"name":"cx","type":"int","value":1200},{"name":"cy","type":"int","value":0},{"name":"no","type":"int","value":4},{"name":"rx","type":"int","value":-3},{"name":"ry","type":"int","value":-50},{"name":"ani","type":"int","value":0},{"name":"type","type":"int","value":4},{"name":"front","type":"int","value":0}]},{"id":10,"name":"background_back_5","type":"imagelayer","visible":true,"opacity":1,"image":"../../images/27597.png","imagewidth":281,"imageheight":102,"offsetx":230,"offsety":-405,"repeatx":true,"repeaty":false,"parallaxx":1,"parallaxy":1,"properties":[{"name":"a","type":"int","value":255},{"name":"f","type":"int","value":0},{"name":"x","type":"int","value":370},{"name":"y","type":"int","value":-354},{"name":"bS","type":"string","value":"ereb"},{"name":"cx","type":"int","value":1200},{"name":"cy","type":"int","value":0},{"name":"no","type":"int","value":5},{"name":"rx","type":"int","value":-4},{"name":"ry","type":"int","value":-50},{"name":"ani","type":"int","value":0},{"name":"type","type":"int","value":4},{"name":"front","type":"int","value":0}]},{"id":11,"name":"background_back_6","type":"imagelayer","visible":true,"opacity":1,"image":"../../images/27598.png","imagewidth":176,"imageheight":116,"offsetx":-16,"offsety":-357,"repeatx":true,"repeaty":false,"parallaxx":1,"parallaxy":1,"properties":[{"name":"a","type":"int","value":255},{"name":"f","type":"int","value":0},{"name":"x","type":"int","value":23},{"name":"y","type":"int","value":-348},{"name":"bS","type":"string","value":"ereb"},{"name":"cx","type":"int","value":1200},{"name":"cy","type":"int","value":0},{"name":"no","type":"int","value":6},{"name":"rx","type":"int","value":-4},{"name":"ry","type":"int","value":-50},{"name":"ani","type":"int","value":0},{"name":"type","type":"int","value":4},{"name":"front","type":"int","value":0}]},{"id":12,"name":"background_back_7","type":"imagelayer","visible":true,"opacity":1,"image":"../../images/27599.png","imagewidth":397,"imageheight":182,"offsetx":-565,"offsety":-481,"repeatx":true,"repeaty":false,"parallaxx":1,"parallaxy":1,"properties":[{"name":"a","type":"int","value":255},{"name":"f","type":"int","value":0},{"name":"x","type":"int","value":-367},{"name":"y","type":"int","value":-390},{"name":"bS","type":"string","value":"ereb"},{"name":"cx","type":"int","value":1200},{"name":"cy","type":"int","value":0},{"name":"no","type":"int","value":7},{"name":"rx","type":"int","value":-3},{"name":"ry","type":"int","value":-50},{"name":"ani","type":"int","value":0},{"name":"type","type":"int","value":4},{"name":"front","type":"int","value":0}]},{"id":13,"name":"background_back_8","type":"imagelayer","visible":true,"opacity":1,"image":"../../images/27600.png","imagewidth":95,"imageheight":63,"offsetx":-320,"offsety":-345,"repeatx":true,"repeaty":false,"parallaxx":1,"parallaxy":1,"properties":[{"name":"a","type":"int","value":255},{"name":"f","type":"int","value":0},{"name":"x","type":"int","value":-278},{"name":"y","type":"int","value":-347},{"name":"bS","type":"string","value":"ereb"},{"name":"cx","type":"int","value":1200},{"name":"cy","type":"int","value":0},{"name":"no","type":"int","value":8},{"name":"rx","type":"int","value":-2},{"name":"ry","type":"int","value":-50},{"name":"ani","type":"int","value":0},{"name":"type","type":"int","value":4},{"name":"front","type":"int","value":0}]},{"id":14,"name":"background_back_9","type":"imagelayer","visible":true,"opacity":1,"image":"../../images/27594.png","imagewidth":331,"imageheight":175,"offsetx":-348,"offsety":-839,"repeatx":true,"repeaty":false,"parallaxx":1,"parallaxy":1,"properties":[{"name":"a","type":"int","value":255},{"name":"f","type":"int","value":0},{"name":"x","type":"int","value":-183},{"name":"y","type":"int","value":-752},{"name":"bS","type":"string","value":"ereb"},{"name":"cx","type":"int","value":1200},{"name":"cy","type":"int","value":0},{"name":"no","type":"int","value":2},{"name":"rx","type":"int","value":-2},{"name":"ry","type":"int","value":-50},{"name":"ani","type":"int","value":0},{"name":"type","type":"int","value":4},{"name":"front","type":"int","value":0}]},{"id":15,"name":"background_back_10","type":"imagelayer","visible":true,"opacity":1,"image":"../../images/27595.png","imagewidth":253,"imageheight":128,"offsetx":1201,"offsety":-912,"repeatx":true,"repeaty":false,"parallaxx":1,"parallaxy":1,"properties":[{"name":"a","type":"int","value":255},{"name":"f","type":"int","value":0},{"name":"x","type":"int","value":1204},{"name":"y","type":"int","value":-816},{"name":"bS","type":"string","value":"ereb"},{"name":"cx","type":"int","value":1200},{"name":"cy","type":"int","value":0},{"name":"no","type":"int","value":3},{"name":"rx","type":"int","value":-3},{"name":"ry","type":"int","value":-50},{"name":"ani","type":"int","value":0},{"name":"type","type":"int","value":4},{"name":"front","type":"int","value":0}]},{"id":16,"name":"background_back_11","type":"imagelayer","visible":true,"opacity":1,"image":"../../images/27596.png","imagewidth":333,"imageheight":141,"offsetx":1181,"offsety":-1028,"repeatx":true,"repeaty":false,"parallaxx":1,"parallaxy":1,"properties":[{"name":"a","type":"int","value":255},{"name":"f","type":"int","value":0},{"name":"x","type":"int","value":1347},{"name":"y","type":"int","value":-958},{"name":"bS","type":"string","value":"ereb"},{"name":"cx","type":"int","value":1200},{"name":"cy","type":"int","value":0},{"name":"no","type":"int","value":4},{"name":"rx","type":"int","value":-4},{"name":"ry","type":"int","value":-50},{"name":"ani","type":"int","value":0},{"name":"type","type":"int","value":4},{"name":"front","type":"int","value":0}]},{"id":17,"name":"background_back_12","type":"imagelayer","visible":true,"opacity":1,"image":"../../images/27597.png","imagewidth":281,"imageheight":102,"offsetx":4,"offsety":-1252,"repeatx":true,"repeaty":false,"parallaxx":1,"parallaxy":1,"properties":[{"name":"a","type":"int","value":255},{"name":"f","type":"int","value":0},{"name":"x","type":"int","value":144},{"name":"y","type":"int","value":-1201},{"name":"bS","type":"string","value":"ereb"},{"name":"cx","type":"int","value":1200},{"name":"cy","type":"int","value":0},{"name":"no","type":"int","value":5},{"name":"rx","type":"int","value":-5},{"name":"ry","type":"int","value":-50},{"name":"ani","type":"int","value":0},{"name":"type","type":"int","value":4},{"name":"front","type":"int","value":0}]},{"id":18,"name":"background_back_13","type":"imagelayer","visible":true,"opacity":1,"image":"../../images/27601.png","imagewidth":400,"imageheight":235,"offsetx":-59,"offsety":-390,"repeatx":true,"repeaty":false,"parallaxx":1,"parallaxy":1,"properties":[{"name":"a","type":"int","value":255},{"name":"f","type":"int","value":0},{"name":"x","type":"int","value":141},{"name":"y","type":"int","value":-273},{"name":"bS","type":"string","value":"ereb"},{"name":"cx","type":"int","value":0},{"name":"cy","type":"int","value":0},{"name":"no","type":"int","value":9},{"name":"rx","type":"int","value":-20},{"name":"ry","type":"int","value":-60},{"name":"ani","type":"int","value":0},{"name":"type","type":"int","value":1},{"name":"front","type":"int","value":0}]},{"id":19,"name":"background_back_14","type":"imagelayer","visible":true,"opacity":1,"image":"../../images/27602.png","imagewidth":800,"imageheight":651,"offsetx":-1593,"offsety":-549,"repeatx":false,"repeaty":false,"parallaxx":1,"parallaxy":1,"properties":[{"name":"a","type":"int","value":255},{"name":"f","type":"int","value":0},{"name":"x","type":"int","value":-1193},{"name":"y","type":"int","value":-224},{"name":"bS","type":"string","value":"ereb"},{"name":"cx","type":"int","value":0},{"name":"cy","type":"int","value":0},{"name":"no","type":"int","value":10},{"name":"rx","type":"int","value":-30},{"name":"ry","type":"int","value":-70},{"name":"ani","type":"int","value":0},{"name":"type","type":"int","value":0},{"name":"front","type":"int","value":0}]},{"id":20,"name":"background_back_15","type":"imagelayer","visible":true,"opacity":1,"image":"../../images/27603.png","imagewidth":800,"imageheight":441,"offsetx":-793,"offsety":-338,"repeatx":false,"repeaty":false,"parallaxx":1,"parallaxy":1,"properties":[{"name":"a","type":"int","value":255},{"name":"f","type":"int","value":0},{"name":"x","type":"int","value":-393},{"name":"y","type":"int","value":-118},{"name":"bS","type":"string","value":"ereb"},{"name":"cx","type":"int","value":0},{"name":"cy","type":"int","value":0},{"name":"no","type":"int","value":11},{"name":"rx","type":"int","value":-30},{"name":"ry","type":"int","value":-70},{"name":"ani","type":"int","value":0},{"name":"type","type":"int","value":0},{"name":"front","type":"int","value":0}]},{"id":21,"name":"background_back_16","type":"imagelayer","visible":true,"opacity":1,"image":"../../images/27604.png","imagewidth":800,"imageheight":425,"offsetx":7,"offsety":-322,"repeatx":false,"repeaty":false,"parallaxx":1,"parallaxy":1,"properties":[{"name":"a","type":"int","value":255},{"name":"f","type":"int","value":0},{"name":"x","type":"int","value":407},{"name":"y","type":"int","value":-110},{"name":"bS","type":"string","value":"ereb"},{"name":"cx","type":"int","value":0},{"name":"cy","type":"int","value":0},{"name":"no","type":"int","value":12},{"name":"rx","type":"int","value":-30},{"name":"ry","type":"int","value":-70},{"name":"ani","type":"int","value":0},{"name":"type","type":"int","value":0},{"name":"front","type":"int","value":0}]},{"id":22,"name":"background_back_17","type":"imagelayer","visible":true,"opacity":1,"image":"../../images/27605.png","imagewidth":800,"imageheight":444,"offsetx":807,"offsety":-341,"repeatx":false,"repeaty":false,"parallaxx":1,"parallaxy":1,"properties":[{"name":"a","type":"int","value":255},{"name":"f","type":"int","value":0},{"name":"x","type":"int","value":1207},{"name":"y","type":"int","value":-119},{"name":"bS","type":"string","value":"ereb"},{"name":"cx","type":"int","value":0},{"name":"cy","type":"int","value":0},{"name":"no","type":"int","value":13},{"name":"rx","type":"int","value":-30},{"name":"ry","type":"int","value":-70},{"name":"ani","type":"int","value":0},{"name":"type","type":"int","value":0},{"name":"front","type":"int","value":0}]},{"id":23,"name":"background_back_18","type":"imagelayer","visible":true,"opacity":1,"image":"../../images/27606.png","imagewidth":800,"imageheight":257,"offsetx":-1549,"offsety":-175,"repeatx":false,"repeaty":false,"parallaxx":1,"parallaxy":1,"properties":[{"name":"a","type":"int","value":255},{"name":"f","type":"int","value":0},{"name":"x","type":"int","value":-1149},{"name":"y","type":"int","value":-47},{"name":"bS","type":"string","value":"ereb"},{"name":"cx","type":"int","value":0},{"name":"cy","type":"int","value":0},{"name":"no","type":"int","value":14},{"name":"rx","type":"int","value":-50},{"name":"ry","type":"int","value":-80},{"name":"ani","type":"int","value":0},{"name":"type","type":"int","value":0},{"name":"front","type":"int","value":0}]},{"id":24,"name":"background_back_19","type":"imagelayer","visible":true,"opacity":1,"image":"../../images/27607.png","imagewidth":800,"imageheight":278,"offsetx":-749,"offsety":-196,"repeatx":false,"repeaty":false,"parallaxx":1,"parallaxy":1,"properties":[{"name":"a","type":"int","value":255},{"name":"f","type":"int","value":0},{"name":"x","type":"int","value":-349},{"name":"y","type":"int","value":-57},{"name":"bS","type":"string","value":"ereb"},{"name":"cx","type":"int","value":0},{"name":"cy","type":"int","value":0},{"name":"no","type":"int","value":15},{"name":"rx","type":"int","value":-50},{"name":"ry","type":"int","value":-80},{"name":"ani","type":"int","value":0},{"name":"type","type":"int","value":0},{"name":"front","type":"int","value":0}]},{"id":25,"name":"background_back_20","type":"imagelayer","visible":true,"opacity":1,"image":"../../images/27608.png","imagewidth":800,"imageheight":242,"offsetx":51,"offsety":-160,"repeatx":false,"repeaty":false,"parallaxx":1,"parallaxy":1,"properties":[{"name":"a","type":"int","value":255},{"name":"f","type":"int","value":0},{"name":"x","type":"int","value":451},{"name":"y","type":"int","value":-39},{"name":"bS","type":"string","value":"ereb"},{"name":"cx","type":"int","value":0},{"name":"cy","type":"int","value":0},{"name":"no","type":"int","value":16},{"name":"rx","type":"int","value":-50},{"name":"ry","type":"int","value":-80},{"name":"ani","type":"int","value":0},{"name":"type","type":"int","value":0},{"name":"front","type":"int","value":0}]},{"id":26,"name":"background_back_21","type":"imagelayer","visible":true,"opacity":1,"image":"../../images/27609.png","imagewidth":800,"imageheight":217,"offsetx":851,"offsety":-134,"repeatx":false,"repeaty":false,"parallaxx":1,"parallaxy":1,"properties":[{"name":"a","type":"int","value":255},{"name":"f","type":"int","value":0},{"name":"x","type":"int","value":1251},{"name":"y","type":"int","value":-26},{"name":"bS","type":"string","value":"ereb"},{"name":"cx","type":"int","value":0},{"name":"cy","type":"int","value":0},{"name":"no","type":"int","value":17},{"name":"rx","type":"int","value":-50},{"name":"ry","type":"int","value":-80},{"name":"ani","type":"int","value":0},{"name":"type","type":"int","value":0},{"name":"front","type":"int","value":0}]},{"id":27,"name":"background_back_22","type":"imagelayer","visible":true,"opacity":1,"image":"../../images/27633.png","imagewidth":58,"imageheight":32,"offsetx":-348,"offsety":-259,"repeatx":false,"repeaty":false,"parallaxx":1,"parallaxy":1,"properties":[{"name":"a","type":"int","value":255},{"name":"f","type":"int","value":0},{"name":"x","type":"int","value":-326},{"name":"y","type":"int","value":-216},{"name":"bS","type":"string","value":"ereb"},{"name":"cx","type":"int","value":0},{"name":"cy","type":"int","value":0},{"name":"no","type":"int","value":6},{"name":"rx","type":"int","value":-50},{"name":"ry","type":"int","value":-90},{"name":"ani","type":"int","value":1},{"name":"type","type":"int","value":0},{"name":"front","type":"int","value":0}]},{"id":28,"name":"background_back_23","type":"imagelayer","visible":true,"opacity":1,"image":"../../images/27633.png","imagewidth":58,"imageheight":32,"offsetx":-1167,"offsety":-264,"repeatx":false,"repeaty":false,"parallaxx":1,"parallaxy":1,"properties":[{"name":"a","type":"int","value":255},{"name":"f","type":"int","value":0},{"name":"x","type":"int","value":-1145},{"name":"y","type":"int","value":-221},{"name":"bS","type":"string","value":"ereb"},{"name":"cx","type":"int","value":0},{"name":"cy","type":"int","value":0},{"name":"no","type":"int","value":6},{"name":"rx","type":"int","value":-50},{"name":"ry","type":"int","value":-90},{"name":"ani","type":"int","value":1},{"name":"type","type":"int","value":0},{"name":"front","type":"int","value":0}]},{"id":29,"name":"background_back_24","type":"imagelayer","visible":true,"opacity":1,"image":"../../images/27633.png","imagewidth":58,"imageheight":32,"offsetx":-2168,"offsety":-256,"repeatx":false,"repeaty":false,"parallaxx":1,"parallaxy":1,"properties":[{"name":"a","type":"int","value":255},{"name":"f","type":"int","value":0},{"name":"x","type":"int","value":-2146},{"name":"y","type":"int","value":-213},{"name":"bS","type":"string","value":"ereb"},{"name":"cx","type":"int","value":0},{"name":"cy","type":"int","value":0},{"name":"no","type":"int","value":6},{"name":"rx","type":"int","value":-60},{"name":"ry","type":"int","value":-90},{"name":"ani","type":"int","value":1},{"name":"type","type":"int","value":0},{"name":"front","type":"int","value":0}]},{"id":30,"name":"background_back_25","type":"imagelayer","visible":true,"opacity":1,"image":"../../images/27633.png","imagewidth":58,"imageheight":32,"offsetx":1026,"offsety":-239,"repeatx":false,"repeaty":false,"parallaxx":1,"parallaxy":1,"properties":[{"name":"a","type":"int","value":255},{"name":"f","type":"int","value":0},{"name":"x","type":"int","value":1048},{"name":"y","type":"int","value":-196},{"name":"bS","type":"string","value":"ereb"},{"name":"cx","type":"int","value":0},{"name":"cy","type":"int","value":0},{"name":"no","type":"int","value":6},{"name":"rx","type":"int","value":-60},{"name":"ry","type":"int","value":-90},{"name":"ani","type":"int","value":1},{"name":"type","type":"int","value":0},{"name":"front","type":"int","value":0}]},{"id":31,"name":"background_back_26","type":"imagelayer","visible":true,"opacity":1,"image":"../../images/27610.png","imagewidth":800,"imageheight":515,"offsetx":-1585,"offsety":-415,"repeatx":true,"repeaty":false,"parallaxx":1,"parallaxy":1,"properties":[{"name":"a","type":"int","value":255},{"name":"f","type":"int","value":0},{"name":"x","type":"int","value":-1185},{"name":"y","type":"int","value":-158},{"name":"bS","type":"string","value":"ereb"},{"name":"cx","type":"int","value":3200},{"name":"cy","type":"int","value":0},{"name":"no","type":"int","value":18},{"name":"rx","type":"int","value":-60},{"name":"ry","type":"int","value":-95},{"name":"ani","type":"int","value":0},{"name":"type","type":"int","value":1},{"name":"front","type":"int","value":0}]},{"id":32,"name":"background_back_27","type":"imagelayer","visible":true,"opacity":1,"image":"../../images/27611.png","imagewidth":800,"imageheight":515,"offsetx":-785,"offsety":-415,"repeatx":true,"repeaty":false,"parallaxx":1,"parallaxy":1,"properties":[{"name":"a","type":"int","value":255},{"name":"f","type":"int","value":0},{"name":"x","type":"int","value":-385},{"name":"y","type":"int","value":-158},{"name":"bS","type":"string","value":"ereb"},{"name":"cx","type":"int","value":3200},{"name":"cy","type":"int","value":0},{"name":"no","type":"int","value":19},{"name":"rx","type":"int","value":-60},{"name":"ry","type":"int","value":-95},{"name":"ani","type":"int","value":0},{"name":"type","type":"int","value":1},{"name":"front","type":"int","value":0}]},{"id":33,"name":"background_back_28","type":"imagelayer","visible":true,"opacity":1,"image":"../../images/27612.png","imagewidth":800,"imageheight":529,"offsetx":15,"offsety":-429,"repeatx":true,"repeaty":false,"parallaxx":1,"parallaxy":1,"properties":[{"name":"a","type":"int","value":255},{"name":"f","type":"int","value":0},{"name":"x","type":"int","value":415},{"name":"y","type":"int","value":-165},{"name":"bS","type":"string","value":"ereb"},{"name":"cx","type":"int","value":3200},{"name":"cy","type":"int","value":0},{"name":"no","type":"int","value":20},{"name":"rx","type":"int","value":-60},{"name":"ry","type":"int","value":-95},{"name":"ani","type":"int","value":0},{"name":"type","type":"int","value":1},{"name":"front","type":"int","value":0}]},{"id":34,"name":"background_back_29","type":"imagelayer","visible":true,"opacity":1,"image":"../../images/27613.png","imagewidth":800,"imageheight":515,"offsetx":815,"offsety":-415,"repeatx":true,"repeaty":false,"parallaxx":1,"parallaxy":1,"properties":[{"name":"a","type":"int","value":255},{"name":"f","type":"int","value":0},{"name":"x","type":"int","value":1215},{"name":"y","type":"int","value":-158},{"name":"bS","type":"string","value":"ereb"},{"name":"cx","type":"int","value":3200},{"name":"cy","type":"int","value":0},{"name":"no","type":"int","value":21},{"name":"rx","type":"int","value":-60},{"name":"ry","type":"int","value":-95},{"name":"ani","type":"int","value":0},{"name":"type","type":"int","value":1},{"name":"front","type":"int","value":0}]},{"id":35,"name":"background_back_30","type":"imagelayer","visible":true,"opacity":1,"image":"../../images/27621.png","imagewidth":516,"imageheight":723,"offsetx":-85,"offsety":-522,"repeatx":true,"repeaty":false,"parallaxx":1,"parallaxy":1,"properties":[{"name":"a","type":"int","value":255},{"name":"f","type":"int","value":0},{"name":"x","type":"int","value":173},{"name":"y","type":"int","value":-161},{"name":"bS","type":"string","value":"ereb"},{"name":"cx","type":"int","value":3200},{"name":"cy","type":"int","value":0},{"name":"no","type":"int","value":0},{"name":"rx","type":"int","value":-60},{"name":"ry","type":"int","value":-10},{"name":"ani","type":"int","value":1},{"name":"type","type":"int","value":1},{"name":"front","type":"int","value":0}]},{"id":36,"name":"background_back_31","type":"imagelayer","visible":true,"opacity":1,"image":"../../images/27623.png","imagewidth":529,"imageheight":659,"offsetx":-408,"offsety":-557,"repeatx":true,"repeaty":false,"parallaxx":1,"parallaxy":1,"properties":[{"name":"a","type":"int","value":255},{"name":"f","type":"int","value":0},{"name":"x","type":"int","value":-144},{"name":"y","type":"int","value":-228},{"name":"bS","type":"string","value":"ereb"},{"name":"cx","type":"int","value":3200},{"name":"cy","type":"int","value":0},{"name":"no","type":"int","value":1},{"name":"rx","type":"int","value":-60},{"name":"ry","type":"int","value":-10},{"name":"ani","type":"int","value":1},{"name":"type","type":"int","value":1},{"name":"front","type":"int","value":0}]},{"id":37,"name":"background_back_32","type":"imagelayer","visible":true,"opacity":1,"image":"../../images/27625.png","imagewidth":376,"imageheight":443,"offsetx":-950,"offsety":-519,"repeatx":true,"repeaty":false,"parallaxx":1,"parallaxy":1,"properties":[{"name":"a","type":"int","value":255},{"name":"f","type":"int","value":0},{"name":"x","type":"int","value":-762},{"name":"y","type":"int","value":-298},{"name":"bS","type":"string","value":"ereb"},{"name":"cx","type":"int","value":3200},{"name":"cy","type":"int","value":0},{"name":"no","type":"int","value":2},{"name":"rx","type":"int","value":-60},{"name":"ry","type":"int","value":-10},{"name":"ani","type":"int","value":1},{"name":"type","type":"int","value":1},{"name":"front","type":"int","value":0}]},{"id":38,"name":"background_back_33","type":"imagelayer","visible":true,"opacity":1,"image":"../../images/27627.png","imagewidth":554,"imageheight":619,"offsetx":379,"offsety":-554,"repeatx":true,"repeaty":false,"parallaxx":1,"parallaxy":1,"properties":[{"name":"a","type":"int","value":255},{"name":"f","type":"int","value":0},{"name":"x","type":"int","value":656},{"name":"y","type":"int","value":-245},{"name":"bS","type":"string","value":"ereb"},{"name":"cx","type":"int","value":3200},{"name":"cy","type":"int","value":0},{"name":"no","type":"int","value":3},{"name":"rx","type":"int","value":-60},{"name":"ry","type":"int","value":-10},{"name":"ani","type":"int","value":1},{"name":"type","type":"int","value":1},{"name":"front","type":"int","value":0}]},{"id":39,"name":"background_back_34","type":"imagelayer","visible":true,"opacity":1,"image":"../../images/27629.png","imagewidth":424,"imageheight":506,"offsetx":67,"offsety":-526,"repeatx":true,"repeaty":false,"parallaxx":1,"parallaxy":1,"properties":[{"name":"a","type":"int","value":255},{"name":"f","type":"int","value":0},{"name":"x","type":"int","value":279},{"name":"y","type":"int","value":-273},{"name":"bS","type":"string","value":"ereb"},{"name":"cx","type":"int","value":3200},{"name":"cy","type":"int","value":0},{"name":"no","type":"int","value":4},{"name":"rx","type":"int","value":-60},{"name":"ry","type":"int","value":-10},{"name":"ani","type":"int","value":1},{"name":"type","type":"int","value":1},{"name":"front","type":"int","value":0}]},{"id":40,"name":"background_back_35","type":"imagelayer","visible":true,"opacity":1,"image":"../../images/27631.png","imagewidth":389,"imageheight":485,"offsetx":-1277,"offsety":-516,"repeatx":true,"repeaty":false,"parallaxx":1,"parallaxy":1,"properties":[{"name":"a","type":"int","value":255},{"name":"f","type":"int","value":0},{"name":"x","type":"int","value":-1083},{"name":"y","type":"int","value":-274},{"name":"bS","type":"string","value":"ereb"},{"name":"cx","type":"int","value":3200},{"name":"cy","type":"int","value":0},{"name":"no","type":"int","value":5},{"name":"rx","type":"int","value":-60},{"name":"ry","type":"int","value":-10},{"name":"ani","type":"int","value":1},{"name":"type","type":"int","value":1},{"name":"front","type":"int","value":0}]},{"id":41,"name":"background_back","type":"objectgroup","visible":true,"opacity":1,"objects":[{"id":63,"x":-268,"y":-478,"visible":true,"properties":[{"name":"image_layer_name","type":"string","value":"background_back_2"},{"name":"a","type":"int","value":255},{"name":"f","type":"int","value":0},{"name":"x","type":"int","value":-268},{"name":"y","type":"int","value":-478},{"name":"bS","type":"string","value":"ereb"},{"name":"cx","type":"int","value":1200},{"name":"cy","type":"int","value":0},{"name":"no","type":"int","value":2},{"name":"rx","type":"int","value":-3},{"name":"ry","type":"int","value":-50},{"name":"ani","type":"int","value":0},{"name":"type","type":"int","value":4},{"name":"front","type":"int","value":0}],"point":true},{"id":64,"x":-386,"y":-495,"visible":true,"properties":[{"name":"image_layer_name","type":"string","value":"background_back_3"},{"name":"a","type":"int","value":255},{"name":"f","type":"int","value":0},{"name":"x","type":"int","value":-386},{"name":"y","type":"int","value":-495},{"name":"bS","type":"string","value":"ereb"},{"name":"cx","type":"int","value":1200},{"name":"cy","type":"int","value":0},{"name":"no","type":"int","value":3},{"name":"rx","type":"int","value":-5},{"name":"ry","type":"int","value":-50},{"name":"ani","type":"int","value":0},{"name":"type","type":"int","value":4},{"name":"front","type":"int","value":0}],"point":true},{"id":65,"x":250,"y":-404,"visible":true,"properties":[{"name":"image_layer_name","type":"string","value":"background_back_4"},{"name":"a","type":"int","value":255},{"name":"f","type":"int","value":0},{"name":"x","type":"int","value":250},{"name":"y","type":"int","value":-404},{"name":"bS","type":"string","value":"ereb"},{"name":"cx","type":"int","value":1200},{"name":"cy","type":"int","value":0},{"name":"no","type":"int","value":4},{"name":"rx","type":"int","value":-3},{"name":"ry","type":"int","value":-50},{"name":"ani","type":"int","value":0},{"name":"type","type":"int","value":4},{"name":"front","type":"int","value":0}],"point":true},{"id":66,"x":370,"y":-354,"visible":true,"properties":[{"name":"image_layer_name","type":"string","value":"background_back_5"},{"name":"a","type":"int","value":255},{"name":"f","type":"int","value":0},{"name":"x","type":"int","value":370},{"name":"y","type":"int","value":-354},{"name":"bS","type":"string","value":"ereb"},{"name":"cx","type":"int","value":1200},{"name":"cy","type":"int","value":0},{"name":"no","type":"int","value":5},{"name":"rx","type":"int","value":-4},{"name":"ry","type":"int","value":-50},{"name":"ani","type":"int","value":0},{"name":"type","type":"int","value":4},{"name":"front","type":"int","value":0}],"point":true},{"id":67,"x":23,"y":-348,"visible":true,"properties":[{"name":"image_layer_name","type":"string","value":"background_back_6"},{"name":"a","type":"int","value":255},{"name":"f","type":"int","value":0},{"name":"x","type":"int","value":23},{"name":"y","type":"int","value":-348},{"name":"bS","type":"string","value":"ereb"},{"name":"cx","type":"int","value":1200},{"name":"cy","type":"int","value":0},{"name":"no","type":"int","value":6},{"name":"rx","type":"int","value":-4},{"name":"ry","type":"int","value":-50},{"name":"ani","type":"int","value":0},{"name":"type","type":"int","value":4},{"name":"front","type":"int","value":0}],"point":true},{"id":68,"x":-367,"y":-390,"visible":true,"properties":[{"name":"image_layer_name","type":"string","value":"background_back_7"},{"name":"a","type":"int","value":255},{"name":"f","type":"int","value":0},{"name":"x","type":"int","value":-367},{"name":"y","type":"int","value":-390},{"name":"bS","type":"string","value":"ereb"},{"name":"cx","type":"int","value":1200},{"name":"cy","type":"int","value":0},{"name":"no","type":"int","value":7},{"name":"rx","type":"int","value":-3},{"name":"ry","type":"int","value":-50},{"name":"ani","type":"int","value":0},{"name":"type","type":"int","value":4},{"name":"front","type":"int","value":0}],"point":true},{"id":69,"x":-278,"y":-347,"visible":true,"properties":[{"name":"image_layer_name","type":"string","value":"background_back_8"},{"name":"a","type":"int","value":255},{"name":"f","type":"int","value":0},{"name":"x","type":"int","value":-278},{"name":"y","type":"int","value":-347},{"name":"bS","type":"string","value":"ereb"},{"name":"cx","type":"int","value":1200},{"name":"cy","type":"int","value":0},{"name":"no","type":"int","value":8},{"name":"rx","type":"int","value":-2},{"name":"ry","type":"int","value":-50},{"name":"ani","type":"int","value":0},{"name":"type","type":"int","value":4},{"name":"front","type":"int","value":0}],"point":true},{"id":70,"x":-183,"y":-752,"visible":true,"properties":[{"name":"image_layer_name","type":"string","value":"background_back_9"},{"name":"a","type":"int","value":255},{"name":"f","type":"int","value":0},{"name":"x","type":"int","value":-183},{"name":"y","type":"int","value":-752},{"name":"bS","type":"string","value":"ereb"},{"name":"cx","type":"int","value":1200},{"name":"cy","type":"int","value":0},{"name":"no","type":"int","value":2},{"name":"rx","type":"int","value":-2},{"name":"ry","type":"int","value":-50},{"name":"ani","type":"int","value":0},{"name":"type","type":"int","value":4},{"name":"front","type":"int","value":0}],"point":true},{"id":71,"x":1204,"y":-816,"visible":true,"properties":[{"name":"image_layer_name","type":"string","value":"background_back_10"},{"name":"a","type":"int","value":255},{"name":"f","type":"int","value":0},{"name":"x","type":"int","value":1204},{"name":"y","type":"int","value":-816},{"name":"bS","type":"string","value":"ereb"},{"name":"cx","type":"int","value":1200},{"name":"cy","type":"int","value":0},{"name":"no","type":"int","value":3},{"name":"rx","type":"int","value":-3},{"name":"ry","type":"int","value":-50},{"name":"ani","type":"int","value":0},{"name":"type","type":"int","value":4},{"name":"front","type":"int","value":0}],"point":true},{"id":72,"x":1347,"y":-958,"visible":true,"properties":[{"name":"image_layer_name","type":"string","value":"background_back_11"},{"name":"a","type":"int","value":255},{"name":"f","type":"int","value":0},{"name":"x","type":"int","value":1347},{"name":"y","type":"int","value":-958},{"name":"bS","type":"string","value":"ereb"},{"name":"cx","type":"int","value":1200},{"name":"cy","type":"int","value":0},{"name":"no","type":"int","value":4},{"name":"rx","type":"int","value":-4},{"name":"ry","type":"int","value":-50},{"name":"ani","type":"int","value":0},{"name":"type","type":"int","value":4},{"name":"front","type":"int","value":0}],"point":true},{"id":73,"x":144,"y":-1201,"visible":true,"properties":[{"name":"image_layer_name","type":"string","value":"background_back_12"},{"name":"a","type":"int","value":255},{"name":"f","type":"int","value":0},{"name":"x","type":"int","value":144},{"name":"y","type":"int","value":-1201},{"name":"bS","type":"string","value":"ereb"},{"name":"cx","type":"int","value":1200},{"name":"cy","type":"int","value":0},{"name":"no","type":"int","value":5},{"name":"rx","type":"int","value":-5},{"name":"ry","type":"int","value":-50},{"name":"ani","type":"int","value":0},{"name":"type","type":"int","value":4},{"name":"front","type":"int","value":0}],"point":true}]},{"id":42,"name":"portal","type":"objectgroup","visible":true,"opacity":1,"objects":[{"id":74,"x":-1940,"y":-1960,"visible":true,"properties":[{"name":"x","type":"int","value":-1940},{"name":"y","type":"int","value":-1960},{"name":"pn","type":"string","value":"sp"},{"name":"pt","type":"int","value":0},{"name":"tm","type":"int","value":999999999},{"name":"tn","type":"string","value":""}],"point":true},{"id":75,"x":-2571,"y":-1971,"visible":true,"properties":[{"name":"x","type":"int","value":-2571},{"name":"y","type":"int","value":-1971},{"name":"pn","type":"string","value":"sp"},{"name":"pt","type":"int","value":0},{"name":"tm","type":"int","value":999999999},{"name":"tn","type":"string","value":""}],"point":true},{"id":76,"x":-2563,"y":-1853,"visible":true,"properties":[{"name":"x","type":"int","value":-2563},{"name":"y","type":"int","value":-1853},{"name":"pn","type":"string","value":"st00"},{"name":"pt","type":"int","value":1},{"name":"tm","type":"int","value":999999999},{"name":"tn","type":"string","value":"st00"}],"point":true},{"id":77,"x":-1924,"y":-1855,"visible":true,"properties":[{"name":"x","type":"int","value":-1924},{"name":"y","type":"int","value":-1855},{"name":"pn","type":"string","value":"st01"},{"name":"pt","type":"int","value":1},{"name":"tm","type":"int","value":999999999},{"name":"tn","type":"string","value":"st01"}],"point":true},{"id":78,"x":-2562,"y":-1722,"visible":true,"properties":[{"name":"x","type":"int","value":-2562},{"name":"y","type":"int","value":-1722},{"name":"pn","type":"string","value":"down00"},{"name":"pt","type":"int","value":3},{"name":"tm","type":"int","value":130000110},{"name":"tn","type":"string","value":"ts00"},{"name":"delay","type":"int","value":0},{"name":"script","type":"string","value":""},{"name":"onlyOnce","type":"int","value":0},{"name":"hideTooltip","type":"int","value":0}],"point":true},{"id":79,"x":-1923,"y":-1732,"visible":true,"properties":[{"name":"x","type":"int","value":-1923},{"name":"y","type":"int","value":-1732},{"name":"pn","type":"string","value":"down01"},{"name":"pt","type":"int","value":3},{"name":"tm","type":"int","value":130000120},{"name":"tn","type":"string","value":"ts01"},{"name":"delay","type":"int","value":0},{"name":"script","type":"string","value":""},{"name":"onlyOnce","type":"int","value":0},{"name":"hideTooltip","type":"int","value":0}],"point":true},{"id":80,"x":-2921,"y":-1679,"visible":true,"properties":[{"name":"x","type":"int","value":-2921},{"name":"y","type":"int","value":-1679},{"name":"pn","type":"string","value":"dn00"},{"name":"pt","type":"int","value":3},{"name":"tm","type":"int","value":130000110},{"name":"tn","type":"string","value":"ts00"},{"name":"delay","type":"int","value":0},{"name":"script","type":"string","value":""},{"name":"onlyOnce","type":"int","value":0},{"name":"hideTooltip","type":"int","value":0}],"point":true},{"id":81,"x":-2822,"y":-1679,"visible":true,"properties":[{"name":"x","type":"int","value":-2822},{"name":"y","type":"int","value":-1679},{"name":"pn","type":"string","value":"dn01"},{"name":"pt","type":"int","value":3},{"name":"tm","type":"int","value":130000110},{"name":"tn","type":"string","value":"ts00"},{"name":"delay","type":"int","value":0},{"name":"script","type":"string","value":""},{"name":"onlyOnce","type":"int","value":0},{"name":"hideTooltip","type":"int","value":0}],"point":true},{"id":82,"x":-2729,"y":-1679,"visible":true,"properties":[{"name":"x","type":"int","value":-2729},{"name":"y","type":"int","value":-1679},{"name":"pn","type":"string","value":"dn02"},{"name":"pt","type":"int","value":3},{"name":"tm","type":"int","value":130000110},{"name":"tn","type":"string","value":"ts00"},{"name":"delay","type":"int","value":0},{"name":"script","type":"string","value":""},{"name":"onlyOnce","type":"int","value":0},{"name":"hideTooltip","type":"int","value":0}],"point":true},{"id":83,"x":-2634,"y":-1679,"visible":true,"properties":[{"name":"x","type":"int","value":-2634},{"name":"y","type":"int","value":-1679},{"name":"pn","type":"string","value":"dn03"},{"name":"pt","type":"int","value":3},{"name":"tm","type":"int","value":130000110},{"name":"tn","type":"string","value":"ts00"},{"name":"delay","type":"int","value":0},{"name":"script","type":"string","value":""},{"name":"onlyOnce","type":"int","value":0},{"name":"hideTooltip","type":"int","value":0}],"point":true},{"id":84,"x":-2538,"y":-1679,"visible":true,"properties":[{"name":"x","type":"int","value":-2538},{"name":"y","type":"int","value":-1679},{"name":"pn","type":"string","value":"dn04"},{"name":"pt","type":"int","value":3},{"name":"tm","type":"int","value":130000110},{"name":"tn","type":"string","value":"ts00"},{"name":"delay","type":"int","value":0},{"name":"script","type":"string","value":""},{"name":"onlyOnce","type":"int","value":0},{"name":"hideTooltip","type":"int","value":0}],"point":true},{"id":85,"x":-2442,"y":-1680,"visible":true,"properties":[{"name":"x","type":"int","value":-2442},{"name":"y","type":"int","value":-1680},{"name":"pn","type":"string","value":"dn05"},{"name":"pt","type":"int","value":3},{"name":"tm","type":"int","value":130000110},{"name":"tn","type":"string","value":"ts00"},{"name":"delay","type":"int","value":0},{"name":"script","type":"string","value":""},{"name":"onlyOnce","type":"int","value":0},{"name":"hideTooltip","type":"int","value":0}],"point":true},{"id":86,"x":-2347,"y":-1680,"visible":true,"properties":[{"name":"x","type":"int","value":-2347},{"name":"y","type":"int","value":-1680},{"name":"pn","type":"string","value":"dn06"},{"name":"pt","type":"int","value":3},{"name":"tm","type":"int","value":130000110},{"name":"tn","type":"string","value":"ts00"},{"name":"delay","type":"int","value":0},{"name":"script","type":"string","value":""},{"name":"onlyOnce","type":"int","value":0},{"name":"hideTooltip","type":"int","value":0}],"point":true},{"id":87,"x":-2299,"y":-1681,"visible":true,"properties":[{"name":"x","type":"int","value":-2299},{"name":"y","type":"int","value":-1681},{"name":"pn","type":"string","value":"dn07"},{"name":"pt","type":"int","value":3},{"name":"tm","type":"int","value":130000110},{"name":"tn","type":"string","value":"ts00"},{"name":"delay","type":"int","value":0},{"name":"script","type":"string","value":""},{"name":"onlyOnce","type":"int","value":0},{"name":"hideTooltip","type":"int","value":0}],"point":true},{"id":88,"x":-2199,"y":-1680,"visible":true,"properties":[{"name":"x","type":"int","value":-2199},{"name":"y","type":"int","value":-1680},{"name":"pn","type":"string","value":"dn08"},{"name":"pt","type":"int","value":3},{"name":"tm","type":"int","value":130000110},{"name":"tn","type":"string","value":"ts01"},{"name":"delay","type":"int","value":0},{"name":"script","type":"string","value":""},{"name":"onlyOnce","type":"int","value":0},{"name":"hideTooltip","type":"int","value":0}],"point":true},{"id":89,"x":-2154,"y":-1681,"visible":true,"properties":[{"name":"x","type":"int","value":-2154},{"name":"y","type":"int","value":-1681},{"name":"pn","type":"string","value":"dn09"},{"name":"pt","type":"int","value":3},{"name":"tm","type":"int","value":130000110},{"name":"tn","type":"string","value":"ts01"},{"name":"delay","type":"int","value":0},{"name":"script","type":"string","value":""},{"name":"onlyOnce","type":"int","value":0},{"name":"hideTooltip","type":"int","value":0}],"point":true},{"id":90,"x":-2059,"y":-1681,"visible":true,"properties":[{"name":"x","type":"int","value":-2059},{"name":"y","type":"int","value":-1681},{"name":"pn","type":"string","value":"dn10"},{"name":"pt","type":"int","value":3},{"name":"tm","type":"int","value":130000110},{"name":"tn","type":"string","value":"ts01"},{"name":"delay","type":"int","value":0},{"name":"script","type":"string","value":""},{"name":"onlyOnce","type":"int","value":0},{"name":"hideTooltip","type":"int","value":0}],"point":true},{"id":91,"x":-1961,"y":-1681,"visible":true,"properties":[{"name":"x","type":"int","value":-1961},{"name":"y","type":"int","value":-1681},{"name":"pn","type":"string","value":"dn11"},{"name":"pt","type":"int","value":3},{"name":"tm","type":"int","value":130000110},{"name":"tn","type":"string","value":"ts01"},{"name":"delay","type":"int","value":0},{"name":"script","type":"string","value":""},{"name":"onlyOnce","type":"int","value":0},{"name":"hideTooltip","type":"int","value":0}],"point":true},{"id":92,"x":-1867,"y":-1680,"visible":true,"properties":[{"name":"x","type":"int","value":-1867},{"name":"y","type":"int","value":-1680},{"name":"pn","type":"string","value":"dn12"},{"name":"pt","type":"int","value":3},{"name":"tm","type":"int","value":130000110},{"name":"tn","type":"string","value":"ts01"},{"name":"delay","type":"int","value":0},{"name":"script","type":"string","value":""},{"name":"onlyOnce","type":"int","value":0},{"name":"hideTooltip","type":"int","value":0}],"point":true},{"id":93,"x":-1773,"y":-1680,"visible":true,"properties":[{"name":"x","type":"int","value":-1773},{"name":"y","type":"int","value":-1680},{"name":"pn","type":"string","value":"dn13"},{"name":"pt","type":"int","value":3},{"name":"tm","type":"int","value":130000110},{"name":"tn","type":"string","value":"ts01"},{"name":"delay","type":"int","value":0},{"name":"script","type":"string","value":""},{"name":"onlyOnce","type":"int","value":0},{"name":"hideTooltip","type":"int","value":0}],"point":true},{"id":94,"x":-1678,"y":-1680,"visible":true,"properties":[{"name":"x","type":"int","value":-1678},{"name":"y","type":"int","value":-1680},{"name":"pn","type":"string","value":"dn14"},{"name":"pt","type":"int","value":3},{"name":"tm","type":"int","value":130000110},{"name":"tn","type":"string","value":"ts01"},{"name":"delay","type":"int","value":0},{"name":"script","type":"string","value":""},{"name":"onlyOnce","type":"int","value":0},{"name":"hideTooltip","type":"int","value":0}],"point":true},{"id":95,"x":-1580,"y":-1680,"visible":true,"properties":[{"name":"x","type":"int","value":-1580},{"name":"y","type":"int","value":-1680},{"name":"pn","type":"string","value":"dn15"},{"name":"pt","type":"int","value":3},{"name":"tm","type":"int","value":130000110},{"name":"tn","type":"string","value":"ts00"},{"name":"delay","type":"int","value":0},{"name":"script","type":"string","value":""},{"name":"onlyOnce","type":"int","value":0},{"name":"hideTooltip","type":"int","value":0}],"point":true}]},{"id":43,"name":"life","type":"objectgroup","visible":true,"opacity":1,"objects":[{"id":96,"x":-2474,"y":-1883,"visible":true,"properties":[{"name":"f","type":"int","value":0},{"name":"x","type":"int","value":-2474},{"name":"y","type":"int","value":-1883},{"name":"cy","type":"int","value":-1880},{"name":"fh","type":"int","value":18},{"name":"id","type":"int","value":9901539},{"name":"rx0","type":"int","value":-2524},{"name":"rx1","type":"int","value":-2424},{"name":"hide","type":"int","value":1},{"name":"type","type":"string","value":"n"},{"name":"mobTime","type":"int","value":0}],"point":true},{"id":97,"x":-1869,"y":-1882,"visible":true,"properties":[{"name":"f","type":"int","value":0},{"name":"x","type":"int","value":-1869},{"name":"y","type":"int","value":-1882},{"name":"cy","type":"int","value":-1880},{"name":"fh","type":"int","value":18},{"name":"id","type":"int","value":9901544},{"name":"rx0","type":"int","value":-1919},{"name":"rx1","type":"int","value":-1819},{"name":"hide","type":"int","value":1},{"name":"type","type":"string","value":"n"},{"name":"mobTime","type":"int","value":0}],"point":true},{"id":98,"x":-2595,"y":-2212,"visible":true,"properties":[{"name":"f","type":"int","value":0},{"name":"x","type":"int","value":-2595},{"name":"y","type":"int","value":-2212},{"name":"cy","type":"int","value":-2208},{"name":"fh","type":"int","value":20},{"name":"id","type":"int","value":9901545},{"name":"rx0","type":"int","value":-2645},{"name":"rx1","type":"int","value":-2545},{"name":"hide","type":"int","value":1},{"name":"type","type":"string","value":"n"},{"name":"mobTime","type":"int","value":0}],"point":true},{"id":99,"x":-2232,"y":-2212,"visible":true,"properties":[{"name":"f","type":"int","value":0},{"name":"x","type":"int","value":-2232},{"name":"y","type":"int","value":-2212},{"name":"cy","type":"int","value":-2208},{"name":"fh","type":"int","value":20},{"name":"id","type":"int","value":9901548},{"name":"rx0","type":"int","value":-2282},{"name":"rx1","type":"int","value":-2182},{"name":"hide","type":"int","value":1},{"name":"type","type":"string","value":"n"},{"name":"mobTime","type":"int","value":0}],"point":true},{"id":100,"x":-2111,"y":-2212,"visible":true,"properties":[{"name":"f","type":"int","value":0},{"name":"x","type":"int","value":-2111},{"name":"y","type":"int","value":-2212},{"name":"cy","type":"int","value":-2208},{"name":"fh","type":"int","value":20},{"name":"id","type":"int","value":9901549},{"name":"rx0","type":"int","value":-2161},{"name":"rx1","type":"int","value":-2061},{"name":"hide","type":"int","value":1},{"name":"type","type":"string","value":"n"},{"name":"mobTime","type":"int","value":0}],"point":true},{"id":101,"x":-1990,"y":-2212,"visible":true,"properties":[{"name":"f","type":"int","value":0},{"name":"x","type":"int","value":-1990},{"name":"y","type":"int","value":-2212},{"name":"cy","type":"int","value":-2208},{"name":"fh","type":"int","value":20},{"name":"id","type":"int","value":9901550},{"name":"rx0","type":"int","value":-2040},{"name":"rx1","type":"int","value":-1940},{"name":"hide","type":"int","value":1},{"name":"type","type":"string","value":"n"},{"name":"mobTime","type":"int","value":0}],"point":true},{"id":102,"x":-1869,"y":-2212,"visible":true,"properties":[{"name":"f","type":"int","value":0},{"name":"x","type":"int","value":-1869},{"name":"y","type":"int","value":-2212},{"name":"cy","type":"int","value":-2208},{"name":"fh","type":"int","value":20},{"name":"id","type":"int","value":9901551},{"name":"rx0","type":"int","value":-1919},{"name":"rx1","type":"int","value":-1819},{"name":"hide","type":"int","value":1},{"name":"type","type":"string","value":"n"},{"name":"mobTime","type":"int","value":0}],"point":true},{"id":103,"x":-2353,"y":-2212,"visible":true,"properties":[{"name":"f","type":"int","value":0},{"name":"x","type":"int","value":-2353},{"name":"y","type":"int","value":-2212},{"name":"cy","type":"int","value":-2208},{"name":"fh","type":"int","value":20},{"name":"id","type":"int","value":9901547},{"name":"rx0","type":"int","value":-2403},{"name":"rx1","type":"int","value":-2303},{"name":"hide","type":"int","value":1},{"name":"type","type":"string","value":"n"},{"name":"mobTime","type":"int","value":0}],"point":true},{"id":104,"x":-2595,"y":-1882,"visible":true,"properties":[{"name":"f","type":"int","value":0},{"name":"x","type":"int","value":-2595},{"name":"y","type":"int","value":-1882},{"name":"cy","type":"int","value":-1880},{"name":"fh","type":"int","value":18},{"name":"id","type":"int","value":9901538},{"name":"rx0","type":"int","value":-2645},{"name":"rx1","type":"int","value":-2545},{"name":"hide","type":"int","value":1},{"name":"type","type":"string","value":"n"},{"name":"mobTime","type":"int","value":0}],"point":true},{"id":105,"x":-2111,"y":-1884,"visible":true,"properties":[{"name":"f","type":"int","value":0},{"name":"x","type":"int","value":-2111},{"name":"y","type":"int","value":-1884},{"name":"cy","type":"int","value":-1880},{"name":"fh","type":"int","value":18},{"name":"id","type":"int","value":9901542},{"name":"rx0","type":"int","value":-2161},{"name":"rx1","type":"int","value":-2061},{"name":"hide","type":"int","value":1},{"name":"type","type":"string","value":"n"},{"name":"mobTime","type":"int","value":0}],"point":true},{"id":106,"x":-2353,"y":-1883,"visible":true,"properties":[{"name":"f","type":"int","value":0},{"name":"x","type":"int","value":-2353},{"name":"y","type":"int","value":-1883},{"name":"cy","type":"int","value":-1880},{"name":"fh","type":"int","value":18},{"name":"id","type":"int","value":9901540},{"name":"rx0","type":"int","value":-2403},{"name":"rx1","type":"int","value":-2303},{"name":"hide","type":"int","value":1},{"name":"type","type":"string","value":"n"},{"name":"mobTime","type":"int","value":0}],"point":true},{"id":107,"x":-2232,"y":-1883,"visible":true,"properties":[{"name":"f","type":"int","value":0},{"name":"x","type":"int","value":-2232},{"name":"y","type":"int","value":-1883},{"name":"cy","type":"int","value":-1880},{"name":"fh","type":"int","value":18},{"name":"id","type":"int","value":9901541},{"name":"rx0","type":"int","value":-2282},{"name":"rx1","type":"int","value":-2182},{"name":"hide","type":"int","value":1},{"name":"type","type":"string","value":"n"},{"name":"mobTime","type":"int","value":0}],"point":true},{"id":108,"x":-2474,"y":-2212,"visible":true,"properties":[{"name":"f","type":"int","value":0},{"name":"x","type":"int","value":-2474},{"name":"y","type":"int","value":-2212},{"name":"cy","type":"int","value":-2208},{"name":"fh","type":"int","value":20},{"name":"id","type":"int","value":9901546},{"name":"rx0","type":"int","value":-2524},{"name":"rx1","type":"int","value":-2424},{"name":"hide","type":"int","value":1},{"name":"type","type":"string","value":"n"},{"name":"mobTime","type":"int","value":0}],"point":true},{"id":109,"x":-1990,"y":-1883,"visible":true,"properties":[{"name":"f","type":"int","value":0},{"name":"x","type":"int","value":-1990},{"name":"y","type":"int","value":-1883},{"name":"cy","type":"int","value":-1880},{"name":"fh","type":"int","value":18},{"name":"id","type":"int","value":9901543},{"name":"rx0","type":"int","value":-2040},{"name":"rx1","type":"int","value":-1940},{"name":"hide","type":"int","value":1},{"name":"type","type":"string","value":"n"},{"name":"mobTime","type":"int","value":0}],"point":true}]},{"id":44,"name":"foothold","type":"objectgroup","visible":true,"opacity":1,"objects":[{"id":110,"x":-2909,"y":-1849,"visible":true,"properties":[{"name":"layer","type":"int","value":2},{"name":"group","type":"int","value":9},{"name":"id","type":"int","value":17},{"name":"fh_layer","type":"int","value":2},{"name":"fh_group","type":"int","value":9},{"name":"fh_id","type":"int","value":17},{"name":"x1","type":"int","value":-2909},{"name":"x2","type":"int","value":-1575},{"name":"y1","type":"int","value":-1849},{"name":"y2","type":"int","value":-1849},{"name":"next","type":"int","value":0},{"name":"prev","type":"int","value":0}],"polyline":[{"x":0,"y":0},{"x":1334,"y":0}]},{"id":111,"x":-2691,"y":-1880,"visible":true,"properties":[{"name":"layer","type":"int","value":2},{"name":"group","type":"int","value":9},{"name":"id","type":"int","value":18},{"name":"fh_layer","type":"int","value":2},{"name":"fh_group","type":"int","value":9},{"name":"fh_id","type":"int","value":18},{"name":"x1","type":"int","value":-2691},{"name":"x2","type":"int","value":-1794},{"name":"y1","type":"int","value":-1880},{"name":"y2","type":"int","value":-1880},{"name":"next","type":"int","value":0},{"name":"prev","type":"int","value":0}],"polyline":[{"x":0,"y":0},{"x":897,"y":0}]},{"id":112,"x":-2909,"y":-2177,"visible":true,"properties":[{"name":"layer","type":"int","value":2},{"name":"group","type":"int","value":16},{"name":"id","type":"int","value":19},{"name":"fh_layer","type":"int","value":2},{"name":"fh_group","type":"int","value":16},{"name":"fh_id","type":"int","value":19},{"name":"x1","type":"int","value":-2909},{"name":"x2","type":"int","value":-1575},{"name":"y1","type":"int","value":-2177},{"name":"y2","type":"int","value":-2177},{"name":"next","type":"int","value":0},{"name":"prev","type":"int","value":0}],"polyline":[{"x":0,"y":0},{"x":1334,"y":0}]},{"id":113,"x":-2691,"y":-2208,"visible":true,"properties":[{"name":"layer","type":"int","value":2},{"name":"group","type":"int","value":16},{"name":"id","type":"int","value":20},{"name":"fh_layer","type":"int","value":2},{"name":"fh_group","type":"int","value":16},{"name":"fh_id","type":"int","value":20},{"name":"x1","type":"int","value":-2691},{"name":"x2","type":"int","value":-1794},{"name":"y1","type":"int","value":-2208},{"name":"y2","type":"int","value":-2208},{"name":"next","type":"int","value":0},{"name":"prev","type":"int","value":0}],"polyline":[{"x":0,"y":0},{"x":897,"y":0}]},{"id":114,"x":-2880,"y":-1645,"visible":true,"properties":[{"name":"layer","type":"int","value":3},{"name":"group","type":"int","value":0},{"name":"id","type":"int","value":1},{"name":"fh_layer","type":"int","value":3},{"name":"fh_group","type":"int","value":0},{"name":"fh_id","type":"int","value":1},{"name":"x1","type":"int","value":-2880},{"name":"x2","type":"int","value":-2790},{"name":"y1","type":"int","value":-1645},{"name":"y2","type":"int","value":-1645},{"name":"next","type":"int","value":3},{"name":"prev","type":"int","value":16}],"polyline":[{"x":0,"y":0},{"x":90,"y":0}]},{"id":115,"x":-2700,"y":-1645,"visible":true,"properties":[{"name":"layer","type":"int","value":3},{"name":"group","type":"int","value":0},{"name":"id","type":"int","value":2},{"name":"fh_layer","type":"int","value":3},{"name":"fh_group","type":"int","value":0},{"name":"fh_id","type":"int","value":2},{"name":"x1","type":"int","value":-2700},{"name":"x2","type":"int","value":-2610},{"name":"y1","type":"int","value":-1645},{"name":"y2","type":"int","value":-1645},{"name":"next","type":"int","value":4},{"name":"prev","type":"int","value":3}],"polyline":[{"x":0,"y":0},{"x":90,"y":0}]},{"id":116,"x":-2790,"y":-1645,"visible":true,"properties":[{"name":"layer","type":"int","value":3},{"name":"group","type":"int","value":0},{"name":"id","type":"int","value":3},{"name":"fh_layer","type":"int","value":3},{"name":"fh_group","type":"int","value":0},{"name":"fh_id","type":"int","value":3},{"name":"x1","type":"int","value":-2790},{"name":"x2","type":"int","value":-2700},{"name":"y1","type":"int","value":-1645},{"name":"y2","type":"int","value":-1645},{"name":"next","type":"int","value":2},{"name":"prev","type":"int","value":1}],"polyline":[{"x":0,"y":0},{"x":90,"y":0}]},{"id":117,"x":-2610,"y":-1645,"visible":true,"properties":[{"name":"layer","type":"int","value":3},{"name":"group","type":"int","value":0},{"name":"id","type":"int","value":4},{"name":"fh_layer","type":"int","value":3},{"name":"fh_group","type":"int","value":0},{"name":"fh_id","type":"int","value":4},{"name":"x1","type":"int","value":-2610},{"name":"x2","type":"int","value":-2520},{"name":"y1","type":"int","value":-1645},{"name":"y2","type":"int","value":-1645},{"name":"next","type":"int","value":5},{"name":"prev","type":"int","value":2}],"polyline":[{"x":0,"y":0},{"x":90,"y":0}]},{"id":118,"x":-2520,"y":-1645,"visible":true,"properties":[{"name":"layer","type":"int","value":3},{"name":"group","type":"int","value":0},{"name":"id","type":"int","value":5},{"name":"fh_layer","type":"int","value":3},{"name":"fh_group","type":"int","value":0},{"name":"fh_id","type":"int","value":5},{"name":"x1","type":"int","value":-2520},{"name":"x2","type":"int","value":-2430},{"name":"y1","type":"int","value":-1645},{"name":"y2","type":"int","value":-1645},{"name":"next","type":"int","value":6},{"name":"prev","type":"int","value":4}],"polyline":[{"x":0,"y":0},{"x":90,"y":0}]},{"id":119,"x":-2430,"y":-1645,"visible":true,"properties":[{"name":"layer","type":"int","value":3},{"name":"group","type":"int","value":0},{"name":"id","type":"int","value":6},{"name":"fh_layer","type":"int","value":3},{"name":"fh_group","type":"int","value":0},{"name":"fh_id","type":"int","value":6},{"name":"x1","type":"int","value":-2430},{"name":"x2","type":"int","value":-2340},{"name":"y1","type":"int","value":-1645},{"name":"y2","type":"int","value":-1645},{"name":"next","type":"int","value":7},{"name":"prev","type":"int","value":5}],"polyline":[{"x":0,"y":0},{"x":90,"y":0}]},{"id":120,"x":-2340,"y":-1645,"visible":true,"properties":[{"name":"layer","type":"int","value":3},{"name":"group","type":"int","value":0},{"name":"id","type":"int","value":7},{"name":"fh_layer","type":"int","value":3},{"name":"fh_group","type":"int","value":0},{"name":"fh_id","type":"int","value":7},{"name":"x1","type":"int","value":-2340},{"name":"x2","type":"int","value":-2250},{"name":"y1","type":"int","value":-1645},{"name":"y2","type":"int","value":-1645},{"name":"next","type":"int","value":8},{"name":"prev","type":"int","value":6}],"polyline":[{"x":0,"y":0},{"x":90,"y":0}]},{"id":121,"x":-2250,"y":-1645,"visible":true,"properties":[{"name":"layer","type":"int","value":3},{"name":"group","type":"int","value":0},{"name":"id","type":"int","value":8},{"name":"fh_layer","type":"int","value":3},{"name":"fh_group","type":"int","value":0},{"name":"fh_id","type":"int","value":8},{"name":"x1","type":"int","value":-2250},{"name":"x2","type":"int","value":-2160},{"name":"y1","type":"int","value":-1645},{"name":"y2","type":"int","value":-1645},{"name":"next","type":"int","value":10},{"name":"prev","type":"int","value":7}],"polyline":[{"x":0,"y":0},{"x":90,"y":0}]},{"id":122,"x":-2070,"y":-1645,"visible":true,"properties":[{"name":"layer","type":"int","value":3},{"name":"group","type":"int","value":0},{"name":"id","type":"int","value":9},{"name":"fh_layer","type":"int","value":3},{"name":"fh_group","type":"int","value":0},{"name":"fh_id","type":"int","value":9},{"name":"x1","type":"int","value":-2070},{"name":"x2","type":"int","value":-1980},{"name":"y1","type":"int","value":-1645},{"name":"y2","type":"int","value":-1645},{"name":"next","type":"int","value":13},{"name":"prev","type":"int","value":10}],"polyline":[{"x":0,"y":0},{"x":90,"y":0}]},{"id":123,"x":-2160,"y":-1645,"visible":true,"properties":[{"name":"layer","type":"int","value":3},{"name":"group","type":"int","value":0},{"name":"id","type":"int","value":10},{"name":"fh_layer","type":"int","value":3},{"name":"fh_group","type":"int","value":0},{"name":"fh_id","type":"int","value":10},{"name":"x1","type":"int","value":-2160},{"name":"x2","type":"int","value":-2070},{"name":"y1","type":"int","value":-1645},{"name":"y2","type":"int","value":-1645},{"name":"next","type":"int","value":9},{"name":"prev","type":"int","value":8}],"polyline":[{"x":0,"y":0},{"x":90,"y":0}]},{"id":124,"x":-1800,"y":-1645,"visible":true,"properties":[{"name":"layer","type":"int","value":3},{"name":"group","type":"int","value":0},{"name":"id","type":"int","value":11},{"name":"fh_layer","type":"int","value":3},{"name":"fh_group","type":"int","value":0},{"name":"fh_id","type":"int","value":11},{"name":"x1","type":"int","value":-1800},{"name":"x2","type":"int","value":-1710},{"name":"y1","type":"int","value":-1645},{"name":"y2","type":"int","value":-1645},{"name":"next","type":"int","value":14},{"name":"prev","type":"int","value":12}],"polyline":[{"x":0,"y":0},{"x":90,"y":0}]},{"id":125,"x":-1890,"y":-1645,"visible":true,"properties":[{"name":"layer","type":"int","value":3},{"name":"group","type":"int","value":0},{"name":"id","type":"int","value":12},{"name":"fh_layer","type":"int","value":3},{"name":"fh_group","type":"int","value":0},{"name":"fh_id","type":"int","value":12},{"name":"x1","type":"int","value":-1890},{"name":"x2","type":"int","value":-1800},{"name":"y1","type":"int","value":-1645},{"name":"y2","type":"int","value":-1645},{"name":"next","type":"int","value":11},{"name":"prev","type":"int","value":13}],"polyline":[{"x":0,"y":0},{"x":90,"y":0}]},{"id":126,"x":-1980,"y":-1645,"visible":true,"properties":[{"name":"layer","type":"int","value":3},{"name":"group","type":"int","value":0},{"name":"id","type":"int","value":13},{"name":"fh_layer","type":"int","value":3},{"name":"fh_group","type":"int","value":0},{"name":"fh_id","type":"int","value":13},{"name":"x1","type":"int","value":-1980},{"name":"x2","type":"int","value":-1890},{"name":"y1","type":"int","value":-1645},{"name":"y2","type":"int","value":-1645},{"name":"next","type":"int","value":12},{"name":"prev","type":"int","value":9}],"polyline":[{"x":0,"y":0},{"x":90,"y":0}]},{"id":127,"x":-1710,"y":-1645,"visible":true,"properties":[{"name":"layer","type":"int","value":3},{"name":"group","type":"int","value":0},{"name":"id","type":"int","value":14},{"name":"fh_layer","type":"int","value":3},{"name":"fh_group","type":"int","value":0},{"name":"fh_id","type":"int","value":14},{"name":"x1","type":"int","value":-1710},{"name":"x2","type":"int","value":-1620},{"name":"y1","type":"int","value":-1645},{"name":"y2","type":"int","value":-1645},{"name":"next","type":"int","value":15},{"name":"prev","type":"int","value":11}],"polyline":[{"x":0,"y":0},{"x":90,"y":0}]},{"id":128,"x":-1620,"y":-1645,"visible":true,"properties":[{"name":"layer","type":"int","value":3},{"name":"group","type":"int","value":0},{"name":"id","type":"int","value":15},{"name":"fh_layer","type":"int","value":3},{"name":"fh_group","type":"int","value":0},{"name":"fh_id","type":"int","value":15},{"name":"x1","type":"int","value":-1620},{"name":"x2","type":"int","value":-1530},{"name":"y1","type":"int","value":-1645},{"name":"y2","type":"int","value":-1645},{"name":"next","type":"int","value":0},{"name":"prev","type":"int","value":14}],"polyline":[{"x":0,"y":0},{"x":90,"y":0}]},{"id":129,"x":-2970,"y":-1645,"visible":true,"properties":[{"name":"layer","type":"int","value":3},{"name":"group","type":"int","value":0},{"name":"id","type":"int","value":16},{"name":"fh_layer","type":"int","value":3},{"name":"fh_group","type":"int","value":0},{"name":"fh_id","type":"int","value":16},{"name":"x1","type":"int","value":-2970},{"name":"x2","type":"int","value":-2880},{"name":"y1","type":"int","value":-1645},{"name":"y2","type":"int","value":-1645},{"name":"next","type":"int","value":1},{"name":"prev","type":"int","value":0}],"polyline":[{"x":0,"y":0},{"x":90,"y":0}]}]},{"id":45,"name":"ladderRope","type":"objectgroup","visible":true,"opacity":1,"objects":[{"id":130,"x":-1923,"y":-1847,"visible":true,"properties":[{"name":"ladder_id","type":"int","value":1},{"name":"l","type":"int","value":1},{"name":"x","type":"int","value":-1923},{"name":"uf","type":"int","value":1},{"name":"y1","type":"int","value":-1847},{"name":"y2","type":"int","value":-1647},{"name":"page","type":"int","value":4}],"polyline":[{"x":0,"y":0},{"x":0,"y":200}]},{"id":131,"x":-2564,"y":-2175,"visible":true,"properties":[{"name":"ladder_id","type":"int","value":2},{"name":"l","type":"int","value":1},{"name":"x","type":"int","value":-2564},{"name":"uf","type":"int","value":1},{"name":"y1","type":"int","value":-2175},{"name":"y2","type":"int","value":-1958},{"name":"page","type":"int","value":4}],"polyline":[{"x":0,"y":0},{"x":0,"y":217}]},{"id":132,"x":-2564,"y":-1847,"visible":true,"properties":[{"name":"ladder_id","type":"int","value":3},{"name":"l","type":"int","value":1},{"name":"x","type":"int","value":-2564},{"name":"uf","type":"int","value":1},{"name":"y1","type":"int","value":-1847},{"name":"y2","type":"int","value":-1647},{"name":"page","type":"int","value":4}],"polyline":[{"x":0,"y":0},{"x":0,"y":200}]},{"id":133,"x":-1923,"y":-2175,"visible":true,"properties":[{"name":"ladder_id","type":"int","value":4},{"name":"l","type":"int","value":1},{"name":"x","type":"int","value":-1923},{"name":"uf","type":"int","value":1},{"name":"y1","type":"int","value":-2175},{"name":"y2","type":"int","value":-1958},{"name":"page","type":"int","value":4}],"polyline":[{"x":0,"y":0},{"x":0,"y":217}]}]},{"id":46,"name":"miniMap","type":"objectgroup","visible":true,"opacity":1,"objects":[{"id":134,"x":3018,"y":2658,"visible":true,"properties":[{"name":"mag","type":"int","value":4},{"name":"centerX","type":"int","value":3018},{"name":"centerY","type":"int","value":2658},{"name":"canvas_path","type":"string","value":"../../images/30822.png"},{"name":"canvas_width","type":"int","value":96},{"name":"canvas_height","type":"int","value":69},{"name":"canvas_origin_x","type":"int","value":0},{"name":"canvas_origin_y","type":"int","value":0}],"point":true}]}],"tilesets":[{"firstgid":1,"source":"../../tilesets/bg_ereb.tsj"},{"firstgid":30,"source":"../../tilesets/tile_blackTile.tsj"},{"firstgid":37,"source":"../../tilesets/obj_connect_ladder_66.tsj"},{"firstgid":41,"source":"../../tilesets/obj_acc11_erebTW_knights.tsj"}],"properties":[{"name":"bgm","type":"string","value":"Bgm18/QueensGarden"},{"name":"fly","type":"int","value":0},{"name":"swim","type":"int","value":0},{"name":"town","type":"int","value":1},{"name":"VRTop","type":"int","value":-2506},{"name":"cloud","type":"int","value":0},{"name":"VRLeft","type":"int","value":-2879},{"name":"VRRight","type":"int","value":-1621},{"name":"mapMark","type":"string","value":"Ereb"},{"name":"mobRate","type":"float","value":1},{"name":"version","type":"int","value":10},{"name":"VRBottom","type":"int","value":-1775},{"name":"returnMap","type":"int","value":130000000},{"name":"fieldLimit","type":"int","value":0},{"name":"hideMinimap","type":"int","value":0},{"name":"onUserEnter","type":"string","value":""},{"name":"forcedReturn","type":"int","value":999999999},{"name":"onFirstUserEnter","type":"string","value":""}]}