{"type":"map","orientation":"orthogonal","renderorder":"right-down","infinite":false,"tilewidth":1,"tileheight":1,"width":1,"height":1,"nextlayerid":1,"nextobjectid":1,"layers":[],"tilesets":[],"properties":[{"name":"bgm","type":"string","value":"Bgm00/SleepyWood"},{"name":"fly","type":"int","value":0},{"name":"link","type":"int","value":105040320},{"name":"swim","type":"int","value":0},{"name":"town","type":"int","value":0},{"name":"cloud","type":"int","value":0},{"name":"mapMark","type":"string","value":"Dungeon"},{"name":"mobRate","type":"float","value":1.9999979734420776},{"name":"version","type":"int","value":10},{"name":"fieldType","type":"int","value":6},{"name":"returnMap","type":"int","value":105040300},{"name":"timeLimit","type":"int","value":7200},{"name":"fieldLimit","type":"int","value":262216},{"name":"hideMinimap","type":"int","value":0},{"name":"forcedReturn","type":"int","value":105040304},{"name":"miniMapOnOff","type":"int","value":1},{"name":"autoLieDetector","type":"string","value":""},{"name":"onFirstUserEnter","type":"string","value":""}]}