{"type":"map","orientation":"orthogonal","renderorder":"right-down","infinite":false,"tilewidth":1,"tileheight":1,"width":2459,"height":1111,"nextlayerid":18,"nextobjectid":159,"layers":[{"id":1,"name":"layer_0_obj","type":"objectgroup","visible":true,"opacity":1,"objects":[{"id":1,"x":-704,"y":-447,"visible":true,"properties":[{"name":"layer","type":"int","value":0},{"name":"resource_index","type":"int","value":0},{"name":"oS","type":"string","value":"acc1"},{"name":"l0","type":"string","value":"grassySoil"},{"name":"l1","type":"string","value":"nature"},{"name":"l2","type":"string","value":"3"},{"name":"z","type":"int","value":3},{"name":"zM","type":"int","value":17},{"name":"f","type":"int","value":0}],"gid":43,"width":46,"height":44},{"id":2,"x":-687,"y":-449,"visible":true,"properties":[{"name":"layer","type":"int","value":0},{"name":"resource_index","type":"int","value":1},{"name":"oS","type":"string","value":"acc1"},{"name":"l0","type":"string","value":"grassySoil"},{"name":"l1","type":"string","value":"nature"},{"name":"l2","type":"string","value":"4"},{"name":"z","type":"int","value":2},{"name":"zM","type":"int","value":17},{"name":"f","type":"int","value":0}],"gid":44,"width":43,"height":42},{"id":3,"x":-728,"y":-447,"visible":true,"properties":[{"name":"layer","type":"int","value":0},{"name":"resource_index","type":"int","value":2},{"name":"oS","type":"string","value":"acc1"},{"name":"l0","type":"string","value":"grassySoil"},{"name":"l1","type":"string","value":"nature"},{"name":"l2","type":"string","value":"3"},{"name":"z","type":"int","value":4},{"name":"zM","type":"int","value":17},{"name":"f","type":"int","value":0}],"gid":43,"width":46,"height":44},{"id":4,"x":-752,"y":-449,"visible":true,"properties":[{"name":"layer","type":"int","value":0},{"name":"resource_index","type":"int","value":3},{"name":"oS","type":"string","value":"acc1"},{"name":"l0","type":"string","value":"grassySoil"},{"name":"l1","type":"string","value":"nature"},{"name":"l2","type":"string","value":"4"},{"name":"z","type":"int","value":3},{"name":"zM","type":"int","value":17},{"name":"f","type":"int","value":0}],"gid":44,"width":43,"height":42}]},{"id":2,"name":"layer_1_obj","type":"objectgroup","visible":true,"opacity":1,"objects":[{"id":18,"x":-1177,"y":242,"visible":true,"properties":[{"name":"layer","type":"int","value":1},{"name":"resource_index","type":"int","value":0},{"name":"oS","type":"string","value":"acc1"},{"name":"l0","type":"string","value":"grassySoil"},{"name":"l1","type":"string","value":"nature"},{"name":"l2","type":"string","value":"13"},{"name":"z","type":"int","value":3},{"name":"zM","type":"int","value":1},{"name":"f","type":"int","value":0}],"gid":34,"width":223,"height":128},{"id":19,"x":-1069,"y":218,"visible":true,"properties":[{"name":"layer","type":"int","value":1},{"name":"resource_index","type":"int","value":1},{"name":"oS","type":"string","value":"acc1"},{"name":"l0","type":"string","value":"grassySoil"},{"name":"l1","type":"string","value":"nature"},{"name":"l2","type":"string","value":"13"},{"name":"z","type":"int","value":4},{"name":"zM","type":"int","value":1},{"name":"f","type":"int","value":0}],"gid":34,"width":223,"height":128},{"id":20,"x":-958,"y":219,"visible":true,"properties":[{"name":"layer","type":"int","value":1},{"name":"resource_index","type":"int","value":2},{"name":"oS","type":"string","value":"acc1"},{"name":"l0","type":"string","value":"darkWood"},{"name":"l1","type":"string","value":"nature"},{"name":"l2","type":"string","value":"20"},{"name":"z","type":"int","value":5},{"name":"zM","type":"int","value":1},{"name":"f","type":"int","value":0}],"gid":32,"width":149,"height":67},{"id":21,"x":-854,"y":231,"visible":true,"properties":[{"name":"layer","type":"int","value":1},{"name":"resource_index","type":"int","value":3},{"name":"oS","type":"string","value":"acc1"},{"name":"l0","type":"string","value":"grassySoil"},{"name":"l1","type":"string","value":"nature"},{"name":"l2","type":"string","value":"13"},{"name":"z","type":"int","value":3},{"name":"zM","type":"int","value":1},{"name":"f","type":"int","value":0}],"gid":34,"width":223,"height":128},{"id":22,"x":-724,"y":226,"visible":true,"properties":[{"name":"layer","type":"int","value":1},{"name":"resource_index","type":"int","value":4},{"name":"oS","type":"string","value":"acc1"},{"name":"l0","type":"string","value":"grassySoil"},{"name":"l1","type":"string","value":"nature"},{"name":"l2","type":"string","value":"13"},{"name":"z","type":"int","value":4},{"name":"zM","type":"int","value":1},{"name":"f","type":"int","value":0}],"gid":34,"width":223,"height":128},{"id":23,"x":-822,"y":174,"visible":true,"properties":[{"name":"layer","type":"int","value":1},{"name":"resource_index","type":"int","value":5},{"name":"oS","type":"string","value":"acc1"},{"name":"l0","type":"string","value":"grassySoil"},{"name":"l1","type":"string","value":"nature"},{"name":"l2","type":"string","value":"13"},{"name":"z","type":"int","value":2},{"name":"zM","type":"int","value":1},{"name":"f","type":"int","value":0}],"gid":34,"width":223,"height":128},{"id":24,"x":-593,"y":218,"visible":true,"properties":[{"name":"layer","type":"int","value":1},{"name":"resource_index","type":"int","value":6},{"name":"oS","type":"string","value":"acc1"},{"name":"l0","type":"string","value":"darkWood"},{"name":"l1","type":"string","value":"nature"},{"name":"l2","type":"string","value":"20"},{"name":"z","type":"int","value":5},{"name":"zM","type":"int","value":1},{"name":"f","type":"int","value":0}],"gid":32,"width":149,"height":67},{"id":25,"x":-923,"y":-26,"visible":true,"properties":[{"name":"layer","type":"int","value":1},{"name":"resource_index","type":"int","value":7},{"name":"oS","type":"string","value":"acc1"},{"name":"l0","type":"string","value":"grassySoil"},{"name":"l1","type":"string","value":"nature"},{"name":"l2","type":"string","value":"3"},{"name":"z","type":"int","value":3},{"name":"zM","type":"int","value":11},{"name":"f","type":"int","value":0}],"gid":43,"width":46,"height":44},{"id":26,"x":-839,"y":-83,"visible":true,"properties":[{"name":"layer","type":"int","value":1},{"name":"resource_index","type":"int","value":8},{"name":"oS","type":"string","value":"acc1"},{"name":"l0","type":"string","value":"grassySoil"},{"name":"l1","type":"string","value":"nature"},{"name":"l2","type":"string","value":"4"},{"name":"z","type":"int","value":3},{"name":"zM","type":"int","value":13},{"name":"f","type":"int","value":0}],"gid":44,"width":43,"height":42},{"id":27,"x":-839,"y":157,"visible":true,"properties":[{"name":"layer","type":"int","value":1},{"name":"resource_index","type":"int","value":9},{"name":"oS","type":"string","value":"acc1"},{"name":"l0","type":"string","value":"grassySoil"},{"name":"l1","type":"string","value":"nature"},{"name":"l2","type":"string","value":"1"},{"name":"z","type":"int","value":3},{"name":"zM","type":"int","value":1},{"name":"f","type":"int","value":0}],"gid":45,"width":54,"height":38},{"id":28,"x":-956,"y":174,"visible":true,"properties":[{"name":"layer","type":"int","value":1},{"name":"resource_index","type":"int","value":10},{"name":"oS","type":"string","value":"acc1"},{"name":"l0","type":"string","value":"grassySoil"},{"name":"l1","type":"string","value":"nature"},{"name":"l2","type":"string","value":"13"},{"name":"z","type":"int","value":1},{"name":"zM","type":"int","value":1},{"name":"f","type":"int","value":0}],"gid":34,"width":223,"height":128}]},{"id":3,"name":"layer_1_tile","type":"objectgroup","visible":true,"opacity":1,"objects":[{"id":5,"x":-929,"y":-420,"visible":true,"properties":[{"name":"layer","type":"int","value":1},{"name":"resource_index","type":"int","value":0},{"name":"u","type":"string","value":"edU"},{"name":"no","type":"int","value":0},{"name":"zM","type":"int","value":16}],"gid":8,"width":54,"height":37},{"id":6,"x":-924,"y":-403,"visible":true,"properties":[{"name":"layer","type":"int","value":1},{"name":"resource_index","type":"int","value":1},{"name":"u","type":"string","value":"edD"},{"name":"no","type":"int","value":0},{"name":"zM","type":"int","value":16}],"gid":9,"width":48,"height":17},{"id":7,"x":-810,"y":-335,"visible":true,"properties":[{"name":"layer","type":"int","value":1},{"name":"resource_index","type":"int","value":2},{"name":"u","type":"string","value":"enH1"},{"name":"no","type":"int","value":0},{"name":"zM","type":"int","value":16}],"gid":10,"width":90,"height":25},{"id":8,"x":-900,"y":-420,"visible":true,"properties":[{"name":"layer","type":"int","value":1},{"name":"resource_index","type":"int","value":3},{"name":"u","type":"string","value":"enH0"},{"name":"no","type":"int","value":1},{"name":"zM","type":"int","value":16}],"gid":12,"width":90,"height":39},{"id":9,"x":-744,"y":-343,"visible":true,"properties":[{"name":"layer","type":"int","value":1},{"name":"resource_index","type":"int","value":4},{"name":"u","type":"string","value":"edD"},{"name":"no","type":"int","value":0},{"name":"zM","type":"int","value":16}],"gid":9,"width":48,"height":17},{"id":10,"x":-834,"y":-343,"visible":true,"properties":[{"name":"layer","type":"int","value":1},{"name":"resource_index","type":"int","value":5},{"name":"u","type":"string","value":"edD"},{"name":"no","type":"int","value":0},{"name":"zM","type":"int","value":16}],"gid":9,"width":48,"height":17},{"id":11,"x":-659,"y":-420,"visible":true,"properties":[{"name":"layer","type":"int","value":1},{"name":"resource_index","type":"int","value":6},{"name":"u","type":"string","value":"edU"},{"name":"no","type":"int","value":0},{"name":"zM","type":"int","value":16}],"gid":8,"width":54,"height":37},{"id":12,"x":-654,"y":-403,"visible":true,"properties":[{"name":"layer","type":"int","value":1},{"name":"resource_index","type":"int","value":7},{"name":"u","type":"string","value":"edD"},{"name":"no","type":"int","value":0},{"name":"zM","type":"int","value":16}],"gid":9,"width":48,"height":17},{"id":13,"x":-720,"y":-420,"visible":true,"properties":[{"name":"layer","type":"int","value":1},{"name":"resource_index","type":"int","value":8},{"name":"u","type":"string","value":"enH0"},{"name":"no","type":"int","value":1},{"name":"zM","type":"int","value":16}],"gid":12,"width":90,"height":39},{"id":14,"x":-720,"y":-343,"visible":true,"properties":[{"name":"layer","type":"int","value":1},{"name":"resource_index","type":"int","value":9},{"name":"u","type":"string","value":"slRD"},{"name":"no","type":"int","value":0},{"name":"zM","type":"int","value":16}],"gid":21,"width":90,"height":77},{"id":15,"x":-810,"y":-420,"visible":true,"properties":[{"name":"layer","type":"int","value":1},{"name":"resource_index","type":"int","value":10},{"name":"u","type":"string","value":"enH0"},{"name":"no","type":"int","value":1},{"name":"zM","type":"int","value":16}],"gid":12,"width":90,"height":39},{"id":16,"x":-900,"y":-343,"visible":true,"properties":[{"name":"layer","type":"int","value":1},{"name":"resource_index","type":"int","value":11},{"name":"u","type":"string","value":"slLD"},{"name":"no","type":"int","value":1},{"name":"zM","type":"int","value":16}],"gid":22,"width":90,"height":77},{"id":17,"x":-810,"y":-360,"visible":true,"properties":[{"name":"layer","type":"int","value":1},{"name":"resource_index","type":"int","value":12},{"name":"u","type":"string","value":"bsc"},{"name":"no","type":"int","value":4},{"name":"zM","type":"int","value":16}],"gid":17,"width":90,"height":60}]},{"id":4,"name":"layer_2_obj","type":"objectgroup","visible":true,"opacity":1,"objects":[{"id":29,"x":-737,"y":-206,"visible":true,"properties":[{"name":"layer","type":"int","value":2},{"name":"resource_index","type":"int","value":0},{"name":"oS","type":"string","value":"connect"},{"name":"l0","type":"string","value":"ladder"},{"name":"l1","type":"string","value":"0"},{"name":"l2","type":"string","value":"4"},{"name":"z","type":"int","value":3},{"name":"zM","type":"int","value":15},{"name":"f","type":"int","value":0}],"gid":30,"width":55,"height":254}]},{"id":5,"name":"layer_3_tile","type":"objectgroup","visible":true,"opacity":1,"objects":[{"id":30,"x":-1080,"y":240,"visible":true,"properties":[{"name":"layer","type":"int","value":3},{"name":"resource_index","type":"int","value":0},{"name":"u","type":"string","value":"enH0"},{"name":"no","type":"int","value":0},{"name":"zM","type":"int","value":0}],"gid":11,"width":90,"height":38},{"id":31,"x":-900,"y":360,"visible":true,"properties":[{"name":"layer","type":"int","value":3},{"name":"resource_index","type":"int","value":1},{"name":"u","type":"string","value":"bsc"},{"name":"no","type":"int","value":1},{"name":"zM","type":"int","value":0}],"gid":18,"width":90,"height":60},{"id":32,"x":-630,"y":300,"visible":true,"properties":[{"name":"layer","type":"int","value":3},{"name":"resource_index","type":"int","value":2},{"name":"u","type":"string","value":"bsc"},{"name":"no","type":"int","value":3},{"name":"zM","type":"int","value":0}],"gid":15,"width":90,"height":60},{"id":33,"x":-810,"y":300,"visible":true,"properties":[{"name":"layer","type":"int","value":3},{"name":"resource_index","type":"int","value":3},{"name":"u","type":"string","value":"bsc"},{"name":"no","type":"int","value":2},{"name":"zM","type":"int","value":0}],"gid":16,"width":90,"height":60},{"id":34,"x":-900,"y":420,"visible":true,"properties":[{"name":"layer","type":"int","value":3},{"name":"resource_index","type":"int","value":4},{"name":"u","type":"string","value":"bsc"},{"name":"no","type":"int","value":1},{"name":"zM","type":"int","value":0}],"gid":18,"width":90,"height":60},{"id":35,"x":-720,"y":420,"visible":true,"properties":[{"name":"layer","type":"int","value":3},{"name":"resource_index","type":"int","value":5},{"name":"u","type":"string","value":"bsc"},{"name":"no","type":"int","value":3},{"name":"zM","type":"int","value":0}],"gid":15,"width":90,"height":60},{"id":36,"x":-630,"y":420,"visible":true,"properties":[{"name":"layer","type":"int","value":3},{"name":"resource_index","type":"int","value":6},{"name":"u","type":"string","value":"bsc"},{"name":"no","type":"int","value":2},{"name":"zM","type":"int","value":0}],"gid":16,"width":90,"height":60},{"id":37,"x":-450,"y":360,"visible":true,"properties":[{"name":"layer","type":"int","value":3},{"name":"resource_index","type":"int","value":7},{"name":"u","type":"string","value":"enV1"},{"name":"no","type":"int","value":0},{"name":"zM","type":"int","value":0}],"gid":25,"width":29,"height":60},{"id":38,"x":-720,"y":240,"visible":true,"properties":[{"name":"layer","type":"int","value":3},{"name":"resource_index","type":"int","value":8},{"name":"u","type":"string","value":"enH0"},{"name":"no","type":"int","value":1},{"name":"zM","type":"int","value":0}],"gid":12,"width":90,"height":39},{"id":39,"x":-810,"y":240,"visible":true,"properties":[{"name":"layer","type":"int","value":3},{"name":"resource_index","type":"int","value":9},{"name":"u","type":"string","value":"enH0"},{"name":"no","type":"int","value":1},{"name":"zM","type":"int","value":0}],"gid":12,"width":90,"height":39},{"id":40,"x":-1170,"y":300,"visible":true,"properties":[{"name":"layer","type":"int","value":3},{"name":"resource_index","type":"int","value":10},{"name":"u","type":"string","value":"bsc"},{"name":"no","type":"int","value":2},{"name":"zM","type":"int","value":0}],"gid":16,"width":90,"height":60},{"id":41,"x":-810,"y":360,"visible":true,"properties":[{"name":"layer","type":"int","value":3},{"name":"resource_index","type":"int","value":11},{"name":"u","type":"string","value":"bsc"},{"name":"no","type":"int","value":0},{"name":"zM","type":"int","value":0}],"gid":19,"width":90,"height":60},{"id":42,"x":-900,"y":240,"visible":true,"properties":[{"name":"layer","type":"int","value":3},{"name":"resource_index","type":"int","value":12},{"name":"u","type":"string","value":"enH0"},{"name":"no","type":"int","value":1},{"name":"zM","type":"int","value":0}],"gid":12,"width":90,"height":39},{"id":43,"x":-990,"y":240,"visible":true,"properties":[{"name":"layer","type":"int","value":3},{"name":"resource_index","type":"int","value":13},{"name":"u","type":"string","value":"enH0"},{"name":"no","type":"int","value":0},{"name":"zM","type":"int","value":0}],"gid":11,"width":90,"height":38},{"id":44,"x":-479,"y":240,"visible":true,"properties":[{"name":"layer","type":"int","value":3},{"name":"resource_index","type":"int","value":14},{"name":"u","type":"string","value":"edU"},{"name":"no","type":"int","value":0},{"name":"zM","type":"int","value":0}],"gid":8,"width":54,"height":37},{"id":45,"x":-990,"y":360,"visible":true,"properties":[{"name":"layer","type":"int","value":3},{"name":"resource_index","type":"int","value":15},{"name":"u","type":"string","value":"bsc"},{"name":"no","type":"int","value":4},{"name":"zM","type":"int","value":0}],"gid":17,"width":90,"height":60},{"id":46,"x":-540,"y":240,"visible":true,"properties":[{"name":"layer","type":"int","value":3},{"name":"resource_index","type":"int","value":16},{"name":"u","type":"string","value":"enH0"},{"name":"no","type":"int","value":0},{"name":"zM","type":"int","value":0}],"gid":11,"width":90,"height":38},{"id":47,"x":-1202,"y":300,"visible":true,"properties":[{"name":"layer","type":"int","value":3},{"name":"resource_index","type":"int","value":17},{"name":"u","type":"string","value":"enV0"},{"name":"no","type":"int","value":0},{"name":"zM","type":"int","value":0}],"gid":24,"width":32,"height":60},{"id":48,"x":-990,"y":420,"visible":true,"properties":[{"name":"layer","type":"int","value":3},{"name":"resource_index","type":"int","value":18},{"name":"u","type":"string","value":"bsc"},{"name":"no","type":"int","value":2},{"name":"zM","type":"int","value":0}],"gid":16,"width":90,"height":60},{"id":49,"x":-1170,"y":360,"visible":true,"properties":[{"name":"layer","type":"int","value":3},{"name":"resource_index","type":"int","value":19},{"name":"u","type":"string","value":"bsc"},{"name":"no","type":"int","value":2},{"name":"zM","type":"int","value":0}],"gid":16,"width":90,"height":60},{"id":50,"x":-630,"y":360,"visible":true,"properties":[{"name":"layer","type":"int","value":3},{"name":"resource_index","type":"int","value":20},{"name":"u","type":"string","value":"bsc"},{"name":"no","type":"int","value":1},{"name":"zM","type":"int","value":0}],"gid":18,"width":90,"height":60},{"id":51,"x":-540,"y":300,"visible":true,"properties":[{"name":"layer","type":"int","value":3},{"name":"resource_index","type":"int","value":21},{"name":"u","type":"string","value":"bsc"},{"name":"no","type":"int","value":0},{"name":"zM","type":"int","value":0}],"gid":19,"width":90,"height":60},{"id":52,"x":-1080,"y":300,"visible":true,"properties":[{"name":"layer","type":"int","value":3},{"name":"resource_index","type":"int","value":22},{"name":"u","type":"string","value":"bsc"},{"name":"no","type":"int","value":0},{"name":"zM","type":"int","value":0}],"gid":19,"width":90,"height":60},{"id":53,"x":-1080,"y":420,"visible":true,"properties":[{"name":"layer","type":"int","value":3},{"name":"resource_index","type":"int","value":23},{"name":"u","type":"string","value":"bsc"},{"name":"no","type":"int","value":3},{"name":"zM","type":"int","value":0}],"gid":15,"width":90,"height":60},{"id":54,"x":-1202,"y":420,"visible":true,"properties":[{"name":"layer","type":"int","value":3},{"name":"resource_index","type":"int","value":24},{"name":"u","type":"string","value":"enV0"},{"name":"no","type":"int","value":0},{"name":"zM","type":"int","value":0}],"gid":24,"width":32,"height":60},{"id":55,"x":-720,"y":360,"visible":true,"properties":[{"name":"layer","type":"int","value":3},{"name":"resource_index","type":"int","value":25},{"name":"u","type":"string","value":"bsc"},{"name":"no","type":"int","value":0},{"name":"zM","type":"int","value":0}],"gid":19,"width":90,"height":60},{"id":56,"x":-810,"y":420,"visible":true,"properties":[{"name":"layer","type":"int","value":3},{"name":"resource_index","type":"int","value":26},{"name":"u","type":"string","value":"bsc"},{"name":"no","type":"int","value":3},{"name":"zM","type":"int","value":0}],"gid":15,"width":90,"height":60},{"id":57,"x":-630,"y":240,"visible":true,"properties":[{"name":"layer","type":"int","value":3},{"name":"resource_index","type":"int","value":27},{"name":"u","type":"string","value":"enH0"},{"name":"no","type":"int","value":1},{"name":"zM","type":"int","value":0}],"gid":12,"width":90,"height":39},{"id":58,"x":-900,"y":300,"visible":true,"properties":[{"name":"layer","type":"int","value":3},{"name":"resource_index","type":"int","value":28},{"name":"u","type":"string","value":"bsc"},{"name":"no","type":"int","value":2},{"name":"zM","type":"int","value":0}],"gid":16,"width":90,"height":60},{"id":59,"x":-1170,"y":420,"visible":true,"properties":[{"name":"layer","type":"int","value":3},{"name":"resource_index","type":"int","value":29},{"name":"u","type":"string","value":"bsc"},{"name":"no","type":"int","value":3},{"name":"zM","type":"int","value":0}],"gid":15,"width":90,"height":60},{"id":60,"x":-1199,"y":360,"visible":true,"properties":[{"name":"layer","type":"int","value":3},{"name":"resource_index","type":"int","value":30},{"name":"u","type":"string","value":"enV0"},{"name":"no","type":"int","value":1},{"name":"zM","type":"int","value":0}],"gid":20,"width":29,"height":60},{"id":61,"x":-540,"y":420,"visible":true,"properties":[{"name":"layer","type":"int","value":3},{"name":"resource_index","type":"int","value":31},{"name":"u","type":"string","value":"bsc"},{"name":"no","type":"int","value":3},{"name":"zM","type":"int","value":0}],"gid":15,"width":90,"height":60},{"id":62,"x":-720,"y":300,"visible":true,"properties":[{"name":"layer","type":"int","value":3},{"name":"resource_index","type":"int","value":32},{"name":"u","type":"string","value":"bsc"},{"name":"no","type":"int","value":0},{"name":"zM","type":"int","value":0}],"gid":19,"width":90,"height":60},{"id":63,"x":-990,"y":300,"visible":true,"properties":[{"name":"layer","type":"int","value":3},{"name":"resource_index","type":"int","value":33},{"name":"u","type":"string","value":"bsc"},{"name":"no","type":"int","value":4},{"name":"zM","type":"int","value":0}],"gid":17,"width":90,"height":60},{"id":64,"x":-540,"y":360,"visible":true,"properties":[{"name":"layer","type":"int","value":3},{"name":"resource_index","type":"int","value":34},{"name":"u","type":"string","value":"bsc"},{"name":"no","type":"int","value":4},{"name":"zM","type":"int","value":0}],"gid":17,"width":90,"height":60},{"id":65,"x":-1080,"y":360,"visible":true,"properties":[{"name":"layer","type":"int","value":3},{"name":"resource_index","type":"int","value":35},{"name":"u","type":"string","value":"bsc"},{"name":"no","type":"int","value":4},{"name":"zM","type":"int","value":0}],"gid":17,"width":90,"height":60},{"id":66,"x":-450,"y":420,"visible":true,"properties":[{"name":"layer","type":"int","value":3},{"name":"resource_index","type":"int","value":36},{"name":"u","type":"string","value":"enV1"},{"name":"no","type":"int","value":0},{"name":"zM","type":"int","value":0}],"gid":25,"width":29,"height":60},{"id":67,"x":-450,"y":300,"visible":true,"properties":[{"name":"layer","type":"int","value":3},{"name":"resource_index","type":"int","value":37},{"name":"u","type":"string","value":"enV1"},{"name":"no","type":"int","value":0},{"name":"zM","type":"int","value":0}],"gid":25,"width":29,"height":60},{"id":68,"x":-1170,"y":240,"visible":true,"properties":[{"name":"layer","type":"int","value":3},{"name":"resource_index","type":"int","value":38},{"name":"u","type":"string","value":"enH0"},{"name":"no","type":"int","value":1},{"name":"zM","type":"int","value":0}],"gid":12,"width":90,"height":39},{"id":69,"x":-1199,"y":240,"visible":true,"properties":[{"name":"layer","type":"int","value":3},{"name":"resource_index","type":"int","value":39},{"name":"u","type":"string","value":"edU"},{"name":"no","type":"int","value":0},{"name":"zM","type":"int","value":0}],"gid":8,"width":54,"height":37},{"id":70,"x":-839,"y":181,"visible":true,"properties":[{"name":"layer","type":"int","value":3},{"name":"resource_index","type":"int","value":40},{"name":"u","type":"string","value":"edU"},{"name":"no","type":"int","value":1},{"name":"zM","type":"int","value":7}],"gid":14,"width":55,"height":38},{"id":71,"x":-834,"y":197,"visible":true,"properties":[{"name":"layer","type":"int","value":3},{"name":"resource_index","type":"int","value":41},{"name":"u","type":"string","value":"edD"},{"name":"no","type":"int","value":0},{"name":"zM","type":"int","value":7}],"gid":9,"width":48,"height":17},{"id":72,"x":-929,"y":121,"visible":true,"properties":[{"name":"layer","type":"int","value":3},{"name":"resource_index","type":"int","value":42},{"name":"u","type":"string","value":"edU"},{"name":"no","type":"int","value":1},{"name":"zM","type":"int","value":8}],"gid":14,"width":55,"height":38},{"id":73,"x":-924,"y":137,"visible":true,"properties":[{"name":"layer","type":"int","value":3},{"name":"resource_index","type":"int","value":43},{"name":"u","type":"string","value":"edD"},{"name":"no","type":"int","value":0},{"name":"zM","type":"int","value":8}],"gid":9,"width":48,"height":17},{"id":74,"x":-839,"y":60,"visible":true,"properties":[{"name":"layer","type":"int","value":3},{"name":"resource_index","type":"int","value":44},{"name":"u","type":"string","value":"edU"},{"name":"no","type":"int","value":0},{"name":"zM","type":"int","value":9}],"gid":8,"width":54,"height":37},{"id":75,"x":-834,"y":77,"visible":true,"properties":[{"name":"layer","type":"int","value":3},{"name":"resource_index","type":"int","value":45},{"name":"u","type":"string","value":"edD"},{"name":"no","type":"int","value":0},{"name":"zM","type":"int","value":9}],"gid":9,"width":48,"height":17},{"id":76,"x":-929,"y":0,"visible":true,"properties":[{"name":"layer","type":"int","value":3},{"name":"resource_index","type":"int","value":46},{"name":"u","type":"string","value":"edU"},{"name":"no","type":"int","value":0},{"name":"zM","type":"int","value":10}],"gid":8,"width":54,"height":37},{"id":77,"x":-924,"y":17,"visible":true,"properties":[{"name":"layer","type":"int","value":3},{"name":"resource_index","type":"int","value":47},{"name":"u","type":"string","value":"edD"},{"name":"no","type":"int","value":0},{"name":"zM","type":"int","value":10}],"gid":9,"width":48,"height":17},{"id":78,"x":-839,"y":-60,"visible":true,"properties":[{"name":"layer","type":"int","value":3},{"name":"resource_index","type":"int","value":48},{"name":"u","type":"string","value":"edU"},{"name":"no","type":"int","value":0},{"name":"zM","type":"int","value":12}],"gid":8,"width":54,"height":37},{"id":79,"x":-834,"y":-43,"visible":true,"properties":[{"name":"layer","type":"int","value":3},{"name":"resource_index","type":"int","value":49},{"name":"u","type":"string","value":"edD"},{"name":"no","type":"int","value":0},{"name":"zM","type":"int","value":12}],"gid":9,"width":48,"height":17},{"id":80,"x":-749,"y":-120,"visible":true,"properties":[{"name":"layer","type":"int","value":3},{"name":"resource_index","type":"int","value":50},{"name":"u","type":"string","value":"edU"},{"name":"no","type":"int","value":0},{"name":"zM","type":"int","value":14}],"gid":8,"width":54,"height":37},{"id":81,"x":-744,"y":-103,"visible":true,"properties":[{"name":"layer","type":"int","value":3},{"name":"resource_index","type":"int","value":51},{"name":"u","type":"string","value":"edD"},{"name":"no","type":"int","value":0},{"name":"zM","type":"int","value":14}],"gid":9,"width":48,"height":17},{"id":82,"x":-1080,"y":480,"visible":true,"properties":[{"name":"layer","type":"int","value":3},{"name":"resource_index","type":"int","value":52},{"name":"u","type":"string","value":"bsc"},{"name":"no","type":"int","value":2},{"name":"zM","type":"int","value":0}],"gid":16,"width":90,"height":60},{"id":83,"x":-1170,"y":480,"visible":true,"properties":[{"name":"layer","type":"int","value":3},{"name":"resource_index","type":"int","value":53},{"name":"u","type":"string","value":"bsc"},{"name":"no","type":"int","value":3},{"name":"zM","type":"int","value":0}],"gid":15,"width":90,"height":60},{"id":84,"x":-900,"y":480,"visible":true,"properties":[{"name":"layer","type":"int","value":3},{"name":"resource_index","type":"int","value":54},{"name":"u","type":"string","value":"bsc"},{"name":"no","type":"int","value":1},{"name":"zM","type":"int","value":0}],"gid":18,"width":90,"height":60},{"id":85,"x":-990,"y":480,"visible":true,"properties":[{"name":"layer","type":"int","value":3},{"name":"resource_index","type":"int","value":55},{"name":"u","type":"string","value":"bsc"},{"name":"no","type":"int","value":3},{"name":"zM","type":"int","value":0}],"gid":15,"width":90,"height":60},{"id":86,"x":-1170,"y":505,"visible":true,"properties":[{"name":"layer","type":"int","value":3},{"name":"resource_index","type":"int","value":56},{"name":"u","type":"string","value":"enH1"},{"name":"no","type":"int","value":0},{"name":"zM","type":"int","value":0}],"gid":10,"width":90,"height":25},{"id":87,"x":-720,"y":480,"visible":true,"properties":[{"name":"layer","type":"int","value":3},{"name":"resource_index","type":"int","value":57},{"name":"u","type":"string","value":"bsc"},{"name":"no","type":"int","value":3},{"name":"zM","type":"int","value":0}],"gid":15,"width":90,"height":60},{"id":88,"x":-450,"y":480,"visible":true,"properties":[{"name":"layer","type":"int","value":3},{"name":"resource_index","type":"int","value":58},{"name":"u","type":"string","value":"enV1"},{"name":"no","type":"int","value":0},{"name":"zM","type":"int","value":0}],"gid":25,"width":29,"height":60},{"id":89,"x":-810,"y":480,"visible":true,"properties":[{"name":"layer","type":"int","value":3},{"name":"resource_index","type":"int","value":59},{"name":"u","type":"string","value":"bsc"},{"name":"no","type":"int","value":0},{"name":"zM","type":"int","value":0}],"gid":19,"width":90,"height":60},{"id":90,"x":-540,"y":480,"visible":true,"properties":[{"name":"layer","type":"int","value":3},{"name":"resource_index","type":"int","value":60},{"name":"u","type":"string","value":"bsc"},{"name":"no","type":"int","value":4},{"name":"zM","type":"int","value":0}],"gid":17,"width":90,"height":60},{"id":91,"x":-630,"y":480,"visible":true,"properties":[{"name":"layer","type":"int","value":3},{"name":"resource_index","type":"int","value":61},{"name":"u","type":"string","value":"bsc"},{"name":"no","type":"int","value":0},{"name":"zM","type":"int","value":0}],"gid":19,"width":90,"height":60},{"id":92,"x":-1202,"y":480,"visible":true,"properties":[{"name":"layer","type":"int","value":3},{"name":"resource_index","type":"int","value":62},{"name":"u","type":"string","value":"enV0"},{"name":"no","type":"int","value":0},{"name":"zM","type":"int","value":0}],"gid":24,"width":32,"height":60},{"id":93,"x":-1194,"y":497,"visible":true,"properties":[{"name":"layer","type":"int","value":3},{"name":"resource_index","type":"int","value":63},{"name":"u","type":"string","value":"edD"},{"name":"no","type":"int","value":0},{"name":"zM","type":"int","value":0}],"gid":9,"width":48,"height":17},{"id":94,"x":-990,"y":505,"visible":true,"properties":[{"name":"layer","type":"int","value":3},{"name":"resource_index","type":"int","value":64},{"name":"u","type":"string","value":"enH1"},{"name":"no","type":"int","value":0},{"name":"zM","type":"int","value":0}],"gid":10,"width":90,"height":25},{"id":95,"x":-1080,"y":505,"visible":true,"properties":[{"name":"layer","type":"int","value":3},{"name":"resource_index","type":"int","value":65},{"name":"u","type":"string","value":"enH1"},{"name":"no","type":"int","value":0},{"name":"zM","type":"int","value":0}],"gid":10,"width":90,"height":25},{"id":96,"x":-720,"y":506,"visible":true,"properties":[{"name":"layer","type":"int","value":3},{"name":"resource_index","type":"int","value":66},{"name":"u","type":"string","value":"enH1"},{"name":"no","type":"int","value":1},{"name":"zM","type":"int","value":0}],"gid":13,"width":90,"height":26},{"id":97,"x":-810,"y":506,"visible":true,"properties":[{"name":"layer","type":"int","value":3},{"name":"resource_index","type":"int","value":67},{"name":"u","type":"string","value":"enH1"},{"name":"no","type":"int","value":1},{"name":"zM","type":"int","value":0}],"gid":13,"width":90,"height":26},{"id":98,"x":-900,"y":506,"visible":true,"properties":[{"name":"layer","type":"int","value":3},{"name":"resource_index","type":"int","value":68},{"name":"u","type":"string","value":"enH1"},{"name":"no","type":"int","value":1},{"name":"zM","type":"int","value":0}],"gid":13,"width":90,"height":26},{"id":99,"x":-474,"y":497,"visible":true,"properties":[{"name":"layer","type":"int","value":3},{"name":"resource_index","type":"int","value":69},{"name":"u","type":"string","value":"edD"},{"name":"no","type":"int","value":0},{"name":"zM","type":"int","value":0}],"gid":9,"width":48,"height":17},{"id":100,"x":-630,"y":505,"visible":true,"properties":[{"name":"layer","type":"int","value":3},{"name":"resource_index","type":"int","value":70},{"name":"u","type":"string","value":"enH1"},{"name":"no","type":"int","value":0},{"name":"zM","type":"int","value":0}],"gid":10,"width":90,"height":25},{"id":101,"x":-540,"y":505,"visible":true,"properties":[{"name":"layer","type":"int","value":3},{"name":"resource_index","type":"int","value":71},{"name":"u","type":"string","value":"enH1"},{"name":"no","type":"int","value":0},{"name":"zM","type":"int","value":0}],"gid":10,"width":90,"height":25}]},{"id":6,"name":"layer_4_obj","type":"objectgroup","visible":true,"opacity":1,"objects":[{"id":102,"x":-1177,"y":217,"visible":true,"properties":[{"name":"layer","type":"int","value":4},{"name":"resource_index","type":"int","value":0},{"name":"oS","type":"string","value":"trap"},{"name":"l0","type":"string","value":"trap"},{"name":"l1","type":"string","value":"nature"},{"name":"l2","type":"string","value":"7"},{"name":"z","type":"int","value":3},{"name":"zM","type":"int","value":4},{"name":"f","type":"int","value":0}],"gid":31,"width":27,"height":40},{"id":103,"x":-681,"y":217,"visible":true,"properties":[{"name":"layer","type":"int","value":4},{"name":"resource_index","type":"int","value":1},{"name":"oS","type":"string","value":"trap"},{"name":"l0","type":"string","value":"trap"},{"name":"l1","type":"string","value":"nature"},{"name":"l2","type":"string","value":"7"},{"name":"z","type":"int","value":3},{"name":"zM","type":"int","value":3},{"name":"f","type":"int","value":0}],"gid":31,"width":27,"height":40},{"id":104,"x":-1100,"y":219,"visible":true,"properties":[{"name":"layer","type":"int","value":4},{"name":"resource_index","type":"int","value":2},{"name":"oS","type":"string","value":"trap"},{"name":"l0","type":"string","value":"trap"},{"name":"l1","type":"string","value":"nature"},{"name":"l2","type":"string","value":"7"},{"name":"z","type":"int","value":3},{"name":"zM","type":"int","value":2},{"name":"f","type":"int","value":0}],"gid":31,"width":27,"height":40},{"id":105,"x":-522,"y":217,"visible":true,"properties":[{"name":"layer","type":"int","value":4},{"name":"resource_index","type":"int","value":3},{"name":"oS","type":"string","value":"trap"},{"name":"l0","type":"string","value":"trap"},{"name":"l1","type":"string","value":"nature"},{"name":"l2","type":"string","value":"7"},{"name":"z","type":"int","value":3},{"name":"zM","type":"int","value":5},{"name":"f","type":"int","value":0}],"gid":31,"width":27,"height":40},{"id":106,"x":-990,"y":216,"visible":true,"properties":[{"name":"layer","type":"int","value":4},{"name":"resource_index","type":"int","value":4},{"name":"oS","type":"string","value":"trap"},{"name":"l0","type":"string","value":"trap"},{"name":"l1","type":"string","value":"nature"},{"name":"l2","type":"string","value":"7"},{"name":"z","type":"int","value":3},{"name":"zM","type":"int","value":6},{"name":"f","type":"int","value":0}],"gid":31,"width":27,"height":40}]},{"id":7,"name":"background_back_0","type":"imagelayer","visible":true,"opacity":1,"image":"../../images/29098.png","imagewidth":256,"imageheight":256,"offsetx":-128,"offsety":-128,"repeatx":true,"repeaty":true,"parallaxx":1,"parallaxy":1,"properties":[{"name":"a","type":"int","value":255},{"name":"f","type":"int","value":0},{"name":"x","type":"int","value":0},{"name":"y","type":"int","value":0},{"name":"bS","type":"string","value":"grassySoil"},{"name":"cx","type":"int","value":0},{"name":"cy","type":"int","value":0},{"name":"no","type":"int","value":0},{"name":"rx","type":"int","value":0},{"name":"ry","type":"int","value":0},{"name":"ani","type":"int","value":0},{"name":"type","type":"int","value":3},{"name":"front","type":"int","value":0}]},{"id":8,"name":"background_back_1","type":"imagelayer","visible":true,"opacity":1,"image":"../../images/29099.png","imagewidth":1024,"imageheight":579,"offsetx":-569,"offsety":-456,"repeatx":true,"repeaty":false,"parallaxx":1,"parallaxy":1,"properties":[{"name":"a","type":"int","value":255},{"name":"f","type":"int","value":0},{"name":"x","type":"int","value":-57},{"name":"y","type":"int","value":-167},{"name":"bS","type":"string","value":"grassySoil"},{"name":"cx","type":"int","value":0},{"name":"cy","type":"int","value":0},{"name":"no","type":"int","value":1},{"name":"rx","type":"int","value":-5},{"name":"ry","type":"int","value":0},{"name":"ani","type":"int","value":0},{"name":"type","type":"int","value":4},{"name":"front","type":"int","value":0}]},{"id":9,"name":"background_back_2","type":"imagelayer","visible":true,"opacity":1,"image":"../../images/29100.png","imagewidth":2493,"imageheight":340,"offsetx":-879,"offsety":-51,"repeatx":false,"repeaty":false,"parallaxx":1,"parallaxy":1,"properties":[{"name":"a","type":"int","value":255},{"name":"f","type":"int","value":0},{"name":"x","type":"int","value":367},{"name":"y","type":"int","value":119},{"name":"bS","type":"string","value":"grassySoil"},{"name":"cx","type":"int","value":0},{"name":"cy","type":"int","value":0},{"name":"no","type":"int","value":2},{"name":"rx","type":"int","value":-10},{"name":"ry","type":"int","value":-10},{"name":"ani","type":"int","value":0},{"name":"type","type":"int","value":0},{"name":"front","type":"int","value":0}]},{"id":10,"name":"background_back_3","type":"imagelayer","visible":true,"opacity":1,"image":"../../images/29101.png","imagewidth":315,"imageheight":268,"offsetx":89,"offsety":-319,"repeatx":false,"repeaty":false,"parallaxx":1,"parallaxy":1,"properties":[{"name":"a","type":"int","value":255},{"name":"f","type":"int","value":0},{"name":"x","type":"int","value":246},{"name":"y","type":"int","value":-185},{"name":"bS","type":"string","value":"grassySoil"},{"name":"cx","type":"int","value":0},{"name":"cy","type":"int","value":0},{"name":"no","type":"int","value":3},{"name":"rx","type":"int","value":-10},{"name":"ry","type":"int","value":-10},{"name":"ani","type":"int","value":0},{"name":"type","type":"int","value":0},{"name":"front","type":"int","value":0}]},{"id":11,"name":"background_back_4","type":"imagelayer","visible":true,"opacity":1,"image":"../../images/29104.png","imagewidth":1024,"imageheight":294,"offsetx":-577,"offsety":14,"repeatx":false,"repeaty":false,"parallaxx":1,"parallaxy":1,"properties":[{"name":"a","type":"int","value":255},{"name":"f","type":"int","value":0},{"name":"x","type":"int","value":-65},{"name":"y","type":"int","value":161},{"name":"bS","type":"string","value":"grassySoil"},{"name":"cx","type":"int","value":0},{"name":"cy","type":"int","value":0},{"name":"no","type":"int","value":6},{"name":"rx","type":"int","value":-20},{"name":"ry","type":"int","value":-15},{"name":"ani","type":"int","value":0},{"name":"type","type":"int","value":0},{"name":"front","type":"int","value":0}]},{"id":12,"name":"background_back_5","type":"imagelayer","visible":true,"opacity":1,"image":"../../images/29102.png","imagewidth":1024,"imageheight":257,"offsetx":446,"offsety":51,"repeatx":false,"repeaty":false,"parallaxx":1,"parallaxy":1,"properties":[{"name":"a","type":"int","value":255},{"name":"f","type":"int","value":0},{"name":"x","type":"int","value":958},{"name":"y","type":"int","value":179},{"name":"bS","type":"string","value":"grassySoil"},{"name":"cx","type":"int","value":0},{"name":"cy","type":"int","value":0},{"name":"no","type":"int","value":4},{"name":"rx","type":"int","value":-20},{"name":"ry","type":"int","value":-15},{"name":"ani","type":"int","value":0},{"name":"type","type":"int","value":0},{"name":"front","type":"int","value":0}]},{"id":13,"name":"background_back","type":"objectgroup","visible":true,"opacity":1,"objects":[{"id":107,"x":-57,"y":-167,"visible":true,"properties":[{"name":"image_layer_name","type":"string","value":"background_back_1"},{"name":"a","type":"int","value":255},{"name":"f","type":"int","value":0},{"name":"x","type":"int","value":-57},{"name":"y","type":"int","value":-167},{"name":"bS","type":"string","value":"grassySoil"},{"name":"cx","type":"int","value":0},{"name":"cy","type":"int","value":0},{"name":"no","type":"int","value":1},{"name":"rx","type":"int","value":-5},{"name":"ry","type":"int","value":0},{"name":"ani","type":"int","value":0},{"name":"type","type":"int","value":4},{"name":"front","type":"int","value":0}],"point":true}]},{"id":14,"name":"portal","type":"objectgroup","visible":true,"opacity":1,"objects":[{"id":108,"x":-813,"y":132,"visible":true,"properties":[{"name":"x","type":"int","value":-813},{"name":"y","type":"int","value":132},{"name":"pn","type":"string","value":"sp"},{"name":"pt","type":"int","value":0},{"name":"tm","type":"int","value":999999999},{"name":"tn","type":"string","value":""}],"point":true},{"id":109,"x":-744,"y":209,"visible":true,"properties":[{"name":"x","type":"int","value":-744},{"name":"y","type":"int","value":209},{"name":"pn","type":"string","value":"st00"},{"name":"pt","type":"int","value":1},{"name":"tm","type":"int","value":999999999},{"name":"tn","type":"string","value":""}],"point":true},{"id":110,"x":-830,"y":-446,"visible":true,"properties":[{"name":"x","type":"int","value":-830},{"name":"y","type":"int","value":-446},{"name":"pn","type":"string","value":"out00"},{"name":"pt","type":"int","value":2},{"name":"tm","type":"int","value":100000003},{"name":"tn","type":"string","value":"st00"}],"point":true}]},{"id":15,"name":"foothold","type":"objectgroup","visible":true,"opacity":1,"objects":[{"id":111,"x":-939,"y":-420,"visible":true,"properties":[{"name":"layer","type":"int","value":1},{"name":"group","type":"int","value":16},{"name":"id","type":"int","value":1},{"name":"fh_layer","type":"int","value":1},{"name":"fh_group","type":"int","value":16},{"name":"fh_id","type":"int","value":1},{"name":"x1","type":"int","value":-939},{"name":"x2","type":"int","value":-939},{"name":"y1","type":"int","value":-420},{"name":"y2","type":"int","value":-445},{"name":"next","type":"int","value":2},{"name":"prev","type":"int","value":0}],"polyline":[{"x":0,"y":0},{"x":0,"y":-25}]},{"id":112,"x":-939,"y":-445,"visible":true,"properties":[{"name":"layer","type":"int","value":1},{"name":"group","type":"int","value":16},{"name":"id","type":"int","value":2},{"name":"fh_layer","type":"int","value":1},{"name":"fh_group","type":"int","value":16},{"name":"fh_id","type":"int","value":2},{"name":"x1","type":"int","value":-939},{"name":"x2","type":"int","value":-861},{"name":"y1","type":"int","value":-445},{"name":"y2","type":"int","value":-445},{"name":"next","type":"int","value":3},{"name":"prev","type":"int","value":1}],"polyline":[{"x":0,"y":0},{"x":78,"y":0}]},{"id":113,"x":-861,"y":-445,"visible":true,"properties":[{"name":"layer","type":"int","value":1},{"name":"group","type":"int","value":16},{"name":"id","type":"int","value":3},{"name":"fh_layer","type":"int","value":1},{"name":"fh_group","type":"int","value":16},{"name":"fh_id","type":"int","value":3},{"name":"x1","type":"int","value":-861},{"name":"x2","type":"int","value":-810},{"name":"y1","type":"int","value":-445},{"name":"y2","type":"int","value":-445},{"name":"next","type":"int","value":7},{"name":"prev","type":"int","value":2}],"polyline":[{"x":0,"y":0},{"x":51,"y":0}]},{"id":114,"x":-669,"y":-445,"visible":true,"properties":[{"name":"layer","type":"int","value":1},{"name":"group","type":"int","value":16},{"name":"id","type":"int","value":4},{"name":"fh_layer","type":"int","value":1},{"name":"fh_group","type":"int","value":16},{"name":"fh_id","type":"int","value":4},{"name":"x1","type":"int","value":-669},{"name":"x2","type":"int","value":-591},{"name":"y1","type":"int","value":-445},{"name":"y2","type":"int","value":-445},{"name":"next","type":"int","value":5},{"name":"prev","type":"int","value":6}],"polyline":[{"x":0,"y":0},{"x":78,"y":0}]},{"id":115,"x":-591,"y":-445,"visible":true,"properties":[{"name":"layer","type":"int","value":1},{"name":"group","type":"int","value":16},{"name":"id","type":"int","value":5},{"name":"fh_layer","type":"int","value":1},{"name":"fh_group","type":"int","value":16},{"name":"fh_id","type":"int","value":5},{"name":"x1","type":"int","value":-591},{"name":"x2","type":"int","value":-591},{"name":"y1","type":"int","value":-445},{"name":"y2","type":"int","value":-420},{"name":"next","type":"int","value":0},{"name":"prev","type":"int","value":4}],"polyline":[{"x":0,"y":0},{"x":0,"y":25}]},{"id":116,"x":-720,"y":-445,"visible":true,"properties":[{"name":"layer","type":"int","value":1},{"name":"group","type":"int","value":16},{"name":"id","type":"int","value":6},{"name":"fh_layer","type":"int","value":1},{"name":"fh_group","type":"int","value":16},{"name":"fh_id","type":"int","value":6},{"name":"x1","type":"int","value":-720},{"name":"x2","type":"int","value":-669},{"name":"y1","type":"int","value":-445},{"name":"y2","type":"int","value":-445},{"name":"next","type":"int","value":4},{"name":"prev","type":"int","value":7}],"polyline":[{"x":0,"y":0},{"x":51,"y":0}]},{"id":117,"x":-810,"y":-445,"visible":true,"properties":[{"name":"layer","type":"int","value":1},{"name":"group","type":"int","value":16},{"name":"id","type":"int","value":7},{"name":"fh_layer","type":"int","value":1},{"name":"fh_group","type":"int","value":16},{"name":"fh_id","type":"int","value":7},{"name":"x1","type":"int","value":-810},{"name":"x2","type":"int","value":-720},{"name":"y1","type":"int","value":-445},{"name":"y2","type":"int","value":-445},{"name":"next","type":"int","value":6},{"name":"prev","type":"int","value":3}],"polyline":[{"x":0,"y":0},{"x":90,"y":0}]},{"id":118,"x":-1080,"y":215,"visible":true,"properties":[{"name":"layer","type":"int","value":3},{"name":"group","type":"int","value":0},{"name":"id","type":"int","value":8},{"name":"fh_layer","type":"int","value":3},{"name":"fh_group","type":"int","value":0},{"name":"fh_id","type":"int","value":8},{"name":"x1","type":"int","value":-1080},{"name":"x2","type":"int","value":-990},{"name":"y1","type":"int","value":215},{"name":"y2","type":"int","value":215},{"name":"next","type":"int","value":13},{"name":"prev","type":"int","value":26}],"polyline":[{"x":0,"y":0},{"x":90,"y":0}]},{"id":119,"x":-411,"y":300,"visible":true,"properties":[{"name":"layer","type":"int","value":3},{"name":"group","type":"int","value":0},{"name":"id","type":"int","value":9},{"name":"fh_layer","type":"int","value":3},{"name":"fh_group","type":"int","value":0},{"name":"fh_id","type":"int","value":9},{"name":"x1","type":"int","value":-411},{"name":"x2","type":"int","value":-411},{"name":"y1","type":"int","value":300},{"name":"y2","type":"int","value":360},{"name":"next","type":"int","value":21},{"name":"prev","type":"int","value":22}],"polyline":[{"x":0,"y":0},{"x":0,"y":60}]},{"id":120,"x":-720,"y":215,"visible":true,"properties":[{"name":"layer","type":"int","value":3},{"name":"group","type":"int","value":0},{"name":"id","type":"int","value":10},{"name":"fh_layer","type":"int","value":3},{"name":"fh_group","type":"int","value":0},{"name":"fh_id","type":"int","value":10},{"name":"x1","type":"int","value":-720},{"name":"x2","type":"int","value":-630},{"name":"y1","type":"int","value":215},{"name":"y2","type":"int","value":215},{"name":"next","type":"int","value":19},{"name":"prev","type":"int","value":11}],"polyline":[{"x":0,"y":0},{"x":90,"y":0}]},{"id":121,"x":-810,"y":215,"visible":true,"properties":[{"name":"layer","type":"int","value":3},{"name":"group","type":"int","value":0},{"name":"id","type":"int","value":11},{"name":"fh_layer","type":"int","value":3},{"name":"fh_group","type":"int","value":0},{"name":"fh_id","type":"int","value":11},{"name":"x1","type":"int","value":-810},{"name":"x2","type":"int","value":-720},{"name":"y1","type":"int","value":215},{"name":"y2","type":"int","value":215},{"name":"next","type":"int","value":10},{"name":"prev","type":"int","value":12}],"polyline":[{"x":0,"y":0},{"x":90,"y":0}]},{"id":122,"x":-900,"y":215,"visible":true,"properties":[{"name":"layer","type":"int","value":3},{"name":"group","type":"int","value":0},{"name":"id","type":"int","value":12},{"name":"fh_layer","type":"int","value":3},{"name":"fh_group","type":"int","value":0},{"name":"fh_id","type":"int","value":12},{"name":"x1","type":"int","value":-900},{"name":"x2","type":"int","value":-810},{"name":"y1","type":"int","value":215},{"name":"y2","type":"int","value":215},{"name":"next","type":"int","value":11},{"name":"prev","type":"int","value":13}],"polyline":[{"x":0,"y":0},{"x":90,"y":0}]},{"id":123,"x":-990,"y":215,"visible":true,"properties":[{"name":"layer","type":"int","value":3},{"name":"group","type":"int","value":0},{"name":"id","type":"int","value":13},{"name":"fh_layer","type":"int","value":3},{"name":"fh_group","type":"int","value":0},{"name":"fh_id","type":"int","value":13},{"name":"x1","type":"int","value":-990},{"name":"x2","type":"int","value":-900},{"name":"y1","type":"int","value":215},{"name":"y2","type":"int","value":215},{"name":"next","type":"int","value":12},{"name":"prev","type":"int","value":8}],"polyline":[{"x":0,"y":0},{"x":90,"y":0}]},{"id":124,"x":-489,"y":215,"visible":true,"properties":[{"name":"layer","type":"int","value":3},{"name":"group","type":"int","value":0},{"name":"id","type":"int","value":14},{"name":"fh_layer","type":"int","value":3},{"name":"fh_group","type":"int","value":0},{"name":"fh_id","type":"int","value":14},{"name":"x1","type":"int","value":-489},{"name":"x2","type":"int","value":-411},{"name":"y1","type":"int","value":215},{"name":"y2","type":"int","value":215},{"name":"next","type":"int","value":15},{"name":"prev","type":"int","value":16}],"polyline":[{"x":0,"y":0},{"x":78,"y":0}]},{"id":125,"x":-411,"y":215,"visible":true,"properties":[{"name":"layer","type":"int","value":3},{"name":"group","type":"int","value":0},{"name":"id","type":"int","value":15},{"name":"fh_layer","type":"int","value":3},{"name":"fh_group","type":"int","value":0},{"name":"fh_id","type":"int","value":15},{"name":"x1","type":"int","value":-411},{"name":"x2","type":"int","value":-411},{"name":"y1","type":"int","value":215},{"name":"y2","type":"int","value":240},{"name":"next","type":"int","value":22},{"name":"prev","type":"int","value":14}],"polyline":[{"x":0,"y":0},{"x":0,"y":25}]},{"id":126,"x":-540,"y":215,"visible":true,"properties":[{"name":"layer","type":"int","value":3},{"name":"group","type":"int","value":0},{"name":"id","type":"int","value":16},{"name":"fh_layer","type":"int","value":3},{"name":"fh_group","type":"int","value":0},{"name":"fh_id","type":"int","value":16},{"name":"x1","type":"int","value":-540},{"name":"x2","type":"int","value":-489},{"name":"y1","type":"int","value":215},{"name":"y2","type":"int","value":215},{"name":"next","type":"int","value":14},{"name":"prev","type":"int","value":19}],"polyline":[{"x":0,"y":0},{"x":51,"y":0}]},{"id":127,"x":-1209,"y":300,"visible":true,"properties":[{"name":"layer","type":"int","value":3},{"name":"group","type":"int","value":0},{"name":"id","type":"int","value":17},{"name":"fh_layer","type":"int","value":3},{"name":"fh_group","type":"int","value":0},{"name":"fh_id","type":"int","value":17},{"name":"x1","type":"int","value":-1209},{"name":"x2","type":"int","value":-1209},{"name":"y1","type":"int","value":300},{"name":"y2","type":"int","value":240},{"name":"next","type":"int","value":24},{"name":"prev","type":"int","value":20}],"polyline":[{"x":0,"y":0},{"x":0,"y":-60}]},{"id":128,"x":-1209,"y":420,"visible":true,"properties":[{"name":"layer","type":"int","value":3},{"name":"group","type":"int","value":0},{"name":"id","type":"int","value":18},{"name":"fh_layer","type":"int","value":3},{"name":"fh_group","type":"int","value":0},{"name":"fh_id","type":"int","value":18},{"name":"x1","type":"int","value":-1209},{"name":"x2","type":"int","value":-1209},{"name":"y1","type":"int","value":420},{"name":"y2","type":"int","value":360},{"name":"next","type":"int","value":20},{"name":"prev","type":"int","value":28}],"polyline":[{"x":0,"y":0},{"x":0,"y":-60}]},{"id":129,"x":-630,"y":215,"visible":true,"properties":[{"name":"layer","type":"int","value":3},{"name":"group","type":"int","value":0},{"name":"id","type":"int","value":19},{"name":"fh_layer","type":"int","value":3},{"name":"fh_group","type":"int","value":0},{"name":"fh_id","type":"int","value":19},{"name":"x1","type":"int","value":-630},{"name":"x2","type":"int","value":-540},{"name":"y1","type":"int","value":215},{"name":"y2","type":"int","value":215},{"name":"next","type":"int","value":16},{"name":"prev","type":"int","value":10}],"polyline":[{"x":0,"y":0},{"x":90,"y":0}]},{"id":130,"x":-1209,"y":360,"visible":true,"properties":[{"name":"layer","type":"int","value":3},{"name":"group","type":"int","value":0},{"name":"id","type":"int","value":20},{"name":"fh_layer","type":"int","value":3},{"name":"fh_group","type":"int","value":0},{"name":"fh_id","type":"int","value":20},{"name":"x1","type":"int","value":-1209},{"name":"x2","type":"int","value":-1209},{"name":"y1","type":"int","value":360},{"name":"y2","type":"int","value":300},{"name":"next","type":"int","value":17},{"name":"prev","type":"int","value":18}],"polyline":[{"x":0,"y":0},{"x":0,"y":-60}]},{"id":131,"x":-411,"y":360,"visible":true,"properties":[{"name":"layer","type":"int","value":3},{"name":"group","type":"int","value":0},{"name":"id","type":"int","value":21},{"name":"fh_layer","type":"int","value":3},{"name":"fh_group","type":"int","value":0},{"name":"fh_id","type":"int","value":21},{"name":"x1","type":"int","value":-411},{"name":"x2","type":"int","value":-411},{"name":"y1","type":"int","value":360},{"name":"y2","type":"int","value":420},{"name":"next","type":"int","value":27},{"name":"prev","type":"int","value":9}],"polyline":[{"x":0,"y":0},{"x":0,"y":60}]},{"id":132,"x":-411,"y":240,"visible":true,"properties":[{"name":"layer","type":"int","value":3},{"name":"group","type":"int","value":0},{"name":"id","type":"int","value":22},{"name":"fh_layer","type":"int","value":3},{"name":"fh_group","type":"int","value":0},{"name":"fh_id","type":"int","value":22},{"name":"x1","type":"int","value":-411},{"name":"x2","type":"int","value":-411},{"name":"y1","type":"int","value":240},{"name":"y2","type":"int","value":300},{"name":"next","type":"int","value":9},{"name":"prev","type":"int","value":15}],"polyline":[{"x":0,"y":0},{"x":0,"y":60}]},{"id":133,"x":-1170,"y":215,"visible":true,"properties":[{"name":"layer","type":"int","value":3},{"name":"group","type":"int","value":0},{"name":"id","type":"int","value":23},{"name":"fh_layer","type":"int","value":3},{"name":"fh_group","type":"int","value":0},{"name":"fh_id","type":"int","value":23},{"name":"x1","type":"int","value":-1170},{"name":"x2","type":"int","value":-1131},{"name":"y1","type":"int","value":215},{"name":"y2","type":"int","value":215},{"name":"next","type":"int","value":26},{"name":"prev","type":"int","value":25}],"polyline":[{"x":0,"y":0},{"x":39,"y":0}]},{"id":134,"x":-1209,"y":240,"visible":true,"properties":[{"name":"layer","type":"int","value":3},{"name":"group","type":"int","value":0},{"name":"id","type":"int","value":24},{"name":"fh_layer","type":"int","value":3},{"name":"fh_group","type":"int","value":0},{"name":"fh_id","type":"int","value":24},{"name":"x1","type":"int","value":-1209},{"name":"x2","type":"int","value":-1209},{"name":"y1","type":"int","value":240},{"name":"y2","type":"int","value":215},{"name":"next","type":"int","value":25},{"name":"prev","type":"int","value":17}],"polyline":[{"x":0,"y":0},{"x":0,"y":-25}]},{"id":135,"x":-1209,"y":215,"visible":true,"properties":[{"name":"layer","type":"int","value":3},{"name":"group","type":"int","value":0},{"name":"id","type":"int","value":25},{"name":"fh_layer","type":"int","value":3},{"name":"fh_group","type":"int","value":0},{"name":"fh_id","type":"int","value":25},{"name":"x1","type":"int","value":-1209},{"name":"x2","type":"int","value":-1170},{"name":"y1","type":"int","value":215},{"name":"y2","type":"int","value":215},{"name":"next","type":"int","value":23},{"name":"prev","type":"int","value":24}],"polyline":[{"x":0,"y":0},{"x":39,"y":0}]},{"id":136,"x":-1131,"y":215,"visible":true,"properties":[{"name":"layer","type":"int","value":3},{"name":"group","type":"int","value":0},{"name":"id","type":"int","value":26},{"name":"fh_layer","type":"int","value":3},{"name":"fh_group","type":"int","value":0},{"name":"fh_id","type":"int","value":26},{"name":"x1","type":"int","value":-1131},{"name":"x2","type":"int","value":-1080},{"name":"y1","type":"int","value":215},{"name":"y2","type":"int","value":215},{"name":"next","type":"int","value":8},{"name":"prev","type":"int","value":23}],"polyline":[{"x":0,"y":0},{"x":51,"y":0}]},{"id":137,"x":-411,"y":420,"visible":true,"properties":[{"name":"layer","type":"int","value":3},{"name":"group","type":"int","value":0},{"name":"id","type":"int","value":27},{"name":"fh_layer","type":"int","value":3},{"name":"fh_group","type":"int","value":0},{"name":"fh_id","type":"int","value":27},{"name":"x1","type":"int","value":-411},{"name":"x2","type":"int","value":-411},{"name":"y1","type":"int","value":420},{"name":"y2","type":"int","value":480},{"name":"next","type":"int","value":0},{"name":"prev","type":"int","value":21}],"polyline":[{"x":0,"y":0},{"x":0,"y":60}]},{"id":138,"x":-1209,"y":480,"visible":true,"properties":[{"name":"layer","type":"int","value":3},{"name":"group","type":"int","value":0},{"name":"id","type":"int","value":28},{"name":"fh_layer","type":"int","value":3},{"name":"fh_group","type":"int","value":0},{"name":"fh_id","type":"int","value":28},{"name":"x1","type":"int","value":-1209},{"name":"x2","type":"int","value":-1209},{"name":"y1","type":"int","value":480},{"name":"y2","type":"int","value":420},{"name":"next","type":"int","value":18},{"name":"prev","type":"int","value":0}],"polyline":[{"x":0,"y":0},{"x":0,"y":-60}]},{"id":139,"x":-849,"y":180,"visible":true,"properties":[{"name":"layer","type":"int","value":3},{"name":"group","type":"int","value":7},{"name":"id","type":"int","value":29},{"name":"fh_layer","type":"int","value":3},{"name":"fh_group","type":"int","value":7},{"name":"fh_id","type":"int","value":29},{"name":"x1","type":"int","value":-849},{"name":"x2","type":"int","value":-849},{"name":"y1","type":"int","value":180},{"name":"y2","type":"int","value":155},{"name":"next","type":"int","value":30},{"name":"prev","type":"int","value":0}],"polyline":[{"x":0,"y":0},{"x":0,"y":-25}]},{"id":140,"x":-849,"y":155,"visible":true,"properties":[{"name":"layer","type":"int","value":3},{"name":"group","type":"int","value":7},{"name":"id","type":"int","value":30},{"name":"fh_layer","type":"int","value":3},{"name":"fh_group","type":"int","value":7},{"name":"fh_id","type":"int","value":30},{"name":"x1","type":"int","value":-849},{"name":"x2","type":"int","value":-771},{"name":"y1","type":"int","value":155},{"name":"y2","type":"int","value":155},{"name":"next","type":"int","value":31},{"name":"prev","type":"int","value":29}],"polyline":[{"x":0,"y":0},{"x":78,"y":0}]},{"id":141,"x":-771,"y":155,"visible":true,"properties":[{"name":"layer","type":"int","value":3},{"name":"group","type":"int","value":7},{"name":"id","type":"int","value":31},{"name":"fh_layer","type":"int","value":3},{"name":"fh_group","type":"int","value":7},{"name":"fh_id","type":"int","value":31},{"name":"x1","type":"int","value":-771},{"name":"x2","type":"int","value":-771},{"name":"y1","type":"int","value":155},{"name":"y2","type":"int","value":180},{"name":"next","type":"int","value":0},{"name":"prev","type":"int","value":30}],"polyline":[{"x":0,"y":0},{"x":0,"y":25}]},{"id":142,"x":-939,"y":120,"visible":true,"properties":[{"name":"layer","type":"int","value":3},{"name":"group","type":"int","value":8},{"name":"id","type":"int","value":32},{"name":"fh_layer","type":"int","value":3},{"name":"fh_group","type":"int","value":8},{"name":"fh_id","type":"int","value":32},{"name":"x1","type":"int","value":-939},{"name":"x2","type":"int","value":-939},{"name":"y1","type":"int","value":120},{"name":"y2","type":"int","value":95},{"name":"next","type":"int","value":33},{"name":"prev","type":"int","value":0}],"polyline":[{"x":0,"y":0},{"x":0,"y":-25}]},{"id":143,"x":-939,"y":95,"visible":true,"properties":[{"name":"layer","type":"int","value":3},{"name":"group","type":"int","value":8},{"name":"id","type":"int","value":33},{"name":"fh_layer","type":"int","value":3},{"name":"fh_group","type":"int","value":8},{"name":"fh_id","type":"int","value":33},{"name":"x1","type":"int","value":-939},{"name":"x2","type":"int","value":-861},{"name":"y1","type":"int","value":95},{"name":"y2","type":"int","value":95},{"name":"next","type":"int","value":34},{"name":"prev","type":"int","value":32}],"polyline":[{"x":0,"y":0},{"x":78,"y":0}]},{"id":144,"x":-861,"y":95,"visible":true,"properties":[{"name":"layer","type":"int","value":3},{"name":"group","type":"int","value":8},{"name":"id","type":"int","value":34},{"name":"fh_layer","type":"int","value":3},{"name":"fh_group","type":"int","value":8},{"name":"fh_id","type":"int","value":34},{"name":"x1","type":"int","value":-861},{"name":"x2","type":"int","value":-861},{"name":"y1","type":"int","value":95},{"name":"y2","type":"int","value":120},{"name":"next","type":"int","value":0},{"name":"prev","type":"int","value":33}],"polyline":[{"x":0,"y":0},{"x":0,"y":25}]},{"id":145,"x":-849,"y":60,"visible":true,"properties":[{"name":"layer","type":"int","value":3},{"name":"group","type":"int","value":9},{"name":"id","type":"int","value":35},{"name":"fh_layer","type":"int","value":3},{"name":"fh_group","type":"int","value":9},{"name":"fh_id","type":"int","value":35},{"name":"x1","type":"int","value":-849},{"name":"x2","type":"int","value":-849},{"name":"y1","type":"int","value":60},{"name":"y2","type":"int","value":35},{"name":"next","type":"int","value":36},{"name":"prev","type":"int","value":0}],"polyline":[{"x":0,"y":0},{"x":0,"y":-25}]},{"id":146,"x":-849,"y":35,"visible":true,"properties":[{"name":"layer","type":"int","value":3},{"name":"group","type":"int","value":9},{"name":"id","type":"int","value":36},{"name":"fh_layer","type":"int","value":3},{"name":"fh_group","type":"int","value":9},{"name":"fh_id","type":"int","value":36},{"name":"x1","type":"int","value":-849},{"name":"x2","type":"int","value":-771},{"name":"y1","type":"int","value":35},{"name":"y2","type":"int","value":35},{"name":"next","type":"int","value":37},{"name":"prev","type":"int","value":35}],"polyline":[{"x":0,"y":0},{"x":78,"y":0}]},{"id":147,"x":-771,"y":35,"visible":true,"properties":[{"name":"layer","type":"int","value":3},{"name":"group","type":"int","value":9},{"name":"id","type":"int","value":37},{"name":"fh_layer","type":"int","value":3},{"name":"fh_group","type":"int","value":9},{"name":"fh_id","type":"int","value":37},{"name":"x1","type":"int","value":-771},{"name":"x2","type":"int","value":-771},{"name":"y1","type":"int","value":35},{"name":"y2","type":"int","value":60},{"name":"next","type":"int","value":0},{"name":"prev","type":"int","value":36}],"polyline":[{"x":0,"y":0},{"x":0,"y":25}]},{"id":148,"x":-939,"y":0,"visible":true,"properties":[{"name":"layer","type":"int","value":3},{"name":"group","type":"int","value":10},{"name":"id","type":"int","value":38},{"name":"fh_layer","type":"int","value":3},{"name":"fh_group","type":"int","value":10},{"name":"fh_id","type":"int","value":38},{"name":"x1","type":"int","value":-939},{"name":"x2","type":"int","value":-939},{"name":"y1","type":"int","value":0},{"name":"y2","type":"int","value":-25},{"name":"next","type":"int","value":39},{"name":"prev","type":"int","value":0}],"polyline":[{"x":0,"y":0},{"x":0,"y":-25}]},{"id":149,"x":-939,"y":-25,"visible":true,"properties":[{"name":"layer","type":"int","value":3},{"name":"group","type":"int","value":10},{"name":"id","type":"int","value":39},{"name":"fh_layer","type":"int","value":3},{"name":"fh_group","type":"int","value":10},{"name":"fh_id","type":"int","value":39},{"name":"x1","type":"int","value":-939},{"name":"x2","type":"int","value":-861},{"name":"y1","type":"int","value":-25},{"name":"y2","type":"int","value":-25},{"name":"next","type":"int","value":40},{"name":"prev","type":"int","value":38}],"polyline":[{"x":0,"y":0},{"x":78,"y":0}]},{"id":150,"x":-861,"y":-25,"visible":true,"properties":[{"name":"layer","type":"int","value":3},{"name":"group","type":"int","value":10},{"name":"id","type":"int","value":40},{"name":"fh_layer","type":"int","value":3},{"name":"fh_group","type":"int","value":10},{"name":"fh_id","type":"int","value":40},{"name":"x1","type":"int","value":-861},{"name":"x2","type":"int","value":-861},{"name":"y1","type":"int","value":-25},{"name":"y2","type":"int","value":0},{"name":"next","type":"int","value":0},{"name":"prev","type":"int","value":39}],"polyline":[{"x":0,"y":0},{"x":0,"y":25}]},{"id":151,"x":-849,"y":-60,"visible":true,"properties":[{"name":"layer","type":"int","value":3},{"name":"group","type":"int","value":12},{"name":"id","type":"int","value":41},{"name":"fh_layer","type":"int","value":3},{"name":"fh_group","type":"int","value":12},{"name":"fh_id","type":"int","value":41},{"name":"x1","type":"int","value":-849},{"name":"x2","type":"int","value":-849},{"name":"y1","type":"int","value":-60},{"name":"y2","type":"int","value":-85},{"name":"next","type":"int","value":42},{"name":"prev","type":"int","value":0}],"polyline":[{"x":0,"y":0},{"x":0,"y":-25}]},{"id":152,"x":-849,"y":-85,"visible":true,"properties":[{"name":"layer","type":"int","value":3},{"name":"group","type":"int","value":12},{"name":"id","type":"int","value":42},{"name":"fh_layer","type":"int","value":3},{"name":"fh_group","type":"int","value":12},{"name":"fh_id","type":"int","value":42},{"name":"x1","type":"int","value":-849},{"name":"x2","type":"int","value":-771},{"name":"y1","type":"int","value":-85},{"name":"y2","type":"int","value":-85},{"name":"next","type":"int","value":43},{"name":"prev","type":"int","value":41}],"polyline":[{"x":0,"y":0},{"x":78,"y":0}]},{"id":153,"x":-771,"y":-85,"visible":true,"properties":[{"name":"layer","type":"int","value":3},{"name":"group","type":"int","value":12},{"name":"id","type":"int","value":43},{"name":"fh_layer","type":"int","value":3},{"name":"fh_group","type":"int","value":12},{"name":"fh_id","type":"int","value":43},{"name":"x1","type":"int","value":-771},{"name":"x2","type":"int","value":-771},{"name":"y1","type":"int","value":-85},{"name":"y2","type":"int","value":-60},{"name":"next","type":"int","value":0},{"name":"prev","type":"int","value":42}],"polyline":[{"x":0,"y":0},{"x":0,"y":25}]},{"id":154,"x":-759,"y":-120,"visible":true,"properties":[{"name":"layer","type":"int","value":3},{"name":"group","type":"int","value":14},{"name":"id","type":"int","value":44},{"name":"fh_layer","type":"int","value":3},{"name":"fh_group","type":"int","value":14},{"name":"fh_id","type":"int","value":44},{"name":"x1","type":"int","value":-759},{"name":"x2","type":"int","value":-759},{"name":"y1","type":"int","value":-120},{"name":"y2","type":"int","value":-145},{"name":"next","type":"int","value":45},{"name":"prev","type":"int","value":0}],"polyline":[{"x":0,"y":0},{"x":0,"y":-25}]},{"id":155,"x":-759,"y":-145,"visible":true,"properties":[{"name":"layer","type":"int","value":3},{"name":"group","type":"int","value":14},{"name":"id","type":"int","value":45},{"name":"fh_layer","type":"int","value":3},{"name":"fh_group","type":"int","value":14},{"name":"fh_id","type":"int","value":45},{"name":"x1","type":"int","value":-759},{"name":"x2","type":"int","value":-681},{"name":"y1","type":"int","value":-145},{"name":"y2","type":"int","value":-145},{"name":"next","type":"int","value":46},{"name":"prev","type":"int","value":44}],"polyline":[{"x":0,"y":0},{"x":78,"y":0}]},{"id":156,"x":-681,"y":-145,"visible":true,"properties":[{"name":"layer","type":"int","value":3},{"name":"group","type":"int","value":14},{"name":"id","type":"int","value":46},{"name":"fh_layer","type":"int","value":3},{"name":"fh_group","type":"int","value":14},{"name":"fh_id","type":"int","value":46},{"name":"x1","type":"int","value":-681},{"name":"x2","type":"int","value":-681},{"name":"y1","type":"int","value":-145},{"name":"y2","type":"int","value":-120},{"name":"next","type":"int","value":0},{"name":"prev","type":"int","value":45}],"polyline":[{"x":0,"y":0},{"x":0,"y":25}]}]},{"id":16,"name":"ladderRope","type":"objectgroup","visible":true,"opacity":1,"objects":[{"id":157,"x":-710,"y":-443,"visible":true,"properties":[{"name":"ladder_id","type":"int","value":1},{"name":"l","type":"int","value":1},{"name":"x","type":"int","value":-710},{"name":"uf","type":"int","value":1},{"name":"y1","type":"int","value":-443},{"name":"y2","type":"int","value":-182},{"name":"page","type":"int","value":2}],"polyline":[{"x":0,"y":0},{"x":0,"y":261}]}]},{"id":17,"name":"miniMap","type":"objectgroup","visible":true,"opacity":1,"objects":[{"id":158,"x":1250,"y":641,"visible":true,"properties":[{"name":"mag","type":"int","value":4},{"name":"centerX","type":"int","value":1250},{"name":"centerY","type":"int","value":641},{"name":"canvas_path","type":"string","value":"../../images/30593.png"},{"name":"canvas_width","type":"int","value":54},{"name":"canvas_height","type":"int","value":74},{"name":"canvas_origin_x","type":"int","value":0},{"name":"canvas_origin_y","type":"int","value":0}],"point":true}]}],"tilesets":[{"firstgid":1,"source":"../../tilesets/bg_grassySoil.tsj"},{"firstgid":8,"source":"../../tilesets/tile_grassySoil.tsj"},{"firstgid":26,"source":"../../tilesets/obj_connect_ladder_0.tsj"},{"firstgid":31,"source":"../../tilesets/obj_trap_trap_nature.tsj"},{"firstgid":32,"source":"../../tilesets/obj_acc1_darkWood_nature.tsj"},{"firstgid":34,"source":"../../tilesets/obj_acc1_grassySoil_nature.tsj"}],"properties":[{"name":"bgm","type":"string","value":"Bgm00/FloralLife"},{"name":"town","type":"int","value":0},{"name":"cloud","type":"int","value":0},{"name":"mapDesc","type":"string","value":""},{"name":"mapMark","type":"string","value":"Henesys"},{"name":"mobRate","type":"float","value":1},{"name":"version","type":"int","value":10},{"name":"moveLimit","type":"int","value":0},{"name":"returnMap","type":"int","value":100000000},{"name":"fieldLimit","type":"int","value":64},{"name":"hideMinimap","type":"int","value":0},{"name":"onUserEnter","type":"string","value":"explorationPoint"},{"name":"forcedReturn","type":"int","value":100000000}]}