{"type":"map","orientation":"orthogonal","renderorder":"right-down","infinite":false,"tilewidth":1,"tileheight":1,"width":3056,"height":2356,"nextlayerid":15,"nextobjectid":1957,"layers":[{"id":1,"name":"layer_0_obj","type":"objectgroup","visible":true,"opacity":1,"objects":[{"id":1,"x":-579,"y":-196,"visible":true,"properties":[{"name":"layer","type":"int","value":0},{"name":"resource_index","type":"int","value":0},{"name":"oS","type":"string","value":"dungeon"},{"name":"l0","type":"string","value":"blueCave"},{"name":"l1","type":"string","value":"acc"},{"name":"l2","type":"string","value":"0"},{"name":"z","type":"int","value":5},{"name":"zM","type":"int","value":151},{"name":"f","type":"int","value":0}],"gid":36,"width":166,"height":40},{"id":2,"x":-544,"y":-220,"visible":true,"properties":[{"name":"layer","type":"int","value":0},{"name":"resource_index","type":"int","value":1},{"name":"oS","type":"string","value":"dungeon"},{"name":"l0","type":"string","value":"blueCave"},{"name":"l1","type":"string","value":"acc"},{"name":"l2","type":"string","value":"1"},{"name":"z","type":"int","value":3},{"name":"zM","type":"int","value":151},{"name":"f","type":"int","value":0}],"gid":37,"width":62,"height":47},{"id":3,"x":-487,"y":-218,"visible":true,"properties":[{"name":"layer","type":"int","value":0},{"name":"resource_index","type":"int","value":2},{"name":"oS","type":"string","value":"dungeon"},{"name":"l0","type":"string","value":"blueCave"},{"name":"l1","type":"string","value":"acc"},{"name":"l2","type":"string","value":"3"},{"name":"z","type":"int","value":3},{"name":"zM","type":"int","value":151},{"name":"f","type":"int","value":0}],"gid":39,"width":72,"height":34},{"id":4,"x":-539,"y":-214,"visible":true,"properties":[{"name":"layer","type":"int","value":0},{"name":"resource_index","type":"int","value":3},{"name":"oS","type":"string","value":"dungeon"},{"name":"l0","type":"string","value":"blueCave"},{"name":"l1","type":"string","value":"acc"},{"name":"l2","type":"string","value":"5"},{"name":"z","type":"int","value":6},{"name":"zM","type":"int","value":151},{"name":"f","type":"int","value":0}],"gid":41,"width":48,"height":37},{"id":5,"x":-498,"y":-224,"visible":true,"properties":[{"name":"layer","type":"int","value":0},{"name":"resource_index","type":"int","value":4},{"name":"oS","type":"string","value":"dungeon"},{"name":"l0","type":"string","value":"blueCave"},{"name":"l1","type":"string","value":"acc"},{"name":"l2","type":"string","value":"4"},{"name":"z","type":"int","value":4},{"name":"zM","type":"int","value":151},{"name":"f","type":"int","value":0}],"gid":40,"width":50,"height":48},{"id":6,"x":-478,"y":29,"visible":true,"properties":[{"name":"layer","type":"int","value":0},{"name":"resource_index","type":"int","value":5},{"name":"oS","type":"string","value":"dungeon"},{"name":"l0","type":"string","value":"blueCave"},{"name":"l1","type":"string","value":"acc"},{"name":"l2","type":"string","value":"2"},{"name":"z","type":"int","value":3},{"name":"zM","type":"int","value":142},{"name":"f","type":"int","value":0}],"gid":38,"width":53,"height":51},{"id":7,"x":-428,"y":25,"visible":true,"properties":[{"name":"layer","type":"int","value":0},{"name":"resource_index","type":"int","value":6},{"name":"oS","type":"string","value":"dungeon"},{"name":"l0","type":"string","value":"blueCave"},{"name":"l1","type":"string","value":"acc"},{"name":"l2","type":"string","value":"3"},{"name":"z","type":"int","value":3},{"name":"zM","type":"int","value":142},{"name":"f","type":"int","value":0}],"gid":39,"width":72,"height":34},{"id":8,"x":553,"y":1260,"visible":true,"properties":[{"name":"layer","type":"int","value":0},{"name":"resource_index","type":"int","value":7},{"name":"oS","type":"string","value":"dungeon"},{"name":"l0","type":"string","value":"blueCave"},{"name":"l1","type":"string","value":"acc"},{"name":"l2","type":"string","value":"0"},{"name":"z","type":"int","value":5},{"name":"zM","type":"int","value":41},{"name":"f","type":"int","value":0}],"gid":36,"width":166,"height":40},{"id":9,"x":585,"y":1242,"visible":true,"properties":[{"name":"layer","type":"int","value":0},{"name":"resource_index","type":"int","value":8},{"name":"oS","type":"string","value":"dungeon"},{"name":"l0","type":"string","value":"blueCave"},{"name":"l1","type":"string","value":"acc"},{"name":"l2","type":"string","value":"5"},{"name":"z","type":"int","value":2},{"name":"zM","type":"int","value":41},{"name":"f","type":"int","value":0}],"gid":41,"width":48,"height":37},{"id":10,"x":639,"y":1241,"visible":true,"properties":[{"name":"layer","type":"int","value":0},{"name":"resource_index","type":"int","value":9},{"name":"oS","type":"string","value":"dungeon"},{"name":"l0","type":"string","value":"blueCave"},{"name":"l1","type":"string","value":"acc"},{"name":"l2","type":"string","value":"3"},{"name":"z","type":"int","value":3},{"name":"zM","type":"int","value":41},{"name":"f","type":"int","value":0}],"gid":39,"width":72,"height":34},{"id":11,"x":615,"y":1239,"visible":true,"properties":[{"name":"layer","type":"int","value":0},{"name":"resource_index","type":"int","value":10},{"name":"oS","type":"string","value":"dungeon"},{"name":"l0","type":"string","value":"blueCave"},{"name":"l1","type":"string","value":"acc"},{"name":"l2","type":"string","value":"5"},{"name":"z","type":"int","value":4},{"name":"zM","type":"int","value":41},{"name":"f","type":"int","value":1}],"gid":41,"width":48,"height":37},{"id":12,"x":644,"y":1232,"visible":true,"properties":[{"name":"layer","type":"int","value":0},{"name":"resource_index","type":"int","value":11},{"name":"oS","type":"string","value":"dungeon"},{"name":"l0","type":"string","value":"blueCave"},{"name":"l1","type":"string","value":"acc"},{"name":"l2","type":"string","value":"4"},{"name":"z","type":"int","value":1},{"name":"zM","type":"int","value":41},{"name":"f","type":"int","value":0}],"gid":40,"width":50,"height":48}]},{"id":2,"name":"layer_1_obj","type":"objectgroup","visible":true,"opacity":1,"objects":[{"id":651,"x":-582,"y":113,"visible":true,"properties":[{"name":"layer","type":"int","value":1},{"name":"resource_index","type":"int","value":0},{"name":"oS","type":"string","value":"dungeon"},{"name":"l0","type":"string","value":"blueCave"},{"name":"l1","type":"string","value":"foot"},{"name":"l2","type":"string","value":"10"},{"name":"z","type":"int","value":2},{"name":"zM","type":"int","value":94},{"name":"f","type":"int","value":1}],"gid":51,"width":191,"height":315},{"id":652,"x":-582,"y":140,"visible":true,"properties":[{"name":"layer","type":"int","value":1},{"name":"resource_index","type":"int","value":1},{"name":"oS","type":"string","value":"dungeon"},{"name":"l0","type":"string","value":"blueCave"},{"name":"l1","type":"string","value":"foot"},{"name":"l2","type":"string","value":"11"},{"name":"z","type":"int","value":3},{"name":"zM","type":"int","value":94},{"name":"f","type":"int","value":0}],"gid":48,"width":356,"height":134},{"id":653,"x":-44,"y":63,"visible":true,"properties":[{"name":"layer","type":"int","value":1},{"name":"resource_index","type":"int","value":2},{"name":"oS","type":"string","value":"dungeon"},{"name":"l0","type":"string","value":"blueCave"},{"name":"l1","type":"string","value":"foot"},{"name":"l2","type":"string","value":"1"},{"name":"z","type":"int","value":3},{"name":"zM","type":"int","value":140},{"name":"f","type":"int","value":0}],"gid":44,"width":219,"height":101},{"id":654,"x":124,"y":67,"visible":true,"properties":[{"name":"layer","type":"int","value":1},{"name":"resource_index","type":"int","value":3},{"name":"oS","type":"string","value":"dungeon"},{"name":"l0","type":"string","value":"blueCave"},{"name":"l1","type":"string","value":"foot"},{"name":"l2","type":"string","value":"0"},{"name":"z","type":"int","value":4},{"name":"zM","type":"int","value":140},{"name":"f","type":"int","value":0}],"gid":45,"width":191,"height":91},{"id":655,"x":274,"y":59,"visible":true,"properties":[{"name":"layer","type":"int","value":1},{"name":"resource_index","type":"int","value":4},{"name":"oS","type":"string","value":"dungeon"},{"name":"l0","type":"string","value":"blueCave"},{"name":"l1","type":"string","value":"foot"},{"name":"l2","type":"string","value":"1"},{"name":"z","type":"int","value":3},{"name":"zM","type":"int","value":140},{"name":"f","type":"int","value":0}],"gid":44,"width":219,"height":101},{"id":656,"x":968,"y":66,"visible":true,"properties":[{"name":"layer","type":"int","value":1},{"name":"resource_index","type":"int","value":5},{"name":"oS","type":"string","value":"dungeon"},{"name":"l0","type":"string","value":"blueCave"},{"name":"l1","type":"string","value":"foot"},{"name":"l2","type":"string","value":"0"},{"name":"z","type":"int","value":3},{"name":"zM","type":"int","value":141},{"name":"f","type":"int","value":0}],"gid":45,"width":191,"height":91},{"id":657,"x":1110,"y":61,"visible":true,"properties":[{"name":"layer","type":"int","value":1},{"name":"resource_index","type":"int","value":6},{"name":"oS","type":"string","value":"dungeon"},{"name":"l0","type":"string","value":"blueCave"},{"name":"l1","type":"string","value":"foot"},{"name":"l2","type":"string","value":"1"},{"name":"z","type":"int","value":4},{"name":"zM","type":"int","value":141},{"name":"f","type":"int","value":0}],"gid":44,"width":219,"height":101},{"id":658,"x":1293,"y":66,"visible":true,"properties":[{"name":"layer","type":"int","value":1},{"name":"resource_index","type":"int","value":7},{"name":"oS","type":"string","value":"dungeon"},{"name":"l0","type":"string","value":"blueCave"},{"name":"l1","type":"string","value":"foot"},{"name":"l2","type":"string","value":"1"},{"name":"z","type":"int","value":3},{"name":"zM","type":"int","value":141},{"name":"f","type":"int","value":0}],"gid":44,"width":219,"height":101},{"id":659,"x":1547,"y":77,"visible":true,"properties":[{"name":"layer","type":"int","value":1},{"name":"resource_index","type":"int","value":8},{"name":"oS","type":"string","value":"dungeon"},{"name":"l0","type":"string","value":"blueCave"},{"name":"l1","type":"string","value":"foot"},{"name":"l2","type":"string","value":"2"},{"name":"z","type":"int","value":3},{"name":"zM","type":"int","value":139},{"name":"f","type":"int","value":0}],"gid":47,"width":156,"height":48},{"id":660,"x":1719,"y":159,"visible":true,"properties":[{"name":"layer","type":"int","value":1},{"name":"resource_index","type":"int","value":9},{"name":"oS","type":"string","value":"dungeon"},{"name":"l0","type":"string","value":"blueCave"},{"name":"l1","type":"string","value":"foot"},{"name":"l2","type":"string","value":"0"},{"name":"z","type":"int","value":3},{"name":"zM","type":"int","value":132},{"name":"f","type":"int","value":0}],"gid":45,"width":191,"height":91},{"id":661,"x":1880,"y":148,"visible":true,"properties":[{"name":"layer","type":"int","value":1},{"name":"resource_index","type":"int","value":10},{"name":"oS","type":"string","value":"dungeon"},{"name":"l0","type":"string","value":"blueCave"},{"name":"l1","type":"string","value":"foot"},{"name":"l2","type":"string","value":"1"},{"name":"z","type":"int","value":4},{"name":"zM","type":"int","value":132},{"name":"f","type":"int","value":0}],"gid":44,"width":219,"height":101},{"id":662,"x":2062,"y":155,"visible":true,"properties":[{"name":"layer","type":"int","value":1},{"name":"resource_index","type":"int","value":11},{"name":"oS","type":"string","value":"dungeon"},{"name":"l0","type":"string","value":"blueCave"},{"name":"l1","type":"string","value":"foot"},{"name":"l2","type":"string","value":"0"},{"name":"z","type":"int","value":3},{"name":"zM","type":"int","value":132},{"name":"f","type":"int","value":0}],"gid":45,"width":191,"height":91},{"id":663,"x":2228,"y":152,"visible":true,"properties":[{"name":"layer","type":"int","value":1},{"name":"resource_index","type":"int","value":12},{"name":"oS","type":"string","value":"dungeon"},{"name":"l0","type":"string","value":"blueCave"},{"name":"l1","type":"string","value":"foot"},{"name":"l2","type":"string","value":"4"},{"name":"z","type":"int","value":4},{"name":"zM","type":"int","value":132},{"name":"f","type":"int","value":0}],"gid":49,"width":105,"height":88},{"id":664,"x":12,"y":428,"visible":true,"properties":[{"name":"layer","type":"int","value":1},{"name":"resource_index","type":"int","value":13},{"name":"oS","type":"string","value":"dungeon"},{"name":"l0","type":"string","value":"blueCave"},{"name":"l1","type":"string","value":"foot"},{"name":"l2","type":"string","value":"7"},{"name":"z","type":"int","value":3},{"name":"zM","type":"int","value":116},{"name":"f","type":"int","value":0}],"gid":42,"width":298,"height":154},{"id":665,"x":-158,"y":656,"visible":true,"properties":[{"name":"layer","type":"int","value":1},{"name":"resource_index","type":"int","value":14},{"name":"oS","type":"string","value":"dungeon"},{"name":"l0","type":"string","value":"blueCave"},{"name":"l1","type":"string","value":"foot"},{"name":"l2","type":"string","value":"9"},{"name":"z","type":"int","value":3},{"name":"zM","type":"int","value":97},{"name":"f","type":"int","value":1}],"gid":52,"width":340,"height":147},{"id":666,"x":-110,"y":1148,"visible":true,"properties":[{"name":"layer","type":"int","value":1},{"name":"resource_index","type":"int","value":15},{"name":"oS","type":"string","value":"dungeon"},{"name":"l0","type":"string","value":"blueCave"},{"name":"l1","type":"string","value":"foot"},{"name":"l2","type":"string","value":"7"},{"name":"z","type":"int","value":3},{"name":"zM","type":"int","value":51},{"name":"f","type":"int","value":0}],"gid":42,"width":298,"height":154},{"id":667,"x":-25,"y":1264,"visible":true,"properties":[{"name":"layer","type":"int","value":1},{"name":"resource_index","type":"int","value":16},{"name":"oS","type":"string","value":"dungeon"},{"name":"l0","type":"string","value":"blueCave"},{"name":"l1","type":"string","value":"foot"},{"name":"l2","type":"string","value":"1"},{"name":"z","type":"int","value":3},{"name":"zM","type":"int","value":38},{"name":"f","type":"int","value":0}],"gid":44,"width":219,"height":101},{"id":668,"x":245,"y":1268,"visible":true,"properties":[{"name":"layer","type":"int","value":1},{"name":"resource_index","type":"int","value":17},{"name":"oS","type":"string","value":"dungeon"},{"name":"l0","type":"string","value":"blueCave"},{"name":"l1","type":"string","value":"foot"},{"name":"l2","type":"string","value":"2"},{"name":"z","type":"int","value":3},{"name":"zM","type":"int","value":37},{"name":"f","type":"int","value":0}],"gid":47,"width":156,"height":48},{"id":669,"x":25,"y":779,"visible":true,"properties":[{"name":"layer","type":"int","value":1},{"name":"resource_index","type":"int","value":18},{"name":"oS","type":"string","value":"dungeon"},{"name":"l0","type":"string","value":"blueCave"},{"name":"l1","type":"string","value":"foot"},{"name":"l2","type":"string","value":"2"},{"name":"z","type":"int","value":3},{"name":"zM","type":"int","value":82},{"name":"f","type":"int","value":0}],"gid":47,"width":156,"height":48},{"id":670,"x":-73,"y":1774,"visible":true,"properties":[{"name":"layer","type":"int","value":1},{"name":"resource_index","type":"int","value":19},{"name":"oS","type":"string","value":"dungeon"},{"name":"l0","type":"string","value":"blueCave"},{"name":"l1","type":"string","value":"foot"},{"name":"l2","type":"string","value":"6"},{"name":"z","type":"int","value":3},{"name":"zM","type":"int","value":0},{"name":"f","type":"int","value":0}],"gid":46,"width":303,"height":363},{"id":671,"x":162,"y":1425,"visible":true,"properties":[{"name":"layer","type":"int","value":1},{"name":"resource_index","type":"int","value":20},{"name":"oS","type":"string","value":"dungeon"},{"name":"l0","type":"string","value":"blueCave"},{"name":"l1","type":"string","value":"foot"},{"name":"l2","type":"string","value":"5"},{"name":"z","type":"int","value":3},{"name":"zM","type":"int","value":0},{"name":"f","type":"int","value":0}],"gid":53,"width":163,"height":55},{"id":672,"x":407,"y":1607,"visible":true,"properties":[{"name":"layer","type":"int","value":1},{"name":"resource_index","type":"int","value":21},{"name":"oS","type":"string","value":"dungeon"},{"name":"l0","type":"string","value":"blueCave"},{"name":"l1","type":"string","value":"foot"},{"name":"l2","type":"string","value":"6"},{"name":"z","type":"int","value":2},{"name":"zM","type":"int","value":0},{"name":"f","type":"int","value":1}],"gid":46,"width":303,"height":363},{"id":673,"x":-86,"y":1840,"visible":true,"properties":[{"name":"layer","type":"int","value":1},{"name":"resource_index","type":"int","value":22},{"name":"oS","type":"string","value":"dungeon"},{"name":"l0","type":"string","value":"blueCave"},{"name":"l1","type":"string","value":"foot"},{"name":"l2","type":"string","value":"11"},{"name":"z","type":"int","value":4},{"name":"zM","type":"int","value":0},{"name":"f","type":"int","value":0}],"gid":48,"width":356,"height":134},{"id":674,"x":516,"y":1893,"visible":true,"properties":[{"name":"layer","type":"int","value":1},{"name":"resource_index","type":"int","value":23},{"name":"oS","type":"string","value":"dungeon"},{"name":"l0","type":"string","value":"blueCave"},{"name":"l1","type":"string","value":"foot"},{"name":"l2","type":"string","value":"10"},{"name":"z","type":"int","value":3},{"name":"zM","type":"int","value":0},{"name":"f","type":"int","value":0}],"gid":51,"width":191,"height":315},{"id":675,"x":440,"y":1932,"visible":true,"properties":[{"name":"layer","type":"int","value":1},{"name":"resource_index","type":"int","value":24},{"name":"oS","type":"string","value":"dungeon"},{"name":"l0","type":"string","value":"blueCave"},{"name":"l1","type":"string","value":"foot"},{"name":"l2","type":"string","value":"11"},{"name":"z","type":"int","value":3},{"name":"zM","type":"int","value":0},{"name":"f","type":"int","value":0}],"gid":48,"width":356,"height":134},{"id":676,"x":1772,"y":1427,"visible":true,"properties":[{"name":"layer","type":"int","value":1},{"name":"resource_index","type":"int","value":25},{"name":"oS","type":"string","value":"dungeon"},{"name":"l0","type":"string","value":"blueCave"},{"name":"l1","type":"string","value":"acc"},{"name":"l2","type":"string","value":"2"},{"name":"z","type":"int","value":1},{"name":"zM","type":"int","value":12},{"name":"f","type":"int","value":1}],"gid":38,"width":53,"height":51},{"id":677,"x":434,"y":589,"visible":true,"properties":[{"name":"layer","type":"int","value":1},{"name":"resource_index","type":"int","value":26},{"name":"oS","type":"string","value":"dungeon"},{"name":"l0","type":"string","value":"blueCave"},{"name":"l1","type":"string","value":"foot"},{"name":"l2","type":"string","value":"5"},{"name":"z","type":"int","value":3},{"name":"zM","type":"int","value":100},{"name":"f","type":"int","value":0}],"gid":53,"width":163,"height":55},{"id":678,"x":2061,"y":328,"visible":true,"properties":[{"name":"layer","type":"int","value":1},{"name":"resource_index","type":"int","value":27},{"name":"oS","type":"string","value":"dungeon"},{"name":"l0","type":"string","value":"blueCave"},{"name":"l1","type":"string","value":"foot"},{"name":"l2","type":"string","value":"5"},{"name":"z","type":"int","value":3},{"name":"zM","type":"int","value":119},{"name":"f","type":"int","value":0}],"gid":53,"width":163,"height":55},{"id":679,"x":1048,"y":575,"visible":true,"properties":[{"name":"layer","type":"int","value":1},{"name":"resource_index","type":"int","value":28},{"name":"oS","type":"string","value":"dungeon"},{"name":"l0","type":"string","value":"blueCave"},{"name":"l1","type":"string","value":"foot"},{"name":"l2","type":"string","value":"1"},{"name":"z","type":"int","value":3},{"name":"zM","type":"int","value":101},{"name":"f","type":"int","value":0}],"gid":44,"width":219,"height":101},{"id":680,"x":1221,"y":576,"visible":true,"properties":[{"name":"layer","type":"int","value":1},{"name":"resource_index","type":"int","value":29},{"name":"oS","type":"string","value":"dungeon"},{"name":"l0","type":"string","value":"blueCave"},{"name":"l1","type":"string","value":"foot"},{"name":"l2","type":"string","value":"0"},{"name":"z","type":"int","value":4},{"name":"zM","type":"int","value":101},{"name":"f","type":"int","value":0}],"gid":45,"width":191,"height":91},{"id":681,"x":1382,"y":566,"visible":true,"properties":[{"name":"layer","type":"int","value":1},{"name":"resource_index","type":"int","value":30},{"name":"oS","type":"string","value":"dungeon"},{"name":"l0","type":"string","value":"blueCave"},{"name":"l1","type":"string","value":"foot"},{"name":"l2","type":"string","value":"1"},{"name":"z","type":"int","value":3},{"name":"zM","type":"int","value":101},{"name":"f","type":"int","value":0}],"gid":44,"width":219,"height":101},{"id":682,"x":1645,"y":518,"visible":true,"properties":[{"name":"layer","type":"int","value":1},{"name":"resource_index","type":"int","value":31},{"name":"oS","type":"string","value":"dungeon"},{"name":"l0","type":"string","value":"blueCave"},{"name":"l1","type":"string","value":"foot"},{"name":"l2","type":"string","value":"5"},{"name":"z","type":"int","value":3},{"name":"zM","type":"int","value":108},{"name":"f","type":"int","value":0}],"gid":53,"width":163,"height":55},{"id":683,"x":1839,"y":541,"visible":true,"properties":[{"name":"layer","type":"int","value":1},{"name":"resource_index","type":"int","value":32},{"name":"oS","type":"string","value":"dungeon"},{"name":"l0","type":"string","value":"blueCave"},{"name":"l1","type":"string","value":"foot"},{"name":"l2","type":"string","value":"2"},{"name":"z","type":"int","value":3},{"name":"zM","type":"int","value":104},{"name":"f","type":"int","value":0}],"gid":47,"width":156,"height":48},{"id":684,"x":265,"y":932,"visible":true,"properties":[{"name":"layer","type":"int","value":1},{"name":"resource_index","type":"int","value":33},{"name":"oS","type":"string","value":"dungeon"},{"name":"l0","type":"string","value":"blueCave"},{"name":"l1","type":"string","value":"foot"},{"name":"l2","type":"string","value":"1"},{"name":"z","type":"int","value":3},{"name":"zM","type":"int","value":73},{"name":"f","type":"int","value":0}],"gid":44,"width":219,"height":101},{"id":685,"x":1188,"y":1605,"visible":true,"properties":[{"name":"layer","type":"int","value":1},{"name":"resource_index","type":"int","value":34},{"name":"oS","type":"string","value":"dungeon"},{"name":"l0","type":"string","value":"blueCave"},{"name":"l1","type":"string","value":"foot"},{"name":"l2","type":"string","value":"6"},{"name":"z","type":"int","value":3},{"name":"zM","type":"int","value":16},{"name":"f","type":"int","value":0}],"gid":46,"width":303,"height":363},{"id":686,"x":1187,"y":1721,"visible":true,"properties":[{"name":"layer","type":"int","value":1},{"name":"resource_index","type":"int","value":35},{"name":"oS","type":"string","value":"dungeon"},{"name":"l0","type":"string","value":"blueCave"},{"name":"l1","type":"string","value":"foot"},{"name":"l2","type":"string","value":"7"},{"name":"z","type":"int","value":4},{"name":"zM","type":"int","value":16},{"name":"f","type":"int","value":0}],"gid":42,"width":298,"height":154},{"id":687,"x":1145,"y":1895,"visible":true,"properties":[{"name":"layer","type":"int","value":1},{"name":"resource_index","type":"int","value":36},{"name":"oS","type":"string","value":"dungeon"},{"name":"l0","type":"string","value":"blueCave"},{"name":"l1","type":"string","value":"foot"},{"name":"l2","type":"string","value":"11"},{"name":"z","type":"int","value":3},{"name":"zM","type":"int","value":0},{"name":"f","type":"int","value":0}],"gid":48,"width":356,"height":134},{"id":688,"x":1504,"y":1721,"visible":true,"properties":[{"name":"layer","type":"int","value":1},{"name":"resource_index","type":"int","value":37},{"name":"oS","type":"string","value":"dungeon"},{"name":"l0","type":"string","value":"blueCave"},{"name":"l1","type":"string","value":"foot"},{"name":"l2","type":"string","value":"0"},{"name":"z","type":"int","value":3},{"name":"zM","type":"int","value":17},{"name":"f","type":"int","value":0}],"gid":45,"width":191,"height":91},{"id":689,"x":1682,"y":1915,"visible":true,"properties":[{"name":"layer","type":"int","value":1},{"name":"resource_index","type":"int","value":38},{"name":"oS","type":"string","value":"dungeon"},{"name":"l0","type":"string","value":"blueCave"},{"name":"l1","type":"string","value":"foot"},{"name":"l2","type":"string","value":"8"},{"name":"z","type":"int","value":3},{"name":"zM","type":"int","value":0},{"name":"f","type":"int","value":0}],"gid":43,"width":319,"height":155},{"id":690,"x":1667,"y":1783,"visible":true,"properties":[{"name":"layer","type":"int","value":1},{"name":"resource_index","type":"int","value":39},{"name":"oS","type":"string","value":"dungeon"},{"name":"l0","type":"string","value":"blueCave"},{"name":"l1","type":"string","value":"foot"},{"name":"l2","type":"string","value":"6"},{"name":"z","type":"int","value":2},{"name":"zM","type":"int","value":12},{"name":"f","type":"int","value":1}],"gid":46,"width":303,"height":363},{"id":691,"x":1776,"y":1443,"visible":true,"properties":[{"name":"layer","type":"int","value":1},{"name":"resource_index","type":"int","value":40},{"name":"oS","type":"string","value":"dungeon"},{"name":"l0","type":"string","value":"blueCave"},{"name":"l1","type":"string","value":"foot"},{"name":"l2","type":"string","value":"10"},{"name":"z","type":"int","value":0},{"name":"zM","type":"int","value":12},{"name":"f","type":"int","value":0}],"gid":51,"width":191,"height":315},{"id":692,"x":1547,"y":1306,"visible":true,"properties":[{"name":"layer","type":"int","value":1},{"name":"resource_index","type":"int","value":41},{"name":"oS","type":"string","value":"dungeon"},{"name":"l0","type":"string","value":"blueCave"},{"name":"l1","type":"string","value":"foot"},{"name":"l2","type":"string","value":"5"},{"name":"z","type":"int","value":3},{"name":"zM","type":"int","value":12},{"name":"f","type":"int","value":0}],"gid":53,"width":163,"height":55},{"id":693,"x":1315,"y":803,"visible":true,"properties":[{"name":"layer","type":"int","value":1},{"name":"resource_index","type":"int","value":42},{"name":"oS","type":"string","value":"dungeon"},{"name":"l0","type":"string","value":"blueCave"},{"name":"l1","type":"string","value":"foot"},{"name":"l2","type":"string","value":"1"},{"name":"z","type":"int","value":3},{"name":"zM","type":"int","value":80},{"name":"f","type":"int","value":0}],"gid":44,"width":219,"height":101},{"id":694,"x":1575,"y":850,"visible":true,"properties":[{"name":"layer","type":"int","value":1},{"name":"resource_index","type":"int","value":43},{"name":"oS","type":"string","value":"dungeon"},{"name":"l0","type":"string","value":"blueCave"},{"name":"l1","type":"string","value":"foot"},{"name":"l2","type":"string","value":"0"},{"name":"z","type":"int","value":3},{"name":"zM","type":"int","value":79},{"name":"f","type":"int","value":0}],"gid":45,"width":191,"height":91},{"id":695,"x":1533,"y":1067,"visible":true,"properties":[{"name":"layer","type":"int","value":1},{"name":"resource_index","type":"int","value":44},{"name":"oS","type":"string","value":"dungeon"},{"name":"l0","type":"string","value":"blueCave"},{"name":"l1","type":"string","value":"foot"},{"name":"l2","type":"string","value":"0"},{"name":"z","type":"int","value":3},{"name":"zM","type":"int","value":60},{"name":"f","type":"int","value":0}],"gid":45,"width":191,"height":91},{"id":696,"x":1373,"y":1068,"visible":true,"properties":[{"name":"layer","type":"int","value":1},{"name":"resource_index","type":"int","value":45},{"name":"oS","type":"string","value":"dungeon"},{"name":"l0","type":"string","value":"blueCave"},{"name":"l1","type":"string","value":"foot"},{"name":"l2","type":"string","value":"0"},{"name":"z","type":"int","value":2},{"name":"zM","type":"int","value":60},{"name":"f","type":"int","value":0}],"gid":45,"width":191,"height":91},{"id":697,"x":1182,"y":1059,"visible":true,"properties":[{"name":"layer","type":"int","value":1},{"name":"resource_index","type":"int","value":46},{"name":"oS","type":"string","value":"dungeon"},{"name":"l0","type":"string","value":"blueCave"},{"name":"l1","type":"string","value":"foot"},{"name":"l2","type":"string","value":"1"},{"name":"z","type":"int","value":3},{"name":"zM","type":"int","value":60},{"name":"f","type":"int","value":0}],"gid":44,"width":219,"height":101},{"id":698,"x":756,"y":1047,"visible":true,"properties":[{"name":"layer","type":"int","value":1},{"name":"resource_index","type":"int","value":47},{"name":"oS","type":"string","value":"dungeon"},{"name":"l0","type":"string","value":"blueCave"},{"name":"l1","type":"string","value":"foot"},{"name":"l2","type":"string","value":"5"},{"name":"z","type":"int","value":3},{"name":"zM","type":"int","value":66},{"name":"f","type":"int","value":0}],"gid":53,"width":163,"height":55},{"id":699,"x":-472,"y":94,"visible":true,"properties":[{"name":"layer","type":"int","value":1},{"name":"resource_index","type":"int","value":48},{"name":"oS","type":"string","value":"dungeon"},{"name":"l0","type":"string","value":"blueCave"},{"name":"l1","type":"string","value":"acc"},{"name":"l2","type":"string","value":"2"},{"name":"z","type":"int","value":5},{"name":"zM","type":"int","value":94},{"name":"f","type":"int","value":0}],"gid":38,"width":53,"height":51},{"id":700,"x":0,"y":1726,"visible":true,"properties":[{"name":"layer","type":"int","value":1},{"name":"resource_index","type":"int","value":49},{"name":"oS","type":"string","value":"dungeon"},{"name":"l0","type":"string","value":"blueCave"},{"name":"l1","type":"string","value":"acc"},{"name":"l2","type":"string","value":"3"},{"name":"z","type":"int","value":6},{"name":"zM","type":"int","value":0},{"name":"f","type":"int","value":0}],"gid":39,"width":72,"height":34},{"id":701,"x":535,"y":1820,"visible":true,"properties":[{"name":"layer","type":"int","value":1},{"name":"resource_index","type":"int","value":50},{"name":"oS","type":"string","value":"dungeon"},{"name":"l0","type":"string","value":"blueCave"},{"name":"l1","type":"string","value":"acc"},{"name":"l2","type":"string","value":"5"},{"name":"z","type":"int","value":4},{"name":"zM","type":"int","value":0},{"name":"f","type":"int","value":0}],"gid":41,"width":48,"height":37},{"id":702,"x":562,"y":1810,"visible":true,"properties":[{"name":"layer","type":"int","value":1},{"name":"resource_index","type":"int","value":51},{"name":"oS","type":"string","value":"dungeon"},{"name":"l0","type":"string","value":"blueCave"},{"name":"l1","type":"string","value":"acc"},{"name":"l2","type":"string","value":"4"},{"name":"z","type":"int","value":3},{"name":"zM","type":"int","value":0},{"name":"f","type":"int","value":0}],"gid":40,"width":50,"height":48},{"id":703,"x":1509,"y":1892,"visible":true,"properties":[{"name":"layer","type":"int","value":1},{"name":"resource_index","type":"int","value":52},{"name":"oS","type":"string","value":"dungeon"},{"name":"l0","type":"string","value":"blueCave"},{"name":"l1","type":"string","value":"acc"},{"name":"l2","type":"string","value":"2"},{"name":"z","type":"int","value":3},{"name":"zM","type":"int","value":0},{"name":"f","type":"int","value":0}],"gid":38,"width":53,"height":51},{"id":704,"x":1590,"y":1894,"visible":true,"properties":[{"name":"layer","type":"int","value":1},{"name":"resource_index","type":"int","value":53},{"name":"oS","type":"string","value":"dungeon"},{"name":"l0","type":"string","value":"blueCave"},{"name":"l1","type":"string","value":"acc"},{"name":"l2","type":"string","value":"3"},{"name":"z","type":"int","value":3},{"name":"zM","type":"int","value":7},{"name":"f","type":"int","value":0}],"gid":39,"width":72,"height":34},{"id":705,"x":1689,"y":1891,"visible":true,"properties":[{"name":"layer","type":"int","value":1},{"name":"resource_index","type":"int","value":54},{"name":"oS","type":"string","value":"dungeon"},{"name":"l0","type":"string","value":"blueCave"},{"name":"l1","type":"string","value":"acc"},{"name":"l2","type":"string","value":"4"},{"name":"z","type":"int","value":3},{"name":"zM","type":"int","value":0},{"name":"f","type":"int","value":0}],"gid":40,"width":50,"height":48},{"id":706,"x":1777,"y":1897,"visible":true,"properties":[{"name":"layer","type":"int","value":1},{"name":"resource_index","type":"int","value":55},{"name":"oS","type":"string","value":"dungeon"},{"name":"l0","type":"string","value":"blueCave"},{"name":"l1","type":"string","value":"acc"},{"name":"l2","type":"string","value":"5"},{"name":"z","type":"int","value":3},{"name":"zM","type":"int","value":0},{"name":"f","type":"int","value":0}],"gid":41,"width":48,"height":37},{"id":707,"x":1472,"y":1879,"visible":true,"properties":[{"name":"layer","type":"int","value":1},{"name":"resource_index","type":"int","value":56},{"name":"oS","type":"string","value":"dungeon"},{"name":"l0","type":"string","value":"blueCave"},{"name":"l1","type":"string","value":"acc"},{"name":"l2","type":"string","value":"5"},{"name":"z","type":"int","value":3},{"name":"zM","type":"int","value":0},{"name":"f","type":"int","value":0}],"gid":41,"width":48,"height":37},{"id":708,"x":1421,"y":1894,"visible":true,"properties":[{"name":"layer","type":"int","value":1},{"name":"resource_index","type":"int","value":57},{"name":"oS","type":"string","value":"dungeon"},{"name":"l0","type":"string","value":"blueCave"},{"name":"l1","type":"string","value":"acc"},{"name":"l2","type":"string","value":"5"},{"name":"z","type":"int","value":4},{"name":"zM","type":"int","value":0},{"name":"f","type":"int","value":0}],"gid":41,"width":48,"height":37},{"id":709,"x":1328,"y":1895,"visible":true,"properties":[{"name":"layer","type":"int","value":1},{"name":"resource_index","type":"int","value":58},{"name":"oS","type":"string","value":"dungeon"},{"name":"l0","type":"string","value":"blueCave"},{"name":"l1","type":"string","value":"acc"},{"name":"l2","type":"string","value":"5"},{"name":"z","type":"int","value":4},{"name":"zM","type":"int","value":0},{"name":"f","type":"int","value":0}],"gid":41,"width":48,"height":37},{"id":710,"x":1299,"y":1878,"visible":true,"properties":[{"name":"layer","type":"int","value":1},{"name":"resource_index","type":"int","value":59},{"name":"oS","type":"string","value":"dungeon"},{"name":"l0","type":"string","value":"blueCave"},{"name":"l1","type":"string","value":"acc"},{"name":"l2","type":"string","value":"4"},{"name":"z","type":"int","value":4},{"name":"zM","type":"int","value":0},{"name":"f","type":"int","value":0}],"gid":40,"width":50,"height":48},{"id":711,"x":1243,"y":1894,"visible":true,"properties":[{"name":"layer","type":"int","value":1},{"name":"resource_index","type":"int","value":60},{"name":"oS","type":"string","value":"dungeon"},{"name":"l0","type":"string","value":"blueCave"},{"name":"l1","type":"string","value":"acc"},{"name":"l2","type":"string","value":"5"},{"name":"z","type":"int","value":4},{"name":"zM","type":"int","value":0},{"name":"f","type":"int","value":0}],"gid":41,"width":48,"height":37},{"id":712,"x":1855,"y":1815,"visible":true,"properties":[{"name":"layer","type":"int","value":1},{"name":"resource_index","type":"int","value":61},{"name":"oS","type":"string","value":"dungeon"},{"name":"l0","type":"string","value":"blueCave"},{"name":"l1","type":"string","value":"acc"},{"name":"l2","type":"string","value":"5"},{"name":"z","type":"int","value":4},{"name":"zM","type":"int","value":12},{"name":"f","type":"int","value":0}],"gid":41,"width":48,"height":37},{"id":713,"x":1285,"y":1613,"visible":true,"properties":[{"name":"layer","type":"int","value":1},{"name":"resource_index","type":"int","value":62},{"name":"oS","type":"string","value":"dungeon"},{"name":"l0","type":"string","value":"blueCave"},{"name":"l1","type":"string","value":"acc"},{"name":"l2","type":"string","value":"5"},{"name":"z","type":"int","value":5},{"name":"zM","type":"int","value":16},{"name":"f","type":"int","value":0}],"gid":41,"width":48,"height":37},{"id":714,"x":1348,"y":1613,"visible":true,"properties":[{"name":"layer","type":"int","value":1},{"name":"resource_index","type":"int","value":63},{"name":"oS","type":"string","value":"dungeon"},{"name":"l0","type":"string","value":"blueCave"},{"name":"l1","type":"string","value":"acc"},{"name":"l2","type":"string","value":"5"},{"name":"z","type":"int","value":5},{"name":"zM","type":"int","value":16},{"name":"f","type":"int","value":1}],"gid":41,"width":48,"height":37},{"id":715,"x":2324,"y":1054,"visible":true,"properties":[{"name":"layer","type":"int","value":1},{"name":"resource_index","type":"int","value":64},{"name":"oS","type":"string","value":"dungeon"},{"name":"l0","type":"string","value":"blueCave"},{"name":"l1","type":"string","value":"acc"},{"name":"l2","type":"string","value":"2"},{"name":"z","type":"int","value":3},{"name":"zM","type":"int","value":0},{"name":"f","type":"int","value":0}],"gid":38,"width":53,"height":51},{"id":716,"x":2236,"y":1056,"visible":true,"properties":[{"name":"layer","type":"int","value":1},{"name":"resource_index","type":"int","value":65},{"name":"oS","type":"string","value":"dungeon"},{"name":"l0","type":"string","value":"blueCave"},{"name":"l1","type":"string","value":"acc"},{"name":"l2","type":"string","value":"5"},{"name":"z","type":"int","value":3},{"name":"zM","type":"int","value":63},{"name":"f","type":"int","value":1}],"gid":41,"width":48,"height":37},{"id":717,"x":2161,"y":1052,"visible":true,"properties":[{"name":"layer","type":"int","value":1},{"name":"resource_index","type":"int","value":66},{"name":"oS","type":"string","value":"dungeon"},{"name":"l0","type":"string","value":"blueCave"},{"name":"l1","type":"string","value":"acc"},{"name":"l2","type":"string","value":"5"},{"name":"z","type":"int","value":3},{"name":"zM","type":"int","value":65},{"name":"f","type":"int","value":0}],"gid":41,"width":48,"height":37},{"id":718,"x":2048,"y":1059,"visible":true,"properties":[{"name":"layer","type":"int","value":1},{"name":"resource_index","type":"int","value":67},{"name":"oS","type":"string","value":"dungeon"},{"name":"l0","type":"string","value":"blueCave"},{"name":"l1","type":"string","value":"acc"},{"name":"l2","type":"string","value":"3"},{"name":"z","type":"int","value":3},{"name":"zM","type":"int","value":62},{"name":"f","type":"int","value":0}],"gid":39,"width":72,"height":34},{"id":719,"x":2224,"y":517,"visible":true,"properties":[{"name":"layer","type":"int","value":1},{"name":"resource_index","type":"int","value":68},{"name":"oS","type":"string","value":"dungeon"},{"name":"l0","type":"string","value":"blueCave"},{"name":"l1","type":"string","value":"acc"},{"name":"l2","type":"string","value":"5"},{"name":"z","type":"int","value":3},{"name":"zM","type":"int","value":81},{"name":"f","type":"int","value":0}],"gid":41,"width":48,"height":37},{"id":720,"x":2202,"y":499,"visible":true,"properties":[{"name":"layer","type":"int","value":1},{"name":"resource_index","type":"int","value":69},{"name":"oS","type":"string","value":"dungeon"},{"name":"l0","type":"string","value":"blueCave"},{"name":"l1","type":"string","value":"acc"},{"name":"l2","type":"string","value":"5"},{"name":"z","type":"int","value":2},{"name":"zM","type":"int","value":81},{"name":"f","type":"int","value":0}],"gid":41,"width":48,"height":37},{"id":721,"x":2174,"y":501,"visible":true,"properties":[{"name":"layer","type":"int","value":1},{"name":"resource_index","type":"int","value":70},{"name":"oS","type":"string","value":"dungeon"},{"name":"l0","type":"string","value":"blueCave"},{"name":"l1","type":"string","value":"acc"},{"name":"l2","type":"string","value":"5"},{"name":"z","type":"int","value":4},{"name":"zM","type":"int","value":81},{"name":"f","type":"int","value":1}],"gid":41,"width":48,"height":37},{"id":722,"x":2217,"y":484,"visible":true,"properties":[{"name":"layer","type":"int","value":1},{"name":"resource_index","type":"int","value":71},{"name":"oS","type":"string","value":"dungeon"},{"name":"l0","type":"string","value":"blueCave"},{"name":"l1","type":"string","value":"acc"},{"name":"l2","type":"string","value":"4"},{"name":"z","type":"int","value":1},{"name":"zM","type":"int","value":81},{"name":"f","type":"int","value":0}],"gid":40,"width":50,"height":48},{"id":723,"x":2308,"y":514,"visible":true,"properties":[{"name":"layer","type":"int","value":1},{"name":"resource_index","type":"int","value":72},{"name":"oS","type":"string","value":"dungeon"},{"name":"l0","type":"string","value":"blueCave"},{"name":"l1","type":"string","value":"acc"},{"name":"l2","type":"string","value":"3"},{"name":"z","type":"int","value":3},{"name":"zM","type":"int","value":110},{"name":"f","type":"int","value":0}],"gid":39,"width":72,"height":34},{"id":724,"x":2105,"y":513,"visible":true,"properties":[{"name":"layer","type":"int","value":1},{"name":"resource_index","type":"int","value":73},{"name":"oS","type":"string","value":"dungeon"},{"name":"l0","type":"string","value":"blueCave"},{"name":"l1","type":"string","value":"acc"},{"name":"l2","type":"string","value":"3"},{"name":"z","type":"int","value":3},{"name":"zM","type":"int","value":81},{"name":"f","type":"int","value":0}],"gid":39,"width":72,"height":34},{"id":725,"x":2046,"y":514,"visible":true,"properties":[{"name":"layer","type":"int","value":1},{"name":"resource_index","type":"int","value":74},{"name":"oS","type":"string","value":"dungeon"},{"name":"l0","type":"string","value":"blueCave"},{"name":"l1","type":"string","value":"acc"},{"name":"l2","type":"string","value":"3"},{"name":"z","type":"int","value":4},{"name":"zM","type":"int","value":81},{"name":"f","type":"int","value":0}],"gid":39,"width":72,"height":34},{"id":726,"x":786,"y":696,"visible":true,"properties":[{"name":"layer","type":"int","value":1},{"name":"resource_index","type":"int","value":75},{"name":"oS","type":"string","value":"dungeon"},{"name":"l0","type":"string","value":"blueCave"},{"name":"l1","type":"string","value":"acc"},{"name":"l2","type":"string","value":"5"},{"name":"z","type":"int","value":3},{"name":"zM","type":"int","value":75},{"name":"f","type":"int","value":0}],"gid":41,"width":48,"height":37},{"id":727,"x":881,"y":692,"visible":true,"properties":[{"name":"layer","type":"int","value":1},{"name":"resource_index","type":"int","value":76},{"name":"oS","type":"string","value":"dungeon"},{"name":"l0","type":"string","value":"blueCave"},{"name":"l1","type":"string","value":"acc"},{"name":"l2","type":"string","value":"4"},{"name":"z","type":"int","value":3},{"name":"zM","type":"int","value":75},{"name":"f","type":"int","value":0}],"gid":40,"width":50,"height":48},{"id":728,"x":952,"y":695,"visible":true,"properties":[{"name":"layer","type":"int","value":1},{"name":"resource_index","type":"int","value":77},{"name":"oS","type":"string","value":"dungeon"},{"name":"l0","type":"string","value":"blueCave"},{"name":"l1","type":"string","value":"acc"},{"name":"l2","type":"string","value":"3"},{"name":"z","type":"int","value":3},{"name":"zM","type":"int","value":75},{"name":"f","type":"int","value":0}],"gid":39,"width":72,"height":34},{"id":729,"x":1145,"y":739,"visible":true,"properties":[{"name":"layer","type":"int","value":1},{"name":"resource_index","type":"int","value":78},{"name":"oS","type":"string","value":"dungeon"},{"name":"l0","type":"string","value":"blueCave"},{"name":"l1","type":"string","value":"acc"},{"name":"l2","type":"string","value":"2"},{"name":"z","type":"int","value":3},{"name":"zM","type":"int","value":75},{"name":"f","type":"int","value":0}],"gid":38,"width":53,"height":51},{"id":730,"x":1168,"y":748,"visible":true,"properties":[{"name":"layer","type":"int","value":1},{"name":"resource_index","type":"int","value":79},{"name":"oS","type":"string","value":"dungeon"},{"name":"l0","type":"string","value":"blueCave"},{"name":"l1","type":"string","value":"acc"},{"name":"l2","type":"string","value":"2"},{"name":"z","type":"int","value":4},{"name":"zM","type":"int","value":75},{"name":"f","type":"int","value":0}],"gid":38,"width":53,"height":51},{"id":731,"x":637,"y":732,"visible":true,"properties":[{"name":"layer","type":"int","value":1},{"name":"resource_index","type":"int","value":80},{"name":"oS","type":"string","value":"dungeon"},{"name":"l0","type":"string","value":"blueCave"},{"name":"l1","type":"string","value":"acc"},{"name":"l2","type":"string","value":"5"},{"name":"z","type":"int","value":3},{"name":"zM","type":"int","value":75},{"name":"f","type":"int","value":0}],"gid":41,"width":48,"height":37},{"id":732,"x":614,"y":735,"visible":true,"properties":[{"name":"layer","type":"int","value":1},{"name":"resource_index","type":"int","value":81},{"name":"oS","type":"string","value":"dungeon"},{"name":"l0","type":"string","value":"blueCave"},{"name":"l1","type":"string","value":"acc"},{"name":"l2","type":"string","value":"5"},{"name":"z","type":"int","value":4},{"name":"zM","type":"int","value":75},{"name":"f","type":"int","value":1}],"gid":41,"width":48,"height":37},{"id":733,"x":589,"y":737,"visible":true,"properties":[{"name":"layer","type":"int","value":1},{"name":"resource_index","type":"int","value":82},{"name":"oS","type":"string","value":"dungeon"},{"name":"l0","type":"string","value":"blueCave"},{"name":"l1","type":"string","value":"acc"},{"name":"l2","type":"string","value":"5"},{"name":"z","type":"int","value":3},{"name":"zM","type":"int","value":75},{"name":"f","type":"int","value":0}],"gid":41,"width":48,"height":37},{"id":734,"x":559,"y":744,"visible":true,"properties":[{"name":"layer","type":"int","value":1},{"name":"resource_index","type":"int","value":83},{"name":"oS","type":"string","value":"dungeon"},{"name":"l0","type":"string","value":"blueCave"},{"name":"l1","type":"string","value":"acc"},{"name":"l2","type":"string","value":"5"},{"name":"z","type":"int","value":4},{"name":"zM","type":"int","value":75},{"name":"f","type":"int","value":1}],"gid":41,"width":48,"height":37},{"id":735,"x":606,"y":713,"visible":true,"properties":[{"name":"layer","type":"int","value":1},{"name":"resource_index","type":"int","value":84},{"name":"oS","type":"string","value":"dungeon"},{"name":"l0","type":"string","value":"blueCave"},{"name":"l1","type":"string","value":"acc"},{"name":"l2","type":"string","value":"2"},{"name":"z","type":"int","value":0},{"name":"zM","type":"int","value":75},{"name":"f","type":"int","value":0}],"gid":38,"width":53,"height":51},{"id":736,"x":631,"y":710,"visible":true,"properties":[{"name":"layer","type":"int","value":1},{"name":"resource_index","type":"int","value":85},{"name":"oS","type":"string","value":"dungeon"},{"name":"l0","type":"string","value":"blueCave"},{"name":"l1","type":"string","value":"acc"},{"name":"l2","type":"string","value":"4"},{"name":"z","type":"int","value":1},{"name":"zM","type":"int","value":75},{"name":"f","type":"int","value":0}],"gid":40,"width":50,"height":48},{"id":737,"x":806,"y":1177,"visible":true,"properties":[{"name":"layer","type":"int","value":1},{"name":"resource_index","type":"int","value":86},{"name":"oS","type":"string","value":"dungeon"},{"name":"l0","type":"string","value":"blueCave"},{"name":"l1","type":"string","value":"acc"},{"name":"l2","type":"string","value":"5"},{"name":"z","type":"int","value":3},{"name":"zM","type":"int","value":48},{"name":"f","type":"int","value":0}],"gid":41,"width":48,"height":37},{"id":738,"x":972,"y":1180,"visible":true,"properties":[{"name":"layer","type":"int","value":1},{"name":"resource_index","type":"int","value":87},{"name":"oS","type":"string","value":"dungeon"},{"name":"l0","type":"string","value":"blueCave"},{"name":"l1","type":"string","value":"acc"},{"name":"l2","type":"string","value":"5"},{"name":"z","type":"int","value":3},{"name":"zM","type":"int","value":47},{"name":"f","type":"int","value":0}],"gid":41,"width":48,"height":37},{"id":739,"x":1312,"y":1259,"visible":true,"properties":[{"name":"layer","type":"int","value":1},{"name":"resource_index","type":"int","value":88},{"name":"oS","type":"string","value":"dungeon"},{"name":"l0","type":"string","value":"blueCave"},{"name":"l1","type":"string","value":"acc"},{"name":"l2","type":"string","value":"5"},{"name":"z","type":"int","value":1},{"name":"zM","type":"int","value":16},{"name":"f","type":"int","value":0}],"gid":41,"width":48,"height":37},{"id":740,"x":689,"y":211,"visible":true,"properties":[{"name":"layer","type":"int","value":1},{"name":"resource_index","type":"int","value":89},{"name":"oS","type":"string","value":"dungeon"},{"name":"l0","type":"string","value":"blueCave"},{"name":"l1","type":"string","value":"acc"},{"name":"l2","type":"string","value":"2"},{"name":"z","type":"int","value":3},{"name":"zM","type":"int","value":112},{"name":"f","type":"int","value":0}],"gid":38,"width":53,"height":51},{"id":741,"x":711,"y":212,"visible":true,"properties":[{"name":"layer","type":"int","value":1},{"name":"resource_index","type":"int","value":90},{"name":"oS","type":"string","value":"dungeon"},{"name":"l0","type":"string","value":"blueCave"},{"name":"l1","type":"string","value":"acc"},{"name":"l2","type":"string","value":"2"},{"name":"z","type":"int","value":4},{"name":"zM","type":"int","value":112},{"name":"f","type":"int","value":0}],"gid":38,"width":53,"height":51},{"id":742,"x":880,"y":216,"visible":true,"properties":[{"name":"layer","type":"int","value":1},{"name":"resource_index","type":"int","value":91},{"name":"oS","type":"string","value":"dungeon"},{"name":"l0","type":"string","value":"blueCave"},{"name":"l1","type":"string","value":"acc"},{"name":"l2","type":"string","value":"2"},{"name":"z","type":"int","value":3},{"name":"zM","type":"int","value":112},{"name":"f","type":"int","value":0}],"gid":38,"width":53,"height":51},{"id":743,"x":533,"y":214,"visible":true,"properties":[{"name":"layer","type":"int","value":1},{"name":"resource_index","type":"int","value":92},{"name":"oS","type":"string","value":"dungeon"},{"name":"l0","type":"string","value":"blueCave"},{"name":"l1","type":"string","value":"acc"},{"name":"l2","type":"string","value":"4"},{"name":"z","type":"int","value":3},{"name":"zM","type":"int","value":112},{"name":"f","type":"int","value":0}],"gid":40,"width":50,"height":48},{"id":744,"x":16,"y":291,"visible":true,"properties":[{"name":"layer","type":"int","value":1},{"name":"resource_index","type":"int","value":93},{"name":"oS","type":"string","value":"dungeon"},{"name":"l0","type":"string","value":"blueCave"},{"name":"l1","type":"string","value":"acc"},{"name":"l2","type":"string","value":"3"},{"name":"z","type":"int","value":5},{"name":"zM","type":"int","value":116},{"name":"f","type":"int","value":0}],"gid":39,"width":72,"height":34},{"id":745,"x":111,"y":319,"visible":true,"properties":[{"name":"layer","type":"int","value":1},{"name":"resource_index","type":"int","value":94},{"name":"oS","type":"string","value":"dungeon"},{"name":"l0","type":"string","value":"blueCave"},{"name":"l1","type":"string","value":"acc"},{"name":"l2","type":"string","value":"5"},{"name":"z","type":"int","value":5},{"name":"zM","type":"int","value":116},{"name":"f","type":"int","value":0}],"gid":41,"width":48,"height":37},{"id":746,"x":151,"y":-5,"visible":true,"properties":[{"name":"layer","type":"int","value":1},{"name":"resource_index","type":"int","value":95},{"name":"oS","type":"string","value":"dungeon"},{"name":"l0","type":"string","value":"blueCave"},{"name":"l1","type":"string","value":"acc"},{"name":"l2","type":"string","value":"5"},{"name":"z","type":"int","value":5},{"name":"zM","type":"int","value":140},{"name":"f","type":"int","value":0}],"gid":41,"width":48,"height":37},{"id":747,"x":270,"y":-18,"visible":true,"properties":[{"name":"layer","type":"int","value":1},{"name":"resource_index","type":"int","value":96},{"name":"oS","type":"string","value":"dungeon"},{"name":"l0","type":"string","value":"blueCave"},{"name":"l1","type":"string","value":"acc"},{"name":"l2","type":"string","value":"5"},{"name":"z","type":"int","value":5},{"name":"zM","type":"int","value":140},{"name":"f","type":"int","value":1}],"gid":41,"width":48,"height":37},{"id":748,"x":1258,"y":-25,"visible":true,"properties":[{"name":"layer","type":"int","value":1},{"name":"resource_index","type":"int","value":97},{"name":"oS","type":"string","value":"dungeon"},{"name":"l0","type":"string","value":"blueCave"},{"name":"l1","type":"string","value":"acc"},{"name":"l2","type":"string","value":"4"},{"name":"z","type":"int","value":2},{"name":"zM","type":"int","value":141},{"name":"f","type":"int","value":0}],"gid":40,"width":50,"height":48},{"id":749,"x":1816,"y":81,"visible":true,"properties":[{"name":"layer","type":"int","value":1},{"name":"resource_index","type":"int","value":98},{"name":"oS","type":"string","value":"dungeon"},{"name":"l0","type":"string","value":"blueCave"},{"name":"l1","type":"string","value":"acc"},{"name":"l2","type":"string","value":"3"},{"name":"z","type":"int","value":5},{"name":"zM","type":"int","value":132},{"name":"f","type":"int","value":0}],"gid":39,"width":72,"height":34},{"id":750,"x":1242,"y":505,"visible":true,"properties":[{"name":"layer","type":"int","value":1},{"name":"resource_index","type":"int","value":99},{"name":"oS","type":"string","value":"dungeon"},{"name":"l0","type":"string","value":"blueCave"},{"name":"l1","type":"string","value":"acc"},{"name":"l2","type":"string","value":"5"},{"name":"z","type":"int","value":5},{"name":"zM","type":"int","value":101},{"name":"f","type":"int","value":0}],"gid":41,"width":48,"height":37},{"id":751,"x":1212,"y":500,"visible":true,"properties":[{"name":"layer","type":"int","value":1},{"name":"resource_index","type":"int","value":100},{"name":"oS","type":"string","value":"dungeon"},{"name":"l0","type":"string","value":"blueCave"},{"name":"l1","type":"string","value":"acc"},{"name":"l2","type":"string","value":"5"},{"name":"z","type":"int","value":6},{"name":"zM","type":"int","value":101},{"name":"f","type":"int","value":1}],"gid":41,"width":48,"height":37},{"id":752,"x":1265,"y":492,"visible":true,"properties":[{"name":"layer","type":"int","value":1},{"name":"resource_index","type":"int","value":101},{"name":"oS","type":"string","value":"dungeon"},{"name":"l0","type":"string","value":"blueCave"},{"name":"l1","type":"string","value":"acc"},{"name":"l2","type":"string","value":"4"},{"name":"z","type":"int","value":3},{"name":"zM","type":"int","value":101},{"name":"f","type":"int","value":0}],"gid":40,"width":50,"height":48},{"id":753,"x":1422,"y":990,"visible":true,"properties":[{"name":"layer","type":"int","value":1},{"name":"resource_index","type":"int","value":102},{"name":"oS","type":"string","value":"dungeon"},{"name":"l0","type":"string","value":"blueCave"},{"name":"l1","type":"string","value":"acc"},{"name":"l2","type":"string","value":"3"},{"name":"z","type":"int","value":5},{"name":"zM","type":"int","value":60},{"name":"f","type":"int","value":1}],"gid":39,"width":72,"height":34},{"id":754,"x":1481,"y":989,"visible":true,"properties":[{"name":"layer","type":"int","value":1},{"name":"resource_index","type":"int","value":103},{"name":"oS","type":"string","value":"dungeon"},{"name":"l0","type":"string","value":"blueCave"},{"name":"l1","type":"string","value":"acc"},{"name":"l2","type":"string","value":"2"},{"name":"z","type":"int","value":1},{"name":"zM","type":"int","value":60},{"name":"f","type":"int","value":0}],"gid":38,"width":53,"height":51},{"id":755,"x":93,"y":1457,"visible":true,"properties":[{"name":"layer","type":"int","value":1},{"name":"resource_index","type":"int","value":104},{"name":"oS","type":"string","value":"dungeon"},{"name":"l0","type":"string","value":"blueCave"},{"name":"l1","type":"string","value":"acc"},{"name":"l2","type":"string","value":"5"},{"name":"z","type":"int","value":5},{"name":"zM","type":"int","value":0},{"name":"f","type":"int","value":1}],"gid":41,"width":48,"height":37},{"id":756,"x":124,"y":1457,"visible":true,"properties":[{"name":"layer","type":"int","value":1},{"name":"resource_index","type":"int","value":105},{"name":"oS","type":"string","value":"dungeon"},{"name":"l0","type":"string","value":"blueCave"},{"name":"l1","type":"string","value":"acc"},{"name":"l2","type":"string","value":"2"},{"name":"z","type":"int","value":1},{"name":"zM","type":"int","value":0},{"name":"f","type":"int","value":0}],"gid":38,"width":53,"height":51},{"id":757,"x":31,"y":1039,"visible":true,"properties":[{"name":"layer","type":"int","value":1},{"name":"resource_index","type":"int","value":106},{"name":"oS","type":"string","value":"dungeon"},{"name":"l0","type":"string","value":"blueCave"},{"name":"l1","type":"string","value":"acc"},{"name":"l2","type":"string","value":"3"},{"name":"z","type":"int","value":5},{"name":"zM","type":"int","value":51},{"name":"f","type":"int","value":0}],"gid":39,"width":72,"height":34},{"id":758,"x":1814,"y":1465,"visible":true,"properties":[{"name":"layer","type":"int","value":1},{"name":"resource_index","type":"int","value":107},{"name":"oS","type":"string","value":"dungeon"},{"name":"l0","type":"string","value":"blueCave"},{"name":"l1","type":"string","value":"acc"},{"name":"l2","type":"string","value":"5"},{"name":"z","type":"int","value":5},{"name":"zM","type":"int","value":12},{"name":"f","type":"int","value":0}],"gid":41,"width":48,"height":37},{"id":759,"x":1760,"y":1466,"visible":true,"properties":[{"name":"layer","type":"int","value":1},{"name":"resource_index","type":"int","value":108},{"name":"oS","type":"string","value":"dungeon"},{"name":"l0","type":"string","value":"blueCave"},{"name":"l1","type":"string","value":"acc"},{"name":"l2","type":"string","value":"5"},{"name":"z","type":"int","value":5},{"name":"zM","type":"int","value":12},{"name":"f","type":"int","value":1}],"gid":41,"width":48,"height":37},{"id":760,"x":1796,"y":1434,"visible":true,"properties":[{"name":"layer","type":"int","value":1},{"name":"resource_index","type":"int","value":109},{"name":"oS","type":"string","value":"dungeon"},{"name":"l0","type":"string","value":"blueCave"},{"name":"l1","type":"string","value":"acc"},{"name":"l2","type":"string","value":"5"},{"name":"z","type":"int","value":3},{"name":"zM","type":"int","value":12},{"name":"f","type":"int","value":0}],"gid":41,"width":48,"height":37},{"id":761,"x":1881,"y":1438,"visible":true,"properties":[{"name":"layer","type":"int","value":1},{"name":"resource_index","type":"int","value":110},{"name":"oS","type":"string","value":"dungeon"},{"name":"l0","type":"string","value":"blueCave"},{"name":"l1","type":"string","value":"acc"},{"name":"l2","type":"string","value":"5"},{"name":"z","type":"int","value":3},{"name":"zM","type":"int","value":12},{"name":"f","type":"int","value":1}],"gid":41,"width":48,"height":37},{"id":762,"x":1854,"y":1432,"visible":true,"properties":[{"name":"layer","type":"int","value":1},{"name":"resource_index","type":"int","value":111},{"name":"oS","type":"string","value":"dungeon"},{"name":"l0","type":"string","value":"blueCave"},{"name":"l1","type":"string","value":"acc"},{"name":"l2","type":"string","value":"5"},{"name":"z","type":"int","value":2},{"name":"zM","type":"int","value":12},{"name":"f","type":"int","value":0}],"gid":41,"width":48,"height":37},{"id":763,"x":1900,"y":1422,"visible":true,"properties":[{"name":"layer","type":"int","value":1},{"name":"resource_index","type":"int","value":112},{"name":"oS","type":"string","value":"dungeon"},{"name":"l0","type":"string","value":"blueCave"},{"name":"l1","type":"string","value":"acc"},{"name":"l2","type":"string","value":"4"},{"name":"z","type":"int","value":2},{"name":"zM","type":"int","value":12},{"name":"f","type":"int","value":0}],"gid":40,"width":50,"height":48},{"id":764,"x":353,"y":1411,"visible":true,"properties":[{"name":"layer","type":"int","value":1},{"name":"resource_index","type":"int","value":113},{"name":"oS","type":"string","value":"dungeon"},{"name":"l0","type":"string","value":"blueCave"},{"name":"l1","type":"string","value":"foot"},{"name":"l2","type":"string","value":"3"},{"name":"z","type":"int","value":3},{"name":"zM","type":"int","value":0},{"name":"f","type":"int","value":0}],"gid":50,"width":91,"height":84}]},{"id":3,"name":"layer_1_tile","type":"objectgroup","visible":true,"opacity":1,"objects":[{"id":13,"x":-450,"y":180,"visible":true,"properties":[{"name":"layer","type":"int","value":1},{"name":"resource_index","type":"int","value":0},{"name":"u","type":"string","value":"bsc"},{"name":"no","type":"int","value":0},{"name":"zM","type":"int","value":94}],"gid":8,"width":90,"height":60},{"id":14,"x":-450,"y":420,"visible":true,"properties":[{"name":"layer","type":"int","value":1},{"name":"resource_index","type":"int","value":1},{"name":"u","type":"string","value":"bsc"},{"name":"no","type":"int","value":0},{"name":"zM","type":"int","value":94}],"gid":8,"width":90,"height":60},{"id":15,"x":2430,"y":720,"visible":true,"properties":[{"name":"layer","type":"int","value":1},{"name":"resource_index","type":"int","value":2},{"name":"u","type":"string","value":"enV1"},{"name":"no","type":"int","value":3},{"name":"zM","type":"int","value":81}],"gid":12,"width":41,"height":60},{"id":16,"x":2160,"y":720,"visible":true,"properties":[{"name":"layer","type":"int","value":1},{"name":"resource_index","type":"int","value":3},{"name":"u","type":"string","value":"bsc"},{"name":"no","type":"int","value":0},{"name":"zM","type":"int","value":81}],"gid":8,"width":90,"height":60},{"id":17,"x":-360,"y":240,"visible":true,"properties":[{"name":"layer","type":"int","value":1},{"name":"resource_index","type":"int","value":4},{"name":"u","type":"string","value":"bsc"},{"name":"no","type":"int","value":0},{"name":"zM","type":"int","value":94}],"gid":8,"width":90,"height":60},{"id":18,"x":2430,"y":660,"visible":true,"properties":[{"name":"layer","type":"int","value":1},{"name":"resource_index","type":"int","value":5},{"name":"u","type":"string","value":"enV1"},{"name":"no","type":"int","value":0},{"name":"zM","type":"int","value":81}],"gid":18,"width":33,"height":60},{"id":19,"x":-360,"y":120,"visible":true,"properties":[{"name":"layer","type":"int","value":1},{"name":"resource_index","type":"int","value":6},{"name":"u","type":"string","value":"enH0"},{"name":"no","type":"int","value":0},{"name":"zM","type":"int","value":94}],"gid":13,"width":90,"height":56},{"id":20,"x":-360,"y":180,"visible":true,"properties":[{"name":"layer","type":"int","value":1},{"name":"resource_index","type":"int","value":7},{"name":"u","type":"string","value":"bsc"},{"name":"no","type":"int","value":0},{"name":"zM","type":"int","value":94}],"gid":8,"width":90,"height":60},{"id":21,"x":-573,"y":180,"visible":true,"properties":[{"name":"layer","type":"int","value":1},{"name":"resource_index","type":"int","value":8},{"name":"u","type":"string","value":"enV0"},{"name":"no","type":"int","value":2},{"name":"zM","type":"int","value":94}],"gid":19,"width":33,"height":60},{"id":22,"x":2070,"y":720,"visible":true,"properties":[{"name":"layer","type":"int","value":1},{"name":"resource_index","type":"int","value":9},{"name":"u","type":"string","value":"bsc"},{"name":"no","type":"int","value":0},{"name":"zM","type":"int","value":81}],"gid":8,"width":90,"height":60},{"id":23,"x":1890,"y":660,"visible":true,"properties":[{"name":"layer","type":"int","value":1},{"name":"resource_index","type":"int","value":10},{"name":"u","type":"string","value":"slLU"},{"name":"no","type":"int","value":0},{"name":"zM","type":"int","value":81}],"gid":26,"width":90,"height":128},{"id":24,"x":1980,"y":776,"visible":true,"properties":[{"name":"layer","type":"int","value":1},{"name":"resource_index","type":"int","value":11},{"name":"u","type":"string","value":"enH1"},{"name":"no","type":"int","value":0},{"name":"zM","type":"int","value":81}],"gid":10,"width":90,"height":56},{"id":25,"x":2070,"y":791,"visible":true,"properties":[{"name":"layer","type":"int","value":1},{"name":"resource_index","type":"int","value":12},{"name":"u","type":"string","value":"enH1"},{"name":"no","type":"int","value":1},{"name":"zM","type":"int","value":81}],"gid":9,"width":90,"height":71},{"id":26,"x":1800,"y":791,"visible":true,"properties":[{"name":"layer","type":"int","value":1},{"name":"resource_index","type":"int","value":13},{"name":"u","type":"string","value":"enH1"},{"name":"no","type":"int","value":1},{"name":"zM","type":"int","value":81}],"gid":9,"width":90,"height":71},{"id":27,"x":-450,"y":300,"visible":true,"properties":[{"name":"layer","type":"int","value":1},{"name":"resource_index","type":"int","value":14},{"name":"u","type":"string","value":"bsc"},{"name":"no","type":"int","value":0},{"name":"zM","type":"int","value":94}],"gid":8,"width":90,"height":60},{"id":28,"x":-360,"y":300,"visible":true,"properties":[{"name":"layer","type":"int","value":1},{"name":"resource_index","type":"int","value":15},{"name":"u","type":"string","value":"bsc"},{"name":"no","type":"int","value":0},{"name":"zM","type":"int","value":94}],"gid":8,"width":90,"height":60},{"id":29,"x":1800,"y":720,"visible":true,"properties":[{"name":"layer","type":"int","value":1},{"name":"resource_index","type":"int","value":16},{"name":"u","type":"string","value":"slLU"},{"name":"no","type":"int","value":0},{"name":"zM","type":"int","value":81}],"gid":26,"width":90,"height":128},{"id":30,"x":2403,"y":540,"visible":true,"properties":[{"name":"layer","type":"int","value":1},{"name":"resource_index","type":"int","value":17},{"name":"u","type":"string","value":"edU"},{"name":"no","type":"int","value":0},{"name":"zM","type":"int","value":81}],"gid":11,"width":54,"height":32},{"id":31,"x":1890,"y":791,"visible":true,"properties":[{"name":"layer","type":"int","value":1},{"name":"resource_index","type":"int","value":18},{"name":"u","type":"string","value":"enH1"},{"name":"no","type":"int","value":1},{"name":"zM","type":"int","value":81}],"gid":9,"width":90,"height":71},{"id":32,"x":-270,"y":420,"visible":true,"properties":[{"name":"layer","type":"int","value":1},{"name":"resource_index","type":"int","value":19},{"name":"u","type":"string","value":"bsc"},{"name":"no","type":"int","value":0},{"name":"zM","type":"int","value":94}],"gid":8,"width":90,"height":60},{"id":33,"x":-90,"y":480,"visible":true,"properties":[{"name":"layer","type":"int","value":1},{"name":"resource_index","type":"int","value":20},{"name":"u","type":"string","value":"bsc"},{"name":"no","type":"int","value":0},{"name":"zM","type":"int","value":94}],"gid":8,"width":90,"height":60},{"id":34,"x":2250,"y":660,"visible":true,"properties":[{"name":"layer","type":"int","value":1},{"name":"resource_index","type":"int","value":21},{"name":"u","type":"string","value":"bsc"},{"name":"no","type":"int","value":0},{"name":"zM","type":"int","value":81}],"gid":8,"width":90,"height":60},{"id":35,"x":2160,"y":791,"visible":true,"properties":[{"name":"layer","type":"int","value":1},{"name":"resource_index","type":"int","value":22},{"name":"u","type":"string","value":"enH1"},{"name":"no","type":"int","value":1},{"name":"zM","type":"int","value":81}],"gid":9,"width":90,"height":71},{"id":36,"x":-540,"y":420,"visible":true,"properties":[{"name":"layer","type":"int","value":1},{"name":"resource_index","type":"int","value":23},{"name":"u","type":"string","value":"bsc"},{"name":"no","type":"int","value":0},{"name":"zM","type":"int","value":94}],"gid":8,"width":90,"height":60},{"id":37,"x":-360,"y":360,"visible":true,"properties":[{"name":"layer","type":"int","value":1},{"name":"resource_index","type":"int","value":24},{"name":"u","type":"string","value":"bsc"},{"name":"no","type":"int","value":0},{"name":"zM","type":"int","value":94}],"gid":8,"width":90,"height":60},{"id":38,"x":1980,"y":720,"visible":true,"properties":[{"name":"layer","type":"int","value":1},{"name":"resource_index","type":"int","value":25},{"name":"u","type":"string","value":"bsc"},{"name":"no","type":"int","value":0},{"name":"zM","type":"int","value":81}],"gid":8,"width":90,"height":60},{"id":39,"x":-90,"y":420,"visible":true,"properties":[{"name":"layer","type":"int","value":1},{"name":"resource_index","type":"int","value":26},{"name":"u","type":"string","value":"bsc"},{"name":"no","type":"int","value":0},{"name":"zM","type":"int","value":94}],"gid":8,"width":90,"height":60},{"id":40,"x":2250,"y":776,"visible":true,"properties":[{"name":"layer","type":"int","value":1},{"name":"resource_index","type":"int","value":27},{"name":"u","type":"string","value":"enH1"},{"name":"no","type":"int","value":0},{"name":"zM","type":"int","value":81}],"gid":10,"width":90,"height":56},{"id":41,"x":-180,"y":420,"visible":true,"properties":[{"name":"layer","type":"int","value":1},{"name":"resource_index","type":"int","value":28},{"name":"u","type":"string","value":"bsc"},{"name":"no","type":"int","value":0},{"name":"zM","type":"int","value":94}],"gid":8,"width":90,"height":60},{"id":42,"x":2340,"y":720,"visible":true,"properties":[{"name":"layer","type":"int","value":1},{"name":"resource_index","type":"int","value":29},{"name":"u","type":"string","value":"bsc"},{"name":"no","type":"int","value":0},{"name":"zM","type":"int","value":81}],"gid":8,"width":90,"height":60},{"id":43,"x":-270,"y":360,"visible":true,"properties":[{"name":"layer","type":"int","value":1},{"name":"resource_index","type":"int","value":30},{"name":"u","type":"string","value":"bsc"},{"name":"no","type":"int","value":0},{"name":"zM","type":"int","value":94}],"gid":8,"width":90,"height":60},{"id":44,"x":-573,"y":300,"visible":true,"properties":[{"name":"layer","type":"int","value":1},{"name":"resource_index","type":"int","value":31},{"name":"u","type":"string","value":"enV0"},{"name":"no","type":"int","value":2},{"name":"zM","type":"int","value":94}],"gid":19,"width":33,"height":60},{"id":45,"x":-450,"y":600,"visible":true,"properties":[{"name":"layer","type":"int","value":1},{"name":"resource_index","type":"int","value":32},{"name":"u","type":"string","value":"bsc"},{"name":"no","type":"int","value":0},{"name":"zM","type":"int","value":94}],"gid":8,"width":90,"height":60},{"id":46,"x":-360,"y":420,"visible":true,"properties":[{"name":"layer","type":"int","value":1},{"name":"resource_index","type":"int","value":33},{"name":"u","type":"string","value":"bsc"},{"name":"no","type":"int","value":0},{"name":"zM","type":"int","value":94}],"gid":8,"width":90,"height":60},{"id":47,"x":-573,"y":360,"visible":true,"properties":[{"name":"layer","type":"int","value":1},{"name":"resource_index","type":"int","value":34},{"name":"u","type":"string","value":"enV0"},{"name":"no","type":"int","value":2},{"name":"zM","type":"int","value":94}],"gid":19,"width":33,"height":60},{"id":48,"x":-540,"y":180,"visible":true,"properties":[{"name":"layer","type":"int","value":1},{"name":"resource_index","type":"int","value":35},{"name":"u","type":"string","value":"bsc"},{"name":"no","type":"int","value":0},{"name":"zM","type":"int","value":94}],"gid":8,"width":90,"height":60},{"id":49,"x":-540,"y":120,"visible":true,"properties":[{"name":"layer","type":"int","value":1},{"name":"resource_index","type":"int","value":36},{"name":"u","type":"string","value":"enH0"},{"name":"no","type":"int","value":0},{"name":"zM","type":"int","value":94}],"gid":13,"width":90,"height":56},{"id":50,"x":-567,"y":120,"visible":true,"properties":[{"name":"layer","type":"int","value":1},{"name":"resource_index","type":"int","value":37},{"name":"u","type":"string","value":"edU"},{"name":"no","type":"int","value":0},{"name":"zM","type":"int","value":94}],"gid":11,"width":54,"height":32},{"id":51,"x":-450,"y":120,"visible":true,"properties":[{"name":"layer","type":"int","value":1},{"name":"resource_index","type":"int","value":38},{"name":"u","type":"string","value":"enH0"},{"name":"no","type":"int","value":0},{"name":"zM","type":"int","value":94}],"gid":13,"width":90,"height":56},{"id":52,"x":-450,"y":240,"visible":true,"properties":[{"name":"layer","type":"int","value":1},{"name":"resource_index","type":"int","value":39},{"name":"u","type":"string","value":"bsc"},{"name":"no","type":"int","value":0},{"name":"zM","type":"int","value":94}],"gid":8,"width":90,"height":60},{"id":53,"x":-540,"y":300,"visible":true,"properties":[{"name":"layer","type":"int","value":1},{"name":"resource_index","type":"int","value":40},{"name":"u","type":"string","value":"bsc"},{"name":"no","type":"int","value":0},{"name":"zM","type":"int","value":94}],"gid":8,"width":90,"height":60},{"id":54,"x":-450,"y":360,"visible":true,"properties":[{"name":"layer","type":"int","value":1},{"name":"resource_index","type":"int","value":41},{"name":"u","type":"string","value":"bsc"},{"name":"no","type":"int","value":0},{"name":"zM","type":"int","value":94}],"gid":8,"width":90,"height":60},{"id":55,"x":-540,"y":240,"visible":true,"properties":[{"name":"layer","type":"int","value":1},{"name":"resource_index","type":"int","value":42},{"name":"u","type":"string","value":"bsc"},{"name":"no","type":"int","value":0},{"name":"zM","type":"int","value":94}],"gid":8,"width":90,"height":60},{"id":56,"x":-573,"y":240,"visible":true,"properties":[{"name":"layer","type":"int","value":1},{"name":"resource_index","type":"int","value":43},{"name":"u","type":"string","value":"enV0"},{"name":"no","type":"int","value":2},{"name":"zM","type":"int","value":94}],"gid":19,"width":33,"height":60},{"id":57,"x":-540,"y":360,"visible":true,"properties":[{"name":"layer","type":"int","value":1},{"name":"resource_index","type":"int","value":44},{"name":"u","type":"string","value":"bsc"},{"name":"no","type":"int","value":0},{"name":"zM","type":"int","value":94}],"gid":8,"width":90,"height":60},{"id":58,"x":0,"y":420,"visible":true,"properties":[{"name":"layer","type":"int","value":1},{"name":"resource_index","type":"int","value":45},{"name":"u","type":"string","value":"enV1"},{"name":"no","type":"int","value":1},{"name":"zM","type":"int","value":94}],"gid":24,"width":29,"height":60},{"id":59,"x":-180,"y":480,"visible":true,"properties":[{"name":"layer","type":"int","value":1},{"name":"resource_index","type":"int","value":46},{"name":"u","type":"string","value":"bsc"},{"name":"no","type":"int","value":0},{"name":"zM","type":"int","value":94}],"gid":8,"width":90,"height":60},{"id":60,"x":-117,"y":572,"visible":true,"properties":[{"name":"layer","type":"int","value":1},{"name":"resource_index","type":"int","value":47},{"name":"u","type":"string","value":"edD"},{"name":"no","type":"int","value":0},{"name":"zM","type":"int","value":94}],"gid":17,"width":54,"height":32},{"id":61,"x":-27,"y":512,"visible":true,"properties":[{"name":"layer","type":"int","value":1},{"name":"resource_index","type":"int","value":48},{"name":"u","type":"string","value":"edD"},{"name":"no","type":"int","value":0},{"name":"zM","type":"int","value":94}],"gid":17,"width":54,"height":32},{"id":62,"x":-360,"y":600,"visible":true,"properties":[{"name":"layer","type":"int","value":1},{"name":"resource_index","type":"int","value":49},{"name":"u","type":"string","value":"bsc"},{"name":"no","type":"int","value":0},{"name":"zM","type":"int","value":94}],"gid":8,"width":90,"height":60},{"id":63,"x":0,"y":480,"visible":true,"properties":[{"name":"layer","type":"int","value":1},{"name":"resource_index","type":"int","value":50},{"name":"u","type":"string","value":"enV1"},{"name":"no","type":"int","value":3},{"name":"zM","type":"int","value":94}],"gid":12,"width":41,"height":60},{"id":64,"x":-90,"y":608,"visible":true,"properties":[{"name":"layer","type":"int","value":1},{"name":"resource_index","type":"int","value":51},{"name":"u","type":"string","value":"slRD"},{"name":"no","type":"int","value":0},{"name":"zM","type":"int","value":94}],"gid":23,"width":90,"height":128},{"id":65,"x":2160,"y":600,"visible":true,"properties":[{"name":"layer","type":"int","value":1},{"name":"resource_index","type":"int","value":52},{"name":"u","type":"string","value":"bsc"},{"name":"no","type":"int","value":0},{"name":"zM","type":"int","value":81}],"gid":8,"width":90,"height":60},{"id":66,"x":-270,"y":600,"visible":true,"properties":[{"name":"layer","type":"int","value":1},{"name":"resource_index","type":"int","value":53},{"name":"u","type":"string","value":"bsc"},{"name":"no","type":"int","value":0},{"name":"zM","type":"int","value":94}],"gid":8,"width":90,"height":60},{"id":67,"x":-540,"y":656,"visible":true,"properties":[{"name":"layer","type":"int","value":1},{"name":"resource_index","type":"int","value":54},{"name":"u","type":"string","value":"enH1"},{"name":"no","type":"int","value":0},{"name":"zM","type":"int","value":94}],"gid":10,"width":90,"height":56},{"id":68,"x":-581,"y":480,"visible":true,"properties":[{"name":"layer","type":"int","value":1},{"name":"resource_index","type":"int","value":55},{"name":"u","type":"string","value":"enV0"},{"name":"no","type":"int","value":1},{"name":"zM","type":"int","value":94}],"gid":21,"width":41,"height":60},{"id":69,"x":-180,"y":540,"visible":true,"properties":[{"name":"layer","type":"int","value":1},{"name":"resource_index","type":"int","value":56},{"name":"u","type":"string","value":"bsc"},{"name":"no","type":"int","value":0},{"name":"zM","type":"int","value":94}],"gid":8,"width":90,"height":60},{"id":70,"x":-270,"y":540,"visible":true,"properties":[{"name":"layer","type":"int","value":1},{"name":"resource_index","type":"int","value":57},{"name":"u","type":"string","value":"bsc"},{"name":"no","type":"int","value":0},{"name":"zM","type":"int","value":94}],"gid":8,"width":90,"height":60},{"id":71,"x":-540,"y":540,"visible":true,"properties":[{"name":"layer","type":"int","value":1},{"name":"resource_index","type":"int","value":58},{"name":"u","type":"string","value":"bsc"},{"name":"no","type":"int","value":0},{"name":"zM","type":"int","value":94}],"gid":8,"width":90,"height":60},{"id":72,"x":-360,"y":480,"visible":true,"properties":[{"name":"layer","type":"int","value":1},{"name":"resource_index","type":"int","value":59},{"name":"u","type":"string","value":"bsc"},{"name":"no","type":"int","value":0},{"name":"zM","type":"int","value":94}],"gid":8,"width":90,"height":60},{"id":73,"x":-270,"y":480,"visible":true,"properties":[{"name":"layer","type":"int","value":1},{"name":"resource_index","type":"int","value":60},{"name":"u","type":"string","value":"bsc"},{"name":"no","type":"int","value":0},{"name":"zM","type":"int","value":94}],"gid":8,"width":90,"height":60},{"id":74,"x":-567,"y":632,"visible":true,"properties":[{"name":"layer","type":"int","value":1},{"name":"resource_index","type":"int","value":61},{"name":"u","type":"string","value":"edD"},{"name":"no","type":"int","value":0},{"name":"zM","type":"int","value":94}],"gid":17,"width":54,"height":32},{"id":75,"x":-450,"y":656,"visible":true,"properties":[{"name":"layer","type":"int","value":1},{"name":"resource_index","type":"int","value":62},{"name":"u","type":"string","value":"enH1"},{"name":"no","type":"int","value":0},{"name":"zM","type":"int","value":94}],"gid":10,"width":90,"height":56},{"id":76,"x":-450,"y":480,"visible":true,"properties":[{"name":"layer","type":"int","value":1},{"name":"resource_index","type":"int","value":63},{"name":"u","type":"string","value":"bsc"},{"name":"no","type":"int","value":0},{"name":"zM","type":"int","value":94}],"gid":8,"width":90,"height":60},{"id":77,"x":-540,"y":600,"visible":true,"properties":[{"name":"layer","type":"int","value":1},{"name":"resource_index","type":"int","value":64},{"name":"u","type":"string","value":"bsc"},{"name":"no","type":"int","value":0},{"name":"zM","type":"int","value":94}],"gid":8,"width":90,"height":60},{"id":78,"x":-573,"y":540,"visible":true,"properties":[{"name":"layer","type":"int","value":1},{"name":"resource_index","type":"int","value":65},{"name":"u","type":"string","value":"enV0"},{"name":"no","type":"int","value":2},{"name":"zM","type":"int","value":94}],"gid":19,"width":33,"height":60},{"id":79,"x":-540,"y":480,"visible":true,"properties":[{"name":"layer","type":"int","value":1},{"name":"resource_index","type":"int","value":66},{"name":"u","type":"string","value":"bsc"},{"name":"no","type":"int","value":0},{"name":"zM","type":"int","value":94}],"gid":8,"width":90,"height":60},{"id":80,"x":-360,"y":540,"visible":true,"properties":[{"name":"layer","type":"int","value":1},{"name":"resource_index","type":"int","value":67},{"name":"u","type":"string","value":"bsc"},{"name":"no","type":"int","value":0},{"name":"zM","type":"int","value":94}],"gid":8,"width":90,"height":60},{"id":81,"x":-450,"y":540,"visible":true,"properties":[{"name":"layer","type":"int","value":1},{"name":"resource_index","type":"int","value":68},{"name":"u","type":"string","value":"bsc"},{"name":"no","type":"int","value":0},{"name":"zM","type":"int","value":94}],"gid":8,"width":90,"height":60},{"id":82,"x":-573,"y":420,"visible":true,"properties":[{"name":"layer","type":"int","value":1},{"name":"resource_index","type":"int","value":69},{"name":"u","type":"string","value":"enV0"},{"name":"no","type":"int","value":2},{"name":"zM","type":"int","value":94}],"gid":19,"width":33,"height":60},{"id":83,"x":-581,"y":600,"visible":true,"properties":[{"name":"layer","type":"int","value":1},{"name":"resource_index","type":"int","value":70},{"name":"u","type":"string","value":"enV0"},{"name":"no","type":"int","value":1},{"name":"zM","type":"int","value":94}],"gid":21,"width":41,"height":60},{"id":84,"x":-360,"y":671,"visible":true,"properties":[{"name":"layer","type":"int","value":1},{"name":"resource_index","type":"int","value":71},{"name":"u","type":"string","value":"enH1"},{"name":"no","type":"int","value":1},{"name":"zM","type":"int","value":94}],"gid":9,"width":90,"height":71},{"id":85,"x":-207,"y":632,"visible":true,"properties":[{"name":"layer","type":"int","value":1},{"name":"resource_index","type":"int","value":72},{"name":"u","type":"string","value":"edD"},{"name":"no","type":"int","value":0},{"name":"zM","type":"int","value":94}],"gid":17,"width":54,"height":32},{"id":86,"x":-270,"y":656,"visible":true,"properties":[{"name":"layer","type":"int","value":1},{"name":"resource_index","type":"int","value":73},{"name":"u","type":"string","value":"enH1"},{"name":"no","type":"int","value":0},{"name":"zM","type":"int","value":94}],"gid":10,"width":90,"height":56},{"id":87,"x":2340,"y":540,"visible":true,"properties":[{"name":"layer","type":"int","value":1},{"name":"resource_index","type":"int","value":74},{"name":"u","type":"string","value":"enH0"},{"name":"no","type":"int","value":1},{"name":"zM","type":"int","value":81}],"gid":20,"width":90,"height":71},{"id":88,"x":-180,"y":668,"visible":true,"properties":[{"name":"layer","type":"int","value":1},{"name":"resource_index","type":"int","value":75},{"name":"u","type":"string","value":"slRD"},{"name":"no","type":"int","value":0},{"name":"zM","type":"int","value":94}],"gid":23,"width":90,"height":128},{"id":89,"x":-567,"y":960,"visible":true,"properties":[{"name":"layer","type":"int","value":1},{"name":"resource_index","type":"int","value":76},{"name":"u","type":"string","value":"edU"},{"name":"no","type":"int","value":0},{"name":"zM","type":"int","value":0}],"gid":11,"width":54,"height":32},{"id":90,"x":-581,"y":1020,"visible":true,"properties":[{"name":"layer","type":"int","value":1},{"name":"resource_index","type":"int","value":77},{"name":"u","type":"string","value":"enV0"},{"name":"no","type":"int","value":1},{"name":"zM","type":"int","value":0}],"gid":21,"width":41,"height":60},{"id":91,"x":-270,"y":1020,"visible":true,"properties":[{"name":"layer","type":"int","value":1},{"name":"resource_index","type":"int","value":78},{"name":"u","type":"string","value":"bsc"},{"name":"no","type":"int","value":0},{"name":"zM","type":"int","value":0}],"gid":8,"width":90,"height":60},{"id":92,"x":-270,"y":960,"visible":true,"properties":[{"name":"layer","type":"int","value":1},{"name":"resource_index","type":"int","value":79},{"name":"u","type":"string","value":"enH0"},{"name":"no","type":"int","value":0},{"name":"zM","type":"int","value":0}],"gid":13,"width":90,"height":56},{"id":93,"x":-450,"y":1020,"visible":true,"properties":[{"name":"layer","type":"int","value":1},{"name":"resource_index","type":"int","value":80},{"name":"u","type":"string","value":"bsc"},{"name":"no","type":"int","value":0},{"name":"zM","type":"int","value":0}],"gid":8,"width":90,"height":60},{"id":94,"x":-450,"y":960,"visible":true,"properties":[{"name":"layer","type":"int","value":1},{"name":"resource_index","type":"int","value":81},{"name":"u","type":"string","value":"enH0"},{"name":"no","type":"int","value":0},{"name":"zM","type":"int","value":0}],"gid":13,"width":90,"height":56},{"id":95,"x":-540,"y":1020,"visible":true,"properties":[{"name":"layer","type":"int","value":1},{"name":"resource_index","type":"int","value":82},{"name":"u","type":"string","value":"bsc"},{"name":"no","type":"int","value":0},{"name":"zM","type":"int","value":0}],"gid":8,"width":90,"height":60},{"id":96,"x":-540,"y":960,"visible":true,"properties":[{"name":"layer","type":"int","value":1},{"name":"resource_index","type":"int","value":83},{"name":"u","type":"string","value":"enH0"},{"name":"no","type":"int","value":1},{"name":"zM","type":"int","value":0}],"gid":20,"width":90,"height":71},{"id":97,"x":-360,"y":960,"visible":true,"properties":[{"name":"layer","type":"int","value":1},{"name":"resource_index","type":"int","value":84},{"name":"u","type":"string","value":"enH0"},{"name":"no","type":"int","value":0},{"name":"zM","type":"int","value":0}],"gid":13,"width":90,"height":56},{"id":98,"x":-360,"y":1020,"visible":true,"properties":[{"name":"layer","type":"int","value":1},{"name":"resource_index","type":"int","value":85},{"name":"u","type":"string","value":"bsc"},{"name":"no","type":"int","value":0},{"name":"zM","type":"int","value":0}],"gid":8,"width":90,"height":60},{"id":99,"x":-270,"y":1140,"visible":true,"properties":[{"name":"layer","type":"int","value":1},{"name":"resource_index","type":"int","value":86},{"name":"u","type":"string","value":"bsc"},{"name":"no","type":"int","value":0},{"name":"zM","type":"int","value":0}],"gid":8,"width":90,"height":60},{"id":100,"x":-180,"y":1140,"visible":true,"properties":[{"name":"layer","type":"int","value":1},{"name":"resource_index","type":"int","value":87},{"name":"u","type":"string","value":"bsc"},{"name":"no","type":"int","value":0},{"name":"zM","type":"int","value":0}],"gid":8,"width":90,"height":60},{"id":101,"x":-180,"y":1260,"visible":true,"properties":[{"name":"layer","type":"int","value":1},{"name":"resource_index","type":"int","value":88},{"name":"u","type":"string","value":"bsc"},{"name":"no","type":"int","value":0},{"name":"zM","type":"int","value":0}],"gid":8,"width":90,"height":60},{"id":102,"x":-360,"y":1080,"visible":true,"properties":[{"name":"layer","type":"int","value":1},{"name":"resource_index","type":"int","value":89},{"name":"u","type":"string","value":"bsc"},{"name":"no","type":"int","value":0},{"name":"zM","type":"int","value":0}],"gid":8,"width":90,"height":60},{"id":103,"x":-270,"y":1080,"visible":true,"properties":[{"name":"layer","type":"int","value":1},{"name":"resource_index","type":"int","value":90},{"name":"u","type":"string","value":"bsc"},{"name":"no","type":"int","value":0},{"name":"zM","type":"int","value":0}],"gid":8,"width":90,"height":60},{"id":104,"x":2070,"y":540,"visible":true,"properties":[{"name":"layer","type":"int","value":1},{"name":"resource_index","type":"int","value":91},{"name":"u","type":"string","value":"enH0"},{"name":"no","type":"int","value":0},{"name":"zM","type":"int","value":81}],"gid":13,"width":90,"height":56},{"id":105,"x":2340,"y":600,"visible":true,"properties":[{"name":"layer","type":"int","value":1},{"name":"resource_index","type":"int","value":92},{"name":"u","type":"string","value":"bsc"},{"name":"no","type":"int","value":0},{"name":"zM","type":"int","value":81}],"gid":8,"width":90,"height":60},{"id":106,"x":-450,"y":1380,"visible":true,"properties":[{"name":"layer","type":"int","value":1},{"name":"resource_index","type":"int","value":93},{"name":"u","type":"string","value":"bsc"},{"name":"no","type":"int","value":0},{"name":"zM","type":"int","value":0}],"gid":8,"width":90,"height":60},{"id":107,"x":-540,"y":1140,"visible":true,"properties":[{"name":"layer","type":"int","value":1},{"name":"resource_index","type":"int","value":94},{"name":"u","type":"string","value":"bsc"},{"name":"no","type":"int","value":0},{"name":"zM","type":"int","value":0}],"gid":8,"width":90,"height":60},{"id":108,"x":-576,"y":1080,"visible":true,"properties":[{"name":"layer","type":"int","value":1},{"name":"resource_index","type":"int","value":95},{"name":"u","type":"string","value":"enV0"},{"name":"no","type":"int","value":0},{"name":"zM","type":"int","value":0}],"gid":15,"width":36,"height":60},{"id":109,"x":-540,"y":1260,"visible":true,"properties":[{"name":"layer","type":"int","value":1},{"name":"resource_index","type":"int","value":96},{"name":"u","type":"string","value":"bsc"},{"name":"no","type":"int","value":0},{"name":"zM","type":"int","value":0}],"gid":8,"width":90,"height":60},{"id":110,"x":-581,"y":1140,"visible":true,"properties":[{"name":"layer","type":"int","value":1},{"name":"resource_index","type":"int","value":97},{"name":"u","type":"string","value":"enV0"},{"name":"no","type":"int","value":1},{"name":"zM","type":"int","value":0}],"gid":21,"width":41,"height":60},{"id":111,"x":-569,"y":1200,"visible":true,"properties":[{"name":"layer","type":"int","value":1},{"name":"resource_index","type":"int","value":98},{"name":"u","type":"string","value":"enV0"},{"name":"no","type":"int","value":3},{"name":"zM","type":"int","value":0}],"gid":14,"width":29,"height":60},{"id":112,"x":-540,"y":1080,"visible":true,"properties":[{"name":"layer","type":"int","value":1},{"name":"resource_index","type":"int","value":99},{"name":"u","type":"string","value":"bsc"},{"name":"no","type":"int","value":0},{"name":"zM","type":"int","value":0}],"gid":8,"width":90,"height":60},{"id":113,"x":-360,"y":1260,"visible":true,"properties":[{"name":"layer","type":"int","value":1},{"name":"resource_index","type":"int","value":100},{"name":"u","type":"string","value":"bsc"},{"name":"no","type":"int","value":0},{"name":"zM","type":"int","value":0}],"gid":8,"width":90,"height":60},{"id":114,"x":-360,"y":1140,"visible":true,"properties":[{"name":"layer","type":"int","value":1},{"name":"resource_index","type":"int","value":101},{"name":"u","type":"string","value":"bsc"},{"name":"no","type":"int","value":0},{"name":"zM","type":"int","value":0}],"gid":8,"width":90,"height":60},{"id":115,"x":-360,"y":1200,"visible":true,"properties":[{"name":"layer","type":"int","value":1},{"name":"resource_index","type":"int","value":102},{"name":"u","type":"string","value":"bsc"},{"name":"no","type":"int","value":0},{"name":"zM","type":"int","value":0}],"gid":8,"width":90,"height":60},{"id":116,"x":-450,"y":1080,"visible":true,"properties":[{"name":"layer","type":"int","value":1},{"name":"resource_index","type":"int","value":103},{"name":"u","type":"string","value":"bsc"},{"name":"no","type":"int","value":0},{"name":"zM","type":"int","value":0}],"gid":8,"width":90,"height":60},{"id":117,"x":-540,"y":1200,"visible":true,"properties":[{"name":"layer","type":"int","value":1},{"name":"resource_index","type":"int","value":104},{"name":"u","type":"string","value":"bsc"},{"name":"no","type":"int","value":0},{"name":"zM","type":"int","value":0}],"gid":8,"width":90,"height":60},{"id":118,"x":-360,"y":1560,"visible":true,"properties":[{"name":"layer","type":"int","value":1},{"name":"resource_index","type":"int","value":105},{"name":"u","type":"string","value":"bsc"},{"name":"no","type":"int","value":0},{"name":"zM","type":"int","value":0}],"gid":8,"width":90,"height":60},{"id":119,"x":-450,"y":1320,"visible":true,"properties":[{"name":"layer","type":"int","value":1},{"name":"resource_index","type":"int","value":106},{"name":"u","type":"string","value":"bsc"},{"name":"no","type":"int","value":0},{"name":"zM","type":"int","value":0}],"gid":8,"width":90,"height":60},{"id":120,"x":-450,"y":1200,"visible":true,"properties":[{"name":"layer","type":"int","value":1},{"name":"resource_index","type":"int","value":107},{"name":"u","type":"string","value":"bsc"},{"name":"no","type":"int","value":0},{"name":"zM","type":"int","value":0}],"gid":8,"width":90,"height":60},{"id":121,"x":-450,"y":1260,"visible":true,"properties":[{"name":"layer","type":"int","value":1},{"name":"resource_index","type":"int","value":108},{"name":"u","type":"string","value":"bsc"},{"name":"no","type":"int","value":0},{"name":"zM","type":"int","value":0}],"gid":8,"width":90,"height":60},{"id":122,"x":-450,"y":1140,"visible":true,"properties":[{"name":"layer","type":"int","value":1},{"name":"resource_index","type":"int","value":109},{"name":"u","type":"string","value":"bsc"},{"name":"no","type":"int","value":0},{"name":"zM","type":"int","value":0}],"gid":8,"width":90,"height":60},{"id":123,"x":-270,"y":1260,"visible":true,"properties":[{"name":"layer","type":"int","value":1},{"name":"resource_index","type":"int","value":110},{"name":"u","type":"string","value":"bsc"},{"name":"no","type":"int","value":0},{"name":"zM","type":"int","value":0}],"gid":8,"width":90,"height":60},{"id":124,"x":-90,"y":1260,"visible":true,"properties":[{"name":"layer","type":"int","value":1},{"name":"resource_index","type":"int","value":111},{"name":"u","type":"string","value":"enV1"},{"name":"no","type":"int","value":1},{"name":"zM","type":"int","value":0}],"gid":24,"width":29,"height":60},{"id":125,"x":-90,"y":1560,"visible":true,"properties":[{"name":"layer","type":"int","value":1},{"name":"resource_index","type":"int","value":112},{"name":"u","type":"string","value":"enV1"},{"name":"no","type":"int","value":3},{"name":"zM","type":"int","value":0}],"gid":12,"width":41,"height":60},{"id":126,"x":-450,"y":1500,"visible":true,"properties":[{"name":"layer","type":"int","value":1},{"name":"resource_index","type":"int","value":113},{"name":"u","type":"string","value":"bsc"},{"name":"no","type":"int","value":0},{"name":"zM","type":"int","value":0}],"gid":8,"width":90,"height":60},{"id":127,"x":-270,"y":1200,"visible":true,"properties":[{"name":"layer","type":"int","value":1},{"name":"resource_index","type":"int","value":114},{"name":"u","type":"string","value":"bsc"},{"name":"no","type":"int","value":0},{"name":"zM","type":"int","value":0}],"gid":8,"width":90,"height":60},{"id":128,"x":-573,"y":1260,"visible":true,"properties":[{"name":"layer","type":"int","value":1},{"name":"resource_index","type":"int","value":115},{"name":"u","type":"string","value":"enV0"},{"name":"no","type":"int","value":2},{"name":"zM","type":"int","value":0}],"gid":19,"width":33,"height":60},{"id":129,"x":-540,"y":1380,"visible":true,"properties":[{"name":"layer","type":"int","value":1},{"name":"resource_index","type":"int","value":116},{"name":"u","type":"string","value":"bsc"},{"name":"no","type":"int","value":0},{"name":"zM","type":"int","value":0}],"gid":8,"width":90,"height":60},{"id":130,"x":-569,"y":1320,"visible":true,"properties":[{"name":"layer","type":"int","value":1},{"name":"resource_index","type":"int","value":117},{"name":"u","type":"string","value":"enV0"},{"name":"no","type":"int","value":3},{"name":"zM","type":"int","value":0}],"gid":14,"width":29,"height":60},{"id":131,"x":-540,"y":1440,"visible":true,"properties":[{"name":"layer","type":"int","value":1},{"name":"resource_index","type":"int","value":118},{"name":"u","type":"string","value":"bsc"},{"name":"no","type":"int","value":0},{"name":"zM","type":"int","value":0}],"gid":8,"width":90,"height":60},{"id":132,"x":-581,"y":1380,"visible":true,"properties":[{"name":"layer","type":"int","value":1},{"name":"resource_index","type":"int","value":119},{"name":"u","type":"string","value":"enV0"},{"name":"no","type":"int","value":1},{"name":"zM","type":"int","value":0}],"gid":21,"width":41,"height":60},{"id":133,"x":-540,"y":1500,"visible":true,"properties":[{"name":"layer","type":"int","value":1},{"name":"resource_index","type":"int","value":120},{"name":"u","type":"string","value":"bsc"},{"name":"no","type":"int","value":0},{"name":"zM","type":"int","value":0}],"gid":8,"width":90,"height":60},{"id":134,"x":-581,"y":1440,"visible":true,"properties":[{"name":"layer","type":"int","value":1},{"name":"resource_index","type":"int","value":121},{"name":"u","type":"string","value":"enV0"},{"name":"no","type":"int","value":1},{"name":"zM","type":"int","value":0}],"gid":21,"width":41,"height":60},{"id":135,"x":-540,"y":1560,"visible":true,"properties":[{"name":"layer","type":"int","value":1},{"name":"resource_index","type":"int","value":122},{"name":"u","type":"string","value":"bsc"},{"name":"no","type":"int","value":0},{"name":"zM","type":"int","value":0}],"gid":8,"width":90,"height":60},{"id":136,"x":-581,"y":1500,"visible":true,"properties":[{"name":"layer","type":"int","value":1},{"name":"resource_index","type":"int","value":123},{"name":"u","type":"string","value":"enV0"},{"name":"no","type":"int","value":1},{"name":"zM","type":"int","value":0}],"gid":21,"width":41,"height":60},{"id":137,"x":-450,"y":1560,"visible":true,"properties":[{"name":"layer","type":"int","value":1},{"name":"resource_index","type":"int","value":124},{"name":"u","type":"string","value":"bsc"},{"name":"no","type":"int","value":0},{"name":"zM","type":"int","value":0}],"gid":8,"width":90,"height":60},{"id":138,"x":-569,"y":1620,"visible":true,"properties":[{"name":"layer","type":"int","value":1},{"name":"resource_index","type":"int","value":125},{"name":"u","type":"string","value":"enV0"},{"name":"no","type":"int","value":3},{"name":"zM","type":"int","value":0}],"gid":14,"width":29,"height":60},{"id":139,"x":-540,"y":1680,"visible":true,"properties":[{"name":"layer","type":"int","value":1},{"name":"resource_index","type":"int","value":126},{"name":"u","type":"string","value":"bsc"},{"name":"no","type":"int","value":0},{"name":"zM","type":"int","value":0}],"gid":8,"width":90,"height":60},{"id":140,"x":-581,"y":1680,"visible":true,"properties":[{"name":"layer","type":"int","value":1},{"name":"resource_index","type":"int","value":127},{"name":"u","type":"string","value":"enV0"},{"name":"no","type":"int","value":1},{"name":"zM","type":"int","value":0}],"gid":21,"width":41,"height":60},{"id":141,"x":-540,"y":1800,"visible":true,"properties":[{"name":"layer","type":"int","value":1},{"name":"resource_index","type":"int","value":128},{"name":"u","type":"string","value":"bsc"},{"name":"no","type":"int","value":0},{"name":"zM","type":"int","value":0}],"gid":8,"width":90,"height":60},{"id":142,"x":-540,"y":1740,"visible":true,"properties":[{"name":"layer","type":"int","value":1},{"name":"resource_index","type":"int","value":129},{"name":"u","type":"string","value":"bsc"},{"name":"no","type":"int","value":0},{"name":"zM","type":"int","value":0}],"gid":8,"width":90,"height":60},{"id":143,"x":-450,"y":1740,"visible":true,"properties":[{"name":"layer","type":"int","value":1},{"name":"resource_index","type":"int","value":130},{"name":"u","type":"string","value":"bsc"},{"name":"no","type":"int","value":0},{"name":"zM","type":"int","value":0}],"gid":8,"width":90,"height":60},{"id":144,"x":-540,"y":1620,"visible":true,"properties":[{"name":"layer","type":"int","value":1},{"name":"resource_index","type":"int","value":131},{"name":"u","type":"string","value":"bsc"},{"name":"no","type":"int","value":0},{"name":"zM","type":"int","value":0}],"gid":8,"width":90,"height":60},{"id":145,"x":-450,"y":1680,"visible":true,"properties":[{"name":"layer","type":"int","value":1},{"name":"resource_index","type":"int","value":132},{"name":"u","type":"string","value":"bsc"},{"name":"no","type":"int","value":0},{"name":"zM","type":"int","value":0}],"gid":8,"width":90,"height":60},{"id":146,"x":-450,"y":1440,"visible":true,"properties":[{"name":"layer","type":"int","value":1},{"name":"resource_index","type":"int","value":133},{"name":"u","type":"string","value":"bsc"},{"name":"no","type":"int","value":0},{"name":"zM","type":"int","value":0}],"gid":8,"width":90,"height":60},{"id":147,"x":-450,"y":1620,"visible":true,"properties":[{"name":"layer","type":"int","value":1},{"name":"resource_index","type":"int","value":134},{"name":"u","type":"string","value":"bsc"},{"name":"no","type":"int","value":0},{"name":"zM","type":"int","value":0}],"gid":8,"width":90,"height":60},{"id":148,"x":-540,"y":1320,"visible":true,"properties":[{"name":"layer","type":"int","value":1},{"name":"resource_index","type":"int","value":135},{"name":"u","type":"string","value":"bsc"},{"name":"no","type":"int","value":0},{"name":"zM","type":"int","value":0}],"gid":8,"width":90,"height":60},{"id":149,"x":-581,"y":1560,"visible":true,"properties":[{"name":"layer","type":"int","value":1},{"name":"resource_index","type":"int","value":136},{"name":"u","type":"string","value":"enV0"},{"name":"no","type":"int","value":1},{"name":"zM","type":"int","value":0}],"gid":21,"width":41,"height":60},{"id":150,"x":-270,"y":1680,"visible":true,"properties":[{"name":"layer","type":"int","value":1},{"name":"resource_index","type":"int","value":137},{"name":"u","type":"string","value":"bsc"},{"name":"no","type":"int","value":0},{"name":"zM","type":"int","value":0}],"gid":8,"width":90,"height":60},{"id":151,"x":-360,"y":1320,"visible":true,"properties":[{"name":"layer","type":"int","value":1},{"name":"resource_index","type":"int","value":138},{"name":"u","type":"string","value":"bsc"},{"name":"no","type":"int","value":0},{"name":"zM","type":"int","value":0}],"gid":8,"width":90,"height":60},{"id":152,"x":-360,"y":1740,"visible":true,"properties":[{"name":"layer","type":"int","value":1},{"name":"resource_index","type":"int","value":139},{"name":"u","type":"string","value":"bsc"},{"name":"no","type":"int","value":0},{"name":"zM","type":"int","value":0}],"gid":8,"width":90,"height":60},{"id":153,"x":-360,"y":1380,"visible":true,"properties":[{"name":"layer","type":"int","value":1},{"name":"resource_index","type":"int","value":140},{"name":"u","type":"string","value":"bsc"},{"name":"no","type":"int","value":0},{"name":"zM","type":"int","value":0}],"gid":8,"width":90,"height":60},{"id":154,"x":-360,"y":1680,"visible":true,"properties":[{"name":"layer","type":"int","value":1},{"name":"resource_index","type":"int","value":141},{"name":"u","type":"string","value":"bsc"},{"name":"no","type":"int","value":0},{"name":"zM","type":"int","value":0}],"gid":8,"width":90,"height":60},{"id":155,"x":-360,"y":1440,"visible":true,"properties":[{"name":"layer","type":"int","value":1},{"name":"resource_index","type":"int","value":142},{"name":"u","type":"string","value":"bsc"},{"name":"no","type":"int","value":0},{"name":"zM","type":"int","value":0}],"gid":8,"width":90,"height":60},{"id":156,"x":-360,"y":1620,"visible":true,"properties":[{"name":"layer","type":"int","value":1},{"name":"resource_index","type":"int","value":143},{"name":"u","type":"string","value":"bsc"},{"name":"no","type":"int","value":0},{"name":"zM","type":"int","value":0}],"gid":8,"width":90,"height":60},{"id":157,"x":-360,"y":1500,"visible":true,"properties":[{"name":"layer","type":"int","value":1},{"name":"resource_index","type":"int","value":144},{"name":"u","type":"string","value":"bsc"},{"name":"no","type":"int","value":0},{"name":"zM","type":"int","value":0}],"gid":8,"width":90,"height":60},{"id":158,"x":-180,"y":1620,"visible":true,"properties":[{"name":"layer","type":"int","value":1},{"name":"resource_index","type":"int","value":145},{"name":"u","type":"string","value":"bsc"},{"name":"no","type":"int","value":0},{"name":"zM","type":"int","value":0}],"gid":8,"width":90,"height":60},{"id":159,"x":-270,"y":1320,"visible":true,"properties":[{"name":"layer","type":"int","value":1},{"name":"resource_index","type":"int","value":146},{"name":"u","type":"string","value":"bsc"},{"name":"no","type":"int","value":0},{"name":"zM","type":"int","value":0}],"gid":8,"width":90,"height":60},{"id":160,"x":-270,"y":1740,"visible":true,"properties":[{"name":"layer","type":"int","value":1},{"name":"resource_index","type":"int","value":147},{"name":"u","type":"string","value":"bsc"},{"name":"no","type":"int","value":0},{"name":"zM","type":"int","value":0}],"gid":8,"width":90,"height":60},{"id":161,"x":-270,"y":1380,"visible":true,"properties":[{"name":"layer","type":"int","value":1},{"name":"resource_index","type":"int","value":148},{"name":"u","type":"string","value":"bsc"},{"name":"no","type":"int","value":0},{"name":"zM","type":"int","value":0}],"gid":8,"width":90,"height":60},{"id":162,"x":-270,"y":1620,"visible":true,"properties":[{"name":"layer","type":"int","value":1},{"name":"resource_index","type":"int","value":149},{"name":"u","type":"string","value":"bsc"},{"name":"no","type":"int","value":0},{"name":"zM","type":"int","value":0}],"gid":8,"width":90,"height":60},{"id":163,"x":-270,"y":1440,"visible":true,"properties":[{"name":"layer","type":"int","value":1},{"name":"resource_index","type":"int","value":150},{"name":"u","type":"string","value":"bsc"},{"name":"no","type":"int","value":0},{"name":"zM","type":"int","value":0}],"gid":8,"width":90,"height":60},{"id":164,"x":-270,"y":1560,"visible":true,"properties":[{"name":"layer","type":"int","value":1},{"name":"resource_index","type":"int","value":151},{"name":"u","type":"string","value":"bsc"},{"name":"no","type":"int","value":0},{"name":"zM","type":"int","value":0}],"gid":8,"width":90,"height":60},{"id":165,"x":-270,"y":1500,"visible":true,"properties":[{"name":"layer","type":"int","value":1},{"name":"resource_index","type":"int","value":152},{"name":"u","type":"string","value":"bsc"},{"name":"no","type":"int","value":0},{"name":"zM","type":"int","value":0}],"gid":8,"width":90,"height":60},{"id":166,"x":-180,"y":1680,"visible":true,"properties":[{"name":"layer","type":"int","value":1},{"name":"resource_index","type":"int","value":153},{"name":"u","type":"string","value":"bsc"},{"name":"no","type":"int","value":0},{"name":"zM","type":"int","value":0}],"gid":8,"width":90,"height":60},{"id":167,"x":-180,"y":1320,"visible":true,"properties":[{"name":"layer","type":"int","value":1},{"name":"resource_index","type":"int","value":154},{"name":"u","type":"string","value":"bsc"},{"name":"no","type":"int","value":0},{"name":"zM","type":"int","value":0}],"gid":8,"width":90,"height":60},{"id":168,"x":-180,"y":1560,"visible":true,"properties":[{"name":"layer","type":"int","value":1},{"name":"resource_index","type":"int","value":155},{"name":"u","type":"string","value":"bsc"},{"name":"no","type":"int","value":0},{"name":"zM","type":"int","value":0}],"gid":8,"width":90,"height":60},{"id":169,"x":-180,"y":1380,"visible":true,"properties":[{"name":"layer","type":"int","value":1},{"name":"resource_index","type":"int","value":156},{"name":"u","type":"string","value":"bsc"},{"name":"no","type":"int","value":0},{"name":"zM","type":"int","value":0}],"gid":8,"width":90,"height":60},{"id":170,"x":-180,"y":1740,"visible":true,"properties":[{"name":"layer","type":"int","value":1},{"name":"resource_index","type":"int","value":157},{"name":"u","type":"string","value":"bsc"},{"name":"no","type":"int","value":0},{"name":"zM","type":"int","value":0}],"gid":8,"width":90,"height":60},{"id":171,"x":-180,"y":1440,"visible":true,"properties":[{"name":"layer","type":"int","value":1},{"name":"resource_index","type":"int","value":158},{"name":"u","type":"string","value":"bsc"},{"name":"no","type":"int","value":0},{"name":"zM","type":"int","value":0}],"gid":8,"width":90,"height":60},{"id":172,"x":-180,"y":1500,"visible":true,"properties":[{"name":"layer","type":"int","value":1},{"name":"resource_index","type":"int","value":159},{"name":"u","type":"string","value":"bsc"},{"name":"no","type":"int","value":0},{"name":"zM","type":"int","value":0}],"gid":8,"width":90,"height":60},{"id":173,"x":-117,"y":1020,"visible":true,"properties":[{"name":"layer","type":"int","value":1},{"name":"resource_index","type":"int","value":160},{"name":"u","type":"string","value":"edU"},{"name":"no","type":"int","value":0},{"name":"zM","type":"int","value":0}],"gid":11,"width":54,"height":32},{"id":174,"x":-90,"y":1080,"visible":true,"properties":[{"name":"layer","type":"int","value":1},{"name":"resource_index","type":"int","value":161},{"name":"u","type":"string","value":"enV1"},{"name":"no","type":"int","value":1},{"name":"zM","type":"int","value":0}],"gid":24,"width":29,"height":60},{"id":175,"x":-180,"y":1020,"visible":true,"properties":[{"name":"layer","type":"int","value":1},{"name":"resource_index","type":"int","value":162},{"name":"u","type":"string","value":"slRU"},{"name":"no","type":"int","value":0},{"name":"zM","type":"int","value":0}],"gid":22,"width":90,"height":128},{"id":176,"x":-180,"y":1080,"visible":true,"properties":[{"name":"layer","type":"int","value":1},{"name":"resource_index","type":"int","value":163},{"name":"u","type":"string","value":"bsc"},{"name":"no","type":"int","value":0},{"name":"zM","type":"int","value":0}],"gid":8,"width":90,"height":60},{"id":177,"x":-90,"y":1140,"visible":true,"properties":[{"name":"layer","type":"int","value":1},{"name":"resource_index","type":"int","value":164},{"name":"u","type":"string","value":"enV1"},{"name":"no","type":"int","value":1},{"name":"zM","type":"int","value":0}],"gid":24,"width":29,"height":60},{"id":178,"x":-90,"y":1200,"visible":true,"properties":[{"name":"layer","type":"int","value":1},{"name":"resource_index","type":"int","value":165},{"name":"u","type":"string","value":"enV1"},{"name":"no","type":"int","value":2},{"name":"zM","type":"int","value":0}],"gid":16,"width":36,"height":60},{"id":179,"x":-180,"y":1200,"visible":true,"properties":[{"name":"layer","type":"int","value":1},{"name":"resource_index","type":"int","value":166},{"name":"u","type":"string","value":"bsc"},{"name":"no","type":"int","value":0},{"name":"zM","type":"int","value":0}],"gid":8,"width":90,"height":60},{"id":180,"x":-90,"y":1500,"visible":true,"properties":[{"name":"layer","type":"int","value":1},{"name":"resource_index","type":"int","value":167},{"name":"u","type":"string","value":"enV1"},{"name":"no","type":"int","value":0},{"name":"zM","type":"int","value":0}],"gid":18,"width":33,"height":60},{"id":181,"x":-90,"y":1320,"visible":true,"properties":[{"name":"layer","type":"int","value":1},{"name":"resource_index","type":"int","value":168},{"name":"u","type":"string","value":"enV1"},{"name":"no","type":"int","value":2},{"name":"zM","type":"int","value":0}],"gid":16,"width":36,"height":60},{"id":182,"x":-90,"y":1740,"visible":true,"properties":[{"name":"layer","type":"int","value":1},{"name":"resource_index","type":"int","value":169},{"name":"u","type":"string","value":"enV1"},{"name":"no","type":"int","value":1},{"name":"zM","type":"int","value":0}],"gid":24,"width":29,"height":60},{"id":183,"x":-90,"y":1380,"visible":true,"properties":[{"name":"layer","type":"int","value":1},{"name":"resource_index","type":"int","value":170},{"name":"u","type":"string","value":"enV1"},{"name":"no","type":"int","value":0},{"name":"zM","type":"int","value":0}],"gid":18,"width":33,"height":60},{"id":184,"x":-90,"y":1680,"visible":true,"properties":[{"name":"layer","type":"int","value":1},{"name":"resource_index","type":"int","value":171},{"name":"u","type":"string","value":"enV1"},{"name":"no","type":"int","value":0},{"name":"zM","type":"int","value":0}],"gid":18,"width":33,"height":60},{"id":185,"x":-90,"y":1440,"visible":true,"properties":[{"name":"layer","type":"int","value":1},{"name":"resource_index","type":"int","value":172},{"name":"u","type":"string","value":"enV1"},{"name":"no","type":"int","value":1},{"name":"zM","type":"int","value":0}],"gid":24,"width":29,"height":60},{"id":186,"x":-90,"y":1620,"visible":true,"properties":[{"name":"layer","type":"int","value":1},{"name":"resource_index","type":"int","value":173},{"name":"u","type":"string","value":"enV1"},{"name":"no","type":"int","value":2},{"name":"zM","type":"int","value":0}],"gid":16,"width":36,"height":60},{"id":187,"x":-180,"y":1860,"visible":true,"properties":[{"name":"layer","type":"int","value":1},{"name":"resource_index","type":"int","value":174},{"name":"u","type":"string","value":"bsc"},{"name":"no","type":"int","value":0},{"name":"zM","type":"int","value":0}],"gid":8,"width":90,"height":60},{"id":188,"x":-90,"y":1800,"visible":true,"properties":[{"name":"layer","type":"int","value":1},{"name":"resource_index","type":"int","value":175},{"name":"u","type":"string","value":"enV1"},{"name":"no","type":"int","value":2},{"name":"zM","type":"int","value":0}],"gid":16,"width":36,"height":60},{"id":189,"x":-270,"y":1980,"visible":true,"properties":[{"name":"layer","type":"int","value":1},{"name":"resource_index","type":"int","value":176},{"name":"u","type":"string","value":"bsc"},{"name":"no","type":"int","value":0},{"name":"zM","type":"int","value":0}],"gid":8,"width":90,"height":60},{"id":190,"x":630,"y":2100,"visible":true,"properties":[{"name":"layer","type":"int","value":1},{"name":"resource_index","type":"int","value":177},{"name":"u","type":"string","value":"bsc"},{"name":"no","type":"int","value":0},{"name":"zM","type":"int","value":0}],"gid":8,"width":90,"height":60},{"id":191,"x":-180,"y":1800,"visible":true,"properties":[{"name":"layer","type":"int","value":1},{"name":"resource_index","type":"int","value":178},{"name":"u","type":"string","value":"bsc"},{"name":"no","type":"int","value":0},{"name":"zM","type":"int","value":0}],"gid":8,"width":90,"height":60},{"id":192,"x":-180,"y":1920,"visible":true,"properties":[{"name":"layer","type":"int","value":1},{"name":"resource_index","type":"int","value":179},{"name":"u","type":"string","value":"bsc"},{"name":"no","type":"int","value":0},{"name":"zM","type":"int","value":0}],"gid":8,"width":90,"height":60},{"id":193,"x":270,"y":1980,"visible":true,"properties":[{"name":"layer","type":"int","value":1},{"name":"resource_index","type":"int","value":180},{"name":"u","type":"string","value":"bsc"},{"name":"no","type":"int","value":0},{"name":"zM","type":"int","value":0}],"gid":8,"width":90,"height":60},{"id":194,"x":180,"y":1980,"visible":true,"properties":[{"name":"layer","type":"int","value":1},{"name":"resource_index","type":"int","value":181},{"name":"u","type":"string","value":"bsc"},{"name":"no","type":"int","value":0},{"name":"zM","type":"int","value":0}],"gid":8,"width":90,"height":60},{"id":195,"x":90,"y":1980,"visible":true,"properties":[{"name":"layer","type":"int","value":1},{"name":"resource_index","type":"int","value":182},{"name":"u","type":"string","value":"bsc"},{"name":"no","type":"int","value":0},{"name":"zM","type":"int","value":0}],"gid":8,"width":90,"height":60},{"id":196,"x":-90,"y":1980,"visible":true,"properties":[{"name":"layer","type":"int","value":1},{"name":"resource_index","type":"int","value":183},{"name":"u","type":"string","value":"bsc"},{"name":"no","type":"int","value":0},{"name":"zM","type":"int","value":0}],"gid":8,"width":90,"height":60},{"id":197,"x":1980,"y":660,"visible":true,"properties":[{"name":"layer","type":"int","value":1},{"name":"resource_index","type":"int","value":184},{"name":"u","type":"string","value":"bsc"},{"name":"no","type":"int","value":0},{"name":"zM","type":"int","value":81}],"gid":8,"width":90,"height":60},{"id":198,"x":1773,"y":720,"visible":true,"properties":[{"name":"layer","type":"int","value":1},{"name":"resource_index","type":"int","value":185},{"name":"u","type":"string","value":"edU"},{"name":"no","type":"int","value":0},{"name":"zM","type":"int","value":81}],"gid":11,"width":54,"height":32},{"id":199,"x":180,"y":1920,"visible":true,"properties":[{"name":"layer","type":"int","value":1},{"name":"resource_index","type":"int","value":186},{"name":"u","type":"string","value":"bsc"},{"name":"no","type":"int","value":0},{"name":"zM","type":"int","value":0}],"gid":8,"width":90,"height":60},{"id":200,"x":180,"y":1860,"visible":true,"properties":[{"name":"layer","type":"int","value":1},{"name":"resource_index","type":"int","value":187},{"name":"u","type":"string","value":"enH0"},{"name":"no","type":"int","value":0},{"name":"zM","type":"int","value":0}],"gid":13,"width":90,"height":56},{"id":201,"x":90,"y":1920,"visible":true,"properties":[{"name":"layer","type":"int","value":1},{"name":"resource_index","type":"int","value":188},{"name":"u","type":"string","value":"bsc"},{"name":"no","type":"int","value":0},{"name":"zM","type":"int","value":0}],"gid":8,"width":90,"height":60},{"id":202,"x":90,"y":1860,"visible":true,"properties":[{"name":"layer","type":"int","value":1},{"name":"resource_index","type":"int","value":189},{"name":"u","type":"string","value":"enH0"},{"name":"no","type":"int","value":0},{"name":"zM","type":"int","value":0}],"gid":13,"width":90,"height":56},{"id":203,"x":0,"y":1920,"visible":true,"properties":[{"name":"layer","type":"int","value":1},{"name":"resource_index","type":"int","value":190},{"name":"u","type":"string","value":"bsc"},{"name":"no","type":"int","value":0},{"name":"zM","type":"int","value":0}],"gid":8,"width":90,"height":60},{"id":204,"x":720,"y":2100,"visible":true,"properties":[{"name":"layer","type":"int","value":1},{"name":"resource_index","type":"int","value":191},{"name":"u","type":"string","value":"bsc"},{"name":"no","type":"int","value":0},{"name":"zM","type":"int","value":0}],"gid":8,"width":90,"height":60},{"id":205,"x":630,"y":2171,"visible":true,"properties":[{"name":"layer","type":"int","value":1},{"name":"resource_index","type":"int","value":192},{"name":"u","type":"string","value":"enH1"},{"name":"no","type":"int","value":1},{"name":"zM","type":"int","value":0}],"gid":9,"width":90,"height":71},{"id":206,"x":-90,"y":1920,"visible":true,"properties":[{"name":"layer","type":"int","value":1},{"name":"resource_index","type":"int","value":193},{"name":"u","type":"string","value":"bsc"},{"name":"no","type":"int","value":0},{"name":"zM","type":"int","value":0}],"gid":8,"width":90,"height":60},{"id":207,"x":-180,"y":1980,"visible":true,"properties":[{"name":"layer","type":"int","value":1},{"name":"resource_index","type":"int","value":194},{"name":"u","type":"string","value":"bsc"},{"name":"no","type":"int","value":0},{"name":"zM","type":"int","value":0}],"gid":8,"width":90,"height":60},{"id":208,"x":0,"y":1980,"visible":true,"properties":[{"name":"layer","type":"int","value":1},{"name":"resource_index","type":"int","value":195},{"name":"u","type":"string","value":"bsc"},{"name":"no","type":"int","value":0},{"name":"zM","type":"int","value":0}],"gid":8,"width":90,"height":60},{"id":209,"x":360,"y":1980,"visible":true,"properties":[{"name":"layer","type":"int","value":1},{"name":"resource_index","type":"int","value":196},{"name":"u","type":"string","value":"bsc"},{"name":"no","type":"int","value":0},{"name":"zM","type":"int","value":0}],"gid":8,"width":90,"height":60},{"id":210,"x":360,"y":1920,"visible":true,"properties":[{"name":"layer","type":"int","value":1},{"name":"resource_index","type":"int","value":197},{"name":"u","type":"string","value":"enH0"},{"name":"no","type":"int","value":1},{"name":"zM","type":"int","value":0}],"gid":20,"width":90,"height":71},{"id":211,"x":270,"y":1920,"visible":true,"properties":[{"name":"layer","type":"int","value":1},{"name":"resource_index","type":"int","value":198},{"name":"u","type":"string","value":"slRU"},{"name":"no","type":"int","value":0},{"name":"zM","type":"int","value":0}],"gid":22,"width":90,"height":128},{"id":212,"x":-360,"y":1980,"visible":true,"properties":[{"name":"layer","type":"int","value":1},{"name":"resource_index","type":"int","value":199},{"name":"u","type":"string","value":"bsc"},{"name":"no","type":"int","value":0},{"name":"zM","type":"int","value":0}],"gid":8,"width":90,"height":60},{"id":213,"x":-270,"y":1800,"visible":true,"properties":[{"name":"layer","type":"int","value":1},{"name":"resource_index","type":"int","value":200},{"name":"u","type":"string","value":"bsc"},{"name":"no","type":"int","value":0},{"name":"zM","type":"int","value":0}],"gid":8,"width":90,"height":60},{"id":214,"x":-360,"y":1860,"visible":true,"properties":[{"name":"layer","type":"int","value":1},{"name":"resource_index","type":"int","value":201},{"name":"u","type":"string","value":"bsc"},{"name":"no","type":"int","value":0},{"name":"zM","type":"int","value":0}],"gid":8,"width":90,"height":60},{"id":215,"x":-270,"y":1920,"visible":true,"properties":[{"name":"layer","type":"int","value":1},{"name":"resource_index","type":"int","value":202},{"name":"u","type":"string","value":"bsc"},{"name":"no","type":"int","value":0},{"name":"zM","type":"int","value":0}],"gid":8,"width":90,"height":60},{"id":216,"x":-450,"y":1920,"visible":true,"properties":[{"name":"layer","type":"int","value":1},{"name":"resource_index","type":"int","value":203},{"name":"u","type":"string","value":"bsc"},{"name":"no","type":"int","value":0},{"name":"zM","type":"int","value":0}],"gid":8,"width":90,"height":60},{"id":217,"x":-450,"y":1980,"visible":true,"properties":[{"name":"layer","type":"int","value":1},{"name":"resource_index","type":"int","value":204},{"name":"u","type":"string","value":"bsc"},{"name":"no","type":"int","value":0},{"name":"zM","type":"int","value":0}],"gid":8,"width":90,"height":60},{"id":218,"x":-360,"y":1800,"visible":true,"properties":[{"name":"layer","type":"int","value":1},{"name":"resource_index","type":"int","value":205},{"name":"u","type":"string","value":"bsc"},{"name":"no","type":"int","value":0},{"name":"zM","type":"int","value":0}],"gid":8,"width":90,"height":60},{"id":219,"x":-270,"y":1860,"visible":true,"properties":[{"name":"layer","type":"int","value":1},{"name":"resource_index","type":"int","value":206},{"name":"u","type":"string","value":"bsc"},{"name":"no","type":"int","value":0},{"name":"zM","type":"int","value":0}],"gid":8,"width":90,"height":60},{"id":220,"x":-569,"y":1740,"visible":true,"properties":[{"name":"layer","type":"int","value":1},{"name":"resource_index","type":"int","value":207},{"name":"u","type":"string","value":"enV0"},{"name":"no","type":"int","value":3},{"name":"zM","type":"int","value":0}],"gid":14,"width":29,"height":60},{"id":221,"x":-450,"y":1860,"visible":true,"properties":[{"name":"layer","type":"int","value":1},{"name":"resource_index","type":"int","value":208},{"name":"u","type":"string","value":"bsc"},{"name":"no","type":"int","value":0},{"name":"zM","type":"int","value":0}],"gid":8,"width":90,"height":60},{"id":222,"x":-576,"y":1800,"visible":true,"properties":[{"name":"layer","type":"int","value":1},{"name":"resource_index","type":"int","value":209},{"name":"u","type":"string","value":"enV0"},{"name":"no","type":"int","value":0},{"name":"zM","type":"int","value":0}],"gid":15,"width":36,"height":60},{"id":223,"x":-540,"y":1860,"visible":true,"properties":[{"name":"layer","type":"int","value":1},{"name":"resource_index","type":"int","value":210},{"name":"u","type":"string","value":"bsc"},{"name":"no","type":"int","value":0},{"name":"zM","type":"int","value":0}],"gid":8,"width":90,"height":60},{"id":224,"x":-581,"y":1860,"visible":true,"properties":[{"name":"layer","type":"int","value":1},{"name":"resource_index","type":"int","value":211},{"name":"u","type":"string","value":"enV0"},{"name":"no","type":"int","value":1},{"name":"zM","type":"int","value":0}],"gid":21,"width":41,"height":60},{"id":225,"x":-540,"y":1920,"visible":true,"properties":[{"name":"layer","type":"int","value":1},{"name":"resource_index","type":"int","value":212},{"name":"u","type":"string","value":"bsc"},{"name":"no","type":"int","value":0},{"name":"zM","type":"int","value":0}],"gid":8,"width":90,"height":60},{"id":226,"x":-573,"y":1920,"visible":true,"properties":[{"name":"layer","type":"int","value":1},{"name":"resource_index","type":"int","value":213},{"name":"u","type":"string","value":"enV0"},{"name":"no","type":"int","value":2},{"name":"zM","type":"int","value":0}],"gid":19,"width":33,"height":60},{"id":227,"x":-573,"y":1980,"visible":true,"properties":[{"name":"layer","type":"int","value":1},{"name":"resource_index","type":"int","value":214},{"name":"u","type":"string","value":"enV0"},{"name":"no","type":"int","value":2},{"name":"zM","type":"int","value":0}],"gid":19,"width":33,"height":60},{"id":228,"x":-540,"y":1980,"visible":true,"properties":[{"name":"layer","type":"int","value":1},{"name":"resource_index","type":"int","value":215},{"name":"u","type":"string","value":"bsc"},{"name":"no","type":"int","value":0},{"name":"zM","type":"int","value":0}],"gid":8,"width":90,"height":60},{"id":229,"x":-450,"y":1800,"visible":true,"properties":[{"name":"layer","type":"int","value":1},{"name":"resource_index","type":"int","value":216},{"name":"u","type":"string","value":"bsc"},{"name":"no","type":"int","value":0},{"name":"zM","type":"int","value":0}],"gid":8,"width":90,"height":60},{"id":230,"x":-360,"y":1920,"visible":true,"properties":[{"name":"layer","type":"int","value":1},{"name":"resource_index","type":"int","value":217},{"name":"u","type":"string","value":"bsc"},{"name":"no","type":"int","value":0},{"name":"zM","type":"int","value":0}],"gid":8,"width":90,"height":60},{"id":231,"x":-450,"y":2100,"visible":true,"properties":[{"name":"layer","type":"int","value":1},{"name":"resource_index","type":"int","value":218},{"name":"u","type":"string","value":"bsc"},{"name":"no","type":"int","value":0},{"name":"zM","type":"int","value":0}],"gid":8,"width":90,"height":60},{"id":232,"x":-540,"y":2100,"visible":true,"properties":[{"name":"layer","type":"int","value":1},{"name":"resource_index","type":"int","value":219},{"name":"u","type":"string","value":"bsc"},{"name":"no","type":"int","value":0},{"name":"zM","type":"int","value":0}],"gid":8,"width":90,"height":60},{"id":233,"x":-569,"y":2040,"visible":true,"properties":[{"name":"layer","type":"int","value":1},{"name":"resource_index","type":"int","value":220},{"name":"u","type":"string","value":"enV0"},{"name":"no","type":"int","value":3},{"name":"zM","type":"int","value":0}],"gid":14,"width":29,"height":60},{"id":234,"x":-540,"y":2171,"visible":true,"properties":[{"name":"layer","type":"int","value":1},{"name":"resource_index","type":"int","value":221},{"name":"u","type":"string","value":"enH1"},{"name":"no","type":"int","value":1},{"name":"zM","type":"int","value":0}],"gid":9,"width":90,"height":71},{"id":235,"x":-581,"y":2100,"visible":true,"properties":[{"name":"layer","type":"int","value":1},{"name":"resource_index","type":"int","value":222},{"name":"u","type":"string","value":"enV0"},{"name":"no","type":"int","value":1},{"name":"zM","type":"int","value":0}],"gid":21,"width":41,"height":60},{"id":236,"x":-567,"y":2132,"visible":true,"properties":[{"name":"layer","type":"int","value":1},{"name":"resource_index","type":"int","value":223},{"name":"u","type":"string","value":"edD"},{"name":"no","type":"int","value":0},{"name":"zM","type":"int","value":0}],"gid":17,"width":54,"height":32},{"id":237,"x":360,"y":2171,"visible":true,"properties":[{"name":"layer","type":"int","value":1},{"name":"resource_index","type":"int","value":224},{"name":"u","type":"string","value":"enH1"},{"name":"no","type":"int","value":1},{"name":"zM","type":"int","value":0}],"gid":9,"width":90,"height":71},{"id":238,"x":-450,"y":2171,"visible":true,"properties":[{"name":"layer","type":"int","value":1},{"name":"resource_index","type":"int","value":225},{"name":"u","type":"string","value":"enH1"},{"name":"no","type":"int","value":1},{"name":"zM","type":"int","value":0}],"gid":9,"width":90,"height":71},{"id":239,"x":-540,"y":2040,"visible":true,"properties":[{"name":"layer","type":"int","value":1},{"name":"resource_index","type":"int","value":226},{"name":"u","type":"string","value":"bsc"},{"name":"no","type":"int","value":0},{"name":"zM","type":"int","value":0}],"gid":8,"width":90,"height":60},{"id":240,"x":-360,"y":2040,"visible":true,"properties":[{"name":"layer","type":"int","value":1},{"name":"resource_index","type":"int","value":227},{"name":"u","type":"string","value":"bsc"},{"name":"no","type":"int","value":0},{"name":"zM","type":"int","value":0}],"gid":8,"width":90,"height":60},{"id":241,"x":-450,"y":2040,"visible":true,"properties":[{"name":"layer","type":"int","value":1},{"name":"resource_index","type":"int","value":228},{"name":"u","type":"string","value":"bsc"},{"name":"no","type":"int","value":0},{"name":"zM","type":"int","value":0}],"gid":8,"width":90,"height":60},{"id":242,"x":-360,"y":2156,"visible":true,"properties":[{"name":"layer","type":"int","value":1},{"name":"resource_index","type":"int","value":229},{"name":"u","type":"string","value":"enH1"},{"name":"no","type":"int","value":0},{"name":"zM","type":"int","value":0}],"gid":10,"width":90,"height":56},{"id":243,"x":-90,"y":2040,"visible":true,"properties":[{"name":"layer","type":"int","value":1},{"name":"resource_index","type":"int","value":230},{"name":"u","type":"string","value":"bsc"},{"name":"no","type":"int","value":0},{"name":"zM","type":"int","value":0}],"gid":8,"width":90,"height":60},{"id":244,"x":180,"y":2040,"visible":true,"properties":[{"name":"layer","type":"int","value":1},{"name":"resource_index","type":"int","value":231},{"name":"u","type":"string","value":"bsc"},{"name":"no","type":"int","value":0},{"name":"zM","type":"int","value":0}],"gid":8,"width":90,"height":60},{"id":245,"x":-270,"y":2156,"visible":true,"properties":[{"name":"layer","type":"int","value":1},{"name":"resource_index","type":"int","value":232},{"name":"u","type":"string","value":"enH1"},{"name":"no","type":"int","value":0},{"name":"zM","type":"int","value":0}],"gid":10,"width":90,"height":56},{"id":246,"x":-90,"y":2100,"visible":true,"properties":[{"name":"layer","type":"int","value":1},{"name":"resource_index","type":"int","value":233},{"name":"u","type":"string","value":"bsc"},{"name":"no","type":"int","value":0},{"name":"zM","type":"int","value":0}],"gid":8,"width":90,"height":60},{"id":247,"x":90,"y":2040,"visible":true,"properties":[{"name":"layer","type":"int","value":1},{"name":"resource_index","type":"int","value":234},{"name":"u","type":"string","value":"bsc"},{"name":"no","type":"int","value":0},{"name":"zM","type":"int","value":0}],"gid":8,"width":90,"height":60},{"id":248,"x":-180,"y":2040,"visible":true,"properties":[{"name":"layer","type":"int","value":1},{"name":"resource_index","type":"int","value":235},{"name":"u","type":"string","value":"bsc"},{"name":"no","type":"int","value":0},{"name":"zM","type":"int","value":0}],"gid":8,"width":90,"height":60},{"id":249,"x":270,"y":2040,"visible":true,"properties":[{"name":"layer","type":"int","value":1},{"name":"resource_index","type":"int","value":236},{"name":"u","type":"string","value":"bsc"},{"name":"no","type":"int","value":0},{"name":"zM","type":"int","value":0}],"gid":8,"width":90,"height":60},{"id":250,"x":810,"y":1980,"visible":true,"properties":[{"name":"layer","type":"int","value":1},{"name":"resource_index","type":"int","value":237},{"name":"u","type":"string","value":"bsc"},{"name":"no","type":"int","value":0},{"name":"zM","type":"int","value":0}],"gid":8,"width":90,"height":60},{"id":251,"x":-180,"y":2100,"visible":true,"properties":[{"name":"layer","type":"int","value":1},{"name":"resource_index","type":"int","value":238},{"name":"u","type":"string","value":"bsc"},{"name":"no","type":"int","value":0},{"name":"zM","type":"int","value":0}],"gid":8,"width":90,"height":60},{"id":252,"x":-270,"y":2040,"visible":true,"properties":[{"name":"layer","type":"int","value":1},{"name":"resource_index","type":"int","value":239},{"name":"u","type":"string","value":"bsc"},{"name":"no","type":"int","value":0},{"name":"zM","type":"int","value":0}],"gid":8,"width":90,"height":60},{"id":253,"x":-270,"y":2100,"visible":true,"properties":[{"name":"layer","type":"int","value":1},{"name":"resource_index","type":"int","value":240},{"name":"u","type":"string","value":"bsc"},{"name":"no","type":"int","value":0},{"name":"zM","type":"int","value":0}],"gid":8,"width":90,"height":60},{"id":254,"x":-90,"y":2156,"visible":true,"properties":[{"name":"layer","type":"int","value":1},{"name":"resource_index","type":"int","value":241},{"name":"u","type":"string","value":"enH1"},{"name":"no","type":"int","value":0},{"name":"zM","type":"int","value":0}],"gid":10,"width":90,"height":56},{"id":255,"x":360,"y":2040,"visible":true,"properties":[{"name":"layer","type":"int","value":1},{"name":"resource_index","type":"int","value":242},{"name":"u","type":"string","value":"bsc"},{"name":"no","type":"int","value":0},{"name":"zM","type":"int","value":0}],"gid":8,"width":90,"height":60},{"id":256,"x":0,"y":2156,"visible":true,"properties":[{"name":"layer","type":"int","value":1},{"name":"resource_index","type":"int","value":243},{"name":"u","type":"string","value":"enH1"},{"name":"no","type":"int","value":0},{"name":"zM","type":"int","value":0}],"gid":10,"width":90,"height":56},{"id":257,"x":-180,"y":2171,"visible":true,"properties":[{"name":"layer","type":"int","value":1},{"name":"resource_index","type":"int","value":244},{"name":"u","type":"string","value":"enH1"},{"name":"no","type":"int","value":1},{"name":"zM","type":"int","value":0}],"gid":9,"width":90,"height":71},{"id":258,"x":270,"y":2156,"visible":true,"properties":[{"name":"layer","type":"int","value":1},{"name":"resource_index","type":"int","value":245},{"name":"u","type":"string","value":"enH1"},{"name":"no","type":"int","value":0},{"name":"zM","type":"int","value":0}],"gid":10,"width":90,"height":56},{"id":259,"x":0,"y":2100,"visible":true,"properties":[{"name":"layer","type":"int","value":1},{"name":"resource_index","type":"int","value":246},{"name":"u","type":"string","value":"bsc"},{"name":"no","type":"int","value":0},{"name":"zM","type":"int","value":0}],"gid":8,"width":90,"height":60},{"id":260,"x":90,"y":2100,"visible":true,"properties":[{"name":"layer","type":"int","value":1},{"name":"resource_index","type":"int","value":247},{"name":"u","type":"string","value":"bsc"},{"name":"no","type":"int","value":0},{"name":"zM","type":"int","value":0}],"gid":8,"width":90,"height":60},{"id":261,"x":270,"y":2100,"visible":true,"properties":[{"name":"layer","type":"int","value":1},{"name":"resource_index","type":"int","value":248},{"name":"u","type":"string","value":"bsc"},{"name":"no","type":"int","value":0},{"name":"zM","type":"int","value":0}],"gid":8,"width":90,"height":60},{"id":262,"x":450,"y":1980,"visible":true,"properties":[{"name":"layer","type":"int","value":1},{"name":"resource_index","type":"int","value":249},{"name":"u","type":"string","value":"bsc"},{"name":"no","type":"int","value":0},{"name":"zM","type":"int","value":0}],"gid":8,"width":90,"height":60},{"id":263,"x":-360,"y":2100,"visible":true,"properties":[{"name":"layer","type":"int","value":1},{"name":"resource_index","type":"int","value":250},{"name":"u","type":"string","value":"bsc"},{"name":"no","type":"int","value":0},{"name":"zM","type":"int","value":0}],"gid":8,"width":90,"height":60},{"id":264,"x":720,"y":2040,"visible":true,"properties":[{"name":"layer","type":"int","value":1},{"name":"resource_index","type":"int","value":251},{"name":"u","type":"string","value":"bsc"},{"name":"no","type":"int","value":0},{"name":"zM","type":"int","value":0}],"gid":8,"width":90,"height":60},{"id":265,"x":0,"y":2040,"visible":true,"properties":[{"name":"layer","type":"int","value":1},{"name":"resource_index","type":"int","value":252},{"name":"u","type":"string","value":"bsc"},{"name":"no","type":"int","value":0},{"name":"zM","type":"int","value":0}],"gid":8,"width":90,"height":60},{"id":266,"x":990,"y":2156,"visible":true,"properties":[{"name":"layer","type":"int","value":1},{"name":"resource_index","type":"int","value":253},{"name":"u","type":"string","value":"enH1"},{"name":"no","type":"int","value":0},{"name":"zM","type":"int","value":0}],"gid":10,"width":90,"height":56},{"id":267,"x":360,"y":2100,"visible":true,"properties":[{"name":"layer","type":"int","value":1},{"name":"resource_index","type":"int","value":254},{"name":"u","type":"string","value":"bsc"},{"name":"no","type":"int","value":0},{"name":"zM","type":"int","value":0}],"gid":8,"width":90,"height":60},{"id":268,"x":180,"y":2100,"visible":true,"properties":[{"name":"layer","type":"int","value":1},{"name":"resource_index","type":"int","value":255},{"name":"u","type":"string","value":"bsc"},{"name":"no","type":"int","value":0},{"name":"zM","type":"int","value":0}],"gid":8,"width":90,"height":60},{"id":269,"x":90,"y":2156,"visible":true,"properties":[{"name":"layer","type":"int","value":1},{"name":"resource_index","type":"int","value":256},{"name":"u","type":"string","value":"enH1"},{"name":"no","type":"int","value":0},{"name":"zM","type":"int","value":0}],"gid":10,"width":90,"height":56},{"id":270,"x":180,"y":2156,"visible":true,"properties":[{"name":"layer","type":"int","value":1},{"name":"resource_index","type":"int","value":257},{"name":"u","type":"string","value":"enH1"},{"name":"no","type":"int","value":0},{"name":"zM","type":"int","value":0}],"gid":10,"width":90,"height":56},{"id":271,"x":540,"y":2100,"visible":true,"properties":[{"name":"layer","type":"int","value":1},{"name":"resource_index","type":"int","value":258},{"name":"u","type":"string","value":"bsc"},{"name":"no","type":"int","value":0},{"name":"zM","type":"int","value":0}],"gid":8,"width":90,"height":60},{"id":272,"x":720,"y":2156,"visible":true,"properties":[{"name":"layer","type":"int","value":1},{"name":"resource_index","type":"int","value":259},{"name":"u","type":"string","value":"enH1"},{"name":"no","type":"int","value":0},{"name":"zM","type":"int","value":0}],"gid":10,"width":90,"height":56},{"id":273,"x":450,"y":2171,"visible":true,"properties":[{"name":"layer","type":"int","value":1},{"name":"resource_index","type":"int","value":260},{"name":"u","type":"string","value":"enH1"},{"name":"no","type":"int","value":1},{"name":"zM","type":"int","value":0}],"gid":9,"width":90,"height":71},{"id":274,"x":450,"y":2100,"visible":true,"properties":[{"name":"layer","type":"int","value":1},{"name":"resource_index","type":"int","value":261},{"name":"u","type":"string","value":"bsc"},{"name":"no","type":"int","value":0},{"name":"zM","type":"int","value":0}],"gid":8,"width":90,"height":60},{"id":275,"x":810,"y":2171,"visible":true,"properties":[{"name":"layer","type":"int","value":1},{"name":"resource_index","type":"int","value":262},{"name":"u","type":"string","value":"enH1"},{"name":"no","type":"int","value":1},{"name":"zM","type":"int","value":0}],"gid":9,"width":90,"height":71},{"id":276,"x":540,"y":1980,"visible":true,"properties":[{"name":"layer","type":"int","value":1},{"name":"resource_index","type":"int","value":263},{"name":"u","type":"string","value":"bsc"},{"name":"no","type":"int","value":0},{"name":"zM","type":"int","value":0}],"gid":8,"width":90,"height":60},{"id":277,"x":540,"y":1920,"visible":true,"properties":[{"name":"layer","type":"int","value":1},{"name":"resource_index","type":"int","value":264},{"name":"u","type":"string","value":"enH0"},{"name":"no","type":"int","value":0},{"name":"zM","type":"int","value":0}],"gid":13,"width":90,"height":56},{"id":278,"x":450,"y":1920,"visible":true,"properties":[{"name":"layer","type":"int","value":1},{"name":"resource_index","type":"int","value":265},{"name":"u","type":"string","value":"enH0"},{"name":"no","type":"int","value":1},{"name":"zM","type":"int","value":0}],"gid":20,"width":90,"height":71},{"id":279,"x":720,"y":1980,"visible":true,"properties":[{"name":"layer","type":"int","value":1},{"name":"resource_index","type":"int","value":266},{"name":"u","type":"string","value":"bsc"},{"name":"no","type":"int","value":0},{"name":"zM","type":"int","value":0}],"gid":8,"width":90,"height":60},{"id":280,"x":810,"y":1920,"visible":true,"properties":[{"name":"layer","type":"int","value":1},{"name":"resource_index","type":"int","value":267},{"name":"u","type":"string","value":"bsc"},{"name":"no","type":"int","value":0},{"name":"zM","type":"int","value":0}],"gid":8,"width":90,"height":60},{"id":281,"x":630,"y":1980,"visible":true,"properties":[{"name":"layer","type":"int","value":1},{"name":"resource_index","type":"int","value":268},{"name":"u","type":"string","value":"bsc"},{"name":"no","type":"int","value":0},{"name":"zM","type":"int","value":0}],"gid":8,"width":90,"height":60},{"id":282,"x":630,"y":1920,"visible":true,"properties":[{"name":"layer","type":"int","value":1},{"name":"resource_index","type":"int","value":269},{"name":"u","type":"string","value":"slLU"},{"name":"no","type":"int","value":0},{"name":"zM","type":"int","value":0}],"gid":26,"width":90,"height":128},{"id":283,"x":990,"y":2100,"visible":true,"properties":[{"name":"layer","type":"int","value":1},{"name":"resource_index","type":"int","value":270},{"name":"u","type":"string","value":"bsc"},{"name":"no","type":"int","value":0},{"name":"zM","type":"int","value":0}],"gid":8,"width":90,"height":60},{"id":284,"x":540,"y":2040,"visible":true,"properties":[{"name":"layer","type":"int","value":1},{"name":"resource_index","type":"int","value":271},{"name":"u","type":"string","value":"bsc"},{"name":"no","type":"int","value":0},{"name":"zM","type":"int","value":0}],"gid":8,"width":90,"height":60},{"id":285,"x":450,"y":2040,"visible":true,"properties":[{"name":"layer","type":"int","value":1},{"name":"resource_index","type":"int","value":272},{"name":"u","type":"string","value":"bsc"},{"name":"no","type":"int","value":0},{"name":"zM","type":"int","value":0}],"gid":8,"width":90,"height":60},{"id":286,"x":630,"y":2040,"visible":true,"properties":[{"name":"layer","type":"int","value":1},{"name":"resource_index","type":"int","value":273},{"name":"u","type":"string","value":"bsc"},{"name":"no","type":"int","value":0},{"name":"zM","type":"int","value":0}],"gid":8,"width":90,"height":60},{"id":287,"x":990,"y":2040,"visible":true,"properties":[{"name":"layer","type":"int","value":1},{"name":"resource_index","type":"int","value":274},{"name":"u","type":"string","value":"bsc"},{"name":"no","type":"int","value":0},{"name":"zM","type":"int","value":0}],"gid":8,"width":90,"height":60},{"id":288,"x":540,"y":2171,"visible":true,"properties":[{"name":"layer","type":"int","value":1},{"name":"resource_index","type":"int","value":275},{"name":"u","type":"string","value":"enH1"},{"name":"no","type":"int","value":1},{"name":"zM","type":"int","value":0}],"gid":9,"width":90,"height":71},{"id":289,"x":2070,"y":600,"visible":true,"properties":[{"name":"layer","type":"int","value":1},{"name":"resource_index","type":"int","value":276},{"name":"u","type":"string","value":"bsc"},{"name":"no","type":"int","value":0},{"name":"zM","type":"int","value":81}],"gid":8,"width":90,"height":60},{"id":290,"x":-90,"y":1860,"visible":true,"properties":[{"name":"layer","type":"int","value":1},{"name":"resource_index","type":"int","value":277},{"name":"u","type":"string","value":"slRU"},{"name":"no","type":"int","value":0},{"name":"zM","type":"int","value":0}],"gid":22,"width":90,"height":128},{"id":291,"x":0,"y":1860,"visible":true,"properties":[{"name":"layer","type":"int","value":1},{"name":"resource_index","type":"int","value":278},{"name":"u","type":"string","value":"enH0"},{"name":"no","type":"int","value":0},{"name":"zM","type":"int","value":0}],"gid":13,"width":90,"height":56},{"id":292,"x":900,"y":1980,"visible":true,"properties":[{"name":"layer","type":"int","value":1},{"name":"resource_index","type":"int","value":279},{"name":"u","type":"string","value":"bsc"},{"name":"no","type":"int","value":0},{"name":"zM","type":"int","value":0}],"gid":8,"width":90,"height":60},{"id":293,"x":1170,"y":1860,"visible":true,"properties":[{"name":"layer","type":"int","value":1},{"name":"resource_index","type":"int","value":280},{"name":"u","type":"string","value":"enV1"},{"name":"no","type":"int","value":1},{"name":"zM","type":"int","value":0}],"gid":24,"width":29,"height":60},{"id":294,"x":990,"y":1980,"visible":true,"properties":[{"name":"layer","type":"int","value":1},{"name":"resource_index","type":"int","value":281},{"name":"u","type":"string","value":"bsc"},{"name":"no","type":"int","value":0},{"name":"zM","type":"int","value":0}],"gid":8,"width":90,"height":60},{"id":295,"x":900,"y":1920,"visible":true,"properties":[{"name":"layer","type":"int","value":1},{"name":"resource_index","type":"int","value":282},{"name":"u","type":"string","value":"bsc"},{"name":"no","type":"int","value":0},{"name":"zM","type":"int","value":0}],"gid":8,"width":90,"height":60},{"id":296,"x":900,"y":1740,"visible":true,"properties":[{"name":"layer","type":"int","value":1},{"name":"resource_index","type":"int","value":283},{"name":"u","type":"string","value":"bsc"},{"name":"no","type":"int","value":0},{"name":"zM","type":"int","value":0}],"gid":8,"width":90,"height":60},{"id":297,"x":1080,"y":1980,"visible":true,"properties":[{"name":"layer","type":"int","value":1},{"name":"resource_index","type":"int","value":284},{"name":"u","type":"string","value":"bsc"},{"name":"no","type":"int","value":0},{"name":"zM","type":"int","value":0}],"gid":8,"width":90,"height":60},{"id":298,"x":1080,"y":1920,"visible":true,"properties":[{"name":"layer","type":"int","value":1},{"name":"resource_index","type":"int","value":285},{"name":"u","type":"string","value":"bsc"},{"name":"no","type":"int","value":0},{"name":"zM","type":"int","value":0}],"gid":8,"width":90,"height":60},{"id":299,"x":990,"y":1920,"visible":true,"properties":[{"name":"layer","type":"int","value":1},{"name":"resource_index","type":"int","value":286},{"name":"u","type":"string","value":"bsc"},{"name":"no","type":"int","value":0},{"name":"zM","type":"int","value":0}],"gid":8,"width":90,"height":60},{"id":300,"x":1260,"y":1920,"visible":true,"properties":[{"name":"layer","type":"int","value":1},{"name":"resource_index","type":"int","value":287},{"name":"u","type":"string","value":"enH0"},{"name":"no","type":"int","value":1},{"name":"zM","type":"int","value":0}],"gid":20,"width":90,"height":71},{"id":301,"x":1080,"y":2100,"visible":true,"properties":[{"name":"layer","type":"int","value":1},{"name":"resource_index","type":"int","value":288},{"name":"u","type":"string","value":"bsc"},{"name":"no","type":"int","value":0},{"name":"zM","type":"int","value":0}],"gid":8,"width":90,"height":60},{"id":302,"x":1080,"y":2040,"visible":true,"properties":[{"name":"layer","type":"int","value":1},{"name":"resource_index","type":"int","value":289},{"name":"u","type":"string","value":"bsc"},{"name":"no","type":"int","value":0},{"name":"zM","type":"int","value":0}],"gid":8,"width":90,"height":60},{"id":303,"x":900,"y":2100,"visible":true,"properties":[{"name":"layer","type":"int","value":1},{"name":"resource_index","type":"int","value":290},{"name":"u","type":"string","value":"bsc"},{"name":"no","type":"int","value":0},{"name":"zM","type":"int","value":0}],"gid":8,"width":90,"height":60},{"id":304,"x":900,"y":2040,"visible":true,"properties":[{"name":"layer","type":"int","value":1},{"name":"resource_index","type":"int","value":291},{"name":"u","type":"string","value":"bsc"},{"name":"no","type":"int","value":0},{"name":"zM","type":"int","value":0}],"gid":8,"width":90,"height":60},{"id":305,"x":1170,"y":2156,"visible":true,"properties":[{"name":"layer","type":"int","value":1},{"name":"resource_index","type":"int","value":292},{"name":"u","type":"string","value":"enH1"},{"name":"no","type":"int","value":0},{"name":"zM","type":"int","value":0}],"gid":10,"width":90,"height":56},{"id":306,"x":810,"y":2040,"visible":true,"properties":[{"name":"layer","type":"int","value":1},{"name":"resource_index","type":"int","value":293},{"name":"u","type":"string","value":"bsc"},{"name":"no","type":"int","value":0},{"name":"zM","type":"int","value":0}],"gid":8,"width":90,"height":60},{"id":307,"x":810,"y":2100,"visible":true,"properties":[{"name":"layer","type":"int","value":1},{"name":"resource_index","type":"int","value":294},{"name":"u","type":"string","value":"bsc"},{"name":"no","type":"int","value":0},{"name":"zM","type":"int","value":0}],"gid":8,"width":90,"height":60},{"id":308,"x":1080,"y":2156,"visible":true,"properties":[{"name":"layer","type":"int","value":1},{"name":"resource_index","type":"int","value":295},{"name":"u","type":"string","value":"enH1"},{"name":"no","type":"int","value":0},{"name":"zM","type":"int","value":0}],"gid":10,"width":90,"height":56},{"id":309,"x":900,"y":2156,"visible":true,"properties":[{"name":"layer","type":"int","value":1},{"name":"resource_index","type":"int","value":296},{"name":"u","type":"string","value":"enH1"},{"name":"no","type":"int","value":0},{"name":"zM","type":"int","value":0}],"gid":10,"width":90,"height":56},{"id":310,"x":1170,"y":2040,"visible":true,"properties":[{"name":"layer","type":"int","value":1},{"name":"resource_index","type":"int","value":297},{"name":"u","type":"string","value":"bsc"},{"name":"no","type":"int","value":0},{"name":"zM","type":"int","value":0}],"gid":8,"width":90,"height":60},{"id":311,"x":1170,"y":2100,"visible":true,"properties":[{"name":"layer","type":"int","value":1},{"name":"resource_index","type":"int","value":298},{"name":"u","type":"string","value":"bsc"},{"name":"no","type":"int","value":0},{"name":"zM","type":"int","value":0}],"gid":8,"width":90,"height":60},{"id":312,"x":679,"y":1860,"visible":true,"properties":[{"name":"layer","type":"int","value":1},{"name":"resource_index","type":"int","value":299},{"name":"u","type":"string","value":"enV0"},{"name":"no","type":"int","value":1},{"name":"zM","type":"int","value":0}],"gid":21,"width":41,"height":60},{"id":313,"x":720,"y":1920,"visible":true,"properties":[{"name":"layer","type":"int","value":1},{"name":"resource_index","type":"int","value":300},{"name":"u","type":"string","value":"bsc"},{"name":"no","type":"int","value":0},{"name":"zM","type":"int","value":0}],"gid":8,"width":90,"height":60},{"id":314,"x":684,"y":1800,"visible":true,"properties":[{"name":"layer","type":"int","value":1},{"name":"resource_index","type":"int","value":301},{"name":"u","type":"string","value":"enV0"},{"name":"no","type":"int","value":0},{"name":"zM","type":"int","value":0}],"gid":15,"width":36,"height":60},{"id":315,"x":720,"y":1860,"visible":true,"properties":[{"name":"layer","type":"int","value":1},{"name":"resource_index","type":"int","value":302},{"name":"u","type":"string","value":"bsc"},{"name":"no","type":"int","value":0},{"name":"zM","type":"int","value":0}],"gid":8,"width":90,"height":60},{"id":316,"x":691,"y":1740,"visible":true,"properties":[{"name":"layer","type":"int","value":1},{"name":"resource_index","type":"int","value":303},{"name":"u","type":"string","value":"enV0"},{"name":"no","type":"int","value":3},{"name":"zM","type":"int","value":0}],"gid":14,"width":29,"height":60},{"id":317,"x":810,"y":1860,"visible":true,"properties":[{"name":"layer","type":"int","value":1},{"name":"resource_index","type":"int","value":304},{"name":"u","type":"string","value":"bsc"},{"name":"no","type":"int","value":0},{"name":"zM","type":"int","value":0}],"gid":8,"width":90,"height":60},{"id":318,"x":687,"y":1680,"visible":true,"properties":[{"name":"layer","type":"int","value":1},{"name":"resource_index","type":"int","value":305},{"name":"u","type":"string","value":"enV0"},{"name":"no","type":"int","value":2},{"name":"zM","type":"int","value":0}],"gid":19,"width":33,"height":60},{"id":319,"x":720,"y":1800,"visible":true,"properties":[{"name":"layer","type":"int","value":1},{"name":"resource_index","type":"int","value":306},{"name":"u","type":"string","value":"bsc"},{"name":"no","type":"int","value":0},{"name":"zM","type":"int","value":0}],"gid":8,"width":90,"height":60},{"id":320,"x":691,"y":1500,"visible":true,"properties":[{"name":"layer","type":"int","value":1},{"name":"resource_index","type":"int","value":307},{"name":"u","type":"string","value":"enV0"},{"name":"no","type":"int","value":3},{"name":"zM","type":"int","value":0}],"gid":14,"width":29,"height":60},{"id":321,"x":810,"y":1620,"visible":true,"properties":[{"name":"layer","type":"int","value":1},{"name":"resource_index","type":"int","value":308},{"name":"u","type":"string","value":"bsc"},{"name":"no","type":"int","value":0},{"name":"zM","type":"int","value":0}],"gid":8,"width":90,"height":60},{"id":322,"x":684,"y":1560,"visible":true,"properties":[{"name":"layer","type":"int","value":1},{"name":"resource_index","type":"int","value":309},{"name":"u","type":"string","value":"enV0"},{"name":"no","type":"int","value":0},{"name":"zM","type":"int","value":0}],"gid":15,"width":36,"height":60},{"id":323,"x":720,"y":1680,"visible":true,"properties":[{"name":"layer","type":"int","value":1},{"name":"resource_index","type":"int","value":310},{"name":"u","type":"string","value":"bsc"},{"name":"no","type":"int","value":0},{"name":"zM","type":"int","value":0}],"gid":8,"width":90,"height":60},{"id":324,"x":687,"y":1620,"visible":true,"properties":[{"name":"layer","type":"int","value":1},{"name":"resource_index","type":"int","value":311},{"name":"u","type":"string","value":"enV0"},{"name":"no","type":"int","value":2},{"name":"zM","type":"int","value":0}],"gid":19,"width":33,"height":60},{"id":325,"x":720,"y":1740,"visible":true,"properties":[{"name":"layer","type":"int","value":1},{"name":"resource_index","type":"int","value":312},{"name":"u","type":"string","value":"bsc"},{"name":"no","type":"int","value":0},{"name":"zM","type":"int","value":0}],"gid":8,"width":90,"height":60},{"id":326,"x":2250,"y":600,"visible":true,"properties":[{"name":"layer","type":"int","value":1},{"name":"resource_index","type":"int","value":313},{"name":"u","type":"string","value":"bsc"},{"name":"no","type":"int","value":0},{"name":"zM","type":"int","value":81}],"gid":8,"width":90,"height":60},{"id":327,"x":720,"y":1260,"visible":true,"properties":[{"name":"layer","type":"int","value":1},{"name":"resource_index","type":"int","value":314},{"name":"u","type":"string","value":"slLU"},{"name":"no","type":"int","value":0},{"name":"zM","type":"int","value":0}],"gid":26,"width":90,"height":128},{"id":328,"x":900,"y":1620,"visible":true,"properties":[{"name":"layer","type":"int","value":1},{"name":"resource_index","type":"int","value":315},{"name":"u","type":"string","value":"bsc"},{"name":"no","type":"int","value":0},{"name":"zM","type":"int","value":0}],"gid":8,"width":90,"height":60},{"id":329,"x":720,"y":1380,"visible":true,"properties":[{"name":"layer","type":"int","value":1},{"name":"resource_index","type":"int","value":316},{"name":"u","type":"string","value":"bsc"},{"name":"no","type":"int","value":0},{"name":"zM","type":"int","value":0}],"gid":8,"width":90,"height":60},{"id":330,"x":720,"y":1560,"visible":true,"properties":[{"name":"layer","type":"int","value":1},{"name":"resource_index","type":"int","value":317},{"name":"u","type":"string","value":"bsc"},{"name":"no","type":"int","value":0},{"name":"zM","type":"int","value":0}],"gid":8,"width":90,"height":60},{"id":331,"x":720,"y":1620,"visible":true,"properties":[{"name":"layer","type":"int","value":1},{"name":"resource_index","type":"int","value":318},{"name":"u","type":"string","value":"bsc"},{"name":"no","type":"int","value":0},{"name":"zM","type":"int","value":0}],"gid":8,"width":90,"height":60},{"id":332,"x":990,"y":1800,"visible":true,"properties":[{"name":"layer","type":"int","value":1},{"name":"resource_index","type":"int","value":319},{"name":"u","type":"string","value":"bsc"},{"name":"no","type":"int","value":0},{"name":"zM","type":"int","value":0}],"gid":8,"width":90,"height":60},{"id":333,"x":810,"y":1740,"visible":true,"properties":[{"name":"layer","type":"int","value":1},{"name":"resource_index","type":"int","value":320},{"name":"u","type":"string","value":"bsc"},{"name":"no","type":"int","value":0},{"name":"zM","type":"int","value":0}],"gid":8,"width":90,"height":60},{"id":334,"x":810,"y":1800,"visible":true,"properties":[{"name":"layer","type":"int","value":1},{"name":"resource_index","type":"int","value":321},{"name":"u","type":"string","value":"bsc"},{"name":"no","type":"int","value":0},{"name":"zM","type":"int","value":0}],"gid":8,"width":90,"height":60},{"id":335,"x":810,"y":1500,"visible":true,"properties":[{"name":"layer","type":"int","value":1},{"name":"resource_index","type":"int","value":322},{"name":"u","type":"string","value":"bsc"},{"name":"no","type":"int","value":0},{"name":"zM","type":"int","value":0}],"gid":8,"width":90,"height":60},{"id":336,"x":720,"y":1500,"visible":true,"properties":[{"name":"layer","type":"int","value":1},{"name":"resource_index","type":"int","value":323},{"name":"u","type":"string","value":"bsc"},{"name":"no","type":"int","value":0},{"name":"zM","type":"int","value":0}],"gid":8,"width":90,"height":60},{"id":337,"x":900,"y":1560,"visible":true,"properties":[{"name":"layer","type":"int","value":1},{"name":"resource_index","type":"int","value":324},{"name":"u","type":"string","value":"bsc"},{"name":"no","type":"int","value":0},{"name":"zM","type":"int","value":0}],"gid":8,"width":90,"height":60},{"id":338,"x":990,"y":1680,"visible":true,"properties":[{"name":"layer","type":"int","value":1},{"name":"resource_index","type":"int","value":325},{"name":"u","type":"string","value":"bsc"},{"name":"no","type":"int","value":0},{"name":"zM","type":"int","value":0}],"gid":8,"width":90,"height":60},{"id":339,"x":810,"y":1320,"visible":true,"properties":[{"name":"layer","type":"int","value":1},{"name":"resource_index","type":"int","value":326},{"name":"u","type":"string","value":"bsc"},{"name":"no","type":"int","value":0},{"name":"zM","type":"int","value":0}],"gid":8,"width":90,"height":60},{"id":340,"x":900,"y":1500,"visible":true,"properties":[{"name":"layer","type":"int","value":1},{"name":"resource_index","type":"int","value":327},{"name":"u","type":"string","value":"bsc"},{"name":"no","type":"int","value":0},{"name":"zM","type":"int","value":0}],"gid":8,"width":90,"height":60},{"id":341,"x":810,"y":1560,"visible":true,"properties":[{"name":"layer","type":"int","value":1},{"name":"resource_index","type":"int","value":328},{"name":"u","type":"string","value":"bsc"},{"name":"no","type":"int","value":0},{"name":"zM","type":"int","value":0}],"gid":8,"width":90,"height":60},{"id":342,"x":1080,"y":1860,"visible":true,"properties":[{"name":"layer","type":"int","value":1},{"name":"resource_index","type":"int","value":329},{"name":"u","type":"string","value":"bsc"},{"name":"no","type":"int","value":0},{"name":"zM","type":"int","value":0}],"gid":8,"width":90,"height":60},{"id":343,"x":810,"y":1680,"visible":true,"properties":[{"name":"layer","type":"int","value":1},{"name":"resource_index","type":"int","value":330},{"name":"u","type":"string","value":"bsc"},{"name":"no","type":"int","value":0},{"name":"zM","type":"int","value":0}],"gid":8,"width":90,"height":60},{"id":344,"x":-270,"y":240,"visible":true,"properties":[{"name":"layer","type":"int","value":1},{"name":"resource_index","type":"int","value":331},{"name":"u","type":"string","value":"bsc"},{"name":"no","type":"int","value":0},{"name":"zM","type":"int","value":94}],"gid":8,"width":90,"height":60},{"id":345,"x":900,"y":1860,"visible":true,"properties":[{"name":"layer","type":"int","value":1},{"name":"resource_index","type":"int","value":332},{"name":"u","type":"string","value":"bsc"},{"name":"no","type":"int","value":0},{"name":"zM","type":"int","value":0}],"gid":8,"width":90,"height":60},{"id":346,"x":679,"y":1440,"visible":true,"properties":[{"name":"layer","type":"int","value":1},{"name":"resource_index","type":"int","value":333},{"name":"u","type":"string","value":"enV0"},{"name":"no","type":"int","value":1},{"name":"zM","type":"int","value":0}],"gid":21,"width":41,"height":60},{"id":347,"x":810,"y":1380,"visible":true,"properties":[{"name":"layer","type":"int","value":1},{"name":"resource_index","type":"int","value":334},{"name":"u","type":"string","value":"bsc"},{"name":"no","type":"int","value":0},{"name":"zM","type":"int","value":0}],"gid":8,"width":90,"height":60},{"id":348,"x":693,"y":1260,"visible":true,"properties":[{"name":"layer","type":"int","value":1},{"name":"resource_index","type":"int","value":335},{"name":"u","type":"string","value":"edU"},{"name":"no","type":"int","value":0},{"name":"zM","type":"int","value":0}],"gid":11,"width":54,"height":32},{"id":349,"x":990,"y":1440,"visible":true,"properties":[{"name":"layer","type":"int","value":1},{"name":"resource_index","type":"int","value":336},{"name":"u","type":"string","value":"bsc"},{"name":"no","type":"int","value":0},{"name":"zM","type":"int","value":0}],"gid":8,"width":90,"height":60},{"id":350,"x":687,"y":1320,"visible":true,"properties":[{"name":"layer","type":"int","value":1},{"name":"resource_index","type":"int","value":337},{"name":"u","type":"string","value":"enV0"},{"name":"no","type":"int","value":2},{"name":"zM","type":"int","value":0}],"gid":19,"width":33,"height":60},{"id":351,"x":720,"y":1440,"visible":true,"properties":[{"name":"layer","type":"int","value":1},{"name":"resource_index","type":"int","value":338},{"name":"u","type":"string","value":"bsc"},{"name":"no","type":"int","value":0},{"name":"zM","type":"int","value":0}],"gid":8,"width":90,"height":60},{"id":352,"x":720,"y":1320,"visible":true,"properties":[{"name":"layer","type":"int","value":1},{"name":"resource_index","type":"int","value":339},{"name":"u","type":"string","value":"bsc"},{"name":"no","type":"int","value":0},{"name":"zM","type":"int","value":0}],"gid":8,"width":90,"height":60},{"id":353,"x":2160,"y":540,"visible":true,"properties":[{"name":"layer","type":"int","value":1},{"name":"resource_index","type":"int","value":340},{"name":"u","type":"string","value":"enH0"},{"name":"no","type":"int","value":0},{"name":"zM","type":"int","value":81}],"gid":13,"width":90,"height":56},{"id":354,"x":691,"y":1380,"visible":true,"properties":[{"name":"layer","type":"int","value":1},{"name":"resource_index","type":"int","value":341},{"name":"u","type":"string","value":"enV0"},{"name":"no","type":"int","value":3},{"name":"zM","type":"int","value":0}],"gid":14,"width":29,"height":60},{"id":355,"x":810,"y":1440,"visible":true,"properties":[{"name":"layer","type":"int","value":1},{"name":"resource_index","type":"int","value":342},{"name":"u","type":"string","value":"bsc"},{"name":"no","type":"int","value":0},{"name":"zM","type":"int","value":0}],"gid":8,"width":90,"height":60},{"id":356,"x":900,"y":1380,"visible":true,"properties":[{"name":"layer","type":"int","value":1},{"name":"resource_index","type":"int","value":343},{"name":"u","type":"string","value":"bsc"},{"name":"no","type":"int","value":0},{"name":"zM","type":"int","value":0}],"gid":8,"width":90,"height":60},{"id":357,"x":900,"y":1260,"visible":true,"properties":[{"name":"layer","type":"int","value":1},{"name":"resource_index","type":"int","value":344},{"name":"u","type":"string","value":"bsc"},{"name":"no","type":"int","value":0},{"name":"zM","type":"int","value":0}],"gid":8,"width":90,"height":60},{"id":358,"x":990,"y":1320,"visible":true,"properties":[{"name":"layer","type":"int","value":1},{"name":"resource_index","type":"int","value":345},{"name":"u","type":"string","value":"bsc"},{"name":"no","type":"int","value":0},{"name":"zM","type":"int","value":0}],"gid":8,"width":90,"height":60},{"id":359,"x":810,"y":1200,"visible":true,"properties":[{"name":"layer","type":"int","value":1},{"name":"resource_index","type":"int","value":346},{"name":"u","type":"string","value":"enH0"},{"name":"no","type":"int","value":1},{"name":"zM","type":"int","value":0}],"gid":20,"width":90,"height":71},{"id":360,"x":810,"y":1260,"visible":true,"properties":[{"name":"layer","type":"int","value":1},{"name":"resource_index","type":"int","value":347},{"name":"u","type":"string","value":"bsc"},{"name":"no","type":"int","value":0},{"name":"zM","type":"int","value":0}],"gid":8,"width":90,"height":60},{"id":361,"x":2340,"y":660,"visible":true,"properties":[{"name":"layer","type":"int","value":1},{"name":"resource_index","type":"int","value":348},{"name":"u","type":"string","value":"bsc"},{"name":"no","type":"int","value":0},{"name":"zM","type":"int","value":81}],"gid":8,"width":90,"height":60},{"id":362,"x":-90,"y":300,"visible":true,"properties":[{"name":"layer","type":"int","value":1},{"name":"resource_index","type":"int","value":349},{"name":"u","type":"string","value":"slRU"},{"name":"no","type":"int","value":0},{"name":"zM","type":"int","value":94}],"gid":22,"width":90,"height":128},{"id":363,"x":-27,"y":300,"visible":true,"properties":[{"name":"layer","type":"int","value":1},{"name":"resource_index","type":"int","value":350},{"name":"u","type":"string","value":"edU"},{"name":"no","type":"int","value":0},{"name":"zM","type":"int","value":94}],"gid":11,"width":54,"height":32},{"id":364,"x":990,"y":1260,"visible":true,"properties":[{"name":"layer","type":"int","value":1},{"name":"resource_index","type":"int","value":351},{"name":"u","type":"string","value":"bsc"},{"name":"no","type":"int","value":0},{"name":"zM","type":"int","value":0}],"gid":8,"width":90,"height":60},{"id":365,"x":990,"y":1200,"visible":true,"properties":[{"name":"layer","type":"int","value":1},{"name":"resource_index","type":"int","value":352},{"name":"u","type":"string","value":"enH0"},{"name":"no","type":"int","value":1},{"name":"zM","type":"int","value":0}],"gid":20,"width":90,"height":71},{"id":366,"x":900,"y":1200,"visible":true,"properties":[{"name":"layer","type":"int","value":1},{"name":"resource_index","type":"int","value":353},{"name":"u","type":"string","value":"enH0"},{"name":"no","type":"int","value":1},{"name":"zM","type":"int","value":0}],"gid":20,"width":90,"height":71},{"id":367,"x":1080,"y":1320,"visible":true,"properties":[{"name":"layer","type":"int","value":1},{"name":"resource_index","type":"int","value":354},{"name":"u","type":"string","value":"bsc"},{"name":"no","type":"int","value":0},{"name":"zM","type":"int","value":0}],"gid":8,"width":90,"height":60},{"id":368,"x":900,"y":1320,"visible":true,"properties":[{"name":"layer","type":"int","value":1},{"name":"resource_index","type":"int","value":355},{"name":"u","type":"string","value":"bsc"},{"name":"no","type":"int","value":0},{"name":"zM","type":"int","value":0}],"gid":8,"width":90,"height":60},{"id":369,"x":1143,"y":1260,"visible":true,"properties":[{"name":"layer","type":"int","value":1},{"name":"resource_index","type":"int","value":356},{"name":"u","type":"string","value":"edU"},{"name":"no","type":"int","value":0},{"name":"zM","type":"int","value":0}],"gid":11,"width":54,"height":32},{"id":370,"x":1170,"y":1320,"visible":true,"properties":[{"name":"layer","type":"int","value":1},{"name":"resource_index","type":"int","value":357},{"name":"u","type":"string","value":"enV1"},{"name":"no","type":"int","value":3},{"name":"zM","type":"int","value":0}],"gid":12,"width":41,"height":60},{"id":371,"x":1080,"y":1260,"visible":true,"properties":[{"name":"layer","type":"int","value":1},{"name":"resource_index","type":"int","value":358},{"name":"u","type":"string","value":"slRU"},{"name":"no","type":"int","value":0},{"name":"zM","type":"int","value":0}],"gid":22,"width":90,"height":128},{"id":372,"x":1080,"y":1380,"visible":true,"properties":[{"name":"layer","type":"int","value":1},{"name":"resource_index","type":"int","value":359},{"name":"u","type":"string","value":"bsc"},{"name":"no","type":"int","value":0},{"name":"zM","type":"int","value":0}],"gid":8,"width":90,"height":60},{"id":373,"x":1170,"y":1380,"visible":true,"properties":[{"name":"layer","type":"int","value":1},{"name":"resource_index","type":"int","value":360},{"name":"u","type":"string","value":"enV1"},{"name":"no","type":"int","value":1},{"name":"zM","type":"int","value":0}],"gid":24,"width":29,"height":60},{"id":374,"x":1080,"y":1440,"visible":true,"properties":[{"name":"layer","type":"int","value":1},{"name":"resource_index","type":"int","value":361},{"name":"u","type":"string","value":"bsc"},{"name":"no","type":"int","value":0},{"name":"zM","type":"int","value":0}],"gid":8,"width":90,"height":60},{"id":375,"x":1170,"y":1440,"visible":true,"properties":[{"name":"layer","type":"int","value":1},{"name":"resource_index","type":"int","value":362},{"name":"u","type":"string","value":"enV1"},{"name":"no","type":"int","value":1},{"name":"zM","type":"int","value":0}],"gid":24,"width":29,"height":60},{"id":376,"x":900,"y":1440,"visible":true,"properties":[{"name":"layer","type":"int","value":1},{"name":"resource_index","type":"int","value":363},{"name":"u","type":"string","value":"bsc"},{"name":"no","type":"int","value":0},{"name":"zM","type":"int","value":0}],"gid":8,"width":90,"height":60},{"id":377,"x":990,"y":1380,"visible":true,"properties":[{"name":"layer","type":"int","value":1},{"name":"resource_index","type":"int","value":364},{"name":"u","type":"string","value":"bsc"},{"name":"no","type":"int","value":0},{"name":"zM","type":"int","value":0}],"gid":8,"width":90,"height":60},{"id":378,"x":990,"y":1620,"visible":true,"properties":[{"name":"layer","type":"int","value":1},{"name":"resource_index","type":"int","value":365},{"name":"u","type":"string","value":"bsc"},{"name":"no","type":"int","value":0},{"name":"zM","type":"int","value":0}],"gid":8,"width":90,"height":60},{"id":379,"x":1080,"y":1740,"visible":true,"properties":[{"name":"layer","type":"int","value":1},{"name":"resource_index","type":"int","value":366},{"name":"u","type":"string","value":"bsc"},{"name":"no","type":"int","value":0},{"name":"zM","type":"int","value":0}],"gid":8,"width":90,"height":60},{"id":380,"x":900,"y":1800,"visible":true,"properties":[{"name":"layer","type":"int","value":1},{"name":"resource_index","type":"int","value":367},{"name":"u","type":"string","value":"bsc"},{"name":"no","type":"int","value":0},{"name":"zM","type":"int","value":0}],"gid":8,"width":90,"height":60},{"id":381,"x":1080,"y":1500,"visible":true,"properties":[{"name":"layer","type":"int","value":1},{"name":"resource_index","type":"int","value":368},{"name":"u","type":"string","value":"bsc"},{"name":"no","type":"int","value":0},{"name":"zM","type":"int","value":0}],"gid":8,"width":90,"height":60},{"id":382,"x":990,"y":1740,"visible":true,"properties":[{"name":"layer","type":"int","value":1},{"name":"resource_index","type":"int","value":369},{"name":"u","type":"string","value":"bsc"},{"name":"no","type":"int","value":0},{"name":"zM","type":"int","value":0}],"gid":8,"width":90,"height":60},{"id":383,"x":1170,"y":1620,"visible":true,"properties":[{"name":"layer","type":"int","value":1},{"name":"resource_index","type":"int","value":370},{"name":"u","type":"string","value":"enV1"},{"name":"no","type":"int","value":3},{"name":"zM","type":"int","value":0}],"gid":12,"width":41,"height":60},{"id":384,"x":1080,"y":1620,"visible":true,"properties":[{"name":"layer","type":"int","value":1},{"name":"resource_index","type":"int","value":371},{"name":"u","type":"string","value":"bsc"},{"name":"no","type":"int","value":0},{"name":"zM","type":"int","value":0}],"gid":8,"width":90,"height":60},{"id":385,"x":1170,"y":1680,"visible":true,"properties":[{"name":"layer","type":"int","value":1},{"name":"resource_index","type":"int","value":372},{"name":"u","type":"string","value":"enV1"},{"name":"no","type":"int","value":3},{"name":"zM","type":"int","value":0}],"gid":12,"width":41,"height":60},{"id":386,"x":1080,"y":1680,"visible":true,"properties":[{"name":"layer","type":"int","value":1},{"name":"resource_index","type":"int","value":373},{"name":"u","type":"string","value":"bsc"},{"name":"no","type":"int","value":0},{"name":"zM","type":"int","value":0}],"gid":8,"width":90,"height":60},{"id":387,"x":1170,"y":1740,"visible":true,"properties":[{"name":"layer","type":"int","value":1},{"name":"resource_index","type":"int","value":374},{"name":"u","type":"string","value":"enV1"},{"name":"no","type":"int","value":2},{"name":"zM","type":"int","value":0}],"gid":16,"width":36,"height":60},{"id":388,"x":1080,"y":1800,"visible":true,"properties":[{"name":"layer","type":"int","value":1},{"name":"resource_index","type":"int","value":375},{"name":"u","type":"string","value":"bsc"},{"name":"no","type":"int","value":0},{"name":"zM","type":"int","value":0}],"gid":8,"width":90,"height":60},{"id":389,"x":1170,"y":1800,"visible":true,"properties":[{"name":"layer","type":"int","value":1},{"name":"resource_index","type":"int","value":376},{"name":"u","type":"string","value":"enV1"},{"name":"no","type":"int","value":0},{"name":"zM","type":"int","value":0}],"gid":18,"width":33,"height":60},{"id":390,"x":990,"y":1500,"visible":true,"properties":[{"name":"layer","type":"int","value":1},{"name":"resource_index","type":"int","value":377},{"name":"u","type":"string","value":"bsc"},{"name":"no","type":"int","value":0},{"name":"zM","type":"int","value":0}],"gid":8,"width":90,"height":60},{"id":391,"x":1170,"y":1500,"visible":true,"properties":[{"name":"layer","type":"int","value":1},{"name":"resource_index","type":"int","value":378},{"name":"u","type":"string","value":"enV1"},{"name":"no","type":"int","value":3},{"name":"zM","type":"int","value":0}],"gid":12,"width":41,"height":60},{"id":392,"x":900,"y":1680,"visible":true,"properties":[{"name":"layer","type":"int","value":1},{"name":"resource_index","type":"int","value":379},{"name":"u","type":"string","value":"bsc"},{"name":"no","type":"int","value":0},{"name":"zM","type":"int","value":0}],"gid":8,"width":90,"height":60},{"id":393,"x":1170,"y":1560,"visible":true,"properties":[{"name":"layer","type":"int","value":1},{"name":"resource_index","type":"int","value":380},{"name":"u","type":"string","value":"enV1"},{"name":"no","type":"int","value":2},{"name":"zM","type":"int","value":0}],"gid":16,"width":36,"height":60},{"id":394,"x":990,"y":1860,"visible":true,"properties":[{"name":"layer","type":"int","value":1},{"name":"resource_index","type":"int","value":381},{"name":"u","type":"string","value":"bsc"},{"name":"no","type":"int","value":0},{"name":"zM","type":"int","value":0}],"gid":8,"width":90,"height":60},{"id":395,"x":1080,"y":1560,"visible":true,"properties":[{"name":"layer","type":"int","value":1},{"name":"resource_index","type":"int","value":382},{"name":"u","type":"string","value":"bsc"},{"name":"no","type":"int","value":0},{"name":"zM","type":"int","value":0}],"gid":8,"width":90,"height":60},{"id":396,"x":990,"y":1560,"visible":true,"properties":[{"name":"layer","type":"int","value":1},{"name":"resource_index","type":"int","value":383},{"name":"u","type":"string","value":"bsc"},{"name":"no","type":"int","value":0},{"name":"zM","type":"int","value":0}],"gid":8,"width":90,"height":60},{"id":397,"x":1530,"y":2171,"visible":true,"properties":[{"name":"layer","type":"int","value":1},{"name":"resource_index","type":"int","value":384},{"name":"u","type":"string","value":"enH1"},{"name":"no","type":"int","value":1},{"name":"zM","type":"int","value":0}],"gid":9,"width":90,"height":71},{"id":398,"x":1440,"y":2100,"visible":true,"properties":[{"name":"layer","type":"int","value":1},{"name":"resource_index","type":"int","value":385},{"name":"u","type":"string","value":"bsc"},{"name":"no","type":"int","value":0},{"name":"zM","type":"int","value":0}],"gid":8,"width":90,"height":60},{"id":399,"x":1350,"y":2040,"visible":true,"properties":[{"name":"layer","type":"int","value":1},{"name":"resource_index","type":"int","value":386},{"name":"u","type":"string","value":"bsc"},{"name":"no","type":"int","value":0},{"name":"zM","type":"int","value":0}],"gid":8,"width":90,"height":60},{"id":400,"x":1620,"y":2156,"visible":true,"properties":[{"name":"layer","type":"int","value":1},{"name":"resource_index","type":"int","value":387},{"name":"u","type":"string","value":"enH1"},{"name":"no","type":"int","value":0},{"name":"zM","type":"int","value":0}],"gid":10,"width":90,"height":56},{"id":401,"x":1530,"y":2100,"visible":true,"properties":[{"name":"layer","type":"int","value":1},{"name":"resource_index","type":"int","value":388},{"name":"u","type":"string","value":"bsc"},{"name":"no","type":"int","value":0},{"name":"zM","type":"int","value":0}],"gid":8,"width":90,"height":60},{"id":402,"x":1350,"y":2100,"visible":true,"properties":[{"name":"layer","type":"int","value":1},{"name":"resource_index","type":"int","value":389},{"name":"u","type":"string","value":"bsc"},{"name":"no","type":"int","value":0},{"name":"zM","type":"int","value":0}],"gid":8,"width":90,"height":60},{"id":403,"x":1170,"y":1920,"visible":true,"properties":[{"name":"layer","type":"int","value":1},{"name":"resource_index","type":"int","value":390},{"name":"u","type":"string","value":"slRU"},{"name":"no","type":"int","value":0},{"name":"zM","type":"int","value":0}],"gid":22,"width":90,"height":128},{"id":404,"x":1350,"y":2156,"visible":true,"properties":[{"name":"layer","type":"int","value":1},{"name":"resource_index","type":"int","value":391},{"name":"u","type":"string","value":"enH1"},{"name":"no","type":"int","value":0},{"name":"zM","type":"int","value":0}],"gid":10,"width":90,"height":56},{"id":405,"x":1710,"y":2156,"visible":true,"properties":[{"name":"layer","type":"int","value":1},{"name":"resource_index","type":"int","value":392},{"name":"u","type":"string","value":"enH1"},{"name":"no","type":"int","value":0},{"name":"zM","type":"int","value":0}],"gid":10,"width":90,"height":56},{"id":406,"x":1530,"y":1980,"visible":true,"properties":[{"name":"layer","type":"int","value":1},{"name":"resource_index","type":"int","value":393},{"name":"u","type":"string","value":"bsc"},{"name":"no","type":"int","value":0},{"name":"zM","type":"int","value":0}],"gid":8,"width":90,"height":60},{"id":407,"x":1440,"y":2156,"visible":true,"properties":[{"name":"layer","type":"int","value":1},{"name":"resource_index","type":"int","value":394},{"name":"u","type":"string","value":"enH1"},{"name":"no","type":"int","value":0},{"name":"zM","type":"int","value":0}],"gid":10,"width":90,"height":56},{"id":408,"x":1260,"y":2171,"visible":true,"properties":[{"name":"layer","type":"int","value":1},{"name":"resource_index","type":"int","value":395},{"name":"u","type":"string","value":"enH1"},{"name":"no","type":"int","value":1},{"name":"zM","type":"int","value":0}],"gid":9,"width":90,"height":71},{"id":409,"x":1170,"y":1980,"visible":true,"properties":[{"name":"layer","type":"int","value":1},{"name":"resource_index","type":"int","value":396},{"name":"u","type":"string","value":"bsc"},{"name":"no","type":"int","value":0},{"name":"zM","type":"int","value":0}],"gid":8,"width":90,"height":60},{"id":410,"x":1800,"y":2156,"visible":true,"properties":[{"name":"layer","type":"int","value":1},{"name":"resource_index","type":"int","value":397},{"name":"u","type":"string","value":"enH1"},{"name":"no","type":"int","value":0},{"name":"zM","type":"int","value":0}],"gid":10,"width":90,"height":56},{"id":411,"x":1710,"y":2040,"visible":true,"properties":[{"name":"layer","type":"int","value":1},{"name":"resource_index","type":"int","value":398},{"name":"u","type":"string","value":"bsc"},{"name":"no","type":"int","value":0},{"name":"zM","type":"int","value":0}],"gid":8,"width":90,"height":60},{"id":412,"x":1260,"y":2100,"visible":true,"properties":[{"name":"layer","type":"int","value":1},{"name":"resource_index","type":"int","value":399},{"name":"u","type":"string","value":"bsc"},{"name":"no","type":"int","value":0},{"name":"zM","type":"int","value":0}],"gid":8,"width":90,"height":60},{"id":413,"x":1440,"y":2040,"visible":true,"properties":[{"name":"layer","type":"int","value":1},{"name":"resource_index","type":"int","value":400},{"name":"u","type":"string","value":"bsc"},{"name":"no","type":"int","value":0},{"name":"zM","type":"int","value":0}],"gid":8,"width":90,"height":60},{"id":414,"x":1800,"y":2100,"visible":true,"properties":[{"name":"layer","type":"int","value":1},{"name":"resource_index","type":"int","value":401},{"name":"u","type":"string","value":"bsc"},{"name":"no","type":"int","value":0},{"name":"zM","type":"int","value":0}],"gid":8,"width":90,"height":60},{"id":415,"x":1260,"y":2040,"visible":true,"properties":[{"name":"layer","type":"int","value":1},{"name":"resource_index","type":"int","value":402},{"name":"u","type":"string","value":"bsc"},{"name":"no","type":"int","value":0},{"name":"zM","type":"int","value":0}],"gid":8,"width":90,"height":60},{"id":416,"x":1350,"y":1920,"visible":true,"properties":[{"name":"layer","type":"int","value":1},{"name":"resource_index","type":"int","value":403},{"name":"u","type":"string","value":"enH0"},{"name":"no","type":"int","value":1},{"name":"zM","type":"int","value":0}],"gid":20,"width":90,"height":71},{"id":417,"x":1620,"y":2100,"visible":true,"properties":[{"name":"layer","type":"int","value":1},{"name":"resource_index","type":"int","value":404},{"name":"u","type":"string","value":"bsc"},{"name":"no","type":"int","value":0},{"name":"zM","type":"int","value":0}],"gid":8,"width":90,"height":60},{"id":418,"x":1890,"y":2171,"visible":true,"properties":[{"name":"layer","type":"int","value":1},{"name":"resource_index","type":"int","value":405},{"name":"u","type":"string","value":"enH1"},{"name":"no","type":"int","value":1},{"name":"zM","type":"int","value":0}],"gid":9,"width":90,"height":71},{"id":419,"x":1530,"y":2040,"visible":true,"properties":[{"name":"layer","type":"int","value":1},{"name":"resource_index","type":"int","value":406},{"name":"u","type":"string","value":"bsc"},{"name":"no","type":"int","value":0},{"name":"zM","type":"int","value":0}],"gid":8,"width":90,"height":60},{"id":420,"x":1440,"y":1980,"visible":true,"properties":[{"name":"layer","type":"int","value":1},{"name":"resource_index","type":"int","value":407},{"name":"u","type":"string","value":"bsc"},{"name":"no","type":"int","value":0},{"name":"zM","type":"int","value":0}],"gid":8,"width":90,"height":60},{"id":421,"x":1440,"y":1920,"visible":true,"properties":[{"name":"layer","type":"int","value":1},{"name":"resource_index","type":"int","value":408},{"name":"u","type":"string","value":"enH0"},{"name":"no","type":"int","value":1},{"name":"zM","type":"int","value":0}],"gid":20,"width":90,"height":71},{"id":422,"x":1260,"y":1980,"visible":true,"properties":[{"name":"layer","type":"int","value":1},{"name":"resource_index","type":"int","value":409},{"name":"u","type":"string","value":"bsc"},{"name":"no","type":"int","value":0},{"name":"zM","type":"int","value":0}],"gid":8,"width":90,"height":60},{"id":423,"x":1350,"y":1980,"visible":true,"properties":[{"name":"layer","type":"int","value":1},{"name":"resource_index","type":"int","value":410},{"name":"u","type":"string","value":"bsc"},{"name":"no","type":"int","value":0},{"name":"zM","type":"int","value":0}],"gid":8,"width":90,"height":60},{"id":424,"x":1620,"y":1920,"visible":true,"properties":[{"name":"layer","type":"int","value":1},{"name":"resource_index","type":"int","value":411},{"name":"u","type":"string","value":"enH0"},{"name":"no","type":"int","value":1},{"name":"zM","type":"int","value":0}],"gid":20,"width":90,"height":71},{"id":425,"x":2070,"y":1860,"visible":true,"properties":[{"name":"layer","type":"int","value":1},{"name":"resource_index","type":"int","value":412},{"name":"u","type":"string","value":"bsc"},{"name":"no","type":"int","value":0},{"name":"zM","type":"int","value":0}],"gid":8,"width":90,"height":60},{"id":426,"x":1800,"y":1980,"visible":true,"properties":[{"name":"layer","type":"int","value":1},{"name":"resource_index","type":"int","value":413},{"name":"u","type":"string","value":"bsc"},{"name":"no","type":"int","value":0},{"name":"zM","type":"int","value":0}],"gid":8,"width":90,"height":60},{"id":427,"x":1800,"y":1920,"visible":true,"properties":[{"name":"layer","type":"int","value":1},{"name":"resource_index","type":"int","value":414},{"name":"u","type":"string","value":"enH0"},{"name":"no","type":"int","value":0},{"name":"zM","type":"int","value":0}],"gid":13,"width":90,"height":56},{"id":428,"x":1710,"y":1920,"visible":true,"properties":[{"name":"layer","type":"int","value":1},{"name":"resource_index","type":"int","value":415},{"name":"u","type":"string","value":"enH0"},{"name":"no","type":"int","value":0},{"name":"zM","type":"int","value":0}],"gid":13,"width":90,"height":56},{"id":429,"x":1710,"y":1980,"visible":true,"properties":[{"name":"layer","type":"int","value":1},{"name":"resource_index","type":"int","value":416},{"name":"u","type":"string","value":"bsc"},{"name":"no","type":"int","value":0},{"name":"zM","type":"int","value":0}],"gid":8,"width":90,"height":60},{"id":430,"x":1620,"y":1980,"visible":true,"properties":[{"name":"layer","type":"int","value":1},{"name":"resource_index","type":"int","value":417},{"name":"u","type":"string","value":"bsc"},{"name":"no","type":"int","value":0},{"name":"zM","type":"int","value":0}],"gid":8,"width":90,"height":60},{"id":431,"x":1800,"y":2040,"visible":true,"properties":[{"name":"layer","type":"int","value":1},{"name":"resource_index","type":"int","value":418},{"name":"u","type":"string","value":"bsc"},{"name":"no","type":"int","value":0},{"name":"zM","type":"int","value":0}],"gid":8,"width":90,"height":60},{"id":432,"x":1530,"y":1920,"visible":true,"properties":[{"name":"layer","type":"int","value":1},{"name":"resource_index","type":"int","value":419},{"name":"u","type":"string","value":"enH0"},{"name":"no","type":"int","value":0},{"name":"zM","type":"int","value":0}],"gid":13,"width":90,"height":56},{"id":433,"x":1620,"y":2040,"visible":true,"properties":[{"name":"layer","type":"int","value":1},{"name":"resource_index","type":"int","value":420},{"name":"u","type":"string","value":"bsc"},{"name":"no","type":"int","value":0},{"name":"zM","type":"int","value":0}],"gid":8,"width":90,"height":60},{"id":434,"x":2070,"y":1680,"visible":true,"properties":[{"name":"layer","type":"int","value":1},{"name":"resource_index","type":"int","value":421},{"name":"u","type":"string","value":"bsc"},{"name":"no","type":"int","value":0},{"name":"zM","type":"int","value":0}],"gid":8,"width":90,"height":60},{"id":435,"x":1710,"y":2100,"visible":true,"properties":[{"name":"layer","type":"int","value":1},{"name":"resource_index","type":"int","value":422},{"name":"u","type":"string","value":"bsc"},{"name":"no","type":"int","value":0},{"name":"zM","type":"int","value":0}],"gid":8,"width":90,"height":60},{"id":436,"x":1890,"y":2040,"visible":true,"properties":[{"name":"layer","type":"int","value":1},{"name":"resource_index","type":"int","value":423},{"name":"u","type":"string","value":"bsc"},{"name":"no","type":"int","value":0},{"name":"zM","type":"int","value":0}],"gid":8,"width":90,"height":60},{"id":437,"x":1890,"y":1980,"visible":true,"properties":[{"name":"layer","type":"int","value":1},{"name":"resource_index","type":"int","value":424},{"name":"u","type":"string","value":"bsc"},{"name":"no","type":"int","value":0},{"name":"zM","type":"int","value":0}],"gid":8,"width":90,"height":60},{"id":438,"x":1980,"y":2040,"visible":true,"properties":[{"name":"layer","type":"int","value":1},{"name":"resource_index","type":"int","value":425},{"name":"u","type":"string","value":"bsc"},{"name":"no","type":"int","value":0},{"name":"zM","type":"int","value":0}],"gid":8,"width":90,"height":60},{"id":439,"x":1980,"y":1980,"visible":true,"properties":[{"name":"layer","type":"int","value":1},{"name":"resource_index","type":"int","value":426},{"name":"u","type":"string","value":"bsc"},{"name":"no","type":"int","value":0},{"name":"zM","type":"int","value":0}],"gid":8,"width":90,"height":60},{"id":440,"x":1890,"y":1920,"visible":true,"properties":[{"name":"layer","type":"int","value":1},{"name":"resource_index","type":"int","value":427},{"name":"u","type":"string","value":"slLU"},{"name":"no","type":"int","value":0},{"name":"zM","type":"int","value":0}],"gid":26,"width":90,"height":128},{"id":441,"x":1890,"y":2100,"visible":true,"properties":[{"name":"layer","type":"int","value":1},{"name":"resource_index","type":"int","value":428},{"name":"u","type":"string","value":"bsc"},{"name":"no","type":"int","value":0},{"name":"zM","type":"int","value":0}],"gid":8,"width":90,"height":60},{"id":442,"x":1980,"y":2100,"visible":true,"properties":[{"name":"layer","type":"int","value":1},{"name":"resource_index","type":"int","value":429},{"name":"u","type":"string","value":"bsc"},{"name":"no","type":"int","value":0},{"name":"zM","type":"int","value":0}],"gid":8,"width":90,"height":60},{"id":443,"x":1947,"y":1860,"visible":true,"properties":[{"name":"layer","type":"int","value":1},{"name":"resource_index","type":"int","value":430},{"name":"u","type":"string","value":"enV0"},{"name":"no","type":"int","value":2},{"name":"zM","type":"int","value":0}],"gid":19,"width":33,"height":60},{"id":444,"x":1980,"y":1920,"visible":true,"properties":[{"name":"layer","type":"int","value":1},{"name":"resource_index","type":"int","value":431},{"name":"u","type":"string","value":"bsc"},{"name":"no","type":"int","value":0},{"name":"zM","type":"int","value":0}],"gid":8,"width":90,"height":60},{"id":445,"x":1947,"y":1560,"visible":true,"properties":[{"name":"layer","type":"int","value":1},{"name":"resource_index","type":"int","value":432},{"name":"u","type":"string","value":"enV0"},{"name":"no","type":"int","value":2},{"name":"zM","type":"int","value":0}],"gid":19,"width":33,"height":60},{"id":446,"x":1980,"y":1620,"visible":true,"properties":[{"name":"layer","type":"int","value":1},{"name":"resource_index","type":"int","value":433},{"name":"u","type":"string","value":"bsc"},{"name":"no","type":"int","value":0},{"name":"zM","type":"int","value":0}],"gid":8,"width":90,"height":60},{"id":447,"x":1947,"y":1620,"visible":true,"properties":[{"name":"layer","type":"int","value":1},{"name":"resource_index","type":"int","value":434},{"name":"u","type":"string","value":"enV0"},{"name":"no","type":"int","value":2},{"name":"zM","type":"int","value":0}],"gid":19,"width":33,"height":60},{"id":448,"x":1980,"y":1740,"visible":true,"properties":[{"name":"layer","type":"int","value":1},{"name":"resource_index","type":"int","value":435},{"name":"u","type":"string","value":"bsc"},{"name":"no","type":"int","value":0},{"name":"zM","type":"int","value":0}],"gid":8,"width":90,"height":60},{"id":449,"x":1951,"y":1680,"visible":true,"properties":[{"name":"layer","type":"int","value":1},{"name":"resource_index","type":"int","value":436},{"name":"u","type":"string","value":"enV0"},{"name":"no","type":"int","value":3},{"name":"zM","type":"int","value":0}],"gid":14,"width":29,"height":60},{"id":450,"x":1980,"y":1680,"visible":true,"properties":[{"name":"layer","type":"int","value":1},{"name":"resource_index","type":"int","value":437},{"name":"u","type":"string","value":"bsc"},{"name":"no","type":"int","value":0},{"name":"zM","type":"int","value":0}],"gid":8,"width":90,"height":60},{"id":451,"x":1947,"y":1740,"visible":true,"properties":[{"name":"layer","type":"int","value":1},{"name":"resource_index","type":"int","value":438},{"name":"u","type":"string","value":"enV0"},{"name":"no","type":"int","value":2},{"name":"zM","type":"int","value":0}],"gid":19,"width":33,"height":60},{"id":452,"x":1980,"y":1800,"visible":true,"properties":[{"name":"layer","type":"int","value":1},{"name":"resource_index","type":"int","value":439},{"name":"u","type":"string","value":"bsc"},{"name":"no","type":"int","value":0},{"name":"zM","type":"int","value":0}],"gid":8,"width":90,"height":60},{"id":453,"x":1947,"y":1800,"visible":true,"properties":[{"name":"layer","type":"int","value":1},{"name":"resource_index","type":"int","value":440},{"name":"u","type":"string","value":"enV0"},{"name":"no","type":"int","value":2},{"name":"zM","type":"int","value":0}],"gid":19,"width":33,"height":60},{"id":454,"x":1980,"y":1860,"visible":true,"properties":[{"name":"layer","type":"int","value":1},{"name":"resource_index","type":"int","value":441},{"name":"u","type":"string","value":"bsc"},{"name":"no","type":"int","value":0},{"name":"zM","type":"int","value":0}],"gid":8,"width":90,"height":60},{"id":455,"x":2070,"y":1920,"visible":true,"properties":[{"name":"layer","type":"int","value":1},{"name":"resource_index","type":"int","value":442},{"name":"u","type":"string","value":"bsc"},{"name":"no","type":"int","value":0},{"name":"zM","type":"int","value":0}],"gid":8,"width":90,"height":60},{"id":456,"x":1980,"y":2171,"visible":true,"properties":[{"name":"layer","type":"int","value":1},{"name":"resource_index","type":"int","value":443},{"name":"u","type":"string","value":"enH1"},{"name":"no","type":"int","value":1},{"name":"zM","type":"int","value":0}],"gid":9,"width":90,"height":71},{"id":457,"x":2070,"y":1980,"visible":true,"properties":[{"name":"layer","type":"int","value":1},{"name":"resource_index","type":"int","value":444},{"name":"u","type":"string","value":"bsc"},{"name":"no","type":"int","value":0},{"name":"zM","type":"int","value":0}],"gid":8,"width":90,"height":60},{"id":458,"x":2160,"y":2156,"visible":true,"properties":[{"name":"layer","type":"int","value":1},{"name":"resource_index","type":"int","value":445},{"name":"u","type":"string","value":"enH1"},{"name":"no","type":"int","value":0},{"name":"zM","type":"int","value":0}],"gid":10,"width":90,"height":56},{"id":459,"x":2160,"y":1980,"visible":true,"properties":[{"name":"layer","type":"int","value":1},{"name":"resource_index","type":"int","value":446},{"name":"u","type":"string","value":"bsc"},{"name":"no","type":"int","value":0},{"name":"zM","type":"int","value":0}],"gid":8,"width":90,"height":60},{"id":460,"x":2070,"y":2171,"visible":true,"properties":[{"name":"layer","type":"int","value":1},{"name":"resource_index","type":"int","value":447},{"name":"u","type":"string","value":"enH1"},{"name":"no","type":"int","value":1},{"name":"zM","type":"int","value":0}],"gid":9,"width":90,"height":71},{"id":461,"x":2160,"y":2040,"visible":true,"properties":[{"name":"layer","type":"int","value":1},{"name":"resource_index","type":"int","value":448},{"name":"u","type":"string","value":"bsc"},{"name":"no","type":"int","value":0},{"name":"zM","type":"int","value":0}],"gid":8,"width":90,"height":60},{"id":462,"x":2160,"y":2100,"visible":true,"properties":[{"name":"layer","type":"int","value":1},{"name":"resource_index","type":"int","value":449},{"name":"u","type":"string","value":"bsc"},{"name":"no","type":"int","value":0},{"name":"zM","type":"int","value":0}],"gid":8,"width":90,"height":60},{"id":463,"x":2340,"y":2100,"visible":true,"properties":[{"name":"layer","type":"int","value":1},{"name":"resource_index","type":"int","value":450},{"name":"u","type":"string","value":"bsc"},{"name":"no","type":"int","value":0},{"name":"zM","type":"int","value":0}],"gid":8,"width":90,"height":60},{"id":464,"x":2070,"y":1800,"visible":true,"properties":[{"name":"layer","type":"int","value":1},{"name":"resource_index","type":"int","value":451},{"name":"u","type":"string","value":"bsc"},{"name":"no","type":"int","value":0},{"name":"zM","type":"int","value":0}],"gid":8,"width":90,"height":60},{"id":465,"x":2250,"y":2100,"visible":true,"properties":[{"name":"layer","type":"int","value":1},{"name":"resource_index","type":"int","value":452},{"name":"u","type":"string","value":"bsc"},{"name":"no","type":"int","value":0},{"name":"zM","type":"int","value":0}],"gid":8,"width":90,"height":60},{"id":466,"x":2070,"y":2100,"visible":true,"properties":[{"name":"layer","type":"int","value":1},{"name":"resource_index","type":"int","value":453},{"name":"u","type":"string","value":"bsc"},{"name":"no","type":"int","value":0},{"name":"zM","type":"int","value":0}],"gid":8,"width":90,"height":60},{"id":467,"x":2070,"y":2040,"visible":true,"properties":[{"name":"layer","type":"int","value":1},{"name":"resource_index","type":"int","value":454},{"name":"u","type":"string","value":"bsc"},{"name":"no","type":"int","value":0},{"name":"zM","type":"int","value":0}],"gid":8,"width":90,"height":60},{"id":468,"x":2160,"y":1920,"visible":true,"properties":[{"name":"layer","type":"int","value":1},{"name":"resource_index","type":"int","value":455},{"name":"u","type":"string","value":"bsc"},{"name":"no","type":"int","value":0},{"name":"zM","type":"int","value":0}],"gid":8,"width":90,"height":60},{"id":469,"x":2250,"y":2040,"visible":true,"properties":[{"name":"layer","type":"int","value":1},{"name":"resource_index","type":"int","value":456},{"name":"u","type":"string","value":"bsc"},{"name":"no","type":"int","value":0},{"name":"zM","type":"int","value":0}],"gid":8,"width":90,"height":60},{"id":470,"x":2160,"y":1860,"visible":true,"properties":[{"name":"layer","type":"int","value":1},{"name":"resource_index","type":"int","value":457},{"name":"u","type":"string","value":"bsc"},{"name":"no","type":"int","value":0},{"name":"zM","type":"int","value":0}],"gid":8,"width":90,"height":60},{"id":471,"x":2430,"y":2100,"visible":true,"properties":[{"name":"layer","type":"int","value":1},{"name":"resource_index","type":"int","value":458},{"name":"u","type":"string","value":"enV1"},{"name":"no","type":"int","value":3},{"name":"zM","type":"int","value":0}],"gid":12,"width":41,"height":60},{"id":472,"x":2250,"y":1980,"visible":true,"properties":[{"name":"layer","type":"int","value":1},{"name":"resource_index","type":"int","value":459},{"name":"u","type":"string","value":"bsc"},{"name":"no","type":"int","value":0},{"name":"zM","type":"int","value":0}],"gid":8,"width":90,"height":60},{"id":473,"x":2250,"y":1920,"visible":true,"properties":[{"name":"layer","type":"int","value":1},{"name":"resource_index","type":"int","value":460},{"name":"u","type":"string","value":"bsc"},{"name":"no","type":"int","value":0},{"name":"zM","type":"int","value":0}],"gid":8,"width":90,"height":60},{"id":474,"x":2070,"y":1620,"visible":true,"properties":[{"name":"layer","type":"int","value":1},{"name":"resource_index","type":"int","value":461},{"name":"u","type":"string","value":"bsc"},{"name":"no","type":"int","value":0},{"name":"zM","type":"int","value":0}],"gid":8,"width":90,"height":60},{"id":475,"x":2160,"y":1800,"visible":true,"properties":[{"name":"layer","type":"int","value":1},{"name":"resource_index","type":"int","value":462},{"name":"u","type":"string","value":"bsc"},{"name":"no","type":"int","value":0},{"name":"zM","type":"int","value":0}],"gid":8,"width":90,"height":60},{"id":476,"x":2250,"y":1800,"visible":true,"properties":[{"name":"layer","type":"int","value":1},{"name":"resource_index","type":"int","value":463},{"name":"u","type":"string","value":"bsc"},{"name":"no","type":"int","value":0},{"name":"zM","type":"int","value":0}],"gid":8,"width":90,"height":60},{"id":477,"x":2160,"y":1740,"visible":true,"properties":[{"name":"layer","type":"int","value":1},{"name":"resource_index","type":"int","value":464},{"name":"u","type":"string","value":"bsc"},{"name":"no","type":"int","value":0},{"name":"zM","type":"int","value":0}],"gid":8,"width":90,"height":60},{"id":478,"x":1980,"y":1560,"visible":true,"properties":[{"name":"layer","type":"int","value":1},{"name":"resource_index","type":"int","value":465},{"name":"u","type":"string","value":"bsc"},{"name":"no","type":"int","value":0},{"name":"zM","type":"int","value":0}],"gid":8,"width":90,"height":60},{"id":479,"x":2160,"y":1680,"visible":true,"properties":[{"name":"layer","type":"int","value":1},{"name":"resource_index","type":"int","value":466},{"name":"u","type":"string","value":"bsc"},{"name":"no","type":"int","value":0},{"name":"zM","type":"int","value":0}],"gid":8,"width":90,"height":60},{"id":480,"x":2250,"y":1740,"visible":true,"properties":[{"name":"layer","type":"int","value":1},{"name":"resource_index","type":"int","value":467},{"name":"u","type":"string","value":"bsc"},{"name":"no","type":"int","value":0},{"name":"zM","type":"int","value":0}],"gid":8,"width":90,"height":60},{"id":481,"x":2160,"y":1620,"visible":true,"properties":[{"name":"layer","type":"int","value":1},{"name":"resource_index","type":"int","value":468},{"name":"u","type":"string","value":"bsc"},{"name":"no","type":"int","value":0},{"name":"zM","type":"int","value":0}],"gid":8,"width":90,"height":60},{"id":482,"x":2430,"y":1440,"visible":true,"properties":[{"name":"layer","type":"int","value":1},{"name":"resource_index","type":"int","value":469},{"name":"u","type":"string","value":"enV1"},{"name":"no","type":"int","value":3},{"name":"zM","type":"int","value":0}],"gid":12,"width":41,"height":60},{"id":483,"x":2070,"y":1080,"visible":true,"properties":[{"name":"layer","type":"int","value":1},{"name":"resource_index","type":"int","value":470},{"name":"u","type":"string","value":"enH0"},{"name":"no","type":"int","value":1},{"name":"zM","type":"int","value":0}],"gid":20,"width":90,"height":71},{"id":484,"x":2070,"y":1140,"visible":true,"properties":[{"name":"layer","type":"int","value":1},{"name":"resource_index","type":"int","value":471},{"name":"u","type":"string","value":"bsc"},{"name":"no","type":"int","value":0},{"name":"zM","type":"int","value":0}],"gid":8,"width":90,"height":60},{"id":485,"x":2250,"y":1680,"visible":true,"properties":[{"name":"layer","type":"int","value":1},{"name":"resource_index","type":"int","value":472},{"name":"u","type":"string","value":"bsc"},{"name":"no","type":"int","value":0},{"name":"zM","type":"int","value":0}],"gid":8,"width":90,"height":60},{"id":486,"x":2160,"y":1560,"visible":true,"properties":[{"name":"layer","type":"int","value":1},{"name":"resource_index","type":"int","value":473},{"name":"u","type":"string","value":"bsc"},{"name":"no","type":"int","value":0},{"name":"zM","type":"int","value":0}],"gid":8,"width":90,"height":60},{"id":487,"x":2430,"y":1920,"visible":true,"properties":[{"name":"layer","type":"int","value":1},{"name":"resource_index","type":"int","value":474},{"name":"u","type":"string","value":"enV1"},{"name":"no","type":"int","value":0},{"name":"zM","type":"int","value":0}],"gid":18,"width":33,"height":60},{"id":488,"x":2070,"y":1740,"visible":true,"properties":[{"name":"layer","type":"int","value":1},{"name":"resource_index","type":"int","value":475},{"name":"u","type":"string","value":"bsc"},{"name":"no","type":"int","value":0},{"name":"zM","type":"int","value":0}],"gid":8,"width":90,"height":60},{"id":489,"x":1980,"y":600,"visible":true,"properties":[{"name":"layer","type":"int","value":1},{"name":"resource_index","type":"int","value":476},{"name":"u","type":"string","value":"slLU"},{"name":"no","type":"int","value":0},{"name":"zM","type":"int","value":81}],"gid":26,"width":90,"height":128},{"id":490,"x":1951,"y":1260,"visible":true,"properties":[{"name":"layer","type":"int","value":1},{"name":"resource_index","type":"int","value":477},{"name":"u","type":"string","value":"enV0"},{"name":"no","type":"int","value":3},{"name":"zM","type":"int","value":0}],"gid":14,"width":29,"height":60},{"id":491,"x":2070,"y":1320,"visible":true,"properties":[{"name":"layer","type":"int","value":1},{"name":"resource_index","type":"int","value":478},{"name":"u","type":"string","value":"bsc"},{"name":"no","type":"int","value":0},{"name":"zM","type":"int","value":0}],"gid":8,"width":90,"height":60},{"id":492,"x":2070,"y":1560,"visible":true,"properties":[{"name":"layer","type":"int","value":1},{"name":"resource_index","type":"int","value":479},{"name":"u","type":"string","value":"bsc"},{"name":"no","type":"int","value":0},{"name":"zM","type":"int","value":0}],"gid":8,"width":90,"height":60},{"id":493,"x":1980,"y":1380,"visible":true,"properties":[{"name":"layer","type":"int","value":1},{"name":"resource_index","type":"int","value":480},{"name":"u","type":"string","value":"bsc"},{"name":"no","type":"int","value":0},{"name":"zM","type":"int","value":0}],"gid":8,"width":90,"height":60},{"id":494,"x":2160,"y":1200,"visible":true,"properties":[{"name":"layer","type":"int","value":1},{"name":"resource_index","type":"int","value":481},{"name":"u","type":"string","value":"bsc"},{"name":"no","type":"int","value":0},{"name":"zM","type":"int","value":0}],"gid":8,"width":90,"height":60},{"id":495,"x":2340,"y":1860,"visible":true,"properties":[{"name":"layer","type":"int","value":1},{"name":"resource_index","type":"int","value":482},{"name":"u","type":"string","value":"bsc"},{"name":"no","type":"int","value":0},{"name":"zM","type":"int","value":0}],"gid":8,"width":90,"height":60},{"id":496,"x":2160,"y":1260,"visible":true,"properties":[{"name":"layer","type":"int","value":1},{"name":"resource_index","type":"int","value":483},{"name":"u","type":"string","value":"bsc"},{"name":"no","type":"int","value":0},{"name":"zM","type":"int","value":0}],"gid":8,"width":90,"height":60},{"id":497,"x":2250,"y":1560,"visible":true,"properties":[{"name":"layer","type":"int","value":1},{"name":"resource_index","type":"int","value":484},{"name":"u","type":"string","value":"bsc"},{"name":"no","type":"int","value":0},{"name":"zM","type":"int","value":0}],"gid":8,"width":90,"height":60},{"id":498,"x":2160,"y":1380,"visible":true,"properties":[{"name":"layer","type":"int","value":1},{"name":"resource_index","type":"int","value":485},{"name":"u","type":"string","value":"bsc"},{"name":"no","type":"int","value":0},{"name":"zM","type":"int","value":0}],"gid":8,"width":90,"height":60},{"id":499,"x":2250,"y":1500,"visible":true,"properties":[{"name":"layer","type":"int","value":1},{"name":"resource_index","type":"int","value":486},{"name":"u","type":"string","value":"bsc"},{"name":"no","type":"int","value":0},{"name":"zM","type":"int","value":0}],"gid":8,"width":90,"height":60},{"id":500,"x":2250,"y":1140,"visible":true,"properties":[{"name":"layer","type":"int","value":1},{"name":"resource_index","type":"int","value":487},{"name":"u","type":"string","value":"bsc"},{"name":"no","type":"int","value":0},{"name":"zM","type":"int","value":0}],"gid":8,"width":90,"height":60},{"id":501,"x":2340,"y":1200,"visible":true,"properties":[{"name":"layer","type":"int","value":1},{"name":"resource_index","type":"int","value":488},{"name":"u","type":"string","value":"bsc"},{"name":"no","type":"int","value":0},{"name":"zM","type":"int","value":0}],"gid":8,"width":90,"height":60},{"id":502,"x":2160,"y":1140,"visible":true,"properties":[{"name":"layer","type":"int","value":1},{"name":"resource_index","type":"int","value":489},{"name":"u","type":"string","value":"bsc"},{"name":"no","type":"int","value":0},{"name":"zM","type":"int","value":0}],"gid":8,"width":90,"height":60},{"id":503,"x":2250,"y":1320,"visible":true,"properties":[{"name":"layer","type":"int","value":1},{"name":"resource_index","type":"int","value":490},{"name":"u","type":"string","value":"bsc"},{"name":"no","type":"int","value":0},{"name":"zM","type":"int","value":0}],"gid":8,"width":90,"height":60},{"id":504,"x":2160,"y":1080,"visible":true,"properties":[{"name":"layer","type":"int","value":1},{"name":"resource_index","type":"int","value":491},{"name":"u","type":"string","value":"enH0"},{"name":"no","type":"int","value":1},{"name":"zM","type":"int","value":0}],"gid":20,"width":90,"height":71},{"id":505,"x":2340,"y":1320,"visible":true,"properties":[{"name":"layer","type":"int","value":1},{"name":"resource_index","type":"int","value":492},{"name":"u","type":"string","value":"bsc"},{"name":"no","type":"int","value":0},{"name":"zM","type":"int","value":0}],"gid":8,"width":90,"height":60},{"id":506,"x":1773,"y":752,"visible":true,"properties":[{"name":"layer","type":"int","value":1},{"name":"resource_index","type":"int","value":493},{"name":"u","type":"string","value":"edD"},{"name":"no","type":"int","value":0},{"name":"zM","type":"int","value":81}],"gid":17,"width":54,"height":32},{"id":507,"x":2430,"y":1320,"visible":true,"properties":[{"name":"layer","type":"int","value":1},{"name":"resource_index","type":"int","value":494},{"name":"u","type":"string","value":"enV1"},{"name":"no","type":"int","value":2},{"name":"zM","type":"int","value":0}],"gid":16,"width":36,"height":60},{"id":508,"x":2070,"y":1440,"visible":true,"properties":[{"name":"layer","type":"int","value":1},{"name":"resource_index","type":"int","value":495},{"name":"u","type":"string","value":"bsc"},{"name":"no","type":"int","value":0},{"name":"zM","type":"int","value":0}],"gid":8,"width":90,"height":60},{"id":509,"x":2070,"y":660,"visible":true,"properties":[{"name":"layer","type":"int","value":1},{"name":"resource_index","type":"int","value":496},{"name":"u","type":"string","value":"bsc"},{"name":"no","type":"int","value":0},{"name":"zM","type":"int","value":81}],"gid":8,"width":90,"height":60},{"id":510,"x":2070,"y":1260,"visible":true,"properties":[{"name":"layer","type":"int","value":1},{"name":"resource_index","type":"int","value":497},{"name":"u","type":"string","value":"bsc"},{"name":"no","type":"int","value":0},{"name":"zM","type":"int","value":0}],"gid":8,"width":90,"height":60},{"id":511,"x":2160,"y":1500,"visible":true,"properties":[{"name":"layer","type":"int","value":1},{"name":"resource_index","type":"int","value":498},{"name":"u","type":"string","value":"bsc"},{"name":"no","type":"int","value":0},{"name":"zM","type":"int","value":0}],"gid":8,"width":90,"height":60},{"id":512,"x":2070,"y":1200,"visible":true,"properties":[{"name":"layer","type":"int","value":1},{"name":"resource_index","type":"int","value":499},{"name":"u","type":"string","value":"bsc"},{"name":"no","type":"int","value":0},{"name":"zM","type":"int","value":0}],"gid":8,"width":90,"height":60},{"id":513,"x":2160,"y":1440,"visible":true,"properties":[{"name":"layer","type":"int","value":1},{"name":"resource_index","type":"int","value":500},{"name":"u","type":"string","value":"bsc"},{"name":"no","type":"int","value":0},{"name":"zM","type":"int","value":0}],"gid":8,"width":90,"height":60},{"id":514,"x":1980,"y":1200,"visible":true,"properties":[{"name":"layer","type":"int","value":1},{"name":"resource_index","type":"int","value":501},{"name":"u","type":"string","value":"bsc"},{"name":"no","type":"int","value":0},{"name":"zM","type":"int","value":0}],"gid":8,"width":90,"height":60},{"id":515,"x":2160,"y":1320,"visible":true,"properties":[{"name":"layer","type":"int","value":1},{"name":"resource_index","type":"int","value":502},{"name":"u","type":"string","value":"bsc"},{"name":"no","type":"int","value":0},{"name":"zM","type":"int","value":0}],"gid":8,"width":90,"height":60},{"id":516,"x":1980,"y":1320,"visible":true,"properties":[{"name":"layer","type":"int","value":1},{"name":"resource_index","type":"int","value":503},{"name":"u","type":"string","value":"bsc"},{"name":"no","type":"int","value":0},{"name":"zM","type":"int","value":0}],"gid":8,"width":90,"height":60},{"id":517,"x":1951,"y":1200,"visible":true,"properties":[{"name":"layer","type":"int","value":1},{"name":"resource_index","type":"int","value":504},{"name":"u","type":"string","value":"enV0"},{"name":"no","type":"int","value":3},{"name":"zM","type":"int","value":0}],"gid":14,"width":29,"height":60},{"id":518,"x":1953,"y":1140,"visible":true,"properties":[{"name":"layer","type":"int","value":1},{"name":"resource_index","type":"int","value":505},{"name":"u","type":"string","value":"edU"},{"name":"no","type":"int","value":0},{"name":"zM","type":"int","value":0}],"gid":11,"width":54,"height":32},{"id":519,"x":2070,"y":1500,"visible":true,"properties":[{"name":"layer","type":"int","value":1},{"name":"resource_index","type":"int","value":506},{"name":"u","type":"string","value":"bsc"},{"name":"no","type":"int","value":0},{"name":"zM","type":"int","value":0}],"gid":8,"width":90,"height":60},{"id":520,"x":1980,"y":1260,"visible":true,"properties":[{"name":"layer","type":"int","value":1},{"name":"resource_index","type":"int","value":507},{"name":"u","type":"string","value":"bsc"},{"name":"no","type":"int","value":0},{"name":"zM","type":"int","value":0}],"gid":8,"width":90,"height":60},{"id":521,"x":2070,"y":1380,"visible":true,"properties":[{"name":"layer","type":"int","value":1},{"name":"resource_index","type":"int","value":508},{"name":"u","type":"string","value":"bsc"},{"name":"no","type":"int","value":0},{"name":"zM","type":"int","value":0}],"gid":8,"width":90,"height":60},{"id":522,"x":1980,"y":1140,"visible":true,"properties":[{"name":"layer","type":"int","value":1},{"name":"resource_index","type":"int","value":509},{"name":"u","type":"string","value":"slLU"},{"name":"no","type":"int","value":0},{"name":"zM","type":"int","value":0}],"gid":26,"width":90,"height":128},{"id":523,"x":1951,"y":1440,"visible":true,"properties":[{"name":"layer","type":"int","value":1},{"name":"resource_index","type":"int","value":510},{"name":"u","type":"string","value":"enV0"},{"name":"no","type":"int","value":3},{"name":"zM","type":"int","value":0}],"gid":14,"width":29,"height":60},{"id":524,"x":1944,"y":1500,"visible":true,"properties":[{"name":"layer","type":"int","value":1},{"name":"resource_index","type":"int","value":511},{"name":"u","type":"string","value":"enV0"},{"name":"no","type":"int","value":0},{"name":"zM","type":"int","value":0}],"gid":15,"width":36,"height":60},{"id":525,"x":1947,"y":1380,"visible":true,"properties":[{"name":"layer","type":"int","value":1},{"name":"resource_index","type":"int","value":512},{"name":"u","type":"string","value":"enV0"},{"name":"no","type":"int","value":2},{"name":"zM","type":"int","value":0}],"gid":19,"width":33,"height":60},{"id":526,"x":1980,"y":1500,"visible":true,"properties":[{"name":"layer","type":"int","value":1},{"name":"resource_index","type":"int","value":513},{"name":"u","type":"string","value":"bsc"},{"name":"no","type":"int","value":0},{"name":"zM","type":"int","value":0}],"gid":8,"width":90,"height":60},{"id":527,"x":1939,"y":1320,"visible":true,"properties":[{"name":"layer","type":"int","value":1},{"name":"resource_index","type":"int","value":514},{"name":"u","type":"string","value":"enV0"},{"name":"no","type":"int","value":1},{"name":"zM","type":"int","value":0}],"gid":21,"width":41,"height":60},{"id":528,"x":1980,"y":1440,"visible":true,"properties":[{"name":"layer","type":"int","value":1},{"name":"resource_index","type":"int","value":515},{"name":"u","type":"string","value":"bsc"},{"name":"no","type":"int","value":0},{"name":"zM","type":"int","value":0}],"gid":8,"width":90,"height":60},{"id":529,"x":2340,"y":1140,"visible":true,"properties":[{"name":"layer","type":"int","value":1},{"name":"resource_index","type":"int","value":516},{"name":"u","type":"string","value":"bsc"},{"name":"no","type":"int","value":0},{"name":"zM","type":"int","value":0}],"gid":8,"width":90,"height":60},{"id":530,"x":2340,"y":1260,"visible":true,"properties":[{"name":"layer","type":"int","value":1},{"name":"resource_index","type":"int","value":517},{"name":"u","type":"string","value":"bsc"},{"name":"no","type":"int","value":0},{"name":"zM","type":"int","value":0}],"gid":8,"width":90,"height":60},{"id":531,"x":2250,"y":1080,"visible":true,"properties":[{"name":"layer","type":"int","value":1},{"name":"resource_index","type":"int","value":518},{"name":"u","type":"string","value":"enH0"},{"name":"no","type":"int","value":1},{"name":"zM","type":"int","value":0}],"gid":20,"width":90,"height":71},{"id":532,"x":2250,"y":1200,"visible":true,"properties":[{"name":"layer","type":"int","value":1},{"name":"resource_index","type":"int","value":519},{"name":"u","type":"string","value":"bsc"},{"name":"no","type":"int","value":0},{"name":"zM","type":"int","value":0}],"gid":8,"width":90,"height":60},{"id":533,"x":2430,"y":1200,"visible":true,"properties":[{"name":"layer","type":"int","value":1},{"name":"resource_index","type":"int","value":520},{"name":"u","type":"string","value":"enV1"},{"name":"no","type":"int","value":2},{"name":"zM","type":"int","value":0}],"gid":16,"width":36,"height":60},{"id":534,"x":2250,"y":1260,"visible":true,"properties":[{"name":"layer","type":"int","value":1},{"name":"resource_index","type":"int","value":521},{"name":"u","type":"string","value":"bsc"},{"name":"no","type":"int","value":0},{"name":"zM","type":"int","value":0}],"gid":8,"width":90,"height":60},{"id":535,"x":2403,"y":1080,"visible":true,"properties":[{"name":"layer","type":"int","value":1},{"name":"resource_index","type":"int","value":522},{"name":"u","type":"string","value":"edU"},{"name":"no","type":"int","value":0},{"name":"zM","type":"int","value":0}],"gid":11,"width":54,"height":32},{"id":536,"x":2430,"y":1140,"visible":true,"properties":[{"name":"layer","type":"int","value":1},{"name":"resource_index","type":"int","value":523},{"name":"u","type":"string","value":"enV1"},{"name":"no","type":"int","value":0},{"name":"zM","type":"int","value":0}],"gid":18,"width":33,"height":60},{"id":537,"x":2340,"y":1080,"visible":true,"properties":[{"name":"layer","type":"int","value":1},{"name":"resource_index","type":"int","value":524},{"name":"u","type":"string","value":"enH0"},{"name":"no","type":"int","value":1},{"name":"zM","type":"int","value":0}],"gid":20,"width":90,"height":71},{"id":538,"x":2340,"y":1380,"visible":true,"properties":[{"name":"layer","type":"int","value":1},{"name":"resource_index","type":"int","value":525},{"name":"u","type":"string","value":"bsc"},{"name":"no","type":"int","value":0},{"name":"zM","type":"int","value":0}],"gid":8,"width":90,"height":60},{"id":539,"x":2430,"y":1260,"visible":true,"properties":[{"name":"layer","type":"int","value":1},{"name":"resource_index","type":"int","value":526},{"name":"u","type":"string","value":"enV1"},{"name":"no","type":"int","value":3},{"name":"zM","type":"int","value":0}],"gid":12,"width":41,"height":60},{"id":540,"x":2430,"y":1380,"visible":true,"properties":[{"name":"layer","type":"int","value":1},{"name":"resource_index","type":"int","value":527},{"name":"u","type":"string","value":"enV1"},{"name":"no","type":"int","value":1},{"name":"zM","type":"int","value":0}],"gid":24,"width":29,"height":60},{"id":541,"x":2250,"y":1380,"visible":true,"properties":[{"name":"layer","type":"int","value":1},{"name":"resource_index","type":"int","value":528},{"name":"u","type":"string","value":"bsc"},{"name":"no","type":"int","value":0},{"name":"zM","type":"int","value":0}],"gid":8,"width":90,"height":60},{"id":542,"x":2340,"y":1440,"visible":true,"properties":[{"name":"layer","type":"int","value":1},{"name":"resource_index","type":"int","value":529},{"name":"u","type":"string","value":"bsc"},{"name":"no","type":"int","value":0},{"name":"zM","type":"int","value":0}],"gid":8,"width":90,"height":60},{"id":543,"x":2250,"y":1440,"visible":true,"properties":[{"name":"layer","type":"int","value":1},{"name":"resource_index","type":"int","value":530},{"name":"u","type":"string","value":"bsc"},{"name":"no","type":"int","value":0},{"name":"zM","type":"int","value":0}],"gid":8,"width":90,"height":60},{"id":544,"x":2340,"y":1560,"visible":true,"properties":[{"name":"layer","type":"int","value":1},{"name":"resource_index","type":"int","value":531},{"name":"u","type":"string","value":"bsc"},{"name":"no","type":"int","value":0},{"name":"zM","type":"int","value":0}],"gid":8,"width":90,"height":60},{"id":545,"x":2430,"y":1560,"visible":true,"properties":[{"name":"layer","type":"int","value":1},{"name":"resource_index","type":"int","value":532},{"name":"u","type":"string","value":"enV1"},{"name":"no","type":"int","value":3},{"name":"zM","type":"int","value":0}],"gid":12,"width":41,"height":60},{"id":546,"x":2340,"y":1500,"visible":true,"properties":[{"name":"layer","type":"int","value":1},{"name":"resource_index","type":"int","value":533},{"name":"u","type":"string","value":"bsc"},{"name":"no","type":"int","value":0},{"name":"zM","type":"int","value":0}],"gid":8,"width":90,"height":60},{"id":547,"x":2430,"y":1500,"visible":true,"properties":[{"name":"layer","type":"int","value":1},{"name":"resource_index","type":"int","value":534},{"name":"u","type":"string","value":"enV1"},{"name":"no","type":"int","value":1},{"name":"zM","type":"int","value":0}],"gid":24,"width":29,"height":60},{"id":548,"x":2340,"y":1620,"visible":true,"properties":[{"name":"layer","type":"int","value":1},{"name":"resource_index","type":"int","value":535},{"name":"u","type":"string","value":"bsc"},{"name":"no","type":"int","value":0},{"name":"zM","type":"int","value":0}],"gid":8,"width":90,"height":60},{"id":549,"x":2250,"y":1620,"visible":true,"properties":[{"name":"layer","type":"int","value":1},{"name":"resource_index","type":"int","value":536},{"name":"u","type":"string","value":"bsc"},{"name":"no","type":"int","value":0},{"name":"zM","type":"int","value":0}],"gid":8,"width":90,"height":60},{"id":550,"x":2430,"y":1620,"visible":true,"properties":[{"name":"layer","type":"int","value":1},{"name":"resource_index","type":"int","value":537},{"name":"u","type":"string","value":"enV1"},{"name":"no","type":"int","value":2},{"name":"zM","type":"int","value":0}],"gid":16,"width":36,"height":60},{"id":551,"x":2340,"y":1680,"visible":true,"properties":[{"name":"layer","type":"int","value":1},{"name":"resource_index","type":"int","value":538},{"name":"u","type":"string","value":"bsc"},{"name":"no","type":"int","value":0},{"name":"zM","type":"int","value":0}],"gid":8,"width":90,"height":60},{"id":552,"x":2340,"y":1800,"visible":true,"properties":[{"name":"layer","type":"int","value":1},{"name":"resource_index","type":"int","value":539},{"name":"u","type":"string","value":"bsc"},{"name":"no","type":"int","value":0},{"name":"zM","type":"int","value":0}],"gid":8,"width":90,"height":60},{"id":553,"x":2430,"y":1680,"visible":true,"properties":[{"name":"layer","type":"int","value":1},{"name":"resource_index","type":"int","value":540},{"name":"u","type":"string","value":"enV1"},{"name":"no","type":"int","value":3},{"name":"zM","type":"int","value":0}],"gid":12,"width":41,"height":60},{"id":554,"x":2340,"y":1920,"visible":true,"properties":[{"name":"layer","type":"int","value":1},{"name":"resource_index","type":"int","value":541},{"name":"u","type":"string","value":"bsc"},{"name":"no","type":"int","value":0},{"name":"zM","type":"int","value":0}],"gid":8,"width":90,"height":60},{"id":555,"x":2430,"y":1740,"visible":true,"properties":[{"name":"layer","type":"int","value":1},{"name":"resource_index","type":"int","value":542},{"name":"u","type":"string","value":"enV1"},{"name":"no","type":"int","value":0},{"name":"zM","type":"int","value":0}],"gid":18,"width":33,"height":60},{"id":556,"x":2340,"y":1980,"visible":true,"properties":[{"name":"layer","type":"int","value":1},{"name":"resource_index","type":"int","value":543},{"name":"u","type":"string","value":"bsc"},{"name":"no","type":"int","value":0},{"name":"zM","type":"int","value":0}],"gid":8,"width":90,"height":60},{"id":557,"x":2340,"y":1740,"visible":true,"properties":[{"name":"layer","type":"int","value":1},{"name":"resource_index","type":"int","value":544},{"name":"u","type":"string","value":"bsc"},{"name":"no","type":"int","value":0},{"name":"zM","type":"int","value":0}],"gid":8,"width":90,"height":60},{"id":558,"x":2430,"y":1980,"visible":true,"properties":[{"name":"layer","type":"int","value":1},{"name":"resource_index","type":"int","value":545},{"name":"u","type":"string","value":"enV1"},{"name":"no","type":"int","value":1},{"name":"zM","type":"int","value":0}],"gid":24,"width":29,"height":60},{"id":559,"x":2430,"y":1800,"visible":true,"properties":[{"name":"layer","type":"int","value":1},{"name":"resource_index","type":"int","value":546},{"name":"u","type":"string","value":"enV1"},{"name":"no","type":"int","value":2},{"name":"zM","type":"int","value":0}],"gid":16,"width":36,"height":60},{"id":560,"x":2250,"y":1860,"visible":true,"properties":[{"name":"layer","type":"int","value":1},{"name":"resource_index","type":"int","value":547},{"name":"u","type":"string","value":"bsc"},{"name":"no","type":"int","value":0},{"name":"zM","type":"int","value":0}],"gid":8,"width":90,"height":60},{"id":561,"x":2430,"y":1860,"visible":true,"properties":[{"name":"layer","type":"int","value":1},{"name":"resource_index","type":"int","value":548},{"name":"u","type":"string","value":"enV1"},{"name":"no","type":"int","value":2},{"name":"zM","type":"int","value":0}],"gid":16,"width":36,"height":60},{"id":562,"x":2340,"y":2040,"visible":true,"properties":[{"name":"layer","type":"int","value":1},{"name":"resource_index","type":"int","value":549},{"name":"u","type":"string","value":"bsc"},{"name":"no","type":"int","value":0},{"name":"zM","type":"int","value":0}],"gid":8,"width":90,"height":60},{"id":563,"x":2430,"y":2040,"visible":true,"properties":[{"name":"layer","type":"int","value":1},{"name":"resource_index","type":"int","value":550},{"name":"u","type":"string","value":"enV1"},{"name":"no","type":"int","value":0},{"name":"zM","type":"int","value":0}],"gid":18,"width":33,"height":60},{"id":564,"x":2250,"y":2171,"visible":true,"properties":[{"name":"layer","type":"int","value":1},{"name":"resource_index","type":"int","value":551},{"name":"u","type":"string","value":"enH1"},{"name":"no","type":"int","value":1},{"name":"zM","type":"int","value":0}],"gid":9,"width":90,"height":71},{"id":565,"x":2403,"y":2132,"visible":true,"properties":[{"name":"layer","type":"int","value":1},{"name":"resource_index","type":"int","value":552},{"name":"u","type":"string","value":"edD"},{"name":"no","type":"int","value":0},{"name":"zM","type":"int","value":0}],"gid":17,"width":54,"height":32},{"id":566,"x":2340,"y":2171,"visible":true,"properties":[{"name":"layer","type":"int","value":1},{"name":"resource_index","type":"int","value":553},{"name":"u","type":"string","value":"enH1"},{"name":"no","type":"int","value":1},{"name":"zM","type":"int","value":0}],"gid":9,"width":90,"height":71},{"id":567,"x":423,"y":300,"visible":true,"properties":[{"name":"layer","type":"int","value":1},{"name":"resource_index","type":"int","value":554},{"name":"u","type":"string","value":"edU"},{"name":"no","type":"int","value":0},{"name":"zM","type":"int","value":112}],"gid":11,"width":54,"height":32},{"id":568,"x":423,"y":332,"visible":true,"properties":[{"name":"layer","type":"int","value":1},{"name":"resource_index","type":"int","value":555},{"name":"u","type":"string","value":"edD"},{"name":"no","type":"int","value":0},{"name":"zM","type":"int","value":112}],"gid":17,"width":54,"height":32},{"id":569,"x":450,"y":428,"visible":true,"properties":[{"name":"layer","type":"int","value":1},{"name":"resource_index","type":"int","value":556},{"name":"u","type":"string","value":"slLD"},{"name":"no","type":"int","value":0},{"name":"zM","type":"int","value":112}],"gid":25,"width":90,"height":128},{"id":570,"x":450,"y":300,"visible":true,"properties":[{"name":"layer","type":"int","value":1},{"name":"resource_index","type":"int","value":557},{"name":"u","type":"string","value":"slLU"},{"name":"no","type":"int","value":0},{"name":"zM","type":"int","value":112}],"gid":26,"width":90,"height":128},{"id":571,"x":540,"y":360,"visible":true,"properties":[{"name":"layer","type":"int","value":1},{"name":"resource_index","type":"int","value":558},{"name":"u","type":"string","value":"bsc"},{"name":"no","type":"int","value":0},{"name":"zM","type":"int","value":112}],"gid":8,"width":90,"height":60},{"id":572,"x":630,"y":240,"visible":true,"properties":[{"name":"layer","type":"int","value":1},{"name":"resource_index","type":"int","value":559},{"name":"u","type":"string","value":"enH0"},{"name":"no","type":"int","value":0},{"name":"zM","type":"int","value":112}],"gid":13,"width":90,"height":56},{"id":573,"x":900,"y":360,"visible":true,"properties":[{"name":"layer","type":"int","value":1},{"name":"resource_index","type":"int","value":560},{"name":"u","type":"string","value":"bsc"},{"name":"no","type":"int","value":0},{"name":"zM","type":"int","value":112}],"gid":8,"width":90,"height":60},{"id":574,"x":810,"y":240,"visible":true,"properties":[{"name":"layer","type":"int","value":1},{"name":"resource_index","type":"int","value":561},{"name":"u","type":"string","value":"enH0"},{"name":"no","type":"int","value":0},{"name":"zM","type":"int","value":112}],"gid":13,"width":90,"height":56},{"id":575,"x":900,"y":300,"visible":true,"properties":[{"name":"layer","type":"int","value":1},{"name":"resource_index","type":"int","value":562},{"name":"u","type":"string","value":"bsc"},{"name":"no","type":"int","value":0},{"name":"zM","type":"int","value":112}],"gid":8,"width":90,"height":60},{"id":576,"x":810,"y":360,"visible":true,"properties":[{"name":"layer","type":"int","value":1},{"name":"resource_index","type":"int","value":563},{"name":"u","type":"string","value":"bsc"},{"name":"no","type":"int","value":0},{"name":"zM","type":"int","value":112}],"gid":8,"width":90,"height":60},{"id":577,"x":720,"y":360,"visible":true,"properties":[{"name":"layer","type":"int","value":1},{"name":"resource_index","type":"int","value":564},{"name":"u","type":"string","value":"bsc"},{"name":"no","type":"int","value":0},{"name":"zM","type":"int","value":112}],"gid":8,"width":90,"height":60},{"id":578,"x":720,"y":300,"visible":true,"properties":[{"name":"layer","type":"int","value":1},{"name":"resource_index","type":"int","value":565},{"name":"u","type":"string","value":"bsc"},{"name":"no","type":"int","value":0},{"name":"zM","type":"int","value":112}],"gid":8,"width":90,"height":60},{"id":579,"x":630,"y":360,"visible":true,"properties":[{"name":"layer","type":"int","value":1},{"name":"resource_index","type":"int","value":566},{"name":"u","type":"string","value":"bsc"},{"name":"no","type":"int","value":0},{"name":"zM","type":"int","value":112}],"gid":8,"width":90,"height":60},{"id":580,"x":-90,"y":360,"visible":true,"properties":[{"name":"layer","type":"int","value":1},{"name":"resource_index","type":"int","value":567},{"name":"u","type":"string","value":"bsc"},{"name":"no","type":"int","value":0},{"name":"zM","type":"int","value":94}],"gid":8,"width":90,"height":60},{"id":581,"x":990,"y":428,"visible":true,"properties":[{"name":"layer","type":"int","value":1},{"name":"resource_index","type":"int","value":568},{"name":"u","type":"string","value":"slRD"},{"name":"no","type":"int","value":0},{"name":"zM","type":"int","value":112}],"gid":23,"width":90,"height":128},{"id":582,"x":990,"y":300,"visible":true,"properties":[{"name":"layer","type":"int","value":1},{"name":"resource_index","type":"int","value":569},{"name":"u","type":"string","value":"slRU"},{"name":"no","type":"int","value":0},{"name":"zM","type":"int","value":112}],"gid":22,"width":90,"height":128},{"id":583,"x":1053,"y":300,"visible":true,"properties":[{"name":"layer","type":"int","value":1},{"name":"resource_index","type":"int","value":570},{"name":"u","type":"string","value":"edU"},{"name":"no","type":"int","value":0},{"name":"zM","type":"int","value":112}],"gid":11,"width":54,"height":32},{"id":584,"x":1053,"y":332,"visible":true,"properties":[{"name":"layer","type":"int","value":1},{"name":"resource_index","type":"int","value":571},{"name":"u","type":"string","value":"edD"},{"name":"no","type":"int","value":0},{"name":"zM","type":"int","value":112}],"gid":17,"width":54,"height":32},{"id":585,"x":-270,"y":300,"visible":true,"properties":[{"name":"layer","type":"int","value":1},{"name":"resource_index","type":"int","value":572},{"name":"u","type":"string","value":"bsc"},{"name":"no","type":"int","value":0},{"name":"zM","type":"int","value":94}],"gid":8,"width":90,"height":60},{"id":586,"x":-180,"y":300,"visible":true,"properties":[{"name":"layer","type":"int","value":1},{"name":"resource_index","type":"int","value":573},{"name":"u","type":"string","value":"bsc"},{"name":"no","type":"int","value":0},{"name":"zM","type":"int","value":94}],"gid":8,"width":90,"height":60},{"id":587,"x":540,"y":300,"visible":true,"properties":[{"name":"layer","type":"int","value":1},{"name":"resource_index","type":"int","value":574},{"name":"u","type":"string","value":"bsc"},{"name":"no","type":"int","value":0},{"name":"zM","type":"int","value":112}],"gid":8,"width":90,"height":60},{"id":588,"x":540,"y":240,"visible":true,"properties":[{"name":"layer","type":"int","value":1},{"name":"resource_index","type":"int","value":575},{"name":"u","type":"string","value":"enH0"},{"name":"no","type":"int","value":1},{"name":"zM","type":"int","value":112}],"gid":20,"width":90,"height":71},{"id":589,"x":630,"y":300,"visible":true,"properties":[{"name":"layer","type":"int","value":1},{"name":"resource_index","type":"int","value":576},{"name":"u","type":"string","value":"bsc"},{"name":"no","type":"int","value":0},{"name":"zM","type":"int","value":112}],"gid":8,"width":90,"height":60},{"id":590,"x":720,"y":240,"visible":true,"properties":[{"name":"layer","type":"int","value":1},{"name":"resource_index","type":"int","value":577},{"name":"u","type":"string","value":"enH0"},{"name":"no","type":"int","value":1},{"name":"zM","type":"int","value":112}],"gid":20,"width":90,"height":71},{"id":591,"x":900,"y":240,"visible":true,"properties":[{"name":"layer","type":"int","value":1},{"name":"resource_index","type":"int","value":578},{"name":"u","type":"string","value":"enH0"},{"name":"no","type":"int","value":0},{"name":"zM","type":"int","value":112}],"gid":13,"width":90,"height":56},{"id":592,"x":-180,"y":240,"visible":true,"properties":[{"name":"layer","type":"int","value":1},{"name":"resource_index","type":"int","value":579},{"name":"u","type":"string","value":"slRU"},{"name":"no","type":"int","value":0},{"name":"zM","type":"int","value":94}],"gid":22,"width":90,"height":128},{"id":593,"x":810,"y":300,"visible":true,"properties":[{"name":"layer","type":"int","value":1},{"name":"resource_index","type":"int","value":580},{"name":"u","type":"string","value":"bsc"},{"name":"no","type":"int","value":0},{"name":"zM","type":"int","value":112}],"gid":8,"width":90,"height":60},{"id":594,"x":540,"y":488,"visible":true,"properties":[{"name":"layer","type":"int","value":1},{"name":"resource_index","type":"int","value":581},{"name":"u","type":"string","value":"slLD"},{"name":"no","type":"int","value":0},{"name":"zM","type":"int","value":112}],"gid":25,"width":90,"height":128},{"id":595,"x":513,"y":392,"visible":true,"properties":[{"name":"layer","type":"int","value":1},{"name":"resource_index","type":"int","value":582},{"name":"u","type":"string","value":"edD"},{"name":"no","type":"int","value":0},{"name":"zM","type":"int","value":112}],"gid":17,"width":54,"height":32},{"id":596,"x":630,"y":420,"visible":true,"properties":[{"name":"layer","type":"int","value":1},{"name":"resource_index","type":"int","value":583},{"name":"u","type":"string","value":"bsc"},{"name":"no","type":"int","value":0},{"name":"zM","type":"int","value":112}],"gid":8,"width":90,"height":60},{"id":597,"x":504,"y":360,"visible":true,"properties":[{"name":"layer","type":"int","value":1},{"name":"resource_index","type":"int","value":584},{"name":"u","type":"string","value":"enV0"},{"name":"no","type":"int","value":0},{"name":"zM","type":"int","value":112}],"gid":15,"width":36,"height":60},{"id":598,"x":0,"y":360,"visible":true,"properties":[{"name":"layer","type":"int","value":1},{"name":"resource_index","type":"int","value":585},{"name":"u","type":"string","value":"enV1"},{"name":"no","type":"int","value":3},{"name":"zM","type":"int","value":94}],"gid":12,"width":41,"height":60},{"id":599,"x":720,"y":420,"visible":true,"properties":[{"name":"layer","type":"int","value":1},{"name":"resource_index","type":"int","value":586},{"name":"u","type":"string","value":"bsc"},{"name":"no","type":"int","value":0},{"name":"zM","type":"int","value":112}],"gid":8,"width":90,"height":60},{"id":600,"x":900,"y":488,"visible":true,"properties":[{"name":"layer","type":"int","value":1},{"name":"resource_index","type":"int","value":587},{"name":"u","type":"string","value":"slRD"},{"name":"no","type":"int","value":0},{"name":"zM","type":"int","value":112}],"gid":23,"width":90,"height":128},{"id":601,"x":963,"y":392,"visible":true,"properties":[{"name":"layer","type":"int","value":1},{"name":"resource_index","type":"int","value":588},{"name":"u","type":"string","value":"edD"},{"name":"no","type":"int","value":0},{"name":"zM","type":"int","value":112}],"gid":17,"width":54,"height":32},{"id":602,"x":810,"y":420,"visible":true,"properties":[{"name":"layer","type":"int","value":1},{"name":"resource_index","type":"int","value":589},{"name":"u","type":"string","value":"bsc"},{"name":"no","type":"int","value":0},{"name":"zM","type":"int","value":112}],"gid":8,"width":90,"height":60},{"id":603,"x":601,"y":420,"visible":true,"properties":[{"name":"layer","type":"int","value":1},{"name":"resource_index","type":"int","value":590},{"name":"u","type":"string","value":"enV0"},{"name":"no","type":"int","value":3},{"name":"zM","type":"int","value":112}],"gid":14,"width":29,"height":60},{"id":604,"x":603,"y":452,"visible":true,"properties":[{"name":"layer","type":"int","value":1},{"name":"resource_index","type":"int","value":591},{"name":"u","type":"string","value":"edD"},{"name":"no","type":"int","value":0},{"name":"zM","type":"int","value":112}],"gid":17,"width":54,"height":32},{"id":605,"x":720,"y":491,"visible":true,"properties":[{"name":"layer","type":"int","value":1},{"name":"resource_index","type":"int","value":592},{"name":"u","type":"string","value":"enH1"},{"name":"no","type":"int","value":1},{"name":"zM","type":"int","value":112}],"gid":9,"width":90,"height":71},{"id":606,"x":-270,"y":180,"visible":true,"properties":[{"name":"layer","type":"int","value":1},{"name":"resource_index","type":"int","value":593},{"name":"u","type":"string","value":"slRU"},{"name":"no","type":"int","value":0},{"name":"zM","type":"int","value":94}],"gid":22,"width":90,"height":128},{"id":607,"x":873,"y":452,"visible":true,"properties":[{"name":"layer","type":"int","value":1},{"name":"resource_index","type":"int","value":594},{"name":"u","type":"string","value":"edD"},{"name":"no","type":"int","value":0},{"name":"zM","type":"int","value":112}],"gid":17,"width":54,"height":32},{"id":608,"x":630,"y":476,"visible":true,"properties":[{"name":"layer","type":"int","value":1},{"name":"resource_index","type":"int","value":595},{"name":"u","type":"string","value":"enH1"},{"name":"no","type":"int","value":0},{"name":"zM","type":"int","value":112}],"gid":10,"width":90,"height":56},{"id":609,"x":810,"y":476,"visible":true,"properties":[{"name":"layer","type":"int","value":1},{"name":"resource_index","type":"int","value":596},{"name":"u","type":"string","value":"enH1"},{"name":"no","type":"int","value":0},{"name":"zM","type":"int","value":112}],"gid":10,"width":90,"height":56},{"id":610,"x":630,"y":840,"visible":true,"properties":[{"name":"layer","type":"int","value":1},{"name":"resource_index","type":"int","value":597},{"name":"u","type":"string","value":"bsc"},{"name":"no","type":"int","value":0},{"name":"zM","type":"int","value":75}],"gid":8,"width":90,"height":60},{"id":611,"x":630,"y":780,"visible":true,"properties":[{"name":"layer","type":"int","value":1},{"name":"resource_index","type":"int","value":598},{"name":"u","type":"string","value":"slLU"},{"name":"no","type":"int","value":0},{"name":"zM","type":"int","value":75}],"gid":26,"width":90,"height":128},{"id":612,"x":720,"y":840,"visible":true,"properties":[{"name":"layer","type":"int","value":1},{"name":"resource_index","type":"int","value":599},{"name":"u","type":"string","value":"bsc"},{"name":"no","type":"int","value":0},{"name":"zM","type":"int","value":75}],"gid":8,"width":90,"height":60},{"id":613,"x":900,"y":780,"visible":true,"properties":[{"name":"layer","type":"int","value":1},{"name":"resource_index","type":"int","value":600},{"name":"u","type":"string","value":"bsc"},{"name":"no","type":"int","value":0},{"name":"zM","type":"int","value":75}],"gid":8,"width":90,"height":60},{"id":614,"x":900,"y":840,"visible":true,"properties":[{"name":"layer","type":"int","value":1},{"name":"resource_index","type":"int","value":601},{"name":"u","type":"string","value":"bsc"},{"name":"no","type":"int","value":0},{"name":"zM","type":"int","value":75}],"gid":8,"width":90,"height":60},{"id":615,"x":2250,"y":720,"visible":true,"properties":[{"name":"layer","type":"int","value":1},{"name":"resource_index","type":"int","value":602},{"name":"u","type":"string","value":"bsc"},{"name":"no","type":"int","value":0},{"name":"zM","type":"int","value":81}],"gid":8,"width":90,"height":60},{"id":616,"x":810,"y":840,"visible":true,"properties":[{"name":"layer","type":"int","value":1},{"name":"resource_index","type":"int","value":603},{"name":"u","type":"string","value":"bsc"},{"name":"no","type":"int","value":0},{"name":"zM","type":"int","value":75}],"gid":8,"width":90,"height":60},{"id":617,"x":900,"y":720,"visible":true,"properties":[{"name":"layer","type":"int","value":1},{"name":"resource_index","type":"int","value":604},{"name":"u","type":"string","value":"enH0"},{"name":"no","type":"int","value":0},{"name":"zM","type":"int","value":75}],"gid":13,"width":90,"height":56},{"id":618,"x":1080,"y":840,"visible":true,"properties":[{"name":"layer","type":"int","value":1},{"name":"resource_index","type":"int","value":605},{"name":"u","type":"string","value":"bsc"},{"name":"no","type":"int","value":0},{"name":"zM","type":"int","value":75}],"gid":8,"width":90,"height":60},{"id":619,"x":1080,"y":780,"visible":true,"properties":[{"name":"layer","type":"int","value":1},{"name":"resource_index","type":"int","value":606},{"name":"u","type":"string","value":"slRU"},{"name":"no","type":"int","value":0},{"name":"zM","type":"int","value":75}],"gid":22,"width":90,"height":128},{"id":620,"x":2160,"y":660,"visible":true,"properties":[{"name":"layer","type":"int","value":1},{"name":"resource_index","type":"int","value":607},{"name":"u","type":"string","value":"bsc"},{"name":"no","type":"int","value":0},{"name":"zM","type":"int","value":81}],"gid":8,"width":90,"height":60},{"id":621,"x":990,"y":840,"visible":true,"properties":[{"name":"layer","type":"int","value":1},{"name":"resource_index","type":"int","value":608},{"name":"u","type":"string","value":"bsc"},{"name":"no","type":"int","value":0},{"name":"zM","type":"int","value":75}],"gid":8,"width":90,"height":60},{"id":622,"x":1170,"y":908,"visible":true,"properties":[{"name":"layer","type":"int","value":1},{"name":"resource_index","type":"int","value":609},{"name":"u","type":"string","value":"slRD"},{"name":"no","type":"int","value":0},{"name":"zM","type":"int","value":75}],"gid":23,"width":90,"height":128},{"id":623,"x":1170,"y":780,"visible":true,"properties":[{"name":"layer","type":"int","value":1},{"name":"resource_index","type":"int","value":610},{"name":"u","type":"string","value":"enH0"},{"name":"no","type":"int","value":1},{"name":"zM","type":"int","value":75}],"gid":20,"width":90,"height":71},{"id":624,"x":540,"y":908,"visible":true,"properties":[{"name":"layer","type":"int","value":1},{"name":"resource_index","type":"int","value":611},{"name":"u","type":"string","value":"slLD"},{"name":"no","type":"int","value":0},{"name":"zM","type":"int","value":75}],"gid":25,"width":90,"height":128},{"id":625,"x":540,"y":780,"visible":true,"properties":[{"name":"layer","type":"int","value":1},{"name":"resource_index","type":"int","value":612},{"name":"u","type":"string","value":"enH0"},{"name":"no","type":"int","value":0},{"name":"zM","type":"int","value":75}],"gid":13,"width":90,"height":56},{"id":626,"x":1233,"y":780,"visible":true,"properties":[{"name":"layer","type":"int","value":1},{"name":"resource_index","type":"int","value":613},{"name":"u","type":"string","value":"edU"},{"name":"no","type":"int","value":0},{"name":"zM","type":"int","value":75}],"gid":11,"width":54,"height":32},{"id":627,"x":1233,"y":812,"visible":true,"properties":[{"name":"layer","type":"int","value":1},{"name":"resource_index","type":"int","value":614},{"name":"u","type":"string","value":"edD"},{"name":"no","type":"int","value":0},{"name":"zM","type":"int","value":75}],"gid":17,"width":54,"height":32},{"id":628,"x":513,"y":780,"visible":true,"properties":[{"name":"layer","type":"int","value":1},{"name":"resource_index","type":"int","value":615},{"name":"u","type":"string","value":"edU"},{"name":"no","type":"int","value":0},{"name":"zM","type":"int","value":75}],"gid":11,"width":54,"height":32},{"id":629,"x":513,"y":812,"visible":true,"properties":[{"name":"layer","type":"int","value":1},{"name":"resource_index","type":"int","value":616},{"name":"u","type":"string","value":"edD"},{"name":"no","type":"int","value":0},{"name":"zM","type":"int","value":75}],"gid":17,"width":54,"height":32},{"id":630,"x":900,"y":896,"visible":true,"properties":[{"name":"layer","type":"int","value":1},{"name":"resource_index","type":"int","value":617},{"name":"u","type":"string","value":"enH1"},{"name":"no","type":"int","value":0},{"name":"zM","type":"int","value":75}],"gid":10,"width":90,"height":56},{"id":631,"x":810,"y":911,"visible":true,"properties":[{"name":"layer","type":"int","value":1},{"name":"resource_index","type":"int","value":618},{"name":"u","type":"string","value":"enH1"},{"name":"no","type":"int","value":1},{"name":"zM","type":"int","value":75}],"gid":9,"width":90,"height":71},{"id":632,"x":601,"y":840,"visible":true,"properties":[{"name":"layer","type":"int","value":1},{"name":"resource_index","type":"int","value":619},{"name":"u","type":"string","value":"enV0"},{"name":"no","type":"int","value":3},{"name":"zM","type":"int","value":75}],"gid":14,"width":29,"height":60},{"id":633,"x":630,"y":896,"visible":true,"properties":[{"name":"layer","type":"int","value":1},{"name":"resource_index","type":"int","value":620},{"name":"u","type":"string","value":"enH1"},{"name":"no","type":"int","value":0},{"name":"zM","type":"int","value":75}],"gid":10,"width":90,"height":56},{"id":634,"x":603,"y":872,"visible":true,"properties":[{"name":"layer","type":"int","value":1},{"name":"resource_index","type":"int","value":621},{"name":"u","type":"string","value":"edD"},{"name":"no","type":"int","value":0},{"name":"zM","type":"int","value":75}],"gid":17,"width":54,"height":32},{"id":635,"x":720,"y":896,"visible":true,"properties":[{"name":"layer","type":"int","value":1},{"name":"resource_index","type":"int","value":622},{"name":"u","type":"string","value":"enH1"},{"name":"no","type":"int","value":0},{"name":"zM","type":"int","value":75}],"gid":10,"width":90,"height":56},{"id":636,"x":990,"y":896,"visible":true,"properties":[{"name":"layer","type":"int","value":1},{"name":"resource_index","type":"int","value":623},{"name":"u","type":"string","value":"enH1"},{"name":"no","type":"int","value":0},{"name":"zM","type":"int","value":75}],"gid":10,"width":90,"height":56},{"id":637,"x":1143,"y":872,"visible":true,"properties":[{"name":"layer","type":"int","value":1},{"name":"resource_index","type":"int","value":624},{"name":"u","type":"string","value":"edD"},{"name":"no","type":"int","value":0},{"name":"zM","type":"int","value":75}],"gid":17,"width":54,"height":32},{"id":638,"x":1080,"y":911,"visible":true,"properties":[{"name":"layer","type":"int","value":1},{"name":"resource_index","type":"int","value":625},{"name":"u","type":"string","value":"enH1"},{"name":"no","type":"int","value":1},{"name":"zM","type":"int","value":75}],"gid":9,"width":90,"height":71},{"id":639,"x":-180,"y":360,"visible":true,"properties":[{"name":"layer","type":"int","value":1},{"name":"resource_index","type":"int","value":626},{"name":"u","type":"string","value":"bsc"},{"name":"no","type":"int","value":0},{"name":"zM","type":"int","value":94}],"gid":8,"width":90,"height":60},{"id":640,"x":1890,"y":720,"visible":true,"properties":[{"name":"layer","type":"int","value":1},{"name":"resource_index","type":"int","value":627},{"name":"u","type":"string","value":"bsc"},{"name":"no","type":"int","value":0},{"name":"zM","type":"int","value":81}],"gid":8,"width":90,"height":60},{"id":641,"x":2250,"y":540,"visible":true,"properties":[{"name":"layer","type":"int","value":1},{"name":"resource_index","type":"int","value":628},{"name":"u","type":"string","value":"enH0"},{"name":"no","type":"int","value":1},{"name":"zM","type":"int","value":81}],"gid":20,"width":90,"height":71},{"id":642,"x":810,"y":780,"visible":true,"properties":[{"name":"layer","type":"int","value":1},{"name":"resource_index","type":"int","value":629},{"name":"u","type":"string","value":"bsc"},{"name":"no","type":"int","value":0},{"name":"zM","type":"int","value":75}],"gid":8,"width":90,"height":60},{"id":643,"x":810,"y":720,"visible":true,"properties":[{"name":"layer","type":"int","value":1},{"name":"resource_index","type":"int","value":630},{"name":"u","type":"string","value":"enH0"},{"name":"no","type":"int","value":0},{"name":"zM","type":"int","value":75}],"gid":13,"width":90,"height":56},{"id":644,"x":720,"y":720,"visible":true,"properties":[{"name":"layer","type":"int","value":1},{"name":"resource_index","type":"int","value":631},{"name":"u","type":"string","value":"enH0"},{"name":"no","type":"int","value":0},{"name":"zM","type":"int","value":75}],"gid":13,"width":90,"height":56},{"id":645,"x":720,"y":780,"visible":true,"properties":[{"name":"layer","type":"int","value":1},{"name":"resource_index","type":"int","value":632},{"name":"u","type":"string","value":"bsc"},{"name":"no","type":"int","value":0},{"name":"zM","type":"int","value":75}],"gid":8,"width":90,"height":60},{"id":646,"x":990,"y":780,"visible":true,"properties":[{"name":"layer","type":"int","value":1},{"name":"resource_index","type":"int","value":633},{"name":"u","type":"string","value":"bsc"},{"name":"no","type":"int","value":0},{"name":"zM","type":"int","value":75}],"gid":8,"width":90,"height":60},{"id":647,"x":990,"y":720,"visible":true,"properties":[{"name":"layer","type":"int","value":1},{"name":"resource_index","type":"int","value":634},{"name":"u","type":"string","value":"enH0"},{"name":"no","type":"int","value":1},{"name":"zM","type":"int","value":75}],"gid":20,"width":90,"height":71},{"id":648,"x":2430,"y":600,"visible":true,"properties":[{"name":"layer","type":"int","value":1},{"name":"resource_index","type":"int","value":635},{"name":"u","type":"string","value":"enV1"},{"name":"no","type":"int","value":2},{"name":"zM","type":"int","value":81}],"gid":16,"width":36,"height":60},{"id":649,"x":2403,"y":752,"visible":true,"properties":[{"name":"layer","type":"int","value":1},{"name":"resource_index","type":"int","value":636},{"name":"u","type":"string","value":"edD"},{"name":"no","type":"int","value":0},{"name":"zM","type":"int","value":81}],"gid":17,"width":54,"height":32},{"id":650,"x":2340,"y":791,"visible":true,"properties":[{"name":"layer","type":"int","value":1},{"name":"resource_index","type":"int","value":637},{"name":"u","type":"string","value":"enH1"},{"name":"no","type":"int","value":1},{"name":"zM","type":"int","value":81}],"gid":9,"width":90,"height":71}]},{"id":4,"name":"layer_2_obj","type":"objectgroup","visible":true,"opacity":1,"objects":[{"id":765,"x":-398,"y":117,"visible":true,"properties":[{"name":"layer","type":"int","value":2},{"name":"resource_index","type":"int","value":0},{"name":"oS","type":"string","value":"dungeon"},{"name":"l0","type":"string","value":"blueCave"},{"name":"l1","type":"string","value":"acc"},{"name":"l2","type":"string","value":"3"},{"name":"z","type":"int","value":3},{"name":"zM","type":"int","value":137},{"name":"f","type":"int","value":0}],"gid":39,"width":72,"height":34},{"id":766,"x":-476,"y":120,"visible":true,"properties":[{"name":"layer","type":"int","value":2},{"name":"resource_index","type":"int","value":1},{"name":"oS","type":"string","value":"dungeon"},{"name":"l0","type":"string","value":"blueCave"},{"name":"l1","type":"string","value":"acc"},{"name":"l2","type":"string","value":"5"},{"name":"z","type":"int","value":3},{"name":"zM","type":"int","value":136},{"name":"f","type":"int","value":0}],"gid":41,"width":48,"height":37},{"id":767,"x":-473,"y":959,"visible":true,"properties":[{"name":"layer","type":"int","value":2},{"name":"resource_index","type":"int","value":2},{"name":"oS","type":"string","value":"dungeon"},{"name":"l0","type":"string","value":"blueCave"},{"name":"l1","type":"string","value":"acc"},{"name":"l2","type":"string","value":"5"},{"name":"z","type":"int","value":3},{"name":"zM","type":"int","value":70},{"name":"f","type":"int","value":0}],"gid":41,"width":48,"height":37},{"id":768,"x":-387,"y":958,"visible":true,"properties":[{"name":"layer","type":"int","value":2},{"name":"resource_index","type":"int","value":3},{"name":"oS","type":"string","value":"dungeon"},{"name":"l0","type":"string","value":"blueCave"},{"name":"l1","type":"string","value":"acc"},{"name":"l2","type":"string","value":"5"},{"name":"z","type":"int","value":3},{"name":"zM","type":"int","value":71},{"name":"f","type":"int","value":1}],"gid":41,"width":48,"height":37},{"id":769,"x":-301,"y":957,"visible":true,"properties":[{"name":"layer","type":"int","value":2},{"name":"resource_index","type":"int","value":4},{"name":"oS","type":"string","value":"dungeon"},{"name":"l0","type":"string","value":"blueCave"},{"name":"l1","type":"string","value":"acc"},{"name":"l2","type":"string","value":"5"},{"name":"z","type":"int","value":3},{"name":"zM","type":"int","value":69},{"name":"f","type":"int","value":0}],"gid":41,"width":48,"height":37},{"id":770,"x":-271,"y":952,"visible":true,"properties":[{"name":"layer","type":"int","value":2},{"name":"resource_index","type":"int","value":5},{"name":"oS","type":"string","value":"dungeon"},{"name":"l0","type":"string","value":"blueCave"},{"name":"l1","type":"string","value":"acc"},{"name":"l2","type":"string","value":"5"},{"name":"z","type":"int","value":2},{"name":"zM","type":"int","value":69},{"name":"f","type":"int","value":0}],"gid":41,"width":48,"height":37},{"id":771,"x":-247,"y":942,"visible":true,"properties":[{"name":"layer","type":"int","value":2},{"name":"resource_index","type":"int","value":6},{"name":"oS","type":"string","value":"dungeon"},{"name":"l0","type":"string","value":"blueCave"},{"name":"l1","type":"string","value":"acc"},{"name":"l2","type":"string","value":"4"},{"name":"z","type":"int","value":1},{"name":"zM","type":"int","value":69},{"name":"f","type":"int","value":0}],"gid":40,"width":50,"height":48},{"id":772,"x":-216,"y":959,"visible":true,"properties":[{"name":"layer","type":"int","value":2},{"name":"resource_index","type":"int","value":7},{"name":"oS","type":"string","value":"dungeon"},{"name":"l0","type":"string","value":"blueCave"},{"name":"l1","type":"string","value":"acc"},{"name":"l2","type":"string","value":"3"},{"name":"z","type":"int","value":3},{"name":"zM","type":"int","value":69},{"name":"f","type":"int","value":0}],"gid":39,"width":72,"height":34},{"id":773,"x":-358,"y":954,"visible":true,"properties":[{"name":"layer","type":"int","value":2},{"name":"resource_index","type":"int","value":8},{"name":"oS","type":"string","value":"dungeon"},{"name":"l0","type":"string","value":"blueCave"},{"name":"l1","type":"string","value":"acc"},{"name":"l2","type":"string","value":"5"},{"name":"z","type":"int","value":2},{"name":"zM","type":"int","value":71},{"name":"f","type":"int","value":0}],"gid":41,"width":48,"height":37},{"id":774,"x":-14,"y":1857,"visible":true,"properties":[{"name":"layer","type":"int","value":2},{"name":"resource_index","type":"int","value":9},{"name":"oS","type":"string","value":"dungeon"},{"name":"l0","type":"string","value":"blueCave"},{"name":"l1","type":"string","value":"acc"},{"name":"l2","type":"string","value":"5"},{"name":"z","type":"int","value":3},{"name":"zM","type":"int","value":8},{"name":"f","type":"int","value":0}],"gid":41,"width":48,"height":37},{"id":775,"x":4,"y":1842,"visible":true,"properties":[{"name":"layer","type":"int","value":2},{"name":"resource_index","type":"int","value":10},{"name":"oS","type":"string","value":"dungeon"},{"name":"l0","type":"string","value":"blueCave"},{"name":"l1","type":"string","value":"acc"},{"name":"l2","type":"string","value":"4"},{"name":"z","type":"int","value":2},{"name":"zM","type":"int","value":8},{"name":"f","type":"int","value":0}],"gid":40,"width":50,"height":48},{"id":776,"x":51,"y":1859,"visible":true,"properties":[{"name":"layer","type":"int","value":2},{"name":"resource_index","type":"int","value":11},{"name":"oS","type":"string","value":"dungeon"},{"name":"l0","type":"string","value":"blueCave"},{"name":"l1","type":"string","value":"acc"},{"name":"l2","type":"string","value":"3"},{"name":"z","type":"int","value":3},{"name":"zM","type":"int","value":8},{"name":"f","type":"int","value":0}],"gid":39,"width":72,"height":34},{"id":777,"x":138,"y":1857,"visible":true,"properties":[{"name":"layer","type":"int","value":2},{"name":"resource_index","type":"int","value":12},{"name":"oS","type":"string","value":"dungeon"},{"name":"l0","type":"string","value":"blueCave"},{"name":"l1","type":"string","value":"acc"},{"name":"l2","type":"string","value":"3"},{"name":"z","type":"int","value":3},{"name":"zM","type":"int","value":9},{"name":"f","type":"int","value":0}],"gid":39,"width":72,"height":34},{"id":778,"x":175,"y":1850,"visible":true,"properties":[{"name":"layer","type":"int","value":2},{"name":"resource_index","type":"int","value":13},{"name":"oS","type":"string","value":"dungeon"},{"name":"l0","type":"string","value":"blueCave"},{"name":"l1","type":"string","value":"acc"},{"name":"l2","type":"string","value":"2"},{"name":"z","type":"int","value":2},{"name":"zM","type":"int","value":9},{"name":"f","type":"int","value":0}],"gid":38,"width":53,"height":51},{"id":779,"x":1248,"y":1919,"visible":true,"properties":[{"name":"layer","type":"int","value":2},{"name":"resource_index","type":"int","value":14},{"name":"oS","type":"string","value":"dungeon"},{"name":"l0","type":"string","value":"blueCave"},{"name":"l1","type":"string","value":"acc"},{"name":"l2","type":"string","value":"5"},{"name":"z","type":"int","value":3},{"name":"zM","type":"int","value":1},{"name":"f","type":"int","value":0}],"gid":41,"width":48,"height":37},{"id":780,"x":1334,"y":1919,"visible":true,"properties":[{"name":"layer","type":"int","value":2},{"name":"resource_index","type":"int","value":15},{"name":"oS","type":"string","value":"dungeon"},{"name":"l0","type":"string","value":"blueCave"},{"name":"l1","type":"string","value":"acc"},{"name":"l2","type":"string","value":"5"},{"name":"z","type":"int","value":3},{"name":"zM","type":"int","value":5},{"name":"f","type":"int","value":0}],"gid":41,"width":48,"height":37},{"id":781,"x":1495,"y":1919,"visible":true,"properties":[{"name":"layer","type":"int","value":2},{"name":"resource_index","type":"int","value":16},{"name":"oS","type":"string","value":"dungeon"},{"name":"l0","type":"string","value":"blueCave"},{"name":"l1","type":"string","value":"acc"},{"name":"l2","type":"string","value":"5"},{"name":"z","type":"int","value":3},{"name":"zM","type":"int","value":3},{"name":"f","type":"int","value":0}],"gid":41,"width":48,"height":37},{"id":782,"x":1686,"y":1919,"visible":true,"properties":[{"name":"layer","type":"int","value":2},{"name":"resource_index","type":"int","value":17},{"name":"oS","type":"string","value":"dungeon"},{"name":"l0","type":"string","value":"blueCave"},{"name":"l1","type":"string","value":"acc"},{"name":"l2","type":"string","value":"5"},{"name":"z","type":"int","value":3},{"name":"zM","type":"int","value":4},{"name":"f","type":"int","value":0}],"gid":41,"width":48,"height":37},{"id":783,"x":1794,"y":1912,"visible":true,"properties":[{"name":"layer","type":"int","value":2},{"name":"resource_index","type":"int","value":18},{"name":"oS","type":"string","value":"dungeon"},{"name":"l0","type":"string","value":"blueCave"},{"name":"l1","type":"string","value":"acc"},{"name":"l2","type":"string","value":"5"},{"name":"z","type":"int","value":3},{"name":"zM","type":"int","value":2},{"name":"f","type":"int","value":0}],"gid":41,"width":48,"height":37},{"id":784,"x":1816,"y":1896,"visible":true,"properties":[{"name":"layer","type":"int","value":2},{"name":"resource_index","type":"int","value":19},{"name":"oS","type":"string","value":"dungeon"},{"name":"l0","type":"string","value":"blueCave"},{"name":"l1","type":"string","value":"acc"},{"name":"l2","type":"string","value":"4"},{"name":"z","type":"int","value":2},{"name":"zM","type":"int","value":2},{"name":"f","type":"int","value":0}],"gid":40,"width":50,"height":48},{"id":785,"x":1831,"y":1914,"visible":true,"properties":[{"name":"layer","type":"int","value":2},{"name":"resource_index","type":"int","value":20},{"name":"oS","type":"string","value":"dungeon"},{"name":"l0","type":"string","value":"blueCave"},{"name":"l1","type":"string","value":"acc"},{"name":"l2","type":"string","value":"3"},{"name":"z","type":"int","value":4},{"name":"zM","type":"int","value":2},{"name":"f","type":"int","value":0}],"gid":39,"width":72,"height":34},{"id":786,"x":1765,"y":1920,"visible":true,"properties":[{"name":"layer","type":"int","value":2},{"name":"resource_index","type":"int","value":21},{"name":"oS","type":"string","value":"dungeon"},{"name":"l0","type":"string","value":"blueCave"},{"name":"l1","type":"string","value":"acc"},{"name":"l2","type":"string","value":"5"},{"name":"z","type":"int","value":4},{"name":"zM","type":"int","value":2},{"name":"f","type":"int","value":1}],"gid":41,"width":48,"height":37},{"id":787,"x":1719,"y":1915,"visible":true,"properties":[{"name":"layer","type":"int","value":2},{"name":"resource_index","type":"int","value":22},{"name":"oS","type":"string","value":"dungeon"},{"name":"l0","type":"string","value":"blueCave"},{"name":"l1","type":"string","value":"acc"},{"name":"l2","type":"string","value":"3"},{"name":"z","type":"int","value":2},{"name":"zM","type":"int","value":4},{"name":"f","type":"int","value":0}],"gid":39,"width":72,"height":34},{"id":788,"x":1529,"y":1917,"visible":true,"properties":[{"name":"layer","type":"int","value":2},{"name":"resource_index","type":"int","value":23},{"name":"oS","type":"string","value":"dungeon"},{"name":"l0","type":"string","value":"blueCave"},{"name":"l1","type":"string","value":"acc"},{"name":"l2","type":"string","value":"5"},{"name":"z","type":"int","value":4},{"name":"zM","type":"int","value":3},{"name":"f","type":"int","value":1}],"gid":41,"width":48,"height":37},{"id":789,"x":1560,"y":1919,"visible":true,"properties":[{"name":"layer","type":"int","value":2},{"name":"resource_index","type":"int","value":24},{"name":"oS","type":"string","value":"dungeon"},{"name":"l0","type":"string","value":"blueCave"},{"name":"l1","type":"string","value":"acc"},{"name":"l2","type":"string","value":"5"},{"name":"z","type":"int","value":5},{"name":"zM","type":"int","value":3},{"name":"f","type":"int","value":1}],"gid":41,"width":48,"height":37},{"id":790,"x":1588,"y":1914,"visible":true,"properties":[{"name":"layer","type":"int","value":2},{"name":"resource_index","type":"int","value":25},{"name":"oS","type":"string","value":"dungeon"},{"name":"l0","type":"string","value":"blueCave"},{"name":"l1","type":"string","value":"acc"},{"name":"l2","type":"string","value":"3"},{"name":"z","type":"int","value":2},{"name":"zM","type":"int","value":3},{"name":"f","type":"int","value":1}],"gid":39,"width":72,"height":34},{"id":791,"x":1624,"y":1903,"visible":true,"properties":[{"name":"layer","type":"int","value":2},{"name":"resource_index","type":"int","value":26},{"name":"oS","type":"string","value":"dungeon"},{"name":"l0","type":"string","value":"blueCave"},{"name":"l1","type":"string","value":"acc"},{"name":"l2","type":"string","value":"2"},{"name":"z","type":"int","value":1},{"name":"zM","type":"int","value":3},{"name":"f","type":"int","value":0}],"gid":38,"width":53,"height":51},{"id":792,"x":1635,"y":1915,"visible":true,"properties":[{"name":"layer","type":"int","value":2},{"name":"resource_index","type":"int","value":27},{"name":"oS","type":"string","value":"dungeon"},{"name":"l0","type":"string","value":"blueCave"},{"name":"l1","type":"string","value":"acc"},{"name":"l2","type":"string","value":"3"},{"name":"z","type":"int","value":5},{"name":"zM","type":"int","value":3},{"name":"f","type":"int","value":0}],"gid":39,"width":72,"height":34},{"id":793,"x":1399,"y":1918,"visible":true,"properties":[{"name":"layer","type":"int","value":2},{"name":"resource_index","type":"int","value":28},{"name":"oS","type":"string","value":"dungeon"},{"name":"l0","type":"string","value":"blueCave"},{"name":"l1","type":"string","value":"acc"},{"name":"l2","type":"string","value":"3"},{"name":"z","type":"int","value":3},{"name":"zM","type":"int","value":6},{"name":"f","type":"int","value":0}],"gid":39,"width":72,"height":34},{"id":794,"x":1435,"y":1910,"visible":true,"properties":[{"name":"layer","type":"int","value":2},{"name":"resource_index","type":"int","value":29},{"name":"oS","type":"string","value":"dungeon"},{"name":"l0","type":"string","value":"blueCave"},{"name":"l1","type":"string","value":"acc"},{"name":"l2","type":"string","value":"4"},{"name":"z","type":"int","value":2},{"name":"zM","type":"int","value":6},{"name":"f","type":"int","value":0}],"gid":40,"width":50,"height":48},{"id":795,"x":1366,"y":1915,"visible":true,"properties":[{"name":"layer","type":"int","value":2},{"name":"resource_index","type":"int","value":30},{"name":"oS","type":"string","value":"dungeon"},{"name":"l0","type":"string","value":"blueCave"},{"name":"l1","type":"string","value":"acc"},{"name":"l2","type":"string","value":"5"},{"name":"z","type":"int","value":5},{"name":"zM","type":"int","value":5},{"name":"f","type":"int","value":0}],"gid":41,"width":48,"height":37},{"id":796,"x":1285,"y":1922,"visible":true,"properties":[{"name":"layer","type":"int","value":2},{"name":"resource_index","type":"int","value":31},{"name":"oS","type":"string","value":"dungeon"},{"name":"l0","type":"string","value":"blueCave"},{"name":"l1","type":"string","value":"acc"},{"name":"l2","type":"string","value":"5"},{"name":"z","type":"int","value":4},{"name":"zM","type":"int","value":1},{"name":"f","type":"int","value":1}],"gid":41,"width":48,"height":37},{"id":797,"x":1279,"y":1903,"visible":true,"properties":[{"name":"layer","type":"int","value":2},{"name":"resource_index","type":"int","value":32},{"name":"oS","type":"string","value":"dungeon"},{"name":"l0","type":"string","value":"blueCave"},{"name":"l1","type":"string","value":"acc"},{"name":"l2","type":"string","value":"2"},{"name":"z","type":"int","value":2},{"name":"zM","type":"int","value":1},{"name":"f","type":"int","value":0}],"gid":38,"width":53,"height":51},{"id":798,"x":2124,"y":1078,"visible":true,"properties":[{"name":"layer","type":"int","value":2},{"name":"resource_index","type":"int","value":33},{"name":"oS","type":"string","value":"dungeon"},{"name":"l0","type":"string","value":"blueCave"},{"name":"l1","type":"string","value":"acc"},{"name":"l2","type":"string","value":"3"},{"name":"z","type":"int","value":3},{"name":"zM","type":"int","value":56},{"name":"f","type":"int","value":0}],"gid":39,"width":72,"height":34},{"id":799,"x":2211,"y":1076,"visible":true,"properties":[{"name":"layer","type":"int","value":2},{"name":"resource_index","type":"int","value":34},{"name":"oS","type":"string","value":"dungeon"},{"name":"l0","type":"string","value":"blueCave"},{"name":"l1","type":"string","value":"acc"},{"name":"l2","type":"string","value":"3"},{"name":"z","type":"int","value":3},{"name":"zM","type":"int","value":59},{"name":"f","type":"int","value":1}],"gid":39,"width":72,"height":34},{"id":800,"x":2305,"y":1077,"visible":true,"properties":[{"name":"layer","type":"int","value":2},{"name":"resource_index","type":"int","value":35},{"name":"oS","type":"string","value":"dungeon"},{"name":"l0","type":"string","value":"blueCave"},{"name":"l1","type":"string","value":"acc"},{"name":"l2","type":"string","value":"3"},{"name":"z","type":"int","value":3},{"name":"zM","type":"int","value":58},{"name":"f","type":"int","value":0}],"gid":39,"width":72,"height":34},{"id":801,"x":2347,"y":1075,"visible":true,"properties":[{"name":"layer","type":"int","value":2},{"name":"resource_index","type":"int","value":36},{"name":"oS","type":"string","value":"dungeon"},{"name":"l0","type":"string","value":"blueCave"},{"name":"l1","type":"string","value":"acc"},{"name":"l2","type":"string","value":"3"},{"name":"z","type":"int","value":4},{"name":"zM","type":"int","value":58},{"name":"f","type":"int","value":0}],"gid":39,"width":72,"height":34},{"id":802,"x":2075,"y":1075,"visible":true,"properties":[{"name":"layer","type":"int","value":2},{"name":"resource_index","type":"int","value":37},{"name":"oS","type":"string","value":"dungeon"},{"name":"l0","type":"string","value":"blueCave"},{"name":"l1","type":"string","value":"acc"},{"name":"l2","type":"string","value":"3"},{"name":"z","type":"int","value":4},{"name":"zM","type":"int","value":56},{"name":"f","type":"int","value":0}],"gid":39,"width":72,"height":34},{"id":803,"x":2056,"y":1083,"visible":true,"properties":[{"name":"layer","type":"int","value":2},{"name":"resource_index","type":"int","value":38},{"name":"oS","type":"string","value":"dungeon"},{"name":"l0","type":"string","value":"blueCave"},{"name":"l1","type":"string","value":"acc"},{"name":"l2","type":"string","value":"5"},{"name":"z","type":"int","value":3},{"name":"zM","type":"int","value":56},{"name":"f","type":"int","value":0}],"gid":41,"width":48,"height":37},{"id":804,"x":2026,"y":1096,"visible":true,"properties":[{"name":"layer","type":"int","value":2},{"name":"resource_index","type":"int","value":39},{"name":"oS","type":"string","value":"dungeon"},{"name":"l0","type":"string","value":"blueCave"},{"name":"l1","type":"string","value":"acc"},{"name":"l2","type":"string","value":"5"},{"name":"z","type":"int","value":4},{"name":"zM","type":"int","value":56},{"name":"f","type":"int","value":1}],"gid":41,"width":48,"height":37},{"id":805,"x":2061,"y":1099,"visible":true,"properties":[{"name":"layer","type":"int","value":2},{"name":"resource_index","type":"int","value":40},{"name":"oS","type":"string","value":"dungeon"},{"name":"l0","type":"string","value":"blueCave"},{"name":"l1","type":"string","value":"acc"},{"name":"l2","type":"string","value":"5"},{"name":"z","type":"int","value":5},{"name":"zM","type":"int","value":56},{"name":"f","type":"int","value":0}],"gid":41,"width":48,"height":37},{"id":806,"x":2093,"y":1091,"visible":true,"properties":[{"name":"layer","type":"int","value":2},{"name":"resource_index","type":"int","value":41},{"name":"oS","type":"string","value":"dungeon"},{"name":"l0","type":"string","value":"blueCave"},{"name":"l1","type":"string","value":"acc"},{"name":"l2","type":"string","value":"5"},{"name":"z","type":"int","value":6},{"name":"zM","type":"int","value":56},{"name":"f","type":"int","value":0}],"gid":41,"width":48,"height":37},{"id":807,"x":1865,"y":658,"visible":true,"properties":[{"name":"layer","type":"int","value":2},{"name":"resource_index","type":"int","value":42},{"name":"oS","type":"string","value":"dungeon"},{"name":"l0","type":"string","value":"blueCave"},{"name":"l1","type":"string","value":"acc"},{"name":"l2","type":"string","value":"5"},{"name":"z","type":"int","value":3},{"name":"zM","type":"int","value":96},{"name":"f","type":"int","value":0}],"gid":41,"width":48,"height":37},{"id":808,"x":1935,"y":604,"visible":true,"properties":[{"name":"layer","type":"int","value":2},{"name":"resource_index","type":"int","value":43},{"name":"oS","type":"string","value":"dungeon"},{"name":"l0","type":"string","value":"blueCave"},{"name":"l1","type":"string","value":"acc"},{"name":"l2","type":"string","value":"5"},{"name":"z","type":"int","value":3},{"name":"zM","type":"int","value":99},{"name":"f","type":"int","value":1}],"gid":41,"width":48,"height":37},{"id":809,"x":1957,"y":585,"visible":true,"properties":[{"name":"layer","type":"int","value":2},{"name":"resource_index","type":"int","value":44},{"name":"oS","type":"string","value":"dungeon"},{"name":"l0","type":"string","value":"blueCave"},{"name":"l1","type":"string","value":"acc"},{"name":"l2","type":"string","value":"4"},{"name":"z","type":"int","value":2},{"name":"zM","type":"int","value":99},{"name":"f","type":"int","value":0}],"gid":40,"width":50,"height":48},{"id":810,"x":2039,"y":540,"visible":true,"properties":[{"name":"layer","type":"int","value":2},{"name":"resource_index","type":"int","value":45},{"name":"oS","type":"string","value":"dungeon"},{"name":"l0","type":"string","value":"blueCave"},{"name":"l1","type":"string","value":"acc"},{"name":"l2","type":"string","value":"3"},{"name":"z","type":"int","value":3},{"name":"zM","type":"int","value":105},{"name":"f","type":"int","value":0}],"gid":39,"width":72,"height":34},{"id":811,"x":2097,"y":538,"visible":true,"properties":[{"name":"layer","type":"int","value":2},{"name":"resource_index","type":"int","value":46},{"name":"oS","type":"string","value":"dungeon"},{"name":"l0","type":"string","value":"blueCave"},{"name":"l1","type":"string","value":"acc"},{"name":"l2","type":"string","value":"5"},{"name":"z","type":"int","value":4},{"name":"zM","type":"int","value":105},{"name":"f","type":"int","value":0}],"gid":41,"width":48,"height":37},{"id":812,"x":2133,"y":536,"visible":true,"properties":[{"name":"layer","type":"int","value":2},{"name":"resource_index","type":"int","value":47},{"name":"oS","type":"string","value":"dungeon"},{"name":"l0","type":"string","value":"blueCave"},{"name":"l1","type":"string","value":"acc"},{"name":"l2","type":"string","value":"5"},{"name":"z","type":"int","value":3},{"name":"zM","type":"int","value":105},{"name":"f","type":"int","value":1}],"gid":41,"width":48,"height":37},{"id":813,"x":2205,"y":539,"visible":true,"properties":[{"name":"layer","type":"int","value":2},{"name":"resource_index","type":"int","value":48},{"name":"oS","type":"string","value":"dungeon"},{"name":"l0","type":"string","value":"blueCave"},{"name":"l1","type":"string","value":"acc"},{"name":"l2","type":"string","value":"3"},{"name":"z","type":"int","value":3},{"name":"zM","type":"int","value":106},{"name":"f","type":"int","value":0}],"gid":39,"width":72,"height":34},{"id":814,"x":2242,"y":531,"visible":true,"properties":[{"name":"layer","type":"int","value":2},{"name":"resource_index","type":"int","value":49},{"name":"oS","type":"string","value":"dungeon"},{"name":"l0","type":"string","value":"blueCave"},{"name":"l1","type":"string","value":"acc"},{"name":"l2","type":"string","value":"4"},{"name":"z","type":"int","value":2},{"name":"zM","type":"int","value":106},{"name":"f","type":"int","value":0}],"gid":40,"width":50,"height":48},{"id":815,"x":2273,"y":530,"visible":true,"properties":[{"name":"layer","type":"int","value":2},{"name":"resource_index","type":"int","value":50},{"name":"oS","type":"string","value":"dungeon"},{"name":"l0","type":"string","value":"blueCave"},{"name":"l1","type":"string","value":"acc"},{"name":"l2","type":"string","value":"5"},{"name":"z","type":"int","value":4},{"name":"zM","type":"int","value":106},{"name":"f","type":"int","value":0}],"gid":41,"width":48,"height":37},{"id":816,"x":2311,"y":540,"visible":true,"properties":[{"name":"layer","type":"int","value":2},{"name":"resource_index","type":"int","value":51},{"name":"oS","type":"string","value":"dungeon"},{"name":"l0","type":"string","value":"blueCave"},{"name":"l1","type":"string","value":"acc"},{"name":"l2","type":"string","value":"5"},{"name":"z","type":"int","value":3},{"name":"zM","type":"int","value":106},{"name":"f","type":"int","value":0}],"gid":41,"width":48,"height":37},{"id":817,"x":2356,"y":529,"visible":true,"properties":[{"name":"layer","type":"int","value":2},{"name":"resource_index","type":"int","value":52},{"name":"oS","type":"string","value":"dungeon"},{"name":"l0","type":"string","value":"blueCave"},{"name":"l1","type":"string","value":"acc"},{"name":"l2","type":"string","value":"5"},{"name":"z","type":"int","value":3},{"name":"zM","type":"int","value":106},{"name":"f","type":"int","value":1}],"gid":41,"width":48,"height":37},{"id":818,"x":2372,"y":510,"visible":true,"properties":[{"name":"layer","type":"int","value":2},{"name":"resource_index","type":"int","value":53},{"name":"oS","type":"string","value":"dungeon"},{"name":"l0","type":"string","value":"blueCave"},{"name":"l1","type":"string","value":"acc"},{"name":"l2","type":"string","value":"4"},{"name":"z","type":"int","value":2},{"name":"zM","type":"int","value":106},{"name":"f","type":"int","value":0}],"gid":40,"width":50,"height":48},{"id":819,"x":594,"y":775,"visible":true,"properties":[{"name":"layer","type":"int","value":2},{"name":"resource_index","type":"int","value":54},{"name":"oS","type":"string","value":"dungeon"},{"name":"l0","type":"string","value":"blueCave"},{"name":"l1","type":"string","value":"acc"},{"name":"l2","type":"string","value":"5"},{"name":"z","type":"int","value":3},{"name":"zM","type":"int","value":84},{"name":"f","type":"int","value":0}],"gid":41,"width":48,"height":37},{"id":820,"x":564,"y":770,"visible":true,"properties":[{"name":"layer","type":"int","value":2},{"name":"resource_index","type":"int","value":55},{"name":"oS","type":"string","value":"dungeon"},{"name":"l0","type":"string","value":"blueCave"},{"name":"l1","type":"string","value":"acc"},{"name":"l2","type":"string","value":"5"},{"name":"z","type":"int","value":4},{"name":"zM","type":"int","value":84},{"name":"f","type":"int","value":1}],"gid":41,"width":48,"height":37},{"id":821,"x":626,"y":761,"visible":true,"properties":[{"name":"layer","type":"int","value":2},{"name":"resource_index","type":"int","value":56},{"name":"oS","type":"string","value":"dungeon"},{"name":"l0","type":"string","value":"blueCave"},{"name":"l1","type":"string","value":"acc"},{"name":"l2","type":"string","value":"5"},{"name":"z","type":"int","value":4},{"name":"zM","type":"int","value":84},{"name":"f","type":"int","value":1}],"gid":41,"width":48,"height":37},{"id":822,"x":600,"y":754,"visible":true,"properties":[{"name":"layer","type":"int","value":2},{"name":"resource_index","type":"int","value":57},{"name":"oS","type":"string","value":"dungeon"},{"name":"l0","type":"string","value":"blueCave"},{"name":"l1","type":"string","value":"acc"},{"name":"l2","type":"string","value":"5"},{"name":"z","type":"int","value":2},{"name":"zM","type":"int","value":84},{"name":"f","type":"int","value":0}],"gid":41,"width":48,"height":37},{"id":823,"x":566,"y":750,"visible":true,"properties":[{"name":"layer","type":"int","value":2},{"name":"resource_index","type":"int","value":58},{"name":"oS","type":"string","value":"dungeon"},{"name":"l0","type":"string","value":"blueCave"},{"name":"l1","type":"string","value":"acc"},{"name":"l2","type":"string","value":"2"},{"name":"z","type":"int","value":1},{"name":"zM","type":"int","value":84},{"name":"f","type":"int","value":1}],"gid":38,"width":53,"height":51},{"id":824,"x":799,"y":716,"visible":true,"properties":[{"name":"layer","type":"int","value":2},{"name":"resource_index","type":"int","value":59},{"name":"oS","type":"string","value":"dungeon"},{"name":"l0","type":"string","value":"blueCave"},{"name":"l1","type":"string","value":"acc"},{"name":"l2","type":"string","value":"5"},{"name":"z","type":"int","value":3},{"name":"zM","type":"int","value":89},{"name":"f","type":"int","value":0}],"gid":41,"width":48,"height":37},{"id":825,"x":749,"y":720,"visible":true,"properties":[{"name":"layer","type":"int","value":2},{"name":"resource_index","type":"int","value":60},{"name":"oS","type":"string","value":"dungeon"},{"name":"l0","type":"string","value":"blueCave"},{"name":"l1","type":"string","value":"acc"},{"name":"l2","type":"string","value":"3"},{"name":"z","type":"int","value":2},{"name":"zM","type":"int","value":89},{"name":"f","type":"int","value":1}],"gid":39,"width":72,"height":34},{"id":826,"x":952,"y":719,"visible":true,"properties":[{"name":"layer","type":"int","value":2},{"name":"resource_index","type":"int","value":61},{"name":"oS","type":"string","value":"dungeon"},{"name":"l0","type":"string","value":"blueCave"},{"name":"l1","type":"string","value":"acc"},{"name":"l2","type":"string","value":"3"},{"name":"z","type":"int","value":3},{"name":"zM","type":"int","value":90},{"name":"f","type":"int","value":0}],"gid":39,"width":72,"height":34},{"id":827,"x":1034,"y":717,"visible":true,"properties":[{"name":"layer","type":"int","value":2},{"name":"resource_index","type":"int","value":62},{"name":"oS","type":"string","value":"dungeon"},{"name":"l0","type":"string","value":"blueCave"},{"name":"l1","type":"string","value":"acc"},{"name":"l2","type":"string","value":"3"},{"name":"z","type":"int","value":3},{"name":"zM","type":"int","value":87},{"name":"f","type":"int","value":1}],"gid":39,"width":72,"height":34},{"id":828,"x":1069,"y":729,"visible":true,"properties":[{"name":"layer","type":"int","value":2},{"name":"resource_index","type":"int","value":63},{"name":"oS","type":"string","value":"dungeon"},{"name":"l0","type":"string","value":"blueCave"},{"name":"l1","type":"string","value":"acc"},{"name":"l2","type":"string","value":"3"},{"name":"z","type":"int","value":4},{"name":"zM","type":"int","value":87},{"name":"f","type":"int","value":0}],"gid":39,"width":72,"height":34},{"id":829,"x":983,"y":709,"visible":true,"properties":[{"name":"layer","type":"int","value":2},{"name":"resource_index","type":"int","value":64},{"name":"oS","type":"string","value":"dungeon"},{"name":"l0","type":"string","value":"blueCave"},{"name":"l1","type":"string","value":"acc"},{"name":"l2","type":"string","value":"4"},{"name":"z","type":"int","value":1},{"name":"zM","type":"int","value":90},{"name":"f","type":"int","value":0}],"gid":40,"width":50,"height":48},{"id":830,"x":1056,"y":711,"visible":true,"properties":[{"name":"layer","type":"int","value":2},{"name":"resource_index","type":"int","value":65},{"name":"oS","type":"string","value":"dungeon"},{"name":"l0","type":"string","value":"blueCave"},{"name":"l1","type":"string","value":"acc"},{"name":"l2","type":"string","value":"2"},{"name":"z","type":"int","value":1},{"name":"zM","type":"int","value":87},{"name":"f","type":"int","value":0}],"gid":38,"width":53,"height":51},{"id":831,"x":1103,"y":720,"visible":true,"properties":[{"name":"layer","type":"int","value":2},{"name":"resource_index","type":"int","value":66},{"name":"oS","type":"string","value":"dungeon"},{"name":"l0","type":"string","value":"blueCave"},{"name":"l1","type":"string","value":"acc"},{"name":"l2","type":"string","value":"2"},{"name":"z","type":"int","value":1},{"name":"zM","type":"int","value":87},{"name":"f","type":"int","value":0}],"gid":38,"width":53,"height":51},{"id":832,"x":1154,"y":778,"visible":true,"properties":[{"name":"layer","type":"int","value":2},{"name":"resource_index","type":"int","value":67},{"name":"oS","type":"string","value":"dungeon"},{"name":"l0","type":"string","value":"blueCave"},{"name":"l1","type":"string","value":"acc"},{"name":"l2","type":"string","value":"5"},{"name":"z","type":"int","value":3},{"name":"zM","type":"int","value":83},{"name":"f","type":"int","value":0}],"gid":41,"width":48,"height":37},{"id":833,"x":1184,"y":775,"visible":true,"properties":[{"name":"layer","type":"int","value":2},{"name":"resource_index","type":"int","value":68},{"name":"oS","type":"string","value":"dungeon"},{"name":"l0","type":"string","value":"blueCave"},{"name":"l1","type":"string","value":"acc"},{"name":"l2","type":"string","value":"3"},{"name":"z","type":"int","value":2},{"name":"zM","type":"int","value":83},{"name":"f","type":"int","value":0}],"gid":39,"width":72,"height":34},{"id":834,"x":1222,"y":767,"visible":true,"properties":[{"name":"layer","type":"int","value":2},{"name":"resource_index","type":"int","value":69},{"name":"oS","type":"string","value":"dungeon"},{"name":"l0","type":"string","value":"blueCave"},{"name":"l1","type":"string","value":"acc"},{"name":"l2","type":"string","value":"4"},{"name":"z","type":"int","value":1},{"name":"zM","type":"int","value":83},{"name":"f","type":"int","value":0}],"gid":40,"width":50,"height":48},{"id":835,"x":785,"y":1201,"visible":true,"properties":[{"name":"layer","type":"int","value":2},{"name":"resource_index","type":"int","value":70},{"name":"oS","type":"string","value":"dungeon"},{"name":"l0","type":"string","value":"blueCave"},{"name":"l1","type":"string","value":"acc"},{"name":"l2","type":"string","value":"5"},{"name":"z","type":"int","value":3},{"name":"zM","type":"int","value":44},{"name":"f","type":"int","value":0}],"gid":41,"width":48,"height":37},{"id":836,"x":848,"y":1193,"visible":true,"properties":[{"name":"layer","type":"int","value":2},{"name":"resource_index","type":"int","value":71},{"name":"oS","type":"string","value":"dungeon"},{"name":"l0","type":"string","value":"blueCave"},{"name":"l1","type":"string","value":"acc"},{"name":"l2","type":"string","value":"5"},{"name":"z","type":"int","value":3},{"name":"zM","type":"int","value":43},{"name":"f","type":"int","value":1}],"gid":41,"width":48,"height":37},{"id":837,"x":875,"y":1201,"visible":true,"properties":[{"name":"layer","type":"int","value":2},{"name":"resource_index","type":"int","value":72},{"name":"oS","type":"string","value":"dungeon"},{"name":"l0","type":"string","value":"blueCave"},{"name":"l1","type":"string","value":"acc"},{"name":"l2","type":"string","value":"5"},{"name":"z","type":"int","value":4},{"name":"zM","type":"int","value":43},{"name":"f","type":"int","value":0}],"gid":41,"width":48,"height":37},{"id":838,"x":903,"y":1194,"visible":true,"properties":[{"name":"layer","type":"int","value":2},{"name":"resource_index","type":"int","value":73},{"name":"oS","type":"string","value":"dungeon"},{"name":"l0","type":"string","value":"blueCave"},{"name":"l1","type":"string","value":"acc"},{"name":"l2","type":"string","value":"5"},{"name":"z","type":"int","value":3},{"name":"zM","type":"int","value":43},{"name":"f","type":"int","value":0}],"gid":41,"width":48,"height":37},{"id":839,"x":930,"y":1195,"visible":true,"properties":[{"name":"layer","type":"int","value":2},{"name":"resource_index","type":"int","value":74},{"name":"oS","type":"string","value":"dungeon"},{"name":"l0","type":"string","value":"blueCave"},{"name":"l1","type":"string","value":"acc"},{"name":"l2","type":"string","value":"5"},{"name":"z","type":"int","value":5},{"name":"zM","type":"int","value":43},{"name":"f","type":"int","value":1}],"gid":41,"width":48,"height":37},{"id":840,"x":874,"y":1180,"visible":true,"properties":[{"name":"layer","type":"int","value":2},{"name":"resource_index","type":"int","value":75},{"name":"oS","type":"string","value":"dungeon"},{"name":"l0","type":"string","value":"blueCave"},{"name":"l1","type":"string","value":"acc"},{"name":"l2","type":"string","value":"5"},{"name":"z","type":"int","value":2},{"name":"zM","type":"int","value":43},{"name":"f","type":"int","value":0}],"gid":41,"width":48,"height":37},{"id":841,"x":1048,"y":1199,"visible":true,"properties":[{"name":"layer","type":"int","value":2},{"name":"resource_index","type":"int","value":76},{"name":"oS","type":"string","value":"dungeon"},{"name":"l0","type":"string","value":"blueCave"},{"name":"l1","type":"string","value":"acc"},{"name":"l2","type":"string","value":"5"},{"name":"z","type":"int","value":3},{"name":"zM","type":"int","value":45},{"name":"f","type":"int","value":0}],"gid":41,"width":48,"height":37},{"id":842,"x":1145,"y":1261,"visible":true,"properties":[{"name":"layer","type":"int","value":2},{"name":"resource_index","type":"int","value":77},{"name":"oS","type":"string","value":"dungeon"},{"name":"l0","type":"string","value":"blueCave"},{"name":"l1","type":"string","value":"acc"},{"name":"l2","type":"string","value":"3"},{"name":"z","type":"int","value":3},{"name":"zM","type":"int","value":40},{"name":"f","type":"int","value":0}],"gid":39,"width":72,"height":34},{"id":843,"x":1217,"y":1264,"visible":true,"properties":[{"name":"layer","type":"int","value":2},{"name":"resource_index","type":"int","value":78},{"name":"oS","type":"string","value":"dungeon"},{"name":"l0","type":"string","value":"blueCave"},{"name":"l1","type":"string","value":"acc"},{"name":"l2","type":"string","value":"3"},{"name":"z","type":"int","value":3},{"name":"zM","type":"int","value":39},{"name":"f","type":"int","value":0}],"gid":39,"width":72,"height":34},{"id":844,"x":676,"y":238,"visible":true,"properties":[{"name":"layer","type":"int","value":2},{"name":"resource_index","type":"int","value":79},{"name":"oS","type":"string","value":"dungeon"},{"name":"l0","type":"string","value":"blueCave"},{"name":"l1","type":"string","value":"acc"},{"name":"l2","type":"string","value":"3"},{"name":"z","type":"int","value":3},{"name":"zM","type":"int","value":125},{"name":"f","type":"int","value":0}],"gid":39,"width":72,"height":34},{"id":845,"x":770,"y":239,"visible":true,"properties":[{"name":"layer","type":"int","value":2},{"name":"resource_index","type":"int","value":80},{"name":"oS","type":"string","value":"dungeon"},{"name":"l0","type":"string","value":"blueCave"},{"name":"l1","type":"string","value":"acc"},{"name":"l2","type":"string","value":"3"},{"name":"z","type":"int","value":3},{"name":"zM","type":"int","value":128},{"name":"f","type":"int","value":0}],"gid":39,"width":72,"height":34},{"id":846,"x":853,"y":239,"visible":true,"properties":[{"name":"layer","type":"int","value":2},{"name":"resource_index","type":"int","value":81},{"name":"oS","type":"string","value":"dungeon"},{"name":"l0","type":"string","value":"blueCave"},{"name":"l1","type":"string","value":"acc"},{"name":"l2","type":"string","value":"3"},{"name":"z","type":"int","value":3},{"name":"zM","type":"int","value":123},{"name":"f","type":"int","value":1}],"gid":39,"width":72,"height":34},{"id":847,"x":907,"y":232,"visible":true,"properties":[{"name":"layer","type":"int","value":2},{"name":"resource_index","type":"int","value":82},{"name":"oS","type":"string","value":"dungeon"},{"name":"l0","type":"string","value":"blueCave"},{"name":"l1","type":"string","value":"acc"},{"name":"l2","type":"string","value":"3"},{"name":"z","type":"int","value":4},{"name":"zM","type":"int","value":123},{"name":"f","type":"int","value":0}],"gid":39,"width":72,"height":34},{"id":848,"x":502,"y":241,"visible":true,"properties":[{"name":"layer","type":"int","value":2},{"name":"resource_index","type":"int","value":83},{"name":"oS","type":"string","value":"dungeon"},{"name":"l0","type":"string","value":"blueCave"},{"name":"l1","type":"string","value":"acc"},{"name":"l2","type":"string","value":"3"},{"name":"z","type":"int","value":3},{"name":"zM","type":"int","value":126},{"name":"f","type":"int","value":0}],"gid":39,"width":72,"height":34},{"id":849,"x":616,"y":240,"visible":true,"properties":[{"name":"layer","type":"int","value":2},{"name":"resource_index","type":"int","value":84},{"name":"oS","type":"string","value":"dungeon"},{"name":"l0","type":"string","value":"blueCave"},{"name":"l1","type":"string","value":"acc"},{"name":"l2","type":"string","value":"5"},{"name":"z","type":"int","value":2},{"name":"zM","type":"int","value":124},{"name":"f","type":"int","value":0}],"gid":41,"width":48,"height":37},{"id":850,"x":588,"y":244,"visible":true,"properties":[{"name":"layer","type":"int","value":2},{"name":"resource_index","type":"int","value":85},{"name":"oS","type":"string","value":"dungeon"},{"name":"l0","type":"string","value":"blueCave"},{"name":"l1","type":"string","value":"acc"},{"name":"l2","type":"string","value":"5"},{"name":"z","type":"int","value":4},{"name":"zM","type":"int","value":124},{"name":"f","type":"int","value":1}],"gid":41,"width":48,"height":37},{"id":851,"x":904,"y":247,"visible":true,"properties":[{"name":"layer","type":"int","value":2},{"name":"resource_index","type":"int","value":86},{"name":"oS","type":"string","value":"dungeon"},{"name":"l0","type":"string","value":"blueCave"},{"name":"l1","type":"string","value":"acc"},{"name":"l2","type":"string","value":"5"},{"name":"z","type":"int","value":5},{"name":"zM","type":"int","value":123},{"name":"f","type":"int","value":0}],"gid":41,"width":48,"height":37},{"id":852,"x":954,"y":241,"visible":true,"properties":[{"name":"layer","type":"int","value":2},{"name":"resource_index","type":"int","value":87},{"name":"oS","type":"string","value":"dungeon"},{"name":"l0","type":"string","value":"blueCave"},{"name":"l1","type":"string","value":"acc"},{"name":"l2","type":"string","value":"5"},{"name":"z","type":"int","value":3},{"name":"zM","type":"int","value":123},{"name":"f","type":"int","value":0}],"gid":41,"width":48,"height":37},{"id":853,"x":713,"y":234,"visible":true,"properties":[{"name":"layer","type":"int","value":2},{"name":"resource_index","type":"int","value":88},{"name":"oS","type":"string","value":"dungeon"},{"name":"l0","type":"string","value":"blueCave"},{"name":"l1","type":"string","value":"acc"},{"name":"l2","type":"string","value":"5"},{"name":"z","type":"int","value":2},{"name":"zM","type":"int","value":125},{"name":"f","type":"int","value":0}],"gid":41,"width":48,"height":37},{"id":854,"x":742,"y":242,"visible":true,"properties":[{"name":"layer","type":"int","value":2},{"name":"resource_index","type":"int","value":89},{"name":"oS","type":"string","value":"dungeon"},{"name":"l0","type":"string","value":"blueCave"},{"name":"l1","type":"string","value":"acc"},{"name":"l2","type":"string","value":"5"},{"name":"z","type":"int","value":4},{"name":"zM","type":"int","value":125},{"name":"f","type":"int","value":0}],"gid":41,"width":48,"height":37},{"id":855,"x":746,"y":222,"visible":true,"properties":[{"name":"layer","type":"int","value":2},{"name":"resource_index","type":"int","value":90},{"name":"oS","type":"string","value":"dungeon"},{"name":"l0","type":"string","value":"blueCave"},{"name":"l1","type":"string","value":"acc"},{"name":"l2","type":"string","value":"4"},{"name":"z","type":"int","value":2},{"name":"zM","type":"int","value":125},{"name":"f","type":"int","value":0}],"gid":40,"width":50,"height":48},{"id":856,"x":918,"y":225,"visible":true,"properties":[{"name":"layer","type":"int","value":2},{"name":"resource_index","type":"int","value":91},{"name":"oS","type":"string","value":"dungeon"},{"name":"l0","type":"string","value":"blueCave"},{"name":"l1","type":"string","value":"acc"},{"name":"l2","type":"string","value":"2"},{"name":"z","type":"int","value":1},{"name":"zM","type":"int","value":123},{"name":"f","type":"int","value":0}],"gid":38,"width":53,"height":51},{"id":857,"x":611,"y":227,"visible":true,"properties":[{"name":"layer","type":"int","value":2},{"name":"resource_index","type":"int","value":92},{"name":"oS","type":"string","value":"dungeon"},{"name":"l0","type":"string","value":"blueCave"},{"name":"l1","type":"string","value":"acc"},{"name":"l2","type":"string","value":"2"},{"name":"z","type":"int","value":3},{"name":"zM","type":"int","value":124},{"name":"f","type":"int","value":0}],"gid":38,"width":53,"height":51}]},{"id":5,"name":"layer_3_obj","type":"objectgroup","visible":true,"opacity":1,"objects":[{"id":858,"x":123,"y":-119,"visible":true,"properties":[{"name":"layer","type":"int","value":3},{"name":"resource_index","type":"int","value":0},{"name":"oS","type":"string","value":"dungeon"},{"name":"l0","type":"string","value":"blueCave"},{"name":"l1","type":"string","value":"foot"},{"name":"l2","type":"string","value":"0"},{"name":"z","type":"int","value":3},{"name":"zM","type":"int","value":148},{"name":"f","type":"int","value":0}],"gid":45,"width":191,"height":91},{"id":859,"x":-467,"y":-190,"visible":true,"properties":[{"name":"layer","type":"int","value":3},{"name":"resource_index","type":"int","value":1},{"name":"oS","type":"string","value":"connect"},{"name":"l0","type":"string","value":"ladder"},{"name":"l1","type":"string","value":"0"},{"name":"l2","type":"string","value":"0"},{"name":"z","type":"int","value":3},{"name":"zM","type":"int","value":150},{"name":"f","type":"int","value":0}],"gid":31,"width":48,"height":23},{"id":860,"x":-468,"y":-142,"visible":true,"properties":[{"name":"layer","type":"int","value":3},{"name":"resource_index","type":"int","value":2},{"name":"oS","type":"string","value":"connect"},{"name":"l0","type":"string","value":"ladder"},{"name":"l1","type":"string","value":"0"},{"name":"l2","type":"string","value":"1"},{"name":"z","type":"int","value":3},{"name":"zM","type":"int","value":149},{"name":"f","type":"int","value":0}],"gid":32,"width":54,"height":48},{"id":861,"x":-469,"y":-86,"visible":true,"properties":[{"name":"layer","type":"int","value":3},{"name":"resource_index","type":"int","value":3},{"name":"oS","type":"string","value":"connect"},{"name":"l0","type":"string","value":"ladder"},{"name":"l1","type":"string","value":"0"},{"name":"l2","type":"string","value":"2"},{"name":"z","type":"int","value":3},{"name":"zM","type":"int","value":147},{"name":"f","type":"int","value":0}],"gid":33,"width":53,"height":56},{"id":862,"x":-465,"y":-72,"visible":true,"properties":[{"name":"layer","type":"int","value":3},{"name":"resource_index","type":"int","value":4},{"name":"oS","type":"string","value":"connect"},{"name":"l0","type":"string","value":"ladder"},{"name":"l1","type":"string","value":"0"},{"name":"l2","type":"string","value":"3"},{"name":"z","type":"int","value":3},{"name":"zM","type":"int","value":145},{"name":"f","type":"int","value":0}],"gid":34,"width":47,"height":14},{"id":863,"x":1020,"y":23,"visible":true,"properties":[{"name":"layer","type":"int","value":3},{"name":"resource_index","type":"int","value":5},{"name":"oS","type":"string","value":"connect"},{"name":"l0","type":"string","value":"rope"},{"name":"l1","type":"string","value":"0"},{"name":"l2","type":"string","value":"0"},{"name":"z","type":"int","value":3},{"name":"zM","type":"int","value":143},{"name":"f","type":"int","value":0}],"gid":27,"width":19,"height":49},{"id":864,"x":1021,"y":173,"visible":true,"properties":[{"name":"layer","type":"int","value":3},{"name":"resource_index","type":"int","value":6},{"name":"oS","type":"string","value":"connect"},{"name":"l0","type":"string","value":"rope"},{"name":"l1","type":"string","value":"0"},{"name":"l2","type":"string","value":"2"},{"name":"z","type":"int","value":3},{"name":"zM","type":"int","value":130},{"name":"f","type":"int","value":0}],"gid":29,"width":11,"height":30},{"id":865,"x":352,"y":0,"visible":true,"properties":[{"name":"layer","type":"int","value":3},{"name":"resource_index","type":"int","value":7},{"name":"oS","type":"string","value":"connect"},{"name":"l0","type":"string","value":"rope"},{"name":"l1","type":"string","value":"0"},{"name":"l2","type":"string","value":"0"},{"name":"z","type":"int","value":3},{"name":"zM","type":"int","value":144},{"name":"f","type":"int","value":0}],"gid":27,"width":19,"height":49},{"id":866,"x":1023,"y":143,"visible":true,"properties":[{"name":"layer","type":"int","value":3},{"name":"resource_index","type":"int","value":8},{"name":"oS","type":"string","value":"connect"},{"name":"l0","type":"string","value":"rope"},{"name":"l1","type":"string","value":"0"},{"name":"l2","type":"string","value":"3"},{"name":"z","type":"int","value":3},{"name":"zM","type":"int","value":133},{"name":"f","type":"int","value":0}],"gid":28,"width":5,"height":120},{"id":867,"x":355,"y":120,"visible":true,"properties":[{"name":"layer","type":"int","value":3},{"name":"resource_index","type":"int","value":9},{"name":"oS","type":"string","value":"connect"},{"name":"l0","type":"string","value":"rope"},{"name":"l1","type":"string","value":"0"},{"name":"l2","type":"string","value":"3"},{"name":"z","type":"int","value":3},{"name":"zM","type":"int","value":135},{"name":"f","type":"int","value":0}],"gid":28,"width":5,"height":120},{"id":868,"x":177,"y":-164,"visible":true,"properties":[{"name":"layer","type":"int","value":3},{"name":"resource_index","type":"int","value":10},{"name":"oS","type":"string","value":"connect"},{"name":"l0","type":"string","value":"rope"},{"name":"l1","type":"string","value":"0"},{"name":"l2","type":"string","value":"0"},{"name":"z","type":"int","value":3},{"name":"zM","type":"int","value":148},{"name":"f","type":"int","value":0}],"gid":27,"width":19,"height":49},{"id":869,"x":180,"y":-134,"visible":true,"properties":[{"name":"layer","type":"int","value":3},{"name":"resource_index","type":"int","value":11},{"name":"oS","type":"string","value":"connect"},{"name":"l0","type":"string","value":"rope"},{"name":"l1","type":"string","value":"0"},{"name":"l2","type":"string","value":"1"},{"name":"z","type":"int","value":3},{"name":"zM","type":"int","value":148},{"name":"f","type":"int","value":0}],"gid":30,"width":5,"height":30},{"id":870,"x":180,"y":-104,"visible":true,"properties":[{"name":"layer","type":"int","value":3},{"name":"resource_index","type":"int","value":12},{"name":"oS","type":"string","value":"connect"},{"name":"l0","type":"string","value":"rope"},{"name":"l1","type":"string","value":"0"},{"name":"l2","type":"string","value":"1"},{"name":"z","type":"int","value":3},{"name":"zM","type":"int","value":148},{"name":"f","type":"int","value":0}],"gid":30,"width":5,"height":30},{"id":871,"x":178,"y":-74,"visible":true,"properties":[{"name":"layer","type":"int","value":3},{"name":"resource_index","type":"int","value":13},{"name":"oS","type":"string","value":"connect"},{"name":"l0","type":"string","value":"rope"},{"name":"l1","type":"string","value":"0"},{"name":"l2","type":"string","value":"2"},{"name":"z","type":"int","value":3},{"name":"zM","type":"int","value":146},{"name":"f","type":"int","value":0}],"gid":29,"width":11,"height":30},{"id":872,"x":355,"y":240,"visible":true,"properties":[{"name":"layer","type":"int","value":3},{"name":"resource_index","type":"int","value":14},{"name":"oS","type":"string","value":"connect"},{"name":"l0","type":"string","value":"rope"},{"name":"l1","type":"string","value":"0"},{"name":"l2","type":"string","value":"3"},{"name":"z","type":"int","value":3},{"name":"zM","type":"int","value":127},{"name":"f","type":"int","value":0}],"gid":28,"width":5,"height":120},{"id":873,"x":355,"y":270,"visible":true,"properties":[{"name":"layer","type":"int","value":3},{"name":"resource_index","type":"int","value":15},{"name":"oS","type":"string","value":"connect"},{"name":"l0","type":"string","value":"rope"},{"name":"l1","type":"string","value":"0"},{"name":"l2","type":"string","value":"1"},{"name":"z","type":"int","value":3},{"name":"zM","type":"int","value":122},{"name":"f","type":"int","value":0}],"gid":30,"width":5,"height":30},{"id":874,"x":355,"y":300,"visible":true,"properties":[{"name":"layer","type":"int","value":3},{"name":"resource_index","type":"int","value":16},{"name":"oS","type":"string","value":"connect"},{"name":"l0","type":"string","value":"rope"},{"name":"l1","type":"string","value":"0"},{"name":"l2","type":"string","value":"1"},{"name":"z","type":"int","value":3},{"name":"zM","type":"int","value":121},{"name":"f","type":"int","value":0}],"gid":30,"width":5,"height":30},{"id":875,"x":353,"y":330,"visible":true,"properties":[{"name":"layer","type":"int","value":3},{"name":"resource_index","type":"int","value":17},{"name":"oS","type":"string","value":"connect"},{"name":"l0","type":"string","value":"rope"},{"name":"l1","type":"string","value":"0"},{"name":"l2","type":"string","value":"2"},{"name":"z","type":"int","value":3},{"name":"zM","type":"int","value":118},{"name":"f","type":"int","value":0}],"gid":29,"width":11,"height":30},{"id":876,"x":193,"y":347,"visible":true,"properties":[{"name":"layer","type":"int","value":3},{"name":"resource_index","type":"int","value":18},{"name":"oS","type":"string","value":"connect"},{"name":"l0","type":"string","value":"rope"},{"name":"l1","type":"string","value":"0"},{"name":"l2","type":"string","value":"0"},{"name":"z","type":"int","value":3},{"name":"zM","type":"int","value":117},{"name":"f","type":"int","value":0}],"gid":27,"width":19,"height":49},{"id":877,"x":196,"y":467,"visible":true,"properties":[{"name":"layer","type":"int","value":3},{"name":"resource_index","type":"int","value":19},{"name":"oS","type":"string","value":"connect"},{"name":"l0","type":"string","value":"rope"},{"name":"l1","type":"string","value":"0"},{"name":"l2","type":"string","value":"3"},{"name":"z","type":"int","value":3},{"name":"zM","type":"int","value":113},{"name":"f","type":"int","value":0}],"gid":28,"width":5,"height":120},{"id":878,"x":196,"y":497,"visible":true,"properties":[{"name":"layer","type":"int","value":3},{"name":"resource_index","type":"int","value":20},{"name":"oS","type":"string","value":"connect"},{"name":"l0","type":"string","value":"rope"},{"name":"l1","type":"string","value":"0"},{"name":"l2","type":"string","value":"1"},{"name":"z","type":"int","value":3},{"name":"zM","type":"int","value":111},{"name":"f","type":"int","value":0}],"gid":30,"width":5,"height":30},{"id":879,"x":194,"y":527,"visible":true,"properties":[{"name":"layer","type":"int","value":3},{"name":"resource_index","type":"int","value":21},{"name":"oS","type":"string","value":"connect"},{"name":"l0","type":"string","value":"rope"},{"name":"l1","type":"string","value":"0"},{"name":"l2","type":"string","value":"2"},{"name":"z","type":"int","value":3},{"name":"zM","type":"int","value":107},{"name":"f","type":"int","value":0}],"gid":29,"width":11,"height":30},{"id":880,"x":485,"y":574,"visible":true,"properties":[{"name":"layer","type":"int","value":3},{"name":"resource_index","type":"int","value":22},{"name":"oS","type":"string","value":"connect"},{"name":"l0","type":"string","value":"rope"},{"name":"l1","type":"string","value":"0"},{"name":"l2","type":"string","value":"0"},{"name":"z","type":"int","value":3},{"name":"zM","type":"int","value":102},{"name":"f","type":"int","value":0}],"gid":27,"width":19,"height":49},{"id":881,"x":488,"y":694,"visible":true,"properties":[{"name":"layer","type":"int","value":3},{"name":"resource_index","type":"int","value":23},{"name":"oS","type":"string","value":"connect"},{"name":"l0","type":"string","value":"rope"},{"name":"l1","type":"string","value":"0"},{"name":"l2","type":"string","value":"3"},{"name":"z","type":"int","value":3},{"name":"zM","type":"int","value":92},{"name":"f","type":"int","value":0}],"gid":28,"width":5,"height":120},{"id":882,"x":486,"y":724,"visible":true,"properties":[{"name":"layer","type":"int","value":3},{"name":"resource_index","type":"int","value":24},{"name":"oS","type":"string","value":"connect"},{"name":"l0","type":"string","value":"rope"},{"name":"l1","type":"string","value":"0"},{"name":"l2","type":"string","value":"2"},{"name":"z","type":"int","value":3},{"name":"zM","type":"int","value":88},{"name":"f","type":"int","value":0}],"gid":29,"width":11,"height":30},{"id":883,"x":114,"y":556,"visible":true,"properties":[{"name":"layer","type":"int","value":3},{"name":"resource_index","type":"int","value":25},{"name":"oS","type":"string","value":"connect"},{"name":"l0","type":"string","value":"rope"},{"name":"l1","type":"string","value":"0"},{"name":"l2","type":"string","value":"0"},{"name":"z","type":"int","value":3},{"name":"zM","type":"int","value":103},{"name":"f","type":"int","value":0}],"gid":27,"width":19,"height":49},{"id":884,"x":117,"y":676,"visible":true,"properties":[{"name":"layer","type":"int","value":3},{"name":"resource_index","type":"int","value":26},{"name":"oS","type":"string","value":"connect"},{"name":"l0","type":"string","value":"rope"},{"name":"l1","type":"string","value":"0"},{"name":"l2","type":"string","value":"3"},{"name":"z","type":"int","value":3},{"name":"zM","type":"int","value":93},{"name":"f","type":"int","value":0}],"gid":28,"width":5,"height":120},{"id":885,"x":115,"y":706,"visible":true,"properties":[{"name":"layer","type":"int","value":3},{"name":"resource_index","type":"int","value":27},{"name":"oS","type":"string","value":"connect"},{"name":"l0","type":"string","value":"rope"},{"name":"l1","type":"string","value":"0"},{"name":"l2","type":"string","value":"2"},{"name":"z","type":"int","value":3},{"name":"zM","type":"int","value":91},{"name":"f","type":"int","value":0}],"gid":29,"width":11,"height":30},{"id":886,"x":52,"y":770,"visible":true,"properties":[{"name":"layer","type":"int","value":3},{"name":"resource_index","type":"int","value":28},{"name":"oS","type":"string","value":"connect"},{"name":"l0","type":"string","value":"rope"},{"name":"l1","type":"string","value":"0"},{"name":"l2","type":"string","value":"0"},{"name":"z","type":"int","value":3},{"name":"zM","type":"int","value":85},{"name":"f","type":"int","value":0}],"gid":27,"width":19,"height":49},{"id":887,"x":55,"y":890,"visible":true,"properties":[{"name":"layer","type":"int","value":3},{"name":"resource_index","type":"int","value":29},{"name":"oS","type":"string","value":"connect"},{"name":"l0","type":"string","value":"rope"},{"name":"l1","type":"string","value":"0"},{"name":"l2","type":"string","value":"3"},{"name":"z","type":"int","value":3},{"name":"zM","type":"int","value":77},{"name":"f","type":"int","value":0}],"gid":28,"width":5,"height":120},{"id":888,"x":55,"y":920,"visible":true,"properties":[{"name":"layer","type":"int","value":3},{"name":"resource_index","type":"int","value":30},{"name":"oS","type":"string","value":"connect"},{"name":"l0","type":"string","value":"rope"},{"name":"l1","type":"string","value":"0"},{"name":"l2","type":"string","value":"1"},{"name":"z","type":"int","value":3},{"name":"zM","type":"int","value":74},{"name":"f","type":"int","value":0}],"gid":30,"width":5,"height":30},{"id":889,"x":53,"y":950,"visible":true,"properties":[{"name":"layer","type":"int","value":3},{"name":"resource_index","type":"int","value":31},{"name":"oS","type":"string","value":"connect"},{"name":"l0","type":"string","value":"rope"},{"name":"l1","type":"string","value":"0"},{"name":"l2","type":"string","value":"2"},{"name":"z","type":"int","value":3},{"name":"zM","type":"int","value":72},{"name":"f","type":"int","value":0}],"gid":29,"width":11,"height":30},{"id":890,"x":111,"y":1063,"visible":true,"properties":[{"name":"layer","type":"int","value":3},{"name":"resource_index","type":"int","value":32},{"name":"oS","type":"string","value":"connect"},{"name":"l0","type":"string","value":"rope"},{"name":"l1","type":"string","value":"0"},{"name":"l2","type":"string","value":"0"},{"name":"z","type":"int","value":3},{"name":"zM","type":"int","value":61},{"name":"f","type":"int","value":0}],"gid":27,"width":19,"height":49},{"id":891,"x":114,"y":1093,"visible":true,"properties":[{"name":"layer","type":"int","value":3},{"name":"resource_index","type":"int","value":33},{"name":"oS","type":"string","value":"connect"},{"name":"l0","type":"string","value":"rope"},{"name":"l1","type":"string","value":"0"},{"name":"l2","type":"string","value":"1"},{"name":"z","type":"int","value":3},{"name":"zM","type":"int","value":57},{"name":"f","type":"int","value":0}],"gid":30,"width":5,"height":30},{"id":892,"x":112,"y":1123,"visible":true,"properties":[{"name":"layer","type":"int","value":3},{"name":"resource_index","type":"int","value":34},{"name":"oS","type":"string","value":"connect"},{"name":"l0","type":"string","value":"rope"},{"name":"l1","type":"string","value":"0"},{"name":"l2","type":"string","value":"2"},{"name":"z","type":"int","value":3},{"name":"zM","type":"int","value":54},{"name":"f","type":"int","value":0}],"gid":29,"width":11,"height":30},{"id":893,"x":28,"y":1206,"visible":true,"properties":[{"name":"layer","type":"int","value":3},{"name":"resource_index","type":"int","value":35},{"name":"oS","type":"string","value":"connect"},{"name":"l0","type":"string","value":"rope"},{"name":"l1","type":"string","value":"0"},{"name":"l2","type":"string","value":"0"},{"name":"z","type":"int","value":3},{"name":"zM","type":"int","value":42},{"name":"f","type":"int","value":0}],"gid":27,"width":19,"height":49},{"id":894,"x":31,"y":1326,"visible":true,"properties":[{"name":"layer","type":"int","value":3},{"name":"resource_index","type":"int","value":36},{"name":"oS","type":"string","value":"connect"},{"name":"l0","type":"string","value":"rope"},{"name":"l1","type":"string","value":"0"},{"name":"l2","type":"string","value":"3"},{"name":"z","type":"int","value":3},{"name":"zM","type":"int","value":33},{"name":"f","type":"int","value":0}],"gid":28,"width":5,"height":120},{"id":895,"x":29,"y":1356,"visible":true,"properties":[{"name":"layer","type":"int","value":3},{"name":"resource_index","type":"int","value":37},{"name":"oS","type":"string","value":"connect"},{"name":"l0","type":"string","value":"rope"},{"name":"l1","type":"string","value":"0"},{"name":"l2","type":"string","value":"2"},{"name":"z","type":"int","value":3},{"name":"zM","type":"int","value":31},{"name":"f","type":"int","value":0}],"gid":29,"width":11,"height":30},{"id":896,"x":597,"y":1613,"visible":true,"properties":[{"name":"layer","type":"int","value":3},{"name":"resource_index","type":"int","value":38},{"name":"oS","type":"string","value":"connect"},{"name":"l0","type":"string","value":"rope"},{"name":"l1","type":"string","value":"0"},{"name":"l2","type":"string","value":"0"},{"name":"z","type":"int","value":3},{"name":"zM","type":"int","value":23},{"name":"f","type":"int","value":0}],"gid":27,"width":19,"height":49},{"id":897,"x":600,"y":1733,"visible":true,"properties":[{"name":"layer","type":"int","value":3},{"name":"resource_index","type":"int","value":39},{"name":"oS","type":"string","value":"connect"},{"name":"l0","type":"string","value":"rope"},{"name":"l1","type":"string","value":"0"},{"name":"l2","type":"string","value":"3"},{"name":"z","type":"int","value":3},{"name":"zM","type":"int","value":15},{"name":"f","type":"int","value":0}],"gid":28,"width":5,"height":120},{"id":898,"x":598,"y":1763,"visible":true,"properties":[{"name":"layer","type":"int","value":3},{"name":"resource_index","type":"int","value":40},{"name":"oS","type":"string","value":"connect"},{"name":"l0","type":"string","value":"rope"},{"name":"l1","type":"string","value":"0"},{"name":"l2","type":"string","value":"2"},{"name":"z","type":"int","value":3},{"name":"zM","type":"int","value":14},{"name":"f","type":"int","value":0}],"gid":29,"width":11,"height":30},{"id":899,"x":464,"y":1314,"visible":true,"properties":[{"name":"layer","type":"int","value":3},{"name":"resource_index","type":"int","value":41},{"name":"oS","type":"string","value":"connect"},{"name":"l0","type":"string","value":"rope"},{"name":"l1","type":"string","value":"0"},{"name":"l2","type":"string","value":"0"},{"name":"z","type":"int","value":3},{"name":"zM","type":"int","value":34},{"name":"f","type":"int","value":0}],"gid":27,"width":19,"height":49},{"id":900,"x":467,"y":1434,"visible":true,"properties":[{"name":"layer","type":"int","value":3},{"name":"resource_index","type":"int","value":42},{"name":"oS","type":"string","value":"connect"},{"name":"l0","type":"string","value":"rope"},{"name":"l1","type":"string","value":"0"},{"name":"l2","type":"string","value":"3"},{"name":"z","type":"int","value":3},{"name":"zM","type":"int","value":30},{"name":"f","type":"int","value":0}],"gid":28,"width":5,"height":120},{"id":901,"x":467,"y":1554,"visible":true,"properties":[{"name":"layer","type":"int","value":3},{"name":"resource_index","type":"int","value":43},{"name":"oS","type":"string","value":"connect"},{"name":"l0","type":"string","value":"rope"},{"name":"l1","type":"string","value":"0"},{"name":"l2","type":"string","value":"3"},{"name":"z","type":"int","value":3},{"name":"zM","type":"int","value":27},{"name":"f","type":"int","value":0}],"gid":28,"width":5,"height":120},{"id":902,"x":465,"y":1584,"visible":true,"properties":[{"name":"layer","type":"int","value":3},{"name":"resource_index","type":"int","value":44},{"name":"oS","type":"string","value":"connect"},{"name":"l0","type":"string","value":"rope"},{"name":"l1","type":"string","value":"0"},{"name":"l2","type":"string","value":"2"},{"name":"z","type":"int","value":3},{"name":"zM","type":"int","value":26},{"name":"f","type":"int","value":0}],"gid":29,"width":11,"height":30},{"id":903,"x":158,"y":1481,"visible":true,"properties":[{"name":"layer","type":"int","value":3},{"name":"resource_index","type":"int","value":45},{"name":"oS","type":"string","value":"connect"},{"name":"l0","type":"string","value":"rope"},{"name":"l1","type":"string","value":"0"},{"name":"l2","type":"string","value":"0"},{"name":"z","type":"int","value":3},{"name":"zM","type":"int","value":29},{"name":"f","type":"int","value":0}],"gid":27,"width":19,"height":49},{"id":904,"x":161,"y":1601,"visible":true,"properties":[{"name":"layer","type":"int","value":3},{"name":"resource_index","type":"int","value":46},{"name":"oS","type":"string","value":"connect"},{"name":"l0","type":"string","value":"rope"},{"name":"l1","type":"string","value":"0"},{"name":"l2","type":"string","value":"3"},{"name":"z","type":"int","value":3},{"name":"zM","type":"int","value":25},{"name":"f","type":"int","value":0}],"gid":28,"width":5,"height":120},{"id":905,"x":161,"y":1631,"visible":true,"properties":[{"name":"layer","type":"int","value":3},{"name":"resource_index","type":"int","value":47},{"name":"oS","type":"string","value":"connect"},{"name":"l0","type":"string","value":"rope"},{"name":"l1","type":"string","value":"0"},{"name":"l2","type":"string","value":"1"},{"name":"z","type":"int","value":3},{"name":"zM","type":"int","value":22},{"name":"f","type":"int","value":0}],"gid":30,"width":5,"height":30},{"id":906,"x":159,"y":1661,"visible":true,"properties":[{"name":"layer","type":"int","value":3},{"name":"resource_index","type":"int","value":48},{"name":"oS","type":"string","value":"connect"},{"name":"l0","type":"string","value":"rope"},{"name":"l1","type":"string","value":"0"},{"name":"l2","type":"string","value":"2"},{"name":"z","type":"int","value":3},{"name":"zM","type":"int","value":20},{"name":"f","type":"int","value":0}],"gid":29,"width":11,"height":30},{"id":907,"x":837,"y":1006,"visible":true,"properties":[{"name":"layer","type":"int","value":3},{"name":"resource_index","type":"int","value":49},{"name":"oS","type":"string","value":"connect"},{"name":"l0","type":"string","value":"ladder"},{"name":"l1","type":"string","value":"0"},{"name":"l2","type":"string","value":"0"},{"name":"z","type":"int","value":3},{"name":"zM","type":"int","value":68},{"name":"f","type":"int","value":0}],"gid":31,"width":48,"height":23},{"id":908,"x":836,"y":1054,"visible":true,"properties":[{"name":"layer","type":"int","value":3},{"name":"resource_index","type":"int","value":50},{"name":"oS","type":"string","value":"connect"},{"name":"l0","type":"string","value":"ladder"},{"name":"l1","type":"string","value":"0"},{"name":"l2","type":"string","value":"1"},{"name":"z","type":"int","value":3},{"name":"zM","type":"int","value":64},{"name":"f","type":"int","value":0}],"gid":32,"width":54,"height":48},{"id":909,"x":835,"y":1110,"visible":true,"properties":[{"name":"layer","type":"int","value":3},{"name":"resource_index","type":"int","value":51},{"name":"oS","type":"string","value":"connect"},{"name":"l0","type":"string","value":"ladder"},{"name":"l1","type":"string","value":"0"},{"name":"l2","type":"string","value":"2"},{"name":"z","type":"int","value":3},{"name":"zM","type":"int","value":55},{"name":"f","type":"int","value":0}],"gid":33,"width":53,"height":56},{"id":910,"x":839,"y":1124,"visible":true,"properties":[{"name":"layer","type":"int","value":3},{"name":"resource_index","type":"int","value":52},{"name":"oS","type":"string","value":"connect"},{"name":"l0","type":"string","value":"ladder"},{"name":"l1","type":"string","value":"0"},{"name":"l2","type":"string","value":"3"},{"name":"z","type":"int","value":3},{"name":"zM","type":"int","value":53},{"name":"f","type":"int","value":0}],"gid":34,"width":47,"height":14},{"id":911,"x":1624,"y":1015,"visible":true,"properties":[{"name":"layer","type":"int","value":3},{"name":"resource_index","type":"int","value":53},{"name":"oS","type":"string","value":"connect"},{"name":"l0","type":"string","value":"rope"},{"name":"l1","type":"string","value":"0"},{"name":"l2","type":"string","value":"0"},{"name":"z","type":"int","value":3},{"name":"zM","type":"int","value":67},{"name":"f","type":"int","value":0}],"gid":27,"width":19,"height":49},{"id":912,"x":1627,"y":1135,"visible":true,"properties":[{"name":"layer","type":"int","value":3},{"name":"resource_index","type":"int","value":54},{"name":"oS","type":"string","value":"connect"},{"name":"l0","type":"string","value":"rope"},{"name":"l1","type":"string","value":"0"},{"name":"l2","type":"string","value":"3"},{"name":"z","type":"int","value":3},{"name":"zM","type":"int","value":52},{"name":"f","type":"int","value":0}],"gid":28,"width":5,"height":120},{"id":913,"x":1627,"y":1165,"visible":true,"properties":[{"name":"layer","type":"int","value":3},{"name":"resource_index","type":"int","value":55},{"name":"oS","type":"string","value":"connect"},{"name":"l0","type":"string","value":"rope"},{"name":"l1","type":"string","value":"0"},{"name":"l2","type":"string","value":"1"},{"name":"z","type":"int","value":3},{"name":"zM","type":"int","value":49},{"name":"f","type":"int","value":0}],"gid":30,"width":5,"height":30},{"id":914,"x":1625,"y":1195,"visible":true,"properties":[{"name":"layer","type":"int","value":3},{"name":"resource_index","type":"int","value":56},{"name":"oS","type":"string","value":"connect"},{"name":"l0","type":"string","value":"rope"},{"name":"l1","type":"string","value":"0"},{"name":"l2","type":"string","value":"2"},{"name":"z","type":"int","value":3},{"name":"zM","type":"int","value":46},{"name":"f","type":"int","value":0}],"gid":29,"width":11,"height":30},{"id":915,"x":1743,"y":1775,"visible":true,"properties":[{"name":"layer","type":"int","value":3},{"name":"resource_index","type":"int","value":57},{"name":"oS","type":"string","value":"connect"},{"name":"l0","type":"string","value":"ladder"},{"name":"l1","type":"string","value":"0"},{"name":"l2","type":"string","value":"0"},{"name":"z","type":"int","value":3},{"name":"zM","type":"int","value":13},{"name":"f","type":"int","value":0}],"gid":31,"width":48,"height":23},{"id":916,"x":1742,"y":1823,"visible":true,"properties":[{"name":"layer","type":"int","value":3},{"name":"resource_index","type":"int","value":58},{"name":"oS","type":"string","value":"connect"},{"name":"l0","type":"string","value":"ladder"},{"name":"l1","type":"string","value":"0"},{"name":"l2","type":"string","value":"1"},{"name":"z","type":"int","value":3},{"name":"zM","type":"int","value":11},{"name":"f","type":"int","value":0}],"gid":32,"width":54,"height":48},{"id":917,"x":1745,"y":1837,"visible":true,"properties":[{"name":"layer","type":"int","value":3},{"name":"resource_index","type":"int","value":59},{"name":"oS","type":"string","value":"connect"},{"name":"l0","type":"string","value":"ladder"},{"name":"l1","type":"string","value":"0"},{"name":"l2","type":"string","value":"3"},{"name":"z","type":"int","value":3},{"name":"zM","type":"int","value":10},{"name":"f","type":"int","value":0}],"gid":34,"width":47,"height":14},{"id":918,"x":1721,"y":1491,"visible":true,"properties":[{"name":"layer","type":"int","value":3},{"name":"resource_index","type":"int","value":60},{"name":"oS","type":"string","value":"connect"},{"name":"l0","type":"string","value":"rope"},{"name":"l1","type":"string","value":"0"},{"name":"l2","type":"string","value":"0"},{"name":"z","type":"int","value":3},{"name":"zM","type":"int","value":28},{"name":"f","type":"int","value":0}],"gid":27,"width":19,"height":49},{"id":919,"x":1724,"y":1611,"visible":true,"properties":[{"name":"layer","type":"int","value":3},{"name":"resource_index","type":"int","value":61},{"name":"oS","type":"string","value":"connect"},{"name":"l0","type":"string","value":"rope"},{"name":"l1","type":"string","value":"0"},{"name":"l2","type":"string","value":"3"},{"name":"z","type":"int","value":3},{"name":"zM","type":"int","value":24},{"name":"f","type":"int","value":0}],"gid":28,"width":5,"height":120},{"id":920,"x":1724,"y":1641,"visible":true,"properties":[{"name":"layer","type":"int","value":3},{"name":"resource_index","type":"int","value":62},{"name":"oS","type":"string","value":"connect"},{"name":"l0","type":"string","value":"rope"},{"name":"l1","type":"string","value":"0"},{"name":"l2","type":"string","value":"1"},{"name":"z","type":"int","value":3},{"name":"zM","type":"int","value":21},{"name":"f","type":"int","value":0}],"gid":30,"width":5,"height":30},{"id":921,"x":1724,"y":1671,"visible":true,"properties":[{"name":"layer","type":"int","value":3},{"name":"resource_index","type":"int","value":63},{"name":"oS","type":"string","value":"connect"},{"name":"l0","type":"string","value":"rope"},{"name":"l1","type":"string","value":"0"},{"name":"l2","type":"string","value":"1"},{"name":"z","type":"int","value":3},{"name":"zM","type":"int","value":19},{"name":"f","type":"int","value":0}],"gid":30,"width":5,"height":30},{"id":922,"x":1722,"y":1701,"visible":true,"properties":[{"name":"layer","type":"int","value":3},{"name":"resource_index","type":"int","value":64},{"name":"oS","type":"string","value":"connect"},{"name":"l0","type":"string","value":"rope"},{"name":"l1","type":"string","value":"0"},{"name":"l2","type":"string","value":"2"},{"name":"z","type":"int","value":3},{"name":"zM","type":"int","value":18},{"name":"f","type":"int","value":0}],"gid":29,"width":11,"height":30},{"id":923,"x":1809,"y":1163,"visible":true,"properties":[{"name":"layer","type":"int","value":3},{"name":"resource_index","type":"int","value":65},{"name":"oS","type":"string","value":"connect"},{"name":"l0","type":"string","value":"rope"},{"name":"l1","type":"string","value":"0"},{"name":"l2","type":"string","value":"0"},{"name":"z","type":"int","value":3},{"name":"zM","type":"int","value":50},{"name":"f","type":"int","value":0}],"gid":27,"width":19,"height":49},{"id":924,"x":1812,"y":1283,"visible":true,"properties":[{"name":"layer","type":"int","value":3},{"name":"resource_index","type":"int","value":66},{"name":"oS","type":"string","value":"connect"},{"name":"l0","type":"string","value":"rope"},{"name":"l1","type":"string","value":"0"},{"name":"l2","type":"string","value":"3"},{"name":"z","type":"int","value":3},{"name":"zM","type":"int","value":36},{"name":"f","type":"int","value":0}],"gid":28,"width":5,"height":120},{"id":925,"x":1812,"y":1313,"visible":true,"properties":[{"name":"layer","type":"int","value":3},{"name":"resource_index","type":"int","value":67},{"name":"oS","type":"string","value":"connect"},{"name":"l0","type":"string","value":"rope"},{"name":"l1","type":"string","value":"0"},{"name":"l2","type":"string","value":"1"},{"name":"z","type":"int","value":3},{"name":"zM","type":"int","value":35},{"name":"f","type":"int","value":0}],"gid":30,"width":5,"height":30},{"id":926,"x":1810,"y":1343,"visible":true,"properties":[{"name":"layer","type":"int","value":3},{"name":"resource_index","type":"int","value":68},{"name":"oS","type":"string","value":"connect"},{"name":"l0","type":"string","value":"rope"},{"name":"l1","type":"string","value":"0"},{"name":"l2","type":"string","value":"2"},{"name":"z","type":"int","value":3},{"name":"zM","type":"int","value":32},{"name":"f","type":"int","value":0}],"gid":29,"width":11,"height":30},{"id":927,"x":1342,"y":751,"visible":true,"properties":[{"name":"layer","type":"int","value":3},{"name":"resource_index","type":"int","value":69},{"name":"oS","type":"string","value":"connect"},{"name":"l0","type":"string","value":"rope"},{"name":"l1","type":"string","value":"0"},{"name":"l2","type":"string","value":"0"},{"name":"z","type":"int","value":3},{"name":"zM","type":"int","value":86},{"name":"f","type":"int","value":0}],"gid":27,"width":19,"height":49},{"id":928,"x":1345,"y":871,"visible":true,"properties":[{"name":"layer","type":"int","value":3},{"name":"resource_index","type":"int","value":70},{"name":"oS","type":"string","value":"connect"},{"name":"l0","type":"string","value":"rope"},{"name":"l1","type":"string","value":"0"},{"name":"l2","type":"string","value":"3"},{"name":"z","type":"int","value":3},{"name":"zM","type":"int","value":78},{"name":"f","type":"int","value":0}],"gid":28,"width":5,"height":120},{"id":929,"x":1343,"y":901,"visible":true,"properties":[{"name":"layer","type":"int","value":3},{"name":"resource_index","type":"int","value":71},{"name":"oS","type":"string","value":"connect"},{"name":"l0","type":"string","value":"rope"},{"name":"l1","type":"string","value":"0"},{"name":"l2","type":"string","value":"2"},{"name":"z","type":"int","value":3},{"name":"zM","type":"int","value":76},{"name":"f","type":"int","value":0}],"gid":29,"width":11,"height":30},{"id":930,"x":1141,"y":517,"visible":true,"properties":[{"name":"layer","type":"int","value":3},{"name":"resource_index","type":"int","value":72},{"name":"oS","type":"string","value":"connect"},{"name":"l0","type":"string","value":"rope"},{"name":"l1","type":"string","value":"0"},{"name":"l2","type":"string","value":"0"},{"name":"z","type":"int","value":3},{"name":"zM","type":"int","value":109},{"name":"f","type":"int","value":0}],"gid":27,"width":19,"height":49},{"id":931,"x":1144,"y":637,"visible":true,"properties":[{"name":"layer","type":"int","value":3},{"name":"resource_index","type":"int","value":73},{"name":"oS","type":"string","value":"connect"},{"name":"l0","type":"string","value":"rope"},{"name":"l1","type":"string","value":"0"},{"name":"l2","type":"string","value":"3"},{"name":"z","type":"int","value":3},{"name":"zM","type":"int","value":98},{"name":"f","type":"int","value":0}],"gid":28,"width":5,"height":120},{"id":932,"x":1142,"y":667,"visible":true,"properties":[{"name":"layer","type":"int","value":3},{"name":"resource_index","type":"int","value":74},{"name":"oS","type":"string","value":"connect"},{"name":"l0","type":"string","value":"rope"},{"name":"l1","type":"string","value":"0"},{"name":"l2","type":"string","value":"2"},{"name":"z","type":"int","value":3},{"name":"zM","type":"int","value":95},{"name":"f","type":"int","value":0}],"gid":29,"width":11,"height":30},{"id":933,"x":2097,"y":315,"visible":true,"properties":[{"name":"layer","type":"int","value":3},{"name":"resource_index","type":"int","value":75},{"name":"oS","type":"string","value":"connect"},{"name":"l0","type":"string","value":"rope"},{"name":"l1","type":"string","value":"0"},{"name":"l2","type":"string","value":"0"},{"name":"z","type":"int","value":3},{"name":"zM","type":"int","value":120},{"name":"f","type":"int","value":0}],"gid":27,"width":19,"height":49},{"id":934,"x":2100,"y":435,"visible":true,"properties":[{"name":"layer","type":"int","value":3},{"name":"resource_index","type":"int","value":76},{"name":"oS","type":"string","value":"connect"},{"name":"l0","type":"string","value":"rope"},{"name":"l1","type":"string","value":"0"},{"name":"l2","type":"string","value":"3"},{"name":"z","type":"int","value":3},{"name":"zM","type":"int","value":115},{"name":"f","type":"int","value":0}],"gid":28,"width":5,"height":120},{"id":935,"x":2098,"y":465,"visible":true,"properties":[{"name":"layer","type":"int","value":3},{"name":"resource_index","type":"int","value":77},{"name":"oS","type":"string","value":"connect"},{"name":"l0","type":"string","value":"rope"},{"name":"l1","type":"string","value":"0"},{"name":"l2","type":"string","value":"2"},{"name":"z","type":"int","value":3},{"name":"zM","type":"int","value":114},{"name":"f","type":"int","value":0}],"gid":29,"width":11,"height":30},{"id":936,"x":2160,"y":102,"visible":true,"properties":[{"name":"layer","type":"int","value":3},{"name":"resource_index","type":"int","value":78},{"name":"oS","type":"string","value":"connect"},{"name":"l0","type":"string","value":"rope"},{"name":"l1","type":"string","value":"0"},{"name":"l2","type":"string","value":"0"},{"name":"z","type":"int","value":3},{"name":"zM","type":"int","value":138},{"name":"f","type":"int","value":0}],"gid":27,"width":19,"height":49},{"id":937,"x":2163,"y":132,"visible":true,"properties":[{"name":"layer","type":"int","value":3},{"name":"resource_index","type":"int","value":79},{"name":"oS","type":"string","value":"connect"},{"name":"l0","type":"string","value":"rope"},{"name":"l1","type":"string","value":"0"},{"name":"l2","type":"string","value":"1"},{"name":"z","type":"int","value":3},{"name":"zM","type":"int","value":134},{"name":"f","type":"int","value":0}],"gid":30,"width":5,"height":30},{"id":938,"x":2163,"y":162,"visible":true,"properties":[{"name":"layer","type":"int","value":3},{"name":"resource_index","type":"int","value":80},{"name":"oS","type":"string","value":"connect"},{"name":"l0","type":"string","value":"rope"},{"name":"l1","type":"string","value":"0"},{"name":"l2","type":"string","value":"1"},{"name":"z","type":"int","value":3},{"name":"zM","type":"int","value":131},{"name":"f","type":"int","value":0}],"gid":30,"width":5,"height":30},{"id":939,"x":2161,"y":192,"visible":true,"properties":[{"name":"layer","type":"int","value":3},{"name":"resource_index","type":"int","value":81},{"name":"oS","type":"string","value":"connect"},{"name":"l0","type":"string","value":"rope"},{"name":"l1","type":"string","value":"0"},{"name":"l2","type":"string","value":"2"},{"name":"z","type":"int","value":3},{"name":"zM","type":"int","value":129},{"name":"f","type":"int","value":0}],"gid":29,"width":11,"height":30}]},{"id":6,"name":"background_back_0","type":"imagelayer","visible":true,"opacity":1,"image":"../../images/29767.png","imagewidth":800,"imageheight":600,"offsetx":-400,"offsety":-300,"repeatx":true,"repeaty":true,"parallaxx":1,"parallaxy":1,"properties":[{"name":"a","type":"int","value":255},{"name":"f","type":"int","value":0},{"name":"x","type":"int","value":0},{"name":"y","type":"int","value":0},{"name":"bS","type":"string","value":"blueCave"},{"name":"cx","type":"int","value":0},{"name":"cy","type":"int","value":0},{"name":"no","type":"int","value":0},{"name":"rx","type":"int","value":-30},{"name":"ry","type":"int","value":-30},{"name":"ani","type":"int","value":0},{"name":"type","type":"int","value":3},{"name":"front","type":"int","value":0}]},{"id":7,"name":"background_back_1","type":"imagelayer","visible":true,"opacity":1,"image":"../../images/29768.png","imagewidth":800,"imageheight":600,"offsetx":-400,"offsety":-300,"repeatx":true,"repeaty":true,"parallaxx":1,"parallaxy":1,"properties":[{"name":"a","type":"int","value":255},{"name":"f","type":"int","value":0},{"name":"x","type":"int","value":0},{"name":"y","type":"int","value":0},{"name":"bS","type":"string","value":"blueCave"},{"name":"cx","type":"int","value":0},{"name":"cy","type":"int","value":0},{"name":"no","type":"int","value":1},{"name":"rx","type":"int","value":-35},{"name":"ry","type":"int","value":-35},{"name":"ani","type":"int","value":0},{"name":"type","type":"int","value":3},{"name":"front","type":"int","value":0}]},{"id":8,"name":"background_back_2","type":"imagelayer","visible":true,"opacity":1,"image":"../../images/29769.png","imagewidth":800,"imageheight":600,"offsetx":-400,"offsety":-300,"repeatx":true,"repeaty":true,"parallaxx":1,"parallaxy":1,"properties":[{"name":"a","type":"int","value":255},{"name":"f","type":"int","value":0},{"name":"x","type":"int","value":0},{"name":"y","type":"int","value":0},{"name":"bS","type":"string","value":"blueCave"},{"name":"cx","type":"int","value":0},{"name":"cy","type":"int","value":0},{"name":"no","type":"int","value":2},{"name":"rx","type":"int","value":-40},{"name":"ry","type":"int","value":-40},{"name":"ani","type":"int","value":0},{"name":"type","type":"int","value":3},{"name":"front","type":"int","value":0}]},{"id":9,"name":"background_back_3","type":"imagelayer","visible":true,"opacity":1,"image":"../../images/29771.png","imagewidth":800,"imageheight":600,"offsetx":-400,"offsety":-300,"repeatx":true,"repeaty":true,"parallaxx":1,"parallaxy":1,"properties":[{"name":"a","type":"int","value":255},{"name":"f","type":"int","value":0},{"name":"x","type":"int","value":0},{"name":"y","type":"int","value":0},{"name":"bS","type":"string","value":"blueCave"},{"name":"cx","type":"int","value":0},{"name":"cy","type":"int","value":0},{"name":"no","type":"int","value":4},{"name":"rx","type":"int","value":-45},{"name":"ry","type":"int","value":-45},{"name":"ani","type":"int","value":0},{"name":"type","type":"int","value":3},{"name":"front","type":"int","value":0}]},{"id":10,"name":"portal","type":"objectgroup","visible":true,"opacity":1,"objects":[{"id":940,"x":-487,"y":-235,"visible":true,"properties":[{"name":"x","type":"int","value":-487},{"name":"y","type":"int","value":-235},{"name":"pn","type":"string","value":"sp"},{"name":"pt","type":"int","value":0},{"name":"tm","type":"int","value":999999999},{"name":"tn","type":"string","value":""}],"point":true},{"id":941,"x":206,"y":-228,"visible":true,"properties":[{"name":"x","type":"int","value":206},{"name":"y","type":"int","value":-228},{"name":"pn","type":"string","value":"sp"},{"name":"pt","type":"int","value":0},{"name":"tm","type":"int","value":999999999},{"name":"tn","type":"string","value":""}],"point":true},{"id":942,"x":2107,"y":262,"visible":true,"properties":[{"name":"x","type":"int","value":2107},{"name":"y","type":"int","value":262},{"name":"pn","type":"string","value":"sp"},{"name":"pt","type":"int","value":0},{"name":"tm","type":"int","value":999999999},{"name":"tn","type":"string","value":""}],"point":true},{"id":943,"x":606,"y":1531,"visible":true,"properties":[{"name":"x","type":"int","value":606},{"name":"y","type":"int","value":1531},{"name":"pn","type":"string","value":"sp"},{"name":"pt","type":"int","value":0},{"name":"tm","type":"int","value":999999999},{"name":"tn","type":"string","value":""}],"point":true},{"id":944,"x":-533,"y":-201,"visible":true,"properties":[{"name":"x","type":"int","value":-533},{"name":"y","type":"int","value":-201},{"name":"pn","type":"string","value":"west00"},{"name":"pt","type":"int","value":2},{"name":"tm","type":"int","value":195010000},{"name":"tn","type":"string","value":"east00"}],"point":true},{"id":945,"x":2338,"y":1066,"visible":true,"properties":[{"name":"x","type":"int","value":2338},{"name":"y","type":"int","value":1066},{"name":"pn","type":"string","value":"east00"},{"name":"pt","type":"int","value":2},{"name":"tm","type":"int","value":195030000},{"name":"tn","type":"string","value":"west00"}],"point":true}]},{"id":11,"name":"life","type":"objectgroup","visible":true,"opacity":1,"objects":[{"id":946,"x":-66,"y":946,"visible":true,"properties":[{"name":"f","type":"int","value":0},{"name":"x","type":"int","value":-66},{"name":"y","type":"int","value":946},{"name":"cy","type":"int","value":1010},{"name":"fh","type":"int","value":719},{"name":"id","type":"int","value":4230100},{"name":"rx0","type":"int","value":-70},{"name":"rx1","type":"int","value":168},{"name":"hide","type":"int","value":0},{"name":"type","type":"string","value":"m"},{"name":"mobTime","type":"int","value":0}],"point":true},{"id":947,"x":1667,"y":747,"visible":true,"properties":[{"name":"f","type":"int","value":0},{"name":"x","type":"int","value":1667},{"name":"y","type":"int","value":747},{"name":"cy","type":"int","value":768},{"name":"fh","type":"int","value":878},{"name":"id","type":"int","value":4230100},{"name":"rx0","type":"int","value":1595},{"name":"rx1","type":"int","value":1747},{"name":"hide","type":"int","value":0},{"name":"type","type":"string","value":"m"},{"name":"mobTime","type":"int","value":0}],"point":true},{"id":948,"x":1433,"y":679,"visible":true,"properties":[{"name":"f","type":"int","value":0},{"name":"x","type":"int","value":1433},{"name":"y","type":"int","value":679},{"name":"cy","type":"int","value":714},{"name":"fh","type":"int","value":870},{"name":"id","type":"int","value":4230100},{"name":"rx0","type":"int","value":1335},{"name":"rx1","type":"int","value":1515},{"name":"hide","type":"int","value":0},{"name":"type","type":"string","value":"m"},{"name":"mobTime","type":"int","value":0}],"point":true},{"id":949,"x":-393,"y":81,"visible":true,"properties":[{"name":"f","type":"int","value":0},{"name":"x","type":"int","value":-393},{"name":"y","type":"int","value":81},{"name":"cy","type":"int","value":99},{"name":"fh","type":"int","value":68},{"name":"id","type":"int","value":4230100},{"name":"rx0","type":"int","value":-563},{"name":"rx1","type":"int","value":23},{"name":"hide","type":"int","value":0},{"name":"type","type":"string","value":"m"},{"name":"mobTime","type":"int","value":0}],"point":true},{"id":950,"x":-131,"y":152,"visible":true,"properties":[{"name":"f","type":"int","value":0},{"name":"x","type":"int","value":-131},{"name":"y","type":"int","value":152},{"name":"cy","type":"int","value":188},{"name":"fh","type":"int","value":86},{"name":"id","type":"int","value":4230100},{"name":"rx0","type":"int","value":-563},{"name":"rx1","type":"int","value":23},{"name":"hide","type":"int","value":0},{"name":"type","type":"string","value":"m"},{"name":"mobTime","type":"int","value":0}],"point":true},{"id":951,"x":9,"y":233,"visible":true,"properties":[{"name":"f","type":"int","value":0},{"name":"x","type":"int","value":9},{"name":"y","type":"int","value":233},{"name":"cy","type":"int","value":290},{"name":"fh","type":"int","value":82},{"name":"id","type":"int","value":4230100},{"name":"rx0","type":"int","value":-563},{"name":"rx1","type":"int","value":23},{"name":"hide","type":"int","value":0},{"name":"type","type":"string","value":"m"},{"name":"mobTime","type":"int","value":0}],"point":true},{"id":952,"x":125,"y":-49,"visible":true,"properties":[{"name":"f","type":"int","value":0},{"name":"x","type":"int","value":125},{"name":"y","type":"int","value":-49},{"name":"cy","type":"int","value":-19},{"name":"fh","type":"int","value":617},{"name":"id","type":"int","value":4230100},{"name":"rx0","type":"int","value":-24},{"name":"rx1","type":"int","value":474},{"name":"hide","type":"int","value":0},{"name":"type","type":"string","value":"m"},{"name":"mobTime","type":"int","value":0}],"point":true},{"id":953,"x":528,"y":202,"visible":true,"properties":[{"name":"f","type":"int","value":0},{"name":"x","type":"int","value":528},{"name":"y","type":"int","value":202},{"name":"cy","type":"int","value":231},{"name":"fh","type":"int","value":526},{"name":"id","type":"int","value":4230100},{"name":"rx0","type":"int","value":427},{"name":"rx1","type":"int","value":1103},{"name":"hide","type":"int","value":0},{"name":"type","type":"string","value":"m"},{"name":"mobTime","type":"int","value":0}],"point":true},{"id":954,"x":409,"y":-56,"visible":true,"properties":[{"name":"f","type":"int","value":0},{"name":"x","type":"int","value":409},{"name":"y","type":"int","value":-56},{"name":"cy","type":"int","value":-30},{"name":"fh","type":"int","value":627},{"name":"id","type":"int","value":4230100},{"name":"rx0","type":"int","value":-24},{"name":"rx1","type":"int","value":474},{"name":"hide","type":"int","value":0},{"name":"type","type":"string","value":"m"},{"name":"mobTime","type":"int","value":0}],"point":true},{"id":955,"x":958,"y":192,"visible":true,"properties":[{"name":"f","type":"int","value":0},{"name":"x","type":"int","value":958},{"name":"y","type":"int","value":192},{"name":"cy","type":"int","value":219},{"name":"fh","type":"int","value":562},{"name":"id","type":"int","value":4230100},{"name":"rx0","type":"int","value":427},{"name":"rx1","type":"int","value":1103},{"name":"hide","type":"int","value":0},{"name":"type","type":"string","value":"m"},{"name":"mobTime","type":"int","value":0}],"point":true},{"id":956,"x":1090,"y":-53,"visible":true,"properties":[{"name":"f","type":"int","value":0},{"name":"x","type":"int","value":1090},{"name":"y","type":"int","value":-53},{"name":"cy","type":"int","value":-16},{"name":"fh","type":"int","value":636},{"name":"id","type":"int","value":4230100},{"name":"rx0","type":"int","value":988},{"name":"rx1","type":"int","value":1493},{"name":"hide","type":"int","value":0},{"name":"type","type":"string","value":"m"},{"name":"mobTime","type":"int","value":0}],"point":true},{"id":957,"x":2199,"y":1038,"visible":true,"properties":[{"name":"f","type":"int","value":0},{"name":"x","type":"int","value":2199},{"name":"y","type":"int","value":1038},{"name":"cy","type":"int","value":1057},{"name":"fh","type":"int","value":353},{"name":"id","type":"int","value":4230100},{"name":"rx0","type":"int","value":-563},{"name":"rx1","type":"int","value":2453},{"name":"hide","type":"int","value":0},{"name":"type","type":"string","value":"m"},{"name":"mobTime","type":"int","value":0}],"point":true},{"id":958,"x":1881,"y":1108,"visible":true,"properties":[{"name":"f","type":"int","value":0},{"name":"x","type":"int","value":1881},{"name":"y","type":"int","value":1108},{"name":"cy","type":"int","value":1132},{"name":"fh","type":"int","value":860},{"name":"id","type":"int","value":4230100},{"name":"rx0","type":"int","value":1567},{"name":"rx1","type":"int","value":1917},{"name":"hide","type":"int","value":0},{"name":"type","type":"string","value":"m"},{"name":"mobTime","type":"int","value":0}],"point":true},{"id":959,"x":1571,"y":1624,"visible":true,"properties":[{"name":"f","type":"int","value":0},{"name":"x","type":"int","value":1571},{"name":"y","type":"int","value":1624},{"name":"cy","type":"int","value":1646},{"name":"fh","type":"int","value":831},{"name":"id","type":"int","value":4230100},{"name":"rx0","type":"int","value":1524},{"name":"rx1","type":"int","value":1676},{"name":"hide","type":"int","value":0},{"name":"type","type":"string","value":"m"},{"name":"mobTime","type":"int","value":0}],"point":true},{"id":960,"x":1674,"y":1223,"visible":true,"properties":[{"name":"f","type":"int","value":0},{"name":"x","type":"int","value":1674},{"name":"y","type":"int","value":1223},{"name":"cy","type":"int","value":1259},{"name":"fh","type":"int","value":867},{"name":"id","type":"int","value":4230100},{"name":"rx0","type":"int","value":1567},{"name":"rx1","type":"int","value":1917},{"name":"hide","type":"int","value":0},{"name":"type","type":"string","value":"m"},{"name":"mobTime","type":"int","value":0}],"point":true},{"id":961,"x":1871,"y":1755,"visible":true,"properties":[{"name":"f","type":"int","value":0},{"name":"x","type":"int","value":1871},{"name":"y","type":"int","value":1755},{"name":"cy","type":"int","value":1765},{"name":"fh","type":"int","value":508},{"name":"id","type":"int","value":4230100},{"name":"rx0","type":"int","value":-563},{"name":"rx1","type":"int","value":2453},{"name":"hide","type":"int","value":0},{"name":"type","type":"string","value":"m"},{"name":"mobTime","type":"int","value":0}],"point":true},{"id":962,"x":1359,"y":1879,"visible":true,"properties":[{"name":"f","type":"int","value":0},{"name":"x","type":"int","value":1359},{"name":"y","type":"int","value":1879},{"name":"cy","type":"int","value":1909},{"name":"fh","type":"int","value":296},{"name":"id","type":"int","value":4230100},{"name":"rx0","type":"int","value":-563},{"name":"rx1","type":"int","value":2453},{"name":"hide","type":"int","value":0},{"name":"type","type":"string","value":"m"},{"name":"mobTime","type":"int","value":0}],"point":true},{"id":963,"x":1430,"y":1808,"visible":true,"properties":[{"name":"f","type":"int","value":0},{"name":"x","type":"int","value":1430},{"name":"y","type":"int","value":1808},{"name":"cy","type":"int","value":1842},{"name":"fh","type":"int","value":499},{"name":"id","type":"int","value":4230100},{"name":"rx0","type":"int","value":-563},{"name":"rx1","type":"int","value":2453},{"name":"hide","type":"int","value":0},{"name":"type","type":"string","value":"m"},{"name":"mobTime","type":"int","value":0}],"point":true},{"id":964,"x":1419,"y":1267,"visible":true,"properties":[{"name":"f","type":"int","value":0},{"name":"x","type":"int","value":1419},{"name":"y","type":"int","value":1267},{"name":"cy","type":"int","value":1282},{"name":"fh","type":"int","value":807},{"name":"id","type":"int","value":4230100},{"name":"rx0","type":"int","value":1231},{"name":"rx1","type":"int","value":1471},{"name":"hide","type":"int","value":0},{"name":"type","type":"string","value":"m"},{"name":"mobTime","type":"int","value":0}],"point":true},{"id":965,"x":1320,"y":1564,"visible":true,"properties":[{"name":"f","type":"int","value":0},{"name":"x","type":"int","value":1320},{"name":"y","type":"int","value":1564},{"name":"cy","type":"int","value":1577},{"name":"fh","type":"int","value":825},{"name":"id","type":"int","value":4230100},{"name":"rx0","type":"int","value":1231},{"name":"rx1","type":"int","value":1471},{"name":"hide","type":"int","value":0},{"name":"type","type":"string","value":"m"},{"name":"mobTime","type":"int","value":0}],"point":true},{"id":966,"x":75,"y":1831,"visible":true,"properties":[{"name":"f","type":"int","value":0},{"name":"x","type":"int","value":75},{"name":"y","type":"int","value":1831},{"name":"cy","type":"int","value":1849},{"name":"fh","type":"int","value":234},{"name":"id","type":"int","value":4230100},{"name":"rx0","type":"int","value":-563},{"name":"rx1","type":"int","value":2453},{"name":"hide","type":"int","value":0},{"name":"type","type":"string","value":"m"},{"name":"mobTime","type":"int","value":0}],"point":true},{"id":967,"x":606,"y":1879,"visible":true,"properties":[{"name":"f","type":"int","value":0},{"name":"x","type":"int","value":606},{"name":"y","type":"int","value":1879},{"name":"cy","type":"int","value":1904},{"name":"fh","type":"int","value":215},{"name":"id","type":"int","value":4230100},{"name":"rx0","type":"int","value":-563},{"name":"rx1","type":"int","value":2453},{"name":"hide","type":"int","value":0},{"name":"type","type":"string","value":"m"},{"name":"mobTime","type":"int","value":0}],"point":true},{"id":968,"x":251,"y":1358,"visible":true,"properties":[{"name":"f","type":"int","value":0},{"name":"x","type":"int","value":251},{"name":"y","type":"int","value":1358},{"name":"cy","type":"int","value":1376},{"name":"fh","type":"int","value":423},{"name":"id","type":"int","value":4230100},{"name":"rx0","type":"int","value":-563},{"name":"rx1","type":"int","value":2453},{"name":"hide","type":"int","value":0},{"name":"type","type":"string","value":"m"},{"name":"mobTime","type":"int","value":0}],"point":true},{"id":969,"x":386,"y":811,"visible":true,"properties":[{"name":"f","type":"int","value":0},{"name":"x","type":"int","value":386},{"name":"y","type":"int","value":811},{"name":"cy","type":"int","value":843},{"name":"fh","type":"int","value":784},{"name":"id","type":"int","value":4230100},{"name":"rx0","type":"int","value":285},{"name":"rx1","type":"int","value":465},{"name":"hide","type":"int","value":0},{"name":"type","type":"string","value":"m"},{"name":"mobTime","type":"int","value":0}],"point":true},{"id":970,"x":87,"y":503,"visible":true,"properties":[{"name":"f","type":"int","value":0},{"name":"x","type":"int","value":87},{"name":"y","type":"int","value":503},{"name":"cy","type":"int","value":522},{"name":"fh","type":"int","value":698},{"name":"id","type":"int","value":4230100},{"name":"rx0","type":"int","value":16},{"name":"rx1","type":"int","value":162},{"name":"hide","type":"int","value":0},{"name":"type","type":"string","value":"m"},{"name":"mobTime","type":"int","value":0}],"point":true},{"id":971,"x":740,"y":1187,"visible":true,"properties":[{"name":"f","type":"int","value":0},{"name":"x","type":"int","value":740},{"name":"y","type":"int","value":1187},{"name":"cy","type":"int","value":1235},{"name":"fh","type":"int","value":249},{"name":"id","type":"int","value":4230100},{"name":"rx0","type":"int","value":-563},{"name":"rx1","type":"int","value":2453},{"name":"hide","type":"int","value":0},{"name":"type","type":"string","value":"m"},{"name":"mobTime","type":"int","value":0}],"point":true},{"id":972,"x":73,"y":1700,"visible":true,"properties":[{"name":"f","type":"int","value":0},{"name":"x","type":"int","value":73},{"name":"y","type":"int","value":1700},{"name":"cy","type":"int","value":1715},{"name":"fh","type":"int","value":457},{"name":"id","type":"int","value":4230100},{"name":"rx0","type":"int","value":-563},{"name":"rx1","type":"int","value":2453},{"name":"hide","type":"int","value":0},{"name":"type","type":"string","value":"m"},{"name":"mobTime","type":"int","value":0}],"point":true},{"id":973,"x":97,"y":1153,"visible":true,"properties":[{"name":"f","type":"int","value":0},{"name":"x","type":"int","value":97},{"name":"y","type":"int","value":1153},{"name":"cy","type":"int","value":1175},{"name":"fh","type":"int","value":726},{"name":"id","type":"int","value":4230100},{"name":"rx0","type":"int","value":-5},{"name":"rx1","type":"int","value":175},{"name":"hide","type":"int","value":0},{"name":"type","type":"string","value":"m"},{"name":"mobTime","type":"int","value":0}],"point":true},{"id":974,"x":348,"y":1203,"visible":true,"properties":[{"name":"f","type":"int","value":0},{"name":"x","type":"int","value":348},{"name":"y","type":"int","value":1203},{"name":"cy","type":"int","value":1222},{"name":"fh","type":"int","value":734},{"name":"id","type":"int","value":4230100},{"name":"rx0","type":"int","value":265},{"name":"rx1","type":"int","value":383},{"name":"hide","type":"int","value":0},{"name":"type","type":"string","value":"m"},{"name":"mobTime","type":"int","value":0}],"point":true},{"id":975,"x":1955,"y":482,"visible":true,"properties":[{"name":"f","type":"int","value":0},{"name":"x","type":"int","value":1955},{"name":"y","type":"int","value":482},{"name":"cy","type":"int","value":495},{"name":"fh","type":"int","value":781},{"name":"id","type":"int","value":4230100},{"name":"rx0","type":"int","value":1859},{"name":"rx1","type":"int","value":1977},{"name":"hide","type":"int","value":0},{"name":"type","type":"string","value":"m"},{"name":"mobTime","type":"int","value":0}],"point":true},{"id":976,"x":1868,"y":606,"visible":true,"properties":[{"name":"f","type":"int","value":0},{"name":"x","type":"int","value":1868},{"name":"y","type":"int","value":606},{"name":"cy","type":"int","value":653},{"name":"fh","type":"int","value":11},{"name":"id","type":"int","value":4230100},{"name":"rx0","type":"int","value":1777},{"name":"rx1","type":"int","value":2453},{"name":"hide","type":"int","value":0},{"name":"type","type":"string","value":"m"},{"name":"mobTime","type":"int","value":0}],"point":true},{"id":977,"x":1157,"y":469,"visible":true,"properties":[{"name":"f","type":"int","value":0},{"name":"x","type":"int","value":1157},{"name":"y","type":"int","value":469},{"name":"cy","type":"int","value":486},{"name":"fh","type":"int","value":755},{"name":"id","type":"int","value":4230100},{"name":"rx0","type":"int","value":1068},{"name":"rx1","type":"int","value":1582},{"name":"hide","type":"int","value":0},{"name":"type","type":"string","value":"m"},{"name":"mobTime","type":"int","value":0}],"point":true},{"id":978,"x":-284,"y":903,"visible":true,"properties":[{"name":"f","type":"int","value":0},{"name":"x","type":"int","value":-284},{"name":"y","type":"int","value":903},{"name":"cy","type":"int","value":949},{"name":"fh","type":"int","value":149},{"name":"id","type":"int","value":4230100},{"name":"rx0","type":"int","value":-563},{"name":"rx1","type":"int","value":2453},{"name":"hide","type":"int","value":0},{"name":"type","type":"string","value":"m"},{"name":"mobTime","type":"int","value":0}],"point":true},{"id":979,"x":70,"y":1024,"visible":true,"properties":[{"name":"f","type":"int","value":0},{"name":"x","type":"int","value":70},{"name":"y","type":"int","value":1024},{"name":"cy","type":"int","value":1037},{"name":"fh","type":"int","value":714},{"name":"id","type":"int","value":4230100},{"name":"rx0","type":"int","value":-70},{"name":"rx1","type":"int","value":168},{"name":"hide","type":"int","value":0},{"name":"type","type":"string","value":"m"},{"name":"mobTime","type":"int","value":0}],"point":true},{"id":980,"x":111,"y":1444,"visible":true,"properties":[{"name":"f","type":"int","value":0},{"name":"x","type":"int","value":111},{"name":"y","type":"int","value":1444},{"name":"cy","type":"int","value":1455},{"name":"fh","type":"int","value":415},{"name":"id","type":"int","value":4230100},{"name":"rx0","type":"int","value":-563},{"name":"rx1","type":"int","value":2453},{"name":"hide","type":"int","value":0},{"name":"type","type":"string","value":"m"},{"name":"mobTime","type":"int","value":0}],"point":true},{"id":981,"x":1181,"y":728,"visible":true,"properties":[{"name":"f","type":"int","value":0},{"name":"x","type":"int","value":1181},{"name":"y","type":"int","value":728},{"name":"cy","type":"int","value":768},{"name":"fh","type":"int","value":580},{"name":"id","type":"int","value":4230100},{"name":"rx0","type":"int","value":517},{"name":"rx1","type":"int","value":1283},{"name":"hide","type":"int","value":0},{"name":"type","type":"string","value":"m"},{"name":"mobTime","type":"int","value":0}],"point":true},{"id":982,"x":659,"y":699,"visible":true,"properties":[{"name":"f","type":"int","value":0},{"name":"x","type":"int","value":659},{"name":"y","type":"int","value":699},{"name":"cy","type":"int","value":742},{"name":"fh","type":"int","value":565},{"name":"id","type":"int","value":4230100},{"name":"rx0","type":"int","value":517},{"name":"rx1","type":"int","value":1283},{"name":"hide","type":"int","value":0},{"name":"type","type":"string","value":"m"},{"name":"mobTime","type":"int","value":0}],"point":true},{"id":983,"x":2379,"y":470,"visible":true,"properties":[{"name":"f","type":"int","value":0},{"name":"x","type":"int","value":2379},{"name":"y","type":"int","value":470},{"name":"cy","type":"int","value":517},{"name":"fh","type":"int","value":16},{"name":"id","type":"int","value":4230100},{"name":"rx0","type":"int","value":1777},{"name":"rx1","type":"int","value":2453},{"name":"hide","type":"int","value":0},{"name":"type","type":"string","value":"m"},{"name":"mobTime","type":"int","value":0}],"point":true},{"id":984,"x":1798,"y":54,"visible":true,"properties":[{"name":"f","type":"int","value":0},{"name":"x","type":"int","value":1798},{"name":"y","type":"int","value":54},{"name":"cy","type":"int","value":78},{"name":"fh","type":"int","value":657},{"name":"id","type":"int","value":4230100},{"name":"rx0","type":"int","value":1739},{"name":"rx1","type":"int","value":2314},{"name":"hide","type":"int","value":0},{"name":"type","type":"string","value":"m"},{"name":"mobTime","type":"int","value":0}],"point":true},{"id":985,"x":1521,"y":466,"visible":true,"properties":[{"name":"f","type":"int","value":0},{"name":"x","type":"int","value":1521},{"name":"y","type":"int","value":466},{"name":"cy","type":"int","value":477},{"name":"fh","type":"int","value":767},{"name":"id","type":"int","value":4230100},{"name":"rx0","type":"int","value":1068},{"name":"rx1","type":"int","value":1582},{"name":"hide","type":"int","value":0},{"name":"type","type":"string","value":"m"},{"name":"mobTime","type":"int","value":0}],"point":true},{"id":986,"x":2071,"y":41,"visible":true,"properties":[{"name":"f","type":"int","value":0},{"name":"x","type":"int","value":2071},{"name":"y","type":"int","value":41},{"name":"cy","type":"int","value":71},{"name":"fh","type":"int","value":665},{"name":"id","type":"int","value":4230100},{"name":"rx0","type":"int","value":1739},{"name":"rx1","type":"int","value":2314},{"name":"hide","type":"int","value":0},{"name":"type","type":"string","value":"m"},{"name":"mobTime","type":"int","value":0}],"point":true},{"id":987,"x":574,"y":1279,"visible":true,"properties":[{"name":"f","type":"int","value":0},{"name":"x","type":"int","value":574},{"name":"y","type":"int","value":1279},{"name":"cy","type":"int","value":1288},{"name":"fh","type":"int","value":439},{"name":"id","type":"int","value":4230100},{"name":"rx0","type":"int","value":-563},{"name":"rx1","type":"int","value":2453},{"name":"hide","type":"int","value":0},{"name":"type","type":"string","value":"m"},{"name":"mobTime","type":"int","value":0}],"point":true},{"id":988,"x":560,"y":1778,"visible":true,"properties":[{"name":"f","type":"int","value":0},{"name":"x","type":"int","value":560},{"name":"y","type":"int","value":1778},{"name":"cy","type":"int","value":1818},{"name":"fh","type":"int","value":479},{"name":"id","type":"int","value":4230100},{"name":"rx0","type":"int","value":-563},{"name":"rx1","type":"int","value":2453},{"name":"hide","type":"int","value":0},{"name":"type","type":"string","value":"m"},{"name":"mobTime","type":"int","value":0}],"point":true},{"id":989,"x":1433,"y":-55,"visible":true,"properties":[{"name":"f","type":"int","value":0},{"name":"x","type":"int","value":1433},{"name":"y","type":"int","value":-55},{"name":"cy","type":"int","value":-23},{"name":"fh","type":"int","value":644},{"name":"id","type":"int","value":4230100},{"name":"rx0","type":"int","value":988},{"name":"rx1","type":"int","value":1493},{"name":"hide","type":"int","value":0},{"name":"type","type":"string","value":"m"},{"name":"mobTime","type":"int","value":0}],"point":true},{"id":990,"x":269,"y":-40,"visible":true,"properties":[{"name":"f","type":"int","value":0},{"name":"x","type":"int","value":269},{"name":"y","type":"int","value":-40},{"name":"cy","type":"int","value":-12},{"name":"fh","type":"int","value":623},{"name":"id","type":"int","value":5130100},{"name":"rx0","type":"int","value":-24},{"name":"rx1","type":"int","value":474},{"name":"hide","type":"int","value":0},{"name":"type","type":"string","value":"m"},{"name":"mobTime","type":"int","value":0}],"point":true},{"id":991,"x":664,"y":196,"visible":true,"properties":[{"name":"f","type":"int","value":0},{"name":"x","type":"int","value":664},{"name":"y","type":"int","value":196},{"name":"cy","type":"int","value":218},{"name":"fh","type":"int","value":529},{"name":"id","type":"int","value":5130100},{"name":"rx0","type":"int","value":427},{"name":"rx1","type":"int","value":1103},{"name":"hide","type":"int","value":0},{"name":"type","type":"string","value":"m"},{"name":"mobTime","type":"int","value":0}],"point":true},{"id":992,"x":1322,"y":-47,"visible":true,"properties":[{"name":"f","type":"int","value":0},{"name":"x","type":"int","value":1322},{"name":"y","type":"int","value":-47},{"name":"cy","type":"int","value":-16},{"name":"fh","type":"int","value":643},{"name":"id","type":"int","value":5130100},{"name":"rx0","type":"int","value":988},{"name":"rx1","type":"int","value":1493},{"name":"hide","type":"int","value":0},{"name":"type","type":"string","value":"m"},{"name":"mobTime","type":"int","value":0}],"point":true},{"id":993,"x":1086,"y":689,"visible":true,"properties":[{"name":"f","type":"int","value":0},{"name":"x","type":"int","value":1086},{"name":"y","type":"int","value":689},{"name":"cy","type":"int","value":710},{"name":"fh","type":"int","value":575},{"name":"id","type":"int","value":5130100},{"name":"rx0","type":"int","value":517},{"name":"rx1","type":"int","value":1283},{"name":"hide","type":"int","value":0},{"name":"type","type":"string","value":"m"},{"name":"mobTime","type":"int","value":0}],"point":true},{"id":994,"x":1941,"y":51,"visible":true,"properties":[{"name":"f","type":"int","value":0},{"name":"x","type":"int","value":1941},{"name":"y","type":"int","value":51},{"name":"cy","type":"int","value":60},{"name":"fh","type":"int","value":662},{"name":"id","type":"int","value":5130100},{"name":"rx0","type":"int","value":1739},{"name":"rx1","type":"int","value":2314},{"name":"hide","type":"int","value":0},{"name":"type","type":"string","value":"m"},{"name":"mobTime","type":"int","value":0}],"point":true},{"id":995,"x":2239,"y":496,"visible":true,"properties":[{"name":"f","type":"int","value":0},{"name":"x","type":"int","value":2239},{"name":"y","type":"int","value":496},{"name":"cy","type":"int","value":529},{"name":"fh","type":"int","value":34},{"name":"id","type":"int","value":5130100},{"name":"rx0","type":"int","value":1777},{"name":"rx1","type":"int","value":2453},{"name":"hide","type":"int","value":0},{"name":"type","type":"string","value":"m"},{"name":"mobTime","type":"int","value":0}],"point":true},{"id":996,"x":1474,"y":965,"visible":true,"properties":[{"name":"f","type":"int","value":0},{"name":"x","type":"int","value":1474},{"name":"y","type":"int","value":965},{"name":"cy","type":"int","value":985},{"name":"fh","type":"int","value":892},{"name":"id","type":"int","value":5130100},{"name":"rx0","type":"int","value":1202},{"name":"rx1","type":"int","value":1705},{"name":"hide","type":"int","value":0},{"name":"type","type":"string","value":"m"},{"name":"mobTime","type":"int","value":0}],"point":true},{"id":997,"x":907,"y":675,"visible":true,"properties":[{"name":"f","type":"int","value":0},{"name":"x","type":"int","value":907},{"name":"y","type":"int","value":675},{"name":"cy","type":"int","value":709},{"name":"fh","type":"int","value":569},{"name":"id","type":"int","value":5130100},{"name":"rx0","type":"int","value":517},{"name":"rx1","type":"int","value":1283},{"name":"hide","type":"int","value":0},{"name":"type","type":"string","value":"m"},{"name":"mobTime","type":"int","value":0}],"point":true},{"id":998,"x":2066,"y":518,"visible":true,"properties":[{"name":"f","type":"int","value":0},{"name":"x","type":"int","value":2066},{"name":"y","type":"int","value":518},{"name":"cy","type":"int","value":531},{"name":"fh","type":"int","value":39},{"name":"id","type":"int","value":5130100},{"name":"rx0","type":"int","value":1777},{"name":"rx1","type":"int","value":2453},{"name":"hide","type":"int","value":0},{"name":"type","type":"string","value":"m"},{"name":"mobTime","type":"int","value":0}],"point":true},{"id":999,"x":1369,"y":461,"visible":true,"properties":[{"name":"f","type":"int","value":0},{"name":"x","type":"int","value":1369},{"name":"y","type":"int","value":461},{"name":"cy","type":"int","value":496},{"name":"fh","type":"int","value":764},{"name":"id","type":"int","value":5130100},{"name":"rx0","type":"int","value":1068},{"name":"rx1","type":"int","value":1582},{"name":"hide","type":"int","value":0},{"name":"type","type":"string","value":"m"},{"name":"mobTime","type":"int","value":0}],"point":true},{"id":1000,"x":1570,"y":1886,"visible":true,"properties":[{"name":"f","type":"int","value":0},{"name":"x","type":"int","value":1570},{"name":"y","type":"int","value":1886},{"name":"cy","type":"int","value":1897},{"name":"fh","type":"int","value":328},{"name":"id","type":"int","value":5130100},{"name":"rx0","type":"int","value":-563},{"name":"rx1","type":"int","value":2453},{"name":"hide","type":"int","value":0},{"name":"type","type":"string","value":"m"},{"name":"mobTime","type":"int","value":0}],"point":true},{"id":1001,"x":745,"y":677,"visible":true,"properties":[{"name":"f","type":"int","value":0},{"name":"x","type":"int","value":745},{"name":"y","type":"int","value":677},{"name":"cy","type":"int","value":704},{"name":"fh","type":"int","value":603},{"name":"id","type":"int","value":5130100},{"name":"rx0","type":"int","value":517},{"name":"rx1","type":"int","value":1283},{"name":"hide","type":"int","value":0},{"name":"type","type":"string","value":"m"},{"name":"mobTime","type":"int","value":0}],"point":true},{"id":1002,"x":1193,"y":-38,"visible":true,"properties":[{"name":"f","type":"int","value":0},{"name":"x","type":"int","value":1193},{"name":"y","type":"int","value":-38},{"name":"cy","type":"int","value":-27},{"name":"fh","type":"int","value":639},{"name":"id","type":"int","value":5130100},{"name":"rx0","type":"int","value":988},{"name":"rx1","type":"int","value":1493},{"name":"hide","type":"int","value":0},{"name":"type","type":"string","value":"m"},{"name":"mobTime","type":"int","value":0}],"point":true},{"id":1003,"x":1102,"y":1161,"visible":true,"properties":[{"name":"f","type":"int","value":0},{"name":"x","type":"int","value":1102},{"name":"y","type":"int","value":1161},{"name":"cy","type":"int","value":1192},{"name":"fh","type":"int","value":280},{"name":"id","type":"int","value":5130100},{"name":"rx0","type":"int","value":-563},{"name":"rx1","type":"int","value":2453},{"name":"hide","type":"int","value":0},{"name":"type","type":"string","value":"m"},{"name":"mobTime","type":"int","value":0}],"point":true},{"id":1004,"x":203,"y":1830,"visible":true,"properties":[{"name":"f","type":"int","value":0},{"name":"x","type":"int","value":203},{"name":"y","type":"int","value":1830},{"name":"cy","type":"int","value":1846},{"name":"fh","type":"int","value":182},{"name":"id","type":"int","value":5130100},{"name":"rx0","type":"int","value":-563},{"name":"rx1","type":"int","value":2453},{"name":"hide","type":"int","value":0},{"name":"type","type":"string","value":"m"},{"name":"mobTime","type":"int","value":0}],"point":true},{"id":1005,"x":1267,"y":1209,"visible":true,"properties":[{"name":"f","type":"int","value":0},{"name":"x","type":"int","value":1267},{"name":"y","type":"int","value":1209},{"name":"cy","type":"int","value":1257},{"name":"fh","type":"int","value":791},{"name":"id","type":"int","value":5130100},{"name":"rx0","type":"int","value":1231},{"name":"rx1","type":"int","value":1471},{"name":"hide","type":"int","value":0},{"name":"type","type":"string","value":"m"},{"name":"mobTime","type":"int","value":0}],"point":true},{"id":1006,"x":1451,"y":1891,"visible":true,"properties":[{"name":"f","type":"int","value":0},{"name":"x","type":"int","value":1451},{"name":"y","type":"int","value":1891},{"name":"cy","type":"int","value":1908},{"name":"fh","type":"int","value":302},{"name":"id","type":"int","value":5130100},{"name":"rx0","type":"int","value":-563},{"name":"rx1","type":"int","value":2453},{"name":"hide","type":"int","value":0},{"name":"type","type":"string","value":"m"},{"name":"mobTime","type":"int","value":0}],"point":true},{"id":1007,"x":2051,"y":1050,"visible":true,"properties":[{"name":"f","type":"int","value":0},{"name":"x","type":"int","value":2051},{"name":"y","type":"int","value":1050},{"name":"cy","type":"int","value":1071},{"name":"fh","type":"int","value":365},{"name":"id","type":"int","value":5130100},{"name":"rx0","type":"int","value":-563},{"name":"rx1","type":"int","value":2453},{"name":"hide","type":"int","value":0},{"name":"type","type":"string","value":"m"},{"name":"mobTime","type":"int","value":0}],"point":true},{"id":1008,"x":2218,"y":50,"visible":true,"properties":[{"name":"f","type":"int","value":0},{"name":"x","type":"int","value":2218},{"name":"y","type":"int","value":50},{"name":"cy","type":"int","value":73},{"name":"fh","type":"int","value":672},{"name":"id","type":"int","value":5130100},{"name":"rx0","type":"int","value":1739},{"name":"rx1","type":"int","value":2314},{"name":"hide","type":"int","value":0},{"name":"type","type":"string","value":"m"},{"name":"mobTime","type":"int","value":0}],"point":true},{"id":1009,"x":900,"y":1166,"visible":true,"properties":[{"name":"f","type":"int","value":0},{"name":"x","type":"int","value":900},{"name":"y","type":"int","value":1166},{"name":"cy","type":"int","value":1190},{"name":"fh","type":"int","value":264},{"name":"id","type":"int","value":5130100},{"name":"rx0","type":"int","value":-563},{"name":"rx1","type":"int","value":2453},{"name":"hide","type":"int","value":0},{"name":"type","type":"string","value":"m"},{"name":"mobTime","type":"int","value":0}],"point":true},{"id":1010,"x":1747,"y":1879,"visible":true,"properties":[{"name":"f","type":"int","value":0},{"name":"x","type":"int","value":1747},{"name":"y","type":"int","value":1879},{"name":"cy","type":"int","value":1898},{"name":"fh","type":"int","value":322},{"name":"id","type":"int","value":5130100},{"name":"rx0","type":"int","value":-563},{"name":"rx1","type":"int","value":2453},{"name":"hide","type":"int","value":0},{"name":"type","type":"string","value":"m"},{"name":"mobTime","type":"int","value":0}],"point":true},{"id":1011,"x":-470,"y":923,"visible":true,"properties":[{"name":"f","type":"int","value":0},{"name":"x","type":"int","value":-470},{"name":"y","type":"int","value":923},{"name":"cy","type":"int","value":947},{"name":"fh","type":"int","value":142},{"name":"id","type":"int","value":5130100},{"name":"rx0","type":"int","value":-563},{"name":"rx1","type":"int","value":2453},{"name":"hide","type":"int","value":0},{"name":"type","type":"string","value":"m"},{"name":"mobTime","type":"int","value":0}],"point":true},{"id":1012,"x":1302,"y":949,"visible":true,"properties":[{"name":"f","type":"int","value":0},{"name":"x","type":"int","value":1302},{"name":"y","type":"int","value":949},{"name":"cy","type":"int","value":970},{"name":"fh","type":"int","value":899},{"name":"id","type":"int","value":5130100},{"name":"rx0","type":"int","value":1202},{"name":"rx1","type":"int","value":1705},{"name":"hide","type":"int","value":0},{"name":"type","type":"string","value":"m"},{"name":"mobTime","type":"int","value":0}],"point":true},{"id":1013,"x":812,"y":196,"visible":true,"properties":[{"name":"f","type":"int","value":0},{"name":"x","type":"int","value":812},{"name":"y","type":"int","value":196},{"name":"cy","type":"int","value":230},{"name":"fh","type":"int","value":533},{"name":"id","type":"int","value":5130100},{"name":"rx0","type":"int","value":427},{"name":"rx1","type":"int","value":1103},{"name":"hide","type":"int","value":0},{"name":"type","type":"string","value":"m"},{"name":"mobTime","type":"int","value":0}],"point":true},{"id":1014,"x":1637,"y":962,"visible":true,"properties":[{"name":"f","type":"int","value":0},{"name":"x","type":"int","value":1637},{"name":"y","type":"int","value":962},{"name":"cy","type":"int","value":984},{"name":"fh","type":"int","value":885},{"name":"id","type":"int","value":5130100},{"name":"rx0","type":"int","value":1202},{"name":"rx1","type":"int","value":1705},{"name":"hide","type":"int","value":0},{"name":"type","type":"string","value":"m"},{"name":"mobTime","type":"int","value":0}],"point":true},{"id":1015,"x":383,"y":1870,"visible":true,"properties":[{"name":"f","type":"int","value":0},{"name":"x","type":"int","value":383},{"name":"y","type":"int","value":1870},{"name":"cy","type":"int","value":1906},{"name":"fh","type":"int","value":194},{"name":"id","type":"int","value":5130100},{"name":"rx0","type":"int","value":-563},{"name":"rx1","type":"int","value":2453},{"name":"hide","type":"int","value":0},{"name":"type","type":"string","value":"m"},{"name":"mobTime","type":"int","value":0}],"point":true}]},{"id":12,"name":"foothold","type":"objectgroup","visible":true,"opacity":1,"objects":[{"id":1016,"x":-583,"y":960,"visible":true,"properties":[{"name":"layer","type":"int","value":1},{"name":"group","type":"int","value":0},{"name":"id","type":"int","value":123},{"name":"fh_layer","type":"int","value":1},{"name":"fh_group","type":"int","value":0},{"name":"fh_id","type":"int","value":123},{"name":"x1","type":"int","value":-583},{"name":"x2","type":"int","value":-583},{"name":"y1","type":"int","value":960},{"name":"y2","type":"int","value":950},{"name":"next","type":"int","value":124},{"name":"prev","type":"int","value":125}],"polyline":[{"x":0,"y":0},{"x":0,"y":-10}]},{"id":1017,"x":-583,"y":950,"visible":true,"properties":[{"name":"layer","type":"int","value":1},{"name":"group","type":"int","value":0},{"name":"id","type":"int","value":124},{"name":"fh_layer","type":"int","value":1},{"name":"fh_group","type":"int","value":0},{"name":"fh_id","type":"int","value":124},{"name":"x1","type":"int","value":-583},{"name":"x2","type":"int","value":-540},{"name":"y1","type":"int","value":950},{"name":"y2","type":"int","value":950},{"name":"next","type":"int","value":138},{"name":"prev","type":"int","value":123}],"polyline":[{"x":0,"y":0},{"x":43,"y":0}]},{"id":1018,"x":-583,"y":1028,"visible":true,"properties":[{"name":"layer","type":"int","value":1},{"name":"group","type":"int","value":0},{"name":"id","type":"int","value":125},{"name":"fh_layer","type":"int","value":1},{"name":"fh_group","type":"int","value":0},{"name":"fh_id","type":"int","value":125},{"name":"x1","type":"int","value":-583},{"name":"x2","type":"int","value":-583},{"name":"y1","type":"int","value":1028},{"name":"y2","type":"int","value":960},{"name":"next","type":"int","value":123},{"name":"prev","type":"int","value":150}],"polyline":[{"x":0,"y":0},{"x":0,"y":-68}]},{"id":1019,"x":-270,"y":950,"visible":true,"properties":[{"name":"layer","type":"int","value":1},{"name":"group","type":"int","value":0},{"name":"id","type":"int","value":126},{"name":"fh_layer","type":"int","value":1},{"name":"fh_group","type":"int","value":0},{"name":"fh_id","type":"int","value":126},{"name":"x1","type":"int","value":-270},{"name":"x2","type":"int","value":-248},{"name":"y1","type":"int","value":950},{"name":"y2","type":"int","value":946},{"name":"next","type":"int","value":127},{"name":"prev","type":"int","value":149}],"polyline":[{"x":0,"y":0},{"x":22,"y":-4}]},{"id":1020,"x":-248,"y":946,"visible":true,"properties":[{"name":"layer","type":"int","value":1},{"name":"group","type":"int","value":0},{"name":"id","type":"int","value":127},{"name":"fh_layer","type":"int","value":1},{"name":"fh_group","type":"int","value":0},{"name":"fh_id","type":"int","value":127},{"name":"x1","type":"int","value":-248},{"name":"x2","type":"int","value":-240},{"name":"y1","type":"int","value":946},{"name":"y2","type":"int","value":939},{"name":"next","type":"int","value":128},{"name":"prev","type":"int","value":126}],"polyline":[{"x":0,"y":0},{"x":8,"y":-7}]},{"id":1021,"x":-240,"y":939,"visible":true,"properties":[{"name":"layer","type":"int","value":1},{"name":"group","type":"int","value":0},{"name":"id","type":"int","value":128},{"name":"fh_layer","type":"int","value":1},{"name":"fh_group","type":"int","value":0},{"name":"fh_id","type":"int","value":128},{"name":"x1","type":"int","value":-240},{"name":"x2","type":"int","value":-225},{"name":"y1","type":"int","value":939},{"name":"y2","type":"int","value":935},{"name":"next","type":"int","value":129},{"name":"prev","type":"int","value":127}],"polyline":[{"x":0,"y":0},{"x":15,"y":-4}]},{"id":1022,"x":-225,"y":935,"visible":true,"properties":[{"name":"layer","type":"int","value":1},{"name":"group","type":"int","value":0},{"name":"id","type":"int","value":129},{"name":"fh_layer","type":"int","value":1},{"name":"fh_group","type":"int","value":0},{"name":"fh_id","type":"int","value":129},{"name":"x1","type":"int","value":-225},{"name":"x2","type":"int","value":-218},{"name":"y1","type":"int","value":935},{"name":"y2","type":"int","value":936},{"name":"next","type":"int","value":130},{"name":"prev","type":"int","value":128}],"polyline":[{"x":0,"y":0},{"x":7,"y":1}]},{"id":1023,"x":-218,"y":936,"visible":true,"properties":[{"name":"layer","type":"int","value":1},{"name":"group","type":"int","value":0},{"name":"id","type":"int","value":130},{"name":"fh_layer","type":"int","value":1},{"name":"fh_group","type":"int","value":0},{"name":"fh_id","type":"int","value":130},{"name":"x1","type":"int","value":-218},{"name":"x2","type":"int","value":-197},{"name":"y1","type":"int","value":936},{"name":"y2","type":"int","value":949},{"name":"next","type":"int","value":131},{"name":"prev","type":"int","value":129}],"polyline":[{"x":0,"y":0},{"x":21,"y":13}]},{"id":1024,"x":-197,"y":949,"visible":true,"properties":[{"name":"layer","type":"int","value":1},{"name":"group","type":"int","value":0},{"name":"id","type":"int","value":131},{"name":"fh_layer","type":"int","value":1},{"name":"fh_group","type":"int","value":0},{"name":"fh_id","type":"int","value":131},{"name":"x1","type":"int","value":-197},{"name":"x2","type":"int","value":-180},{"name":"y1","type":"int","value":949},{"name":"y2","type":"int","value":950},{"name":"next","type":"int","value":165},{"name":"prev","type":"int","value":130}],"polyline":[{"x":0,"y":0},{"x":17,"y":1}]},{"id":1025,"x":-450,"y":950,"visible":true,"properties":[{"name":"layer","type":"int","value":1},{"name":"group","type":"int","value":0},{"name":"id","type":"int","value":132},{"name":"fh_layer","type":"int","value":1},{"name":"fh_group","type":"int","value":0},{"name":"fh_id","type":"int","value":132},{"name":"x1","type":"int","value":-450},{"name":"x2","type":"int","value":-428},{"name":"y1","type":"int","value":950},{"name":"y2","type":"int","value":946},{"name":"next","type":"int","value":133},{"name":"prev","type":"int","value":143}],"polyline":[{"x":0,"y":0},{"x":22,"y":-4}]},{"id":1026,"x":-428,"y":946,"visible":true,"properties":[{"name":"layer","type":"int","value":1},{"name":"group","type":"int","value":0},{"name":"id","type":"int","value":133},{"name":"fh_layer","type":"int","value":1},{"name":"fh_group","type":"int","value":0},{"name":"fh_id","type":"int","value":133},{"name":"x1","type":"int","value":-428},{"name":"x2","type":"int","value":-420},{"name":"y1","type":"int","value":946},{"name":"y2","type":"int","value":939},{"name":"next","type":"int","value":134},{"name":"prev","type":"int","value":132}],"polyline":[{"x":0,"y":0},{"x":8,"y":-7}]},{"id":1027,"x":-420,"y":939,"visible":true,"properties":[{"name":"layer","type":"int","value":1},{"name":"group","type":"int","value":0},{"name":"id","type":"int","value":134},{"name":"fh_layer","type":"int","value":1},{"name":"fh_group","type":"int","value":0},{"name":"fh_id","type":"int","value":134},{"name":"x1","type":"int","value":-420},{"name":"x2","type":"int","value":-405},{"name":"y1","type":"int","value":939},{"name":"y2","type":"int","value":935},{"name":"next","type":"int","value":135},{"name":"prev","type":"int","value":133}],"polyline":[{"x":0,"y":0},{"x":15,"y":-4}]},{"id":1028,"x":-405,"y":935,"visible":true,"properties":[{"name":"layer","type":"int","value":1},{"name":"group","type":"int","value":0},{"name":"id","type":"int","value":135},{"name":"fh_layer","type":"int","value":1},{"name":"fh_group","type":"int","value":0},{"name":"fh_id","type":"int","value":135},{"name":"x1","type":"int","value":-405},{"name":"x2","type":"int","value":-398},{"name":"y1","type":"int","value":935},{"name":"y2","type":"int","value":936},{"name":"next","type":"int","value":136},{"name":"prev","type":"int","value":134}],"polyline":[{"x":0,"y":0},{"x":7,"y":1}]},{"id":1029,"x":-398,"y":936,"visible":true,"properties":[{"name":"layer","type":"int","value":1},{"name":"group","type":"int","value":0},{"name":"id","type":"int","value":136},{"name":"fh_layer","type":"int","value":1},{"name":"fh_group","type":"int","value":0},{"name":"fh_id","type":"int","value":136},{"name":"x1","type":"int","value":-398},{"name":"x2","type":"int","value":-377},{"name":"y1","type":"int","value":936},{"name":"y2","type":"int","value":949},{"name":"next","type":"int","value":137},{"name":"prev","type":"int","value":135}],"polyline":[{"x":0,"y":0},{"x":21,"y":13}]},{"id":1030,"x":-377,"y":949,"visible":true,"properties":[{"name":"layer","type":"int","value":1},{"name":"group","type":"int","value":0},{"name":"id","type":"int","value":137},{"name":"fh_layer","type":"int","value":1},{"name":"fh_group","type":"int","value":0},{"name":"fh_id","type":"int","value":137},{"name":"x1","type":"int","value":-377},{"name":"x2","type":"int","value":-360},{"name":"y1","type":"int","value":949},{"name":"y2","type":"int","value":950},{"name":"next","type":"int","value":144},{"name":"prev","type":"int","value":136}],"polyline":[{"x":0,"y":0},{"x":17,"y":1}]},{"id":1031,"x":-540,"y":950,"visible":true,"properties":[{"name":"layer","type":"int","value":1},{"name":"group","type":"int","value":0},{"name":"id","type":"int","value":138},{"name":"fh_layer","type":"int","value":1},{"name":"fh_group","type":"int","value":0},{"name":"fh_id","type":"int","value":138},{"name":"x1","type":"int","value":-540},{"name":"x2","type":"int","value":-518},{"name":"y1","type":"int","value":950},{"name":"y2","type":"int","value":946},{"name":"next","type":"int","value":139},{"name":"prev","type":"int","value":124}],"polyline":[{"x":0,"y":0},{"x":22,"y":-4}]},{"id":1032,"x":-518,"y":946,"visible":true,"properties":[{"name":"layer","type":"int","value":1},{"name":"group","type":"int","value":0},{"name":"id","type":"int","value":139},{"name":"fh_layer","type":"int","value":1},{"name":"fh_group","type":"int","value":0},{"name":"fh_id","type":"int","value":139},{"name":"x1","type":"int","value":-518},{"name":"x2","type":"int","value":-510},{"name":"y1","type":"int","value":946},{"name":"y2","type":"int","value":939},{"name":"next","type":"int","value":140},{"name":"prev","type":"int","value":138}],"polyline":[{"x":0,"y":0},{"x":8,"y":-7}]},{"id":1033,"x":-510,"y":939,"visible":true,"properties":[{"name":"layer","type":"int","value":1},{"name":"group","type":"int","value":0},{"name":"id","type":"int","value":140},{"name":"fh_layer","type":"int","value":1},{"name":"fh_group","type":"int","value":0},{"name":"fh_id","type":"int","value":140},{"name":"x1","type":"int","value":-510},{"name":"x2","type":"int","value":-495},{"name":"y1","type":"int","value":939},{"name":"y2","type":"int","value":935},{"name":"next","type":"int","value":141},{"name":"prev","type":"int","value":139}],"polyline":[{"x":0,"y":0},{"x":15,"y":-4}]},{"id":1034,"x":-495,"y":935,"visible":true,"properties":[{"name":"layer","type":"int","value":1},{"name":"group","type":"int","value":0},{"name":"id","type":"int","value":141},{"name":"fh_layer","type":"int","value":1},{"name":"fh_group","type":"int","value":0},{"name":"fh_id","type":"int","value":141},{"name":"x1","type":"int","value":-495},{"name":"x2","type":"int","value":-488},{"name":"y1","type":"int","value":935},{"name":"y2","type":"int","value":936},{"name":"next","type":"int","value":142},{"name":"prev","type":"int","value":140}],"polyline":[{"x":0,"y":0},{"x":7,"y":1}]},{"id":1035,"x":-488,"y":936,"visible":true,"properties":[{"name":"layer","type":"int","value":1},{"name":"group","type":"int","value":0},{"name":"id","type":"int","value":142},{"name":"fh_layer","type":"int","value":1},{"name":"fh_group","type":"int","value":0},{"name":"fh_id","type":"int","value":142},{"name":"x1","type":"int","value":-488},{"name":"x2","type":"int","value":-467},{"name":"y1","type":"int","value":936},{"name":"y2","type":"int","value":949},{"name":"next","type":"int","value":143},{"name":"prev","type":"int","value":141}],"polyline":[{"x":0,"y":0},{"x":21,"y":13}]},{"id":1036,"x":-467,"y":949,"visible":true,"properties":[{"name":"layer","type":"int","value":1},{"name":"group","type":"int","value":0},{"name":"id","type":"int","value":143},{"name":"fh_layer","type":"int","value":1},{"name":"fh_group","type":"int","value":0},{"name":"fh_id","type":"int","value":143},{"name":"x1","type":"int","value":-467},{"name":"x2","type":"int","value":-450},{"name":"y1","type":"int","value":949},{"name":"y2","type":"int","value":950},{"name":"next","type":"int","value":132},{"name":"prev","type":"int","value":142}],"polyline":[{"x":0,"y":0},{"x":17,"y":1}]},{"id":1037,"x":-360,"y":950,"visible":true,"properties":[{"name":"layer","type":"int","value":1},{"name":"group","type":"int","value":0},{"name":"id","type":"int","value":144},{"name":"fh_layer","type":"int","value":1},{"name":"fh_group","type":"int","value":0},{"name":"fh_id","type":"int","value":144},{"name":"x1","type":"int","value":-360},{"name":"x2","type":"int","value":-338},{"name":"y1","type":"int","value":950},{"name":"y2","type":"int","value":946},{"name":"next","type":"int","value":145},{"name":"prev","type":"int","value":137}],"polyline":[{"x":0,"y":0},{"x":22,"y":-4}]},{"id":1038,"x":-338,"y":946,"visible":true,"properties":[{"name":"layer","type":"int","value":1},{"name":"group","type":"int","value":0},{"name":"id","type":"int","value":145},{"name":"fh_layer","type":"int","value":1},{"name":"fh_group","type":"int","value":0},{"name":"fh_id","type":"int","value":145},{"name":"x1","type":"int","value":-338},{"name":"x2","type":"int","value":-330},{"name":"y1","type":"int","value":946},{"name":"y2","type":"int","value":939},{"name":"next","type":"int","value":146},{"name":"prev","type":"int","value":144}],"polyline":[{"x":0,"y":0},{"x":8,"y":-7}]},{"id":1039,"x":-330,"y":939,"visible":true,"properties":[{"name":"layer","type":"int","value":1},{"name":"group","type":"int","value":0},{"name":"id","type":"int","value":146},{"name":"fh_layer","type":"int","value":1},{"name":"fh_group","type":"int","value":0},{"name":"fh_id","type":"int","value":146},{"name":"x1","type":"int","value":-330},{"name":"x2","type":"int","value":-315},{"name":"y1","type":"int","value":939},{"name":"y2","type":"int","value":935},{"name":"next","type":"int","value":147},{"name":"prev","type":"int","value":145}],"polyline":[{"x":0,"y":0},{"x":15,"y":-4}]},{"id":1040,"x":-315,"y":935,"visible":true,"properties":[{"name":"layer","type":"int","value":1},{"name":"group","type":"int","value":0},{"name":"id","type":"int","value":147},{"name":"fh_layer","type":"int","value":1},{"name":"fh_group","type":"int","value":0},{"name":"fh_id","type":"int","value":147},{"name":"x1","type":"int","value":-315},{"name":"x2","type":"int","value":-308},{"name":"y1","type":"int","value":935},{"name":"y2","type":"int","value":936},{"name":"next","type":"int","value":148},{"name":"prev","type":"int","value":146}],"polyline":[{"x":0,"y":0},{"x":7,"y":1}]},{"id":1041,"x":-308,"y":936,"visible":true,"properties":[{"name":"layer","type":"int","value":1},{"name":"group","type":"int","value":0},{"name":"id","type":"int","value":148},{"name":"fh_layer","type":"int","value":1},{"name":"fh_group","type":"int","value":0},{"name":"fh_id","type":"int","value":148},{"name":"x1","type":"int","value":-308},{"name":"x2","type":"int","value":-287},{"name":"y1","type":"int","value":936},{"name":"y2","type":"int","value":949},{"name":"next","type":"int","value":149},{"name":"prev","type":"int","value":147}],"polyline":[{"x":0,"y":0},{"x":21,"y":13}]},{"id":1042,"x":-287,"y":949,"visible":true,"properties":[{"name":"layer","type":"int","value":1},{"name":"group","type":"int","value":0},{"name":"id","type":"int","value":149},{"name":"fh_layer","type":"int","value":1},{"name":"fh_group","type":"int","value":0},{"name":"fh_id","type":"int","value":149},{"name":"x1","type":"int","value":-287},{"name":"x2","type":"int","value":-270},{"name":"y1","type":"int","value":949},{"name":"y2","type":"int","value":950},{"name":"next","type":"int","value":126},{"name":"prev","type":"int","value":148}],"polyline":[{"x":0,"y":0},{"x":17,"y":1}]},{"id":1043,"x":-583,"y":1088,"visible":true,"properties":[{"name":"layer","type":"int","value":1},{"name":"group","type":"int","value":0},{"name":"id","type":"int","value":150},{"name":"fh_layer","type":"int","value":1},{"name":"fh_group","type":"int","value":0},{"name":"fh_id","type":"int","value":150},{"name":"x1","type":"int","value":-583},{"name":"x2","type":"int","value":-583},{"name":"y1","type":"int","value":1088},{"name":"y2","type":"int","value":1028},{"name":"next","type":"int","value":125},{"name":"prev","type":"int","value":151}],"polyline":[{"x":0,"y":0},{"x":0,"y":-60}]},{"id":1044,"x":-583,"y":1148,"visible":true,"properties":[{"name":"layer","type":"int","value":1},{"name":"group","type":"int","value":0},{"name":"id","type":"int","value":151},{"name":"fh_layer","type":"int","value":1},{"name":"fh_group","type":"int","value":0},{"name":"fh_id","type":"int","value":151},{"name":"x1","type":"int","value":-583},{"name":"x2","type":"int","value":-583},{"name":"y1","type":"int","value":1148},{"name":"y2","type":"int","value":1088},{"name":"next","type":"int","value":150},{"name":"prev","type":"int","value":152}],"polyline":[{"x":0,"y":0},{"x":0,"y":-60}]},{"id":1045,"x":-583,"y":1208,"visible":true,"properties":[{"name":"layer","type":"int","value":1},{"name":"group","type":"int","value":0},{"name":"id","type":"int","value":152},{"name":"fh_layer","type":"int","value":1},{"name":"fh_group","type":"int","value":0},{"name":"fh_id","type":"int","value":152},{"name":"x1","type":"int","value":-583},{"name":"x2","type":"int","value":-583},{"name":"y1","type":"int","value":1208},{"name":"y2","type":"int","value":1148},{"name":"next","type":"int","value":151},{"name":"prev","type":"int","value":155}],"polyline":[{"x":0,"y":0},{"x":0,"y":-60}]},{"id":1046,"x":-47,"y":1200,"visible":true,"properties":[{"name":"layer","type":"int","value":1},{"name":"group","type":"int","value":0},{"name":"id","type":"int","value":153},{"name":"fh_layer","type":"int","value":1},{"name":"fh_group","type":"int","value":0},{"name":"fh_id","type":"int","value":153},{"name":"x1","type":"int","value":-47},{"name":"x2","type":"int","value":-47},{"name":"y1","type":"int","value":1200},{"name":"y2","type":"int","value":1268},{"name":"next","type":"int","value":174},{"name":"prev","type":"int","value":172}],"polyline":[{"x":0,"y":0},{"x":0,"y":68}]},{"id":1047,"x":-47,"y":1500,"visible":true,"properties":[{"name":"layer","type":"int","value":1},{"name":"group","type":"int","value":0},{"name":"id","type":"int","value":154},{"name":"fh_layer","type":"int","value":1},{"name":"fh_group","type":"int","value":0},{"name":"fh_id","type":"int","value":154},{"name":"x1","type":"int","value":-47},{"name":"x2","type":"int","value":-47},{"name":"y1","type":"int","value":1500},{"name":"y2","type":"int","value":1568},{"name":"next","type":"int","value":179},{"name":"prev","type":"int","value":173}],"polyline":[{"x":0,"y":0},{"x":0,"y":68}]},{"id":1048,"x":-583,"y":1268,"visible":true,"properties":[{"name":"layer","type":"int","value":1},{"name":"group","type":"int","value":0},{"name":"id","type":"int","value":155},{"name":"fh_layer","type":"int","value":1},{"name":"fh_group","type":"int","value":0},{"name":"fh_id","type":"int","value":155},{"name":"x1","type":"int","value":-583},{"name":"x2","type":"int","value":-583},{"name":"y1","type":"int","value":1268},{"name":"y2","type":"int","value":1208},{"name":"next","type":"int","value":152},{"name":"prev","type":"int","value":156}],"polyline":[{"x":0,"y":0},{"x":0,"y":-60}]},{"id":1049,"x":-583,"y":1328,"visible":true,"properties":[{"name":"layer","type":"int","value":1},{"name":"group","type":"int","value":0},{"name":"id","type":"int","value":156},{"name":"fh_layer","type":"int","value":1},{"name":"fh_group","type":"int","value":0},{"name":"fh_id","type":"int","value":156},{"name":"x1","type":"int","value":-583},{"name":"x2","type":"int","value":-583},{"name":"y1","type":"int","value":1328},{"name":"y2","type":"int","value":1268},{"name":"next","type":"int","value":155},{"name":"prev","type":"int","value":157}],"polyline":[{"x":0,"y":0},{"x":0,"y":-60}]},{"id":1050,"x":-583,"y":1388,"visible":true,"properties":[{"name":"layer","type":"int","value":1},{"name":"group","type":"int","value":0},{"name":"id","type":"int","value":157},{"name":"fh_layer","type":"int","value":1},{"name":"fh_group","type":"int","value":0},{"name":"fh_id","type":"int","value":157},{"name":"x1","type":"int","value":-583},{"name":"x2","type":"int","value":-583},{"name":"y1","type":"int","value":1388},{"name":"y2","type":"int","value":1328},{"name":"next","type":"int","value":156},{"name":"prev","type":"int","value":158}],"polyline":[{"x":0,"y":0},{"x":0,"y":-60}]},{"id":1051,"x":-583,"y":1448,"visible":true,"properties":[{"name":"layer","type":"int","value":1},{"name":"group","type":"int","value":0},{"name":"id","type":"int","value":158},{"name":"fh_layer","type":"int","value":1},{"name":"fh_group","type":"int","value":0},{"name":"fh_id","type":"int","value":158},{"name":"x1","type":"int","value":-583},{"name":"x2","type":"int","value":-583},{"name":"y1","type":"int","value":1448},{"name":"y2","type":"int","value":1388},{"name":"next","type":"int","value":157},{"name":"prev","type":"int","value":159}],"polyline":[{"x":0,"y":0},{"x":0,"y":-60}]},{"id":1052,"x":-583,"y":1508,"visible":true,"properties":[{"name":"layer","type":"int","value":1},{"name":"group","type":"int","value":0},{"name":"id","type":"int","value":159},{"name":"fh_layer","type":"int","value":1},{"name":"fh_group","type":"int","value":0},{"name":"fh_id","type":"int","value":159},{"name":"x1","type":"int","value":-583},{"name":"x2","type":"int","value":-583},{"name":"y1","type":"int","value":1508},{"name":"y2","type":"int","value":1448},{"name":"next","type":"int","value":158},{"name":"prev","type":"int","value":162}],"polyline":[{"x":0,"y":0},{"x":0,"y":-60}]},{"id":1053,"x":-583,"y":1628,"visible":true,"properties":[{"name":"layer","type":"int","value":1},{"name":"group","type":"int","value":0},{"name":"id","type":"int","value":160},{"name":"fh_layer","type":"int","value":1},{"name":"fh_group","type":"int","value":0},{"name":"fh_id","type":"int","value":160},{"name":"x1","type":"int","value":-583},{"name":"x2","type":"int","value":-583},{"name":"y1","type":"int","value":1628},{"name":"y2","type":"int","value":1560},{"name":"next","type":"int","value":162},{"name":"prev","type":"int","value":161}],"polyline":[{"x":0,"y":0},{"x":0,"y":-68}]},{"id":1054,"x":-583,"y":1688,"visible":true,"properties":[{"name":"layer","type":"int","value":1},{"name":"group","type":"int","value":0},{"name":"id","type":"int","value":161},{"name":"fh_layer","type":"int","value":1},{"name":"fh_group","type":"int","value":0},{"name":"fh_id","type":"int","value":161},{"name":"x1","type":"int","value":-583},{"name":"x2","type":"int","value":-583},{"name":"y1","type":"int","value":1688},{"name":"y2","type":"int","value":1628},{"name":"next","type":"int","value":160},{"name":"prev","type":"int","value":204}],"polyline":[{"x":0,"y":0},{"x":0,"y":-60}]},{"id":1055,"x":-583,"y":1560,"visible":true,"properties":[{"name":"layer","type":"int","value":1},{"name":"group","type":"int","value":0},{"name":"id","type":"int","value":162},{"name":"fh_layer","type":"int","value":1},{"name":"fh_group","type":"int","value":0},{"name":"fh_id","type":"int","value":162},{"name":"x1","type":"int","value":-583},{"name":"x2","type":"int","value":-583},{"name":"y1","type":"int","value":1560},{"name":"y2","type":"int","value":1508},{"name":"next","type":"int","value":159},{"name":"prev","type":"int","value":160}],"polyline":[{"x":0,"y":0},{"x":0,"y":-52}]},{"id":1056,"x":-47,"y":1010,"visible":true,"properties":[{"name":"layer","type":"int","value":1},{"name":"group","type":"int","value":0},{"name":"id","type":"int","value":163},{"name":"fh_layer","type":"int","value":1},{"name":"fh_group","type":"int","value":0},{"name":"fh_id","type":"int","value":163},{"name":"x1","type":"int","value":-47},{"name":"x2","type":"int","value":-47},{"name":"y1","type":"int","value":1010},{"name":"y2","type":"int","value":1020},{"name":"next","type":"int","value":164},{"name":"prev","type":"int","value":170}],"polyline":[{"x":0,"y":0},{"x":0,"y":10}]},{"id":1057,"x":-47,"y":1020,"visible":true,"properties":[{"name":"layer","type":"int","value":1},{"name":"group","type":"int","value":0},{"name":"id","type":"int","value":164},{"name":"fh_layer","type":"int","value":1},{"name":"fh_group","type":"int","value":0},{"name":"fh_id","type":"int","value":164},{"name":"x1","type":"int","value":-47},{"name":"x2","type":"int","value":-47},{"name":"y1","type":"int","value":1020},{"name":"y2","type":"int","value":1088},{"name":"next","type":"int","value":171},{"name":"prev","type":"int","value":163}],"polyline":[{"x":0,"y":0},{"x":0,"y":68}]},{"id":1058,"x":-180,"y":950,"visible":true,"properties":[{"name":"layer","type":"int","value":1},{"name":"group","type":"int","value":0},{"name":"id","type":"int","value":165},{"name":"fh_layer","type":"int","value":1},{"name":"fh_group","type":"int","value":0},{"name":"fh_id","type":"int","value":165},{"name":"x1","type":"int","value":-180},{"name":"x2","type":"int","value":-160},{"name":"y1","type":"int","value":950},{"name":"y2","type":"int","value":951},{"name":"next","type":"int","value":166},{"name":"prev","type":"int","value":131}],"polyline":[{"x":0,"y":0},{"x":20,"y":1}]},{"id":1059,"x":-160,"y":951,"visible":true,"properties":[{"name":"layer","type":"int","value":1},{"name":"group","type":"int","value":0},{"name":"id","type":"int","value":166},{"name":"fh_layer","type":"int","value":1},{"name":"fh_group","type":"int","value":0},{"name":"fh_id","type":"int","value":166},{"name":"x1","type":"int","value":-160},{"name":"x2","type":"int","value":-145},{"name":"y1","type":"int","value":951},{"name":"y2","type":"int","value":961},{"name":"next","type":"int","value":167},{"name":"prev","type":"int","value":165}],"polyline":[{"x":0,"y":0},{"x":15,"y":10}]},{"id":1060,"x":-145,"y":961,"visible":true,"properties":[{"name":"layer","type":"int","value":1},{"name":"group","type":"int","value":0},{"name":"id","type":"int","value":167},{"name":"fh_layer","type":"int","value":1},{"name":"fh_group","type":"int","value":0},{"name":"fh_id","type":"int","value":167},{"name":"x1","type":"int","value":-145},{"name":"x2","type":"int","value":-124},{"name":"y1","type":"int","value":961},{"name":"y2","type":"int","value":972},{"name":"next","type":"int","value":168},{"name":"prev","type":"int","value":166}],"polyline":[{"x":0,"y":0},{"x":21,"y":11}]},{"id":1061,"x":-124,"y":972,"visible":true,"properties":[{"name":"layer","type":"int","value":1},{"name":"group","type":"int","value":0},{"name":"id","type":"int","value":168},{"name":"fh_layer","type":"int","value":1},{"name":"fh_group","type":"int","value":0},{"name":"fh_id","type":"int","value":168},{"name":"x1","type":"int","value":-124},{"name":"x2","type":"int","value":-114},{"name":"y1","type":"int","value":972},{"name":"y2","type":"int","value":991},{"name":"next","type":"int","value":169},{"name":"prev","type":"int","value":167}],"polyline":[{"x":0,"y":0},{"x":10,"y":19}]},{"id":1062,"x":-114,"y":991,"visible":true,"properties":[{"name":"layer","type":"int","value":1},{"name":"group","type":"int","value":0},{"name":"id","type":"int","value":169},{"name":"fh_layer","type":"int","value":1},{"name":"fh_group","type":"int","value":0},{"name":"fh_id","type":"int","value":169},{"name":"x1","type":"int","value":-114},{"name":"x2","type":"int","value":-90},{"name":"y1","type":"int","value":991},{"name":"y2","type":"int","value":1010},{"name":"next","type":"int","value":719},{"name":"prev","type":"int","value":168}],"polyline":[{"x":0,"y":0},{"x":24,"y":19}]},{"id":1063,"x":-90,"y":1010,"visible":true,"properties":[{"name":"layer","type":"int","value":1},{"name":"group","type":"int","value":0},{"name":"id","type":"int","value":170},{"name":"fh_layer","type":"int","value":1},{"name":"fh_group","type":"int","value":0},{"name":"fh_id","type":"int","value":170},{"name":"x1","type":"int","value":-90},{"name":"x2","type":"int","value":-47},{"name":"y1","type":"int","value":1010},{"name":"y2","type":"int","value":1010},{"name":"next","type":"int","value":163},{"name":"prev","type":"int","value":169}],"polyline":[{"x":0,"y":0},{"x":43,"y":0}]},{"id":1064,"x":-47,"y":1088,"visible":true,"properties":[{"name":"layer","type":"int","value":1},{"name":"group","type":"int","value":0},{"name":"id","type":"int","value":171},{"name":"fh_layer","type":"int","value":1},{"name":"fh_group","type":"int","value":0},{"name":"fh_id","type":"int","value":171},{"name":"x1","type":"int","value":-47},{"name":"x2","type":"int","value":-47},{"name":"y1","type":"int","value":1088},{"name":"y2","type":"int","value":1148},{"name":"next","type":"int","value":172},{"name":"prev","type":"int","value":164}],"polyline":[{"x":0,"y":0},{"x":0,"y":60}]},{"id":1065,"x":-47,"y":1148,"visible":true,"properties":[{"name":"layer","type":"int","value":1},{"name":"group","type":"int","value":0},{"name":"id","type":"int","value":172},{"name":"fh_layer","type":"int","value":1},{"name":"fh_group","type":"int","value":0},{"name":"fh_id","type":"int","value":172},{"name":"x1","type":"int","value":-47},{"name":"x2","type":"int","value":-47},{"name":"y1","type":"int","value":1148},{"name":"y2","type":"int","value":1200},{"name":"next","type":"int","value":153},{"name":"prev","type":"int","value":171}],"polyline":[{"x":0,"y":0},{"x":0,"y":52}]},{"id":1066,"x":-47,"y":1440,"visible":true,"properties":[{"name":"layer","type":"int","value":1},{"name":"group","type":"int","value":0},{"name":"id","type":"int","value":173},{"name":"fh_layer","type":"int","value":1},{"name":"fh_group","type":"int","value":0},{"name":"fh_id","type":"int","value":173},{"name":"x1","type":"int","value":-47},{"name":"x2","type":"int","value":-47},{"name":"y1","type":"int","value":1440},{"name":"y2","type":"int","value":1500},{"name":"next","type":"int","value":154},{"name":"prev","type":"int","value":397}],"polyline":[{"x":0,"y":0},{"x":0,"y":60}]},{"id":1067,"x":-47,"y":1268,"visible":true,"properties":[{"name":"layer","type":"int","value":1},{"name":"group","type":"int","value":0},{"name":"id","type":"int","value":174},{"name":"fh_layer","type":"int","value":1},{"name":"fh_group","type":"int","value":0},{"name":"fh_id","type":"int","value":174},{"name":"x1","type":"int","value":-47},{"name":"x2","type":"int","value":-47},{"name":"y1","type":"int","value":1268},{"name":"y2","type":"int","value":1328},{"name":"next","type":"int","value":176},{"name":"prev","type":"int","value":153}],"polyline":[{"x":0,"y":0},{"x":0,"y":60}]},{"id":1068,"x":-47,"y":1680,"visible":true,"properties":[{"name":"layer","type":"int","value":1},{"name":"group","type":"int","value":0},{"name":"id","type":"int","value":175},{"name":"fh_layer","type":"int","value":1},{"name":"fh_group","type":"int","value":0},{"name":"fh_id","type":"int","value":175},{"name":"x1","type":"int","value":-47},{"name":"x2","type":"int","value":-47},{"name":"y1","type":"int","value":1680},{"name":"y2","type":"int","value":1748},{"name":"next","type":"int","value":180},{"name":"prev","type":"int","value":177}],"polyline":[{"x":0,"y":0},{"x":0,"y":68}]},{"id":1069,"x":-47,"y":1328,"visible":true,"properties":[{"name":"layer","type":"int","value":1},{"name":"group","type":"int","value":0},{"name":"id","type":"int","value":176},{"name":"fh_layer","type":"int","value":1},{"name":"fh_group","type":"int","value":0},{"name":"fh_id","type":"int","value":176},{"name":"x1","type":"int","value":-47},{"name":"x2","type":"int","value":-47},{"name":"y1","type":"int","value":1328},{"name":"y2","type":"int","value":1388},{"name":"next","type":"int","value":178},{"name":"prev","type":"int","value":174}],"polyline":[{"x":0,"y":0},{"x":0,"y":60}]},{"id":1070,"x":-47,"y":1620,"visible":true,"properties":[{"name":"layer","type":"int","value":1},{"name":"group","type":"int","value":0},{"name":"id","type":"int","value":177},{"name":"fh_layer","type":"int","value":1},{"name":"fh_group","type":"int","value":0},{"name":"fh_id","type":"int","value":177},{"name":"x1","type":"int","value":-47},{"name":"x2","type":"int","value":-47},{"name":"y1","type":"int","value":1620},{"name":"y2","type":"int","value":1680},{"name":"next","type":"int","value":175},{"name":"prev","type":"int","value":179}],"polyline":[{"x":0,"y":0},{"x":0,"y":60}]},{"id":1071,"x":-47,"y":1388,"visible":true,"properties":[{"name":"layer","type":"int","value":1},{"name":"group","type":"int","value":0},{"name":"id","type":"int","value":178},{"name":"fh_layer","type":"int","value":1},{"name":"fh_group","type":"int","value":0},{"name":"fh_id","type":"int","value":178},{"name":"x1","type":"int","value":-47},{"name":"x2","type":"int","value":-47},{"name":"y1","type":"int","value":1388},{"name":"y2","type":"int","value":1419},{"name":"next","type":"int","value":398},{"name":"prev","type":"int","value":176}],"polyline":[{"x":0,"y":0},{"x":0,"y":31}]},{"id":1072,"x":-47,"y":1568,"visible":true,"properties":[{"name":"layer","type":"int","value":1},{"name":"group","type":"int","value":0},{"name":"id","type":"int","value":179},{"name":"fh_layer","type":"int","value":1},{"name":"fh_group","type":"int","value":0},{"name":"fh_id","type":"int","value":179},{"name":"x1","type":"int","value":-47},{"name":"x2","type":"int","value":-47},{"name":"y1","type":"int","value":1568},{"name":"y2","type":"int","value":1620},{"name":"next","type":"int","value":177},{"name":"prev","type":"int","value":154}],"polyline":[{"x":0,"y":0},{"x":0,"y":52}]},{"id":1073,"x":-47,"y":1748,"visible":true,"properties":[{"name":"layer","type":"int","value":1},{"name":"group","type":"int","value":0},{"name":"id","type":"int","value":180},{"name":"fh_layer","type":"int","value":1},{"name":"fh_group","type":"int","value":0},{"name":"fh_id","type":"int","value":180},{"name":"x1","type":"int","value":-47},{"name":"x2","type":"int","value":-47},{"name":"y1","type":"int","value":1748},{"name":"y2","type":"int","value":1758},{"name":"next","type":"int","value":451},{"name":"prev","type":"int","value":175}],"polyline":[{"x":0,"y":0},{"x":0,"y":10}]},{"id":1074,"x":180,"y":1850,"visible":true,"properties":[{"name":"layer","type":"int","value":1},{"name":"group","type":"int","value":0},{"name":"id","type":"int","value":181},{"name":"fh_layer","type":"int","value":1},{"name":"fh_group","type":"int","value":0},{"name":"fh_id","type":"int","value":181},{"name":"x1","type":"int","value":180},{"name":"x2","type":"int","value":202},{"name":"y1","type":"int","value":1850},{"name":"y2","type":"int","value":1846},{"name":"next","type":"int","value":182},{"name":"prev","type":"int","value":192}],"polyline":[{"x":0,"y":0},{"x":22,"y":-4}]},{"id":1075,"x":202,"y":1846,"visible":true,"properties":[{"name":"layer","type":"int","value":1},{"name":"group","type":"int","value":0},{"name":"id","type":"int","value":182},{"name":"fh_layer","type":"int","value":1},{"name":"fh_group","type":"int","value":0},{"name":"fh_id","type":"int","value":182},{"name":"x1","type":"int","value":202},{"name":"x2","type":"int","value":210},{"name":"y1","type":"int","value":1846},{"name":"y2","type":"int","value":1839},{"name":"next","type":"int","value":183},{"name":"prev","type":"int","value":181}],"polyline":[{"x":0,"y":0},{"x":8,"y":-7}]},{"id":1076,"x":210,"y":1839,"visible":true,"properties":[{"name":"layer","type":"int","value":1},{"name":"group","type":"int","value":0},{"name":"id","type":"int","value":183},{"name":"fh_layer","type":"int","value":1},{"name":"fh_group","type":"int","value":0},{"name":"fh_id","type":"int","value":183},{"name":"x1","type":"int","value":210},{"name":"x2","type":"int","value":225},{"name":"y1","type":"int","value":1839},{"name":"y2","type":"int","value":1835},{"name":"next","type":"int","value":184},{"name":"prev","type":"int","value":182}],"polyline":[{"x":0,"y":0},{"x":15,"y":-4}]},{"id":1077,"x":225,"y":1835,"visible":true,"properties":[{"name":"layer","type":"int","value":1},{"name":"group","type":"int","value":0},{"name":"id","type":"int","value":184},{"name":"fh_layer","type":"int","value":1},{"name":"fh_group","type":"int","value":0},{"name":"fh_id","type":"int","value":184},{"name":"x1","type":"int","value":225},{"name":"x2","type":"int","value":232},{"name":"y1","type":"int","value":1835},{"name":"y2","type":"int","value":1836},{"name":"next","type":"int","value":185},{"name":"prev","type":"int","value":183}],"polyline":[{"x":0,"y":0},{"x":7,"y":1}]},{"id":1078,"x":232,"y":1836,"visible":true,"properties":[{"name":"layer","type":"int","value":1},{"name":"group","type":"int","value":0},{"name":"id","type":"int","value":185},{"name":"fh_layer","type":"int","value":1},{"name":"fh_group","type":"int","value":0},{"name":"fh_id","type":"int","value":185},{"name":"x1","type":"int","value":232},{"name":"x2","type":"int","value":253},{"name":"y1","type":"int","value":1836},{"name":"y2","type":"int","value":1849},{"name":"next","type":"int","value":186},{"name":"prev","type":"int","value":184}],"polyline":[{"x":0,"y":0},{"x":21,"y":13}]},{"id":1079,"x":253,"y":1849,"visible":true,"properties":[{"name":"layer","type":"int","value":1},{"name":"group","type":"int","value":0},{"name":"id","type":"int","value":186},{"name":"fh_layer","type":"int","value":1},{"name":"fh_group","type":"int","value":0},{"name":"fh_id","type":"int","value":186},{"name":"x1","type":"int","value":253},{"name":"x2","type":"int","value":270},{"name":"y1","type":"int","value":1849},{"name":"y2","type":"int","value":1850},{"name":"next","type":"int","value":199},{"name":"prev","type":"int","value":185}],"polyline":[{"x":0,"y":0},{"x":17,"y":1}]},{"id":1080,"x":90,"y":1850,"visible":true,"properties":[{"name":"layer","type":"int","value":1},{"name":"group","type":"int","value":0},{"name":"id","type":"int","value":187},{"name":"fh_layer","type":"int","value":1},{"name":"fh_group","type":"int","value":0},{"name":"fh_id","type":"int","value":187},{"name":"x1","type":"int","value":90},{"name":"x2","type":"int","value":112},{"name":"y1","type":"int","value":1850},{"name":"y2","type":"int","value":1846},{"name":"next","type":"int","value":188},{"name":"prev","type":"int","value":234}],"polyline":[{"x":0,"y":0},{"x":22,"y":-4}]},{"id":1081,"x":112,"y":1846,"visible":true,"properties":[{"name":"layer","type":"int","value":1},{"name":"group","type":"int","value":0},{"name":"id","type":"int","value":188},{"name":"fh_layer","type":"int","value":1},{"name":"fh_group","type":"int","value":0},{"name":"fh_id","type":"int","value":188},{"name":"x1","type":"int","value":112},{"name":"x2","type":"int","value":120},{"name":"y1","type":"int","value":1846},{"name":"y2","type":"int","value":1839},{"name":"next","type":"int","value":189},{"name":"prev","type":"int","value":187}],"polyline":[{"x":0,"y":0},{"x":8,"y":-7}]},{"id":1082,"x":120,"y":1839,"visible":true,"properties":[{"name":"layer","type":"int","value":1},{"name":"group","type":"int","value":0},{"name":"id","type":"int","value":189},{"name":"fh_layer","type":"int","value":1},{"name":"fh_group","type":"int","value":0},{"name":"fh_id","type":"int","value":189},{"name":"x1","type":"int","value":120},{"name":"x2","type":"int","value":135},{"name":"y1","type":"int","value":1839},{"name":"y2","type":"int","value":1835},{"name":"next","type":"int","value":190},{"name":"prev","type":"int","value":188}],"polyline":[{"x":0,"y":0},{"x":15,"y":-4}]},{"id":1083,"x":135,"y":1835,"visible":true,"properties":[{"name":"layer","type":"int","value":1},{"name":"group","type":"int","value":0},{"name":"id","type":"int","value":190},{"name":"fh_layer","type":"int","value":1},{"name":"fh_group","type":"int","value":0},{"name":"fh_id","type":"int","value":190},{"name":"x1","type":"int","value":135},{"name":"x2","type":"int","value":142},{"name":"y1","type":"int","value":1835},{"name":"y2","type":"int","value":1836},{"name":"next","type":"int","value":191},{"name":"prev","type":"int","value":189}],"polyline":[{"x":0,"y":0},{"x":7,"y":1}]},{"id":1084,"x":142,"y":1836,"visible":true,"properties":[{"name":"layer","type":"int","value":1},{"name":"group","type":"int","value":0},{"name":"id","type":"int","value":191},{"name":"fh_layer","type":"int","value":1},{"name":"fh_group","type":"int","value":0},{"name":"fh_id","type":"int","value":191},{"name":"x1","type":"int","value":142},{"name":"x2","type":"int","value":163},{"name":"y1","type":"int","value":1836},{"name":"y2","type":"int","value":1849},{"name":"next","type":"int","value":192},{"name":"prev","type":"int","value":190}],"polyline":[{"x":0,"y":0},{"x":21,"y":13}]},{"id":1085,"x":163,"y":1849,"visible":true,"properties":[{"name":"layer","type":"int","value":1},{"name":"group","type":"int","value":0},{"name":"id","type":"int","value":192},{"name":"fh_layer","type":"int","value":1},{"name":"fh_group","type":"int","value":0},{"name":"fh_id","type":"int","value":192},{"name":"x1","type":"int","value":163},{"name":"x2","type":"int","value":180},{"name":"y1","type":"int","value":1849},{"name":"y2","type":"int","value":1850},{"name":"next","type":"int","value":181},{"name":"prev","type":"int","value":191}],"polyline":[{"x":0,"y":0},{"x":17,"y":1}]},{"id":1086,"x":360,"y":1910,"visible":true,"properties":[{"name":"layer","type":"int","value":1},{"name":"group","type":"int","value":0},{"name":"id","type":"int","value":193},{"name":"fh_layer","type":"int","value":1},{"name":"fh_group","type":"int","value":0},{"name":"fh_id","type":"int","value":193},{"name":"x1","type":"int","value":360},{"name":"x2","type":"int","value":382},{"name":"y1","type":"int","value":1910},{"name":"y2","type":"int","value":1906},{"name":"next","type":"int","value":194},{"name":"prev","type":"int","value":203}],"polyline":[{"x":0,"y":0},{"x":22,"y":-4}]},{"id":1087,"x":382,"y":1906,"visible":true,"properties":[{"name":"layer","type":"int","value":1},{"name":"group","type":"int","value":0},{"name":"id","type":"int","value":194},{"name":"fh_layer","type":"int","value":1},{"name":"fh_group","type":"int","value":0},{"name":"fh_id","type":"int","value":194},{"name":"x1","type":"int","value":382},{"name":"x2","type":"int","value":390},{"name":"y1","type":"int","value":1906},{"name":"y2","type":"int","value":1899},{"name":"next","type":"int","value":195},{"name":"prev","type":"int","value":193}],"polyline":[{"x":0,"y":0},{"x":8,"y":-7}]},{"id":1088,"x":390,"y":1899,"visible":true,"properties":[{"name":"layer","type":"int","value":1},{"name":"group","type":"int","value":0},{"name":"id","type":"int","value":195},{"name":"fh_layer","type":"int","value":1},{"name":"fh_group","type":"int","value":0},{"name":"fh_id","type":"int","value":195},{"name":"x1","type":"int","value":390},{"name":"x2","type":"int","value":405},{"name":"y1","type":"int","value":1899},{"name":"y2","type":"int","value":1895},{"name":"next","type":"int","value":196},{"name":"prev","type":"int","value":194}],"polyline":[{"x":0,"y":0},{"x":15,"y":-4}]},{"id":1089,"x":405,"y":1895,"visible":true,"properties":[{"name":"layer","type":"int","value":1},{"name":"group","type":"int","value":0},{"name":"id","type":"int","value":196},{"name":"fh_layer","type":"int","value":1},{"name":"fh_group","type":"int","value":0},{"name":"fh_id","type":"int","value":196},{"name":"x1","type":"int","value":405},{"name":"x2","type":"int","value":412},{"name":"y1","type":"int","value":1895},{"name":"y2","type":"int","value":1896},{"name":"next","type":"int","value":197},{"name":"prev","type":"int","value":195}],"polyline":[{"x":0,"y":0},{"x":7,"y":1}]},{"id":1090,"x":412,"y":1896,"visible":true,"properties":[{"name":"layer","type":"int","value":1},{"name":"group","type":"int","value":0},{"name":"id","type":"int","value":197},{"name":"fh_layer","type":"int","value":1},{"name":"fh_group","type":"int","value":0},{"name":"fh_id","type":"int","value":197},{"name":"x1","type":"int","value":412},{"name":"x2","type":"int","value":433},{"name":"y1","type":"int","value":1896},{"name":"y2","type":"int","value":1909},{"name":"next","type":"int","value":198},{"name":"prev","type":"int","value":196}],"polyline":[{"x":0,"y":0},{"x":21,"y":13}]},{"id":1091,"x":433,"y":1909,"visible":true,"properties":[{"name":"layer","type":"int","value":1},{"name":"group","type":"int","value":0},{"name":"id","type":"int","value":198},{"name":"fh_layer","type":"int","value":1},{"name":"fh_group","type":"int","value":0},{"name":"fh_id","type":"int","value":198},{"name":"x1","type":"int","value":433},{"name":"x2","type":"int","value":450},{"name":"y1","type":"int","value":1909},{"name":"y2","type":"int","value":1910},{"name":"next","type":"int","value":217},{"name":"prev","type":"int","value":197}],"polyline":[{"x":0,"y":0},{"x":17,"y":1}]},{"id":1092,"x":270,"y":1850,"visible":true,"properties":[{"name":"layer","type":"int","value":1},{"name":"group","type":"int","value":0},{"name":"id","type":"int","value":199},{"name":"fh_layer","type":"int","value":1},{"name":"fh_group","type":"int","value":0},{"name":"fh_id","type":"int","value":199},{"name":"x1","type":"int","value":270},{"name":"x2","type":"int","value":290},{"name":"y1","type":"int","value":1850},{"name":"y2","type":"int","value":1851},{"name":"next","type":"int","value":200},{"name":"prev","type":"int","value":186}],"polyline":[{"x":0,"y":0},{"x":20,"y":1}]},{"id":1093,"x":290,"y":1851,"visible":true,"properties":[{"name":"layer","type":"int","value":1},{"name":"group","type":"int","value":0},{"name":"id","type":"int","value":200},{"name":"fh_layer","type":"int","value":1},{"name":"fh_group","type":"int","value":0},{"name":"fh_id","type":"int","value":200},{"name":"x1","type":"int","value":290},{"name":"x2","type":"int","value":305},{"name":"y1","type":"int","value":1851},{"name":"y2","type":"int","value":1861},{"name":"next","type":"int","value":201},{"name":"prev","type":"int","value":199}],"polyline":[{"x":0,"y":0},{"x":15,"y":10}]},{"id":1094,"x":305,"y":1861,"visible":true,"properties":[{"name":"layer","type":"int","value":1},{"name":"group","type":"int","value":0},{"name":"id","type":"int","value":201},{"name":"fh_layer","type":"int","value":1},{"name":"fh_group","type":"int","value":0},{"name":"fh_id","type":"int","value":201},{"name":"x1","type":"int","value":305},{"name":"x2","type":"int","value":326},{"name":"y1","type":"int","value":1861},{"name":"y2","type":"int","value":1872},{"name":"next","type":"int","value":202},{"name":"prev","type":"int","value":200}],"polyline":[{"x":0,"y":0},{"x":21,"y":11}]},{"id":1095,"x":326,"y":1872,"visible":true,"properties":[{"name":"layer","type":"int","value":1},{"name":"group","type":"int","value":0},{"name":"id","type":"int","value":202},{"name":"fh_layer","type":"int","value":1},{"name":"fh_group","type":"int","value":0},{"name":"fh_id","type":"int","value":202},{"name":"x1","type":"int","value":326},{"name":"x2","type":"int","value":336},{"name":"y1","type":"int","value":1872},{"name":"y2","type":"int","value":1891},{"name":"next","type":"int","value":203},{"name":"prev","type":"int","value":201}],"polyline":[{"x":0,"y":0},{"x":10,"y":19}]},{"id":1096,"x":336,"y":1891,"visible":true,"properties":[{"name":"layer","type":"int","value":1},{"name":"group","type":"int","value":0},{"name":"id","type":"int","value":203},{"name":"fh_layer","type":"int","value":1},{"name":"fh_group","type":"int","value":0},{"name":"fh_id","type":"int","value":203},{"name":"x1","type":"int","value":336},{"name":"x2","type":"int","value":360},{"name":"y1","type":"int","value":1891},{"name":"y2","type":"int","value":1910},{"name":"next","type":"int","value":193},{"name":"prev","type":"int","value":202}],"polyline":[{"x":0,"y":0},{"x":24,"y":19}]},{"id":1097,"x":-583,"y":1748,"visible":true,"properties":[{"name":"layer","type":"int","value":1},{"name":"group","type":"int","value":0},{"name":"id","type":"int","value":204},{"name":"fh_layer","type":"int","value":1},{"name":"fh_group","type":"int","value":0},{"name":"fh_id","type":"int","value":204},{"name":"x1","type":"int","value":-583},{"name":"x2","type":"int","value":-583},{"name":"y1","type":"int","value":1748},{"name":"y2","type":"int","value":1688},{"name":"next","type":"int","value":161},{"name":"prev","type":"int","value":205}],"polyline":[{"x":0,"y":0},{"x":0,"y":-60}]},{"id":1098,"x":-583,"y":1808,"visible":true,"properties":[{"name":"layer","type":"int","value":1},{"name":"group","type":"int","value":0},{"name":"id","type":"int","value":205},{"name":"fh_layer","type":"int","value":1},{"name":"fh_group","type":"int","value":0},{"name":"fh_id","type":"int","value":205},{"name":"x1","type":"int","value":-583},{"name":"x2","type":"int","value":-583},{"name":"y1","type":"int","value":1808},{"name":"y2","type":"int","value":1748},{"name":"next","type":"int","value":204},{"name":"prev","type":"int","value":206}],"polyline":[{"x":0,"y":0},{"x":0,"y":-60}]},{"id":1099,"x":-583,"y":1868,"visible":true,"properties":[{"name":"layer","type":"int","value":1},{"name":"group","type":"int","value":0},{"name":"id","type":"int","value":206},{"name":"fh_layer","type":"int","value":1},{"name":"fh_group","type":"int","value":0},{"name":"fh_id","type":"int","value":206},{"name":"x1","type":"int","value":-583},{"name":"x2","type":"int","value":-583},{"name":"y1","type":"int","value":1868},{"name":"y2","type":"int","value":1808},{"name":"next","type":"int","value":205},{"name":"prev","type":"int","value":207}],"polyline":[{"x":0,"y":0},{"x":0,"y":-60}]},{"id":1100,"x":-583,"y":1928,"visible":true,"properties":[{"name":"layer","type":"int","value":1},{"name":"group","type":"int","value":0},{"name":"id","type":"int","value":207},{"name":"fh_layer","type":"int","value":1},{"name":"fh_group","type":"int","value":0},{"name":"fh_id","type":"int","value":207},{"name":"x1","type":"int","value":-583},{"name":"x2","type":"int","value":-583},{"name":"y1","type":"int","value":1928},{"name":"y2","type":"int","value":1868},{"name":"next","type":"int","value":206},{"name":"prev","type":"int","value":208}],"polyline":[{"x":0,"y":0},{"x":0,"y":-60}]},{"id":1101,"x":-583,"y":1988,"visible":true,"properties":[{"name":"layer","type":"int","value":1},{"name":"group","type":"int","value":0},{"name":"id","type":"int","value":208},{"name":"fh_layer","type":"int","value":1},{"name":"fh_group","type":"int","value":0},{"name":"fh_id","type":"int","value":208},{"name":"x1","type":"int","value":-583},{"name":"x2","type":"int","value":-583},{"name":"y1","type":"int","value":1988},{"name":"y2","type":"int","value":1928},{"name":"next","type":"int","value":207},{"name":"prev","type":"int","value":209}],"polyline":[{"x":0,"y":0},{"x":0,"y":-60}]},{"id":1102,"x":-583,"y":2048,"visible":true,"properties":[{"name":"layer","type":"int","value":1},{"name":"group","type":"int","value":0},{"name":"id","type":"int","value":209},{"name":"fh_layer","type":"int","value":1},{"name":"fh_group","type":"int","value":0},{"name":"fh_id","type":"int","value":209},{"name":"x1","type":"int","value":-583},{"name":"x2","type":"int","value":-583},{"name":"y1","type":"int","value":2048},{"name":"y2","type":"int","value":1988},{"name":"next","type":"int","value":208},{"name":"prev","type":"int","value":210}],"polyline":[{"x":0,"y":0},{"x":0,"y":-60}]},{"id":1103,"x":-583,"y":2108,"visible":true,"properties":[{"name":"layer","type":"int","value":1},{"name":"group","type":"int","value":0},{"name":"id","type":"int","value":210},{"name":"fh_layer","type":"int","value":1},{"name":"fh_group","type":"int","value":0},{"name":"fh_id","type":"int","value":210},{"name":"x1","type":"int","value":-583},{"name":"x2","type":"int","value":-583},{"name":"y1","type":"int","value":2108},{"name":"y2","type":"int","value":2048},{"name":"next","type":"int","value":209},{"name":"prev","type":"int","value":0}],"polyline":[{"x":0,"y":0},{"x":0,"y":-60}]},{"id":1104,"x":540,"y":1910,"visible":true,"properties":[{"name":"layer","type":"int","value":1},{"name":"group","type":"int","value":0},{"name":"id","type":"int","value":211},{"name":"fh_layer","type":"int","value":1},{"name":"fh_group","type":"int","value":0},{"name":"fh_id","type":"int","value":211},{"name":"x1","type":"int","value":540},{"name":"x2","type":"int","value":562},{"name":"y1","type":"int","value":1910},{"name":"y2","type":"int","value":1906},{"name":"next","type":"int","value":212},{"name":"prev","type":"int","value":222}],"polyline":[{"x":0,"y":0},{"x":22,"y":-4}]},{"id":1105,"x":562,"y":1906,"visible":true,"properties":[{"name":"layer","type":"int","value":1},{"name":"group","type":"int","value":0},{"name":"id","type":"int","value":212},{"name":"fh_layer","type":"int","value":1},{"name":"fh_group","type":"int","value":0},{"name":"fh_id","type":"int","value":212},{"name":"x1","type":"int","value":562},{"name":"x2","type":"int","value":570},{"name":"y1","type":"int","value":1906},{"name":"y2","type":"int","value":1899},{"name":"next","type":"int","value":213},{"name":"prev","type":"int","value":211}],"polyline":[{"x":0,"y":0},{"x":8,"y":-7}]},{"id":1106,"x":570,"y":1899,"visible":true,"properties":[{"name":"layer","type":"int","value":1},{"name":"group","type":"int","value":0},{"name":"id","type":"int","value":213},{"name":"fh_layer","type":"int","value":1},{"name":"fh_group","type":"int","value":0},{"name":"fh_id","type":"int","value":213},{"name":"x1","type":"int","value":570},{"name":"x2","type":"int","value":585},{"name":"y1","type":"int","value":1899},{"name":"y2","type":"int","value":1895},{"name":"next","type":"int","value":214},{"name":"prev","type":"int","value":212}],"polyline":[{"x":0,"y":0},{"x":15,"y":-4}]},{"id":1107,"x":585,"y":1895,"visible":true,"properties":[{"name":"layer","type":"int","value":1},{"name":"group","type":"int","value":0},{"name":"id","type":"int","value":214},{"name":"fh_layer","type":"int","value":1},{"name":"fh_group","type":"int","value":0},{"name":"fh_id","type":"int","value":214},{"name":"x1","type":"int","value":585},{"name":"x2","type":"int","value":592},{"name":"y1","type":"int","value":1895},{"name":"y2","type":"int","value":1896},{"name":"next","type":"int","value":215},{"name":"prev","type":"int","value":213}],"polyline":[{"x":0,"y":0},{"x":7,"y":1}]},{"id":1108,"x":592,"y":1896,"visible":true,"properties":[{"name":"layer","type":"int","value":1},{"name":"group","type":"int","value":0},{"name":"id","type":"int","value":215},{"name":"fh_layer","type":"int","value":1},{"name":"fh_group","type":"int","value":0},{"name":"fh_id","type":"int","value":215},{"name":"x1","type":"int","value":592},{"name":"x2","type":"int","value":613},{"name":"y1","type":"int","value":1896},{"name":"y2","type":"int","value":1909},{"name":"next","type":"int","value":216},{"name":"prev","type":"int","value":214}],"polyline":[{"x":0,"y":0},{"x":21,"y":13}]},{"id":1109,"x":613,"y":1909,"visible":true,"properties":[{"name":"layer","type":"int","value":1},{"name":"group","type":"int","value":0},{"name":"id","type":"int","value":216},{"name":"fh_layer","type":"int","value":1},{"name":"fh_group","type":"int","value":0},{"name":"fh_id","type":"int","value":216},{"name":"x1","type":"int","value":613},{"name":"x2","type":"int","value":630},{"name":"y1","type":"int","value":1909},{"name":"y2","type":"int","value":1910},{"name":"next","type":"int","value":223},{"name":"prev","type":"int","value":215}],"polyline":[{"x":0,"y":0},{"x":17,"y":1}]},{"id":1110,"x":450,"y":1910,"visible":true,"properties":[{"name":"layer","type":"int","value":1},{"name":"group","type":"int","value":0},{"name":"id","type":"int","value":217},{"name":"fh_layer","type":"int","value":1},{"name":"fh_group","type":"int","value":0},{"name":"fh_id","type":"int","value":217},{"name":"x1","type":"int","value":450},{"name":"x2","type":"int","value":472},{"name":"y1","type":"int","value":1910},{"name":"y2","type":"int","value":1906},{"name":"next","type":"int","value":218},{"name":"prev","type":"int","value":198}],"polyline":[{"x":0,"y":0},{"x":22,"y":-4}]},{"id":1111,"x":472,"y":1906,"visible":true,"properties":[{"name":"layer","type":"int","value":1},{"name":"group","type":"int","value":0},{"name":"id","type":"int","value":218},{"name":"fh_layer","type":"int","value":1},{"name":"fh_group","type":"int","value":0},{"name":"fh_id","type":"int","value":218},{"name":"x1","type":"int","value":472},{"name":"x2","type":"int","value":480},{"name":"y1","type":"int","value":1906},{"name":"y2","type":"int","value":1899},{"name":"next","type":"int","value":219},{"name":"prev","type":"int","value":217}],"polyline":[{"x":0,"y":0},{"x":8,"y":-7}]},{"id":1112,"x":480,"y":1899,"visible":true,"properties":[{"name":"layer","type":"int","value":1},{"name":"group","type":"int","value":0},{"name":"id","type":"int","value":219},{"name":"fh_layer","type":"int","value":1},{"name":"fh_group","type":"int","value":0},{"name":"fh_id","type":"int","value":219},{"name":"x1","type":"int","value":480},{"name":"x2","type":"int","value":495},{"name":"y1","type":"int","value":1899},{"name":"y2","type":"int","value":1895},{"name":"next","type":"int","value":220},{"name":"prev","type":"int","value":218}],"polyline":[{"x":0,"y":0},{"x":15,"y":-4}]},{"id":1113,"x":495,"y":1895,"visible":true,"properties":[{"name":"layer","type":"int","value":1},{"name":"group","type":"int","value":0},{"name":"id","type":"int","value":220},{"name":"fh_layer","type":"int","value":1},{"name":"fh_group","type":"int","value":0},{"name":"fh_id","type":"int","value":220},{"name":"x1","type":"int","value":495},{"name":"x2","type":"int","value":502},{"name":"y1","type":"int","value":1895},{"name":"y2","type":"int","value":1896},{"name":"next","type":"int","value":221},{"name":"prev","type":"int","value":219}],"polyline":[{"x":0,"y":0},{"x":7,"y":1}]},{"id":1114,"x":502,"y":1896,"visible":true,"properties":[{"name":"layer","type":"int","value":1},{"name":"group","type":"int","value":0},{"name":"id","type":"int","value":221},{"name":"fh_layer","type":"int","value":1},{"name":"fh_group","type":"int","value":0},{"name":"fh_id","type":"int","value":221},{"name":"x1","type":"int","value":502},{"name":"x2","type":"int","value":523},{"name":"y1","type":"int","value":1896},{"name":"y2","type":"int","value":1909},{"name":"next","type":"int","value":222},{"name":"prev","type":"int","value":220}],"polyline":[{"x":0,"y":0},{"x":21,"y":13}]},{"id":1115,"x":523,"y":1909,"visible":true,"properties":[{"name":"layer","type":"int","value":1},{"name":"group","type":"int","value":0},{"name":"id","type":"int","value":222},{"name":"fh_layer","type":"int","value":1},{"name":"fh_group","type":"int","value":0},{"name":"fh_id","type":"int","value":222},{"name":"x1","type":"int","value":523},{"name":"x2","type":"int","value":540},{"name":"y1","type":"int","value":1909},{"name":"y2","type":"int","value":1910},{"name":"next","type":"int","value":211},{"name":"prev","type":"int","value":221}],"polyline":[{"x":0,"y":0},{"x":17,"y":1}]},{"id":1116,"x":630,"y":1910,"visible":true,"properties":[{"name":"layer","type":"int","value":1},{"name":"group","type":"int","value":0},{"name":"id","type":"int","value":223},{"name":"fh_layer","type":"int","value":1},{"name":"fh_group","type":"int","value":0},{"name":"fh_id","type":"int","value":223},{"name":"x1","type":"int","value":630},{"name":"x2","type":"int","value":654},{"name":"y1","type":"int","value":1910},{"name":"y2","type":"int","value":1891},{"name":"next","type":"int","value":224},{"name":"prev","type":"int","value":216}],"polyline":[{"x":0,"y":0},{"x":24,"y":-19}]},{"id":1117,"x":654,"y":1891,"visible":true,"properties":[{"name":"layer","type":"int","value":1},{"name":"group","type":"int","value":0},{"name":"id","type":"int","value":224},{"name":"fh_layer","type":"int","value":1},{"name":"fh_group","type":"int","value":0},{"name":"fh_id","type":"int","value":224},{"name":"x1","type":"int","value":654},{"name":"x2","type":"int","value":664},{"name":"y1","type":"int","value":1891},{"name":"y2","type":"int","value":1872},{"name":"next","type":"int","value":225},{"name":"prev","type":"int","value":223}],"polyline":[{"x":0,"y":0},{"x":10,"y":-19}]},{"id":1118,"x":664,"y":1872,"visible":true,"properties":[{"name":"layer","type":"int","value":1},{"name":"group","type":"int","value":0},{"name":"id","type":"int","value":225},{"name":"fh_layer","type":"int","value":1},{"name":"fh_group","type":"int","value":0},{"name":"fh_id","type":"int","value":225},{"name":"x1","type":"int","value":664},{"name":"x2","type":"int","value":677},{"name":"y1","type":"int","value":1872},{"name":"y2","type":"int","value":1866},{"name":"next","type":"int","value":242},{"name":"prev","type":"int","value":224}],"polyline":[{"x":0,"y":0},{"x":13,"y":-6}]},{"id":1119,"x":-47,"y":1805,"visible":true,"properties":[{"name":"layer","type":"int","value":1},{"name":"group","type":"int","value":0},{"name":"id","type":"int","value":226},{"name":"fh_layer","type":"int","value":1},{"name":"fh_group","type":"int","value":0},{"name":"fh_id","type":"int","value":226},{"name":"x1","type":"int","value":-47},{"name":"x2","type":"int","value":-34},{"name":"y1","type":"int","value":1805},{"name":"y2","type":"int","value":1812},{"name":"next","type":"int","value":227},{"name":"prev","type":"int","value":450}],"polyline":[{"x":0,"y":0},{"x":13,"y":7}]},{"id":1120,"x":-34,"y":1812,"visible":true,"properties":[{"name":"layer","type":"int","value":1},{"name":"group","type":"int","value":0},{"name":"id","type":"int","value":227},{"name":"fh_layer","type":"int","value":1},{"name":"fh_group","type":"int","value":0},{"name":"fh_id","type":"int","value":227},{"name":"x1","type":"int","value":-34},{"name":"x2","type":"int","value":-24},{"name":"y1","type":"int","value":1812},{"name":"y2","type":"int","value":1831},{"name":"next","type":"int","value":228},{"name":"prev","type":"int","value":226}],"polyline":[{"x":0,"y":0},{"x":10,"y":19}]},{"id":1121,"x":-24,"y":1831,"visible":true,"properties":[{"name":"layer","type":"int","value":1},{"name":"group","type":"int","value":0},{"name":"id","type":"int","value":228},{"name":"fh_layer","type":"int","value":1},{"name":"fh_group","type":"int","value":0},{"name":"fh_id","type":"int","value":228},{"name":"x1","type":"int","value":-24},{"name":"x2","type":"int","value":0},{"name":"y1","type":"int","value":1831},{"name":"y2","type":"int","value":1850},{"name":"next","type":"int","value":229},{"name":"prev","type":"int","value":227}],"polyline":[{"x":0,"y":0},{"x":24,"y":19}]},{"id":1122,"x":0,"y":1850,"visible":true,"properties":[{"name":"layer","type":"int","value":1},{"name":"group","type":"int","value":0},{"name":"id","type":"int","value":229},{"name":"fh_layer","type":"int","value":1},{"name":"fh_group","type":"int","value":0},{"name":"fh_id","type":"int","value":229},{"name":"x1","type":"int","value":0},{"name":"x2","type":"int","value":22},{"name":"y1","type":"int","value":1850},{"name":"y2","type":"int","value":1846},{"name":"next","type":"int","value":230},{"name":"prev","type":"int","value":228}],"polyline":[{"x":0,"y":0},{"x":22,"y":-4}]},{"id":1123,"x":22,"y":1846,"visible":true,"properties":[{"name":"layer","type":"int","value":1},{"name":"group","type":"int","value":0},{"name":"id","type":"int","value":230},{"name":"fh_layer","type":"int","value":1},{"name":"fh_group","type":"int","value":0},{"name":"fh_id","type":"int","value":230},{"name":"x1","type":"int","value":22},{"name":"x2","type":"int","value":30},{"name":"y1","type":"int","value":1846},{"name":"y2","type":"int","value":1839},{"name":"next","type":"int","value":231},{"name":"prev","type":"int","value":229}],"polyline":[{"x":0,"y":0},{"x":8,"y":-7}]},{"id":1124,"x":30,"y":1839,"visible":true,"properties":[{"name":"layer","type":"int","value":1},{"name":"group","type":"int","value":0},{"name":"id","type":"int","value":231},{"name":"fh_layer","type":"int","value":1},{"name":"fh_group","type":"int","value":0},{"name":"fh_id","type":"int","value":231},{"name":"x1","type":"int","value":30},{"name":"x2","type":"int","value":45},{"name":"y1","type":"int","value":1839},{"name":"y2","type":"int","value":1835},{"name":"next","type":"int","value":232},{"name":"prev","type":"int","value":230}],"polyline":[{"x":0,"y":0},{"x":15,"y":-4}]},{"id":1125,"x":45,"y":1835,"visible":true,"properties":[{"name":"layer","type":"int","value":1},{"name":"group","type":"int","value":0},{"name":"id","type":"int","value":232},{"name":"fh_layer","type":"int","value":1},{"name":"fh_group","type":"int","value":0},{"name":"fh_id","type":"int","value":232},{"name":"x1","type":"int","value":45},{"name":"x2","type":"int","value":52},{"name":"y1","type":"int","value":1835},{"name":"y2","type":"int","value":1836},{"name":"next","type":"int","value":233},{"name":"prev","type":"int","value":231}],"polyline":[{"x":0,"y":0},{"x":7,"y":1}]},{"id":1126,"x":52,"y":1836,"visible":true,"properties":[{"name":"layer","type":"int","value":1},{"name":"group","type":"int","value":0},{"name":"id","type":"int","value":233},{"name":"fh_layer","type":"int","value":1},{"name":"fh_group","type":"int","value":0},{"name":"fh_id","type":"int","value":233},{"name":"x1","type":"int","value":52},{"name":"x2","type":"int","value":73},{"name":"y1","type":"int","value":1836},{"name":"y2","type":"int","value":1849},{"name":"next","type":"int","value":234},{"name":"prev","type":"int","value":232}],"polyline":[{"x":0,"y":0},{"x":21,"y":13}]},{"id":1127,"x":73,"y":1849,"visible":true,"properties":[{"name":"layer","type":"int","value":1},{"name":"group","type":"int","value":0},{"name":"id","type":"int","value":234},{"name":"fh_layer","type":"int","value":1},{"name":"fh_group","type":"int","value":0},{"name":"fh_id","type":"int","value":234},{"name":"x1","type":"int","value":73},{"name":"x2","type":"int","value":90},{"name":"y1","type":"int","value":1849},{"name":"y2","type":"int","value":1850},{"name":"next","type":"int","value":187},{"name":"prev","type":"int","value":233}],"polyline":[{"x":0,"y":0},{"x":17,"y":1}]},{"id":1128,"x":1213,"y":1800,"visible":true,"properties":[{"name":"layer","type":"int","value":1},{"name":"group","type":"int","value":0},{"name":"id","type":"int","value":235},{"name":"fh_layer","type":"int","value":1},{"name":"fh_group","type":"int","value":0},{"name":"fh_id","type":"int","value":235},{"name":"x1","type":"int","value":1213},{"name":"x2","type":"int","value":1213},{"name":"y1","type":"int","value":1800},{"name":"y2","type":"int","value":1865},{"name":"next","type":"int","value":293},{"name":"prev","type":"int","value":489}],"polyline":[{"x":0,"y":0},{"x":0,"y":65}]},{"id":1129,"x":1260,"y":1910,"visible":true,"properties":[{"name":"layer","type":"int","value":1},{"name":"group","type":"int","value":0},{"name":"id","type":"int","value":236},{"name":"fh_layer","type":"int","value":1},{"name":"fh_group","type":"int","value":0},{"name":"fh_id","type":"int","value":236},{"name":"x1","type":"int","value":1260},{"name":"x2","type":"int","value":1282},{"name":"y1","type":"int","value":1910},{"name":"y2","type":"int","value":1906},{"name":"next","type":"int","value":237},{"name":"prev","type":"int","value":295}],"polyline":[{"x":0,"y":0},{"x":22,"y":-4}]},{"id":1130,"x":1282,"y":1906,"visible":true,"properties":[{"name":"layer","type":"int","value":1},{"name":"group","type":"int","value":0},{"name":"id","type":"int","value":237},{"name":"fh_layer","type":"int","value":1},{"name":"fh_group","type":"int","value":0},{"name":"fh_id","type":"int","value":237},{"name":"x1","type":"int","value":1282},{"name":"x2","type":"int","value":1290},{"name":"y1","type":"int","value":1906},{"name":"y2","type":"int","value":1899},{"name":"next","type":"int","value":238},{"name":"prev","type":"int","value":236}],"polyline":[{"x":0,"y":0},{"x":8,"y":-7}]},{"id":1131,"x":1290,"y":1899,"visible":true,"properties":[{"name":"layer","type":"int","value":1},{"name":"group","type":"int","value":0},{"name":"id","type":"int","value":238},{"name":"fh_layer","type":"int","value":1},{"name":"fh_group","type":"int","value":0},{"name":"fh_id","type":"int","value":238},{"name":"x1","type":"int","value":1290},{"name":"x2","type":"int","value":1305},{"name":"y1","type":"int","value":1899},{"name":"y2","type":"int","value":1895},{"name":"next","type":"int","value":239},{"name":"prev","type":"int","value":237}],"polyline":[{"x":0,"y":0},{"x":15,"y":-4}]},{"id":1132,"x":1305,"y":1895,"visible":true,"properties":[{"name":"layer","type":"int","value":1},{"name":"group","type":"int","value":0},{"name":"id","type":"int","value":239},{"name":"fh_layer","type":"int","value":1},{"name":"fh_group","type":"int","value":0},{"name":"fh_id","type":"int","value":239},{"name":"x1","type":"int","value":1305},{"name":"x2","type":"int","value":1312},{"name":"y1","type":"int","value":1895},{"name":"y2","type":"int","value":1896},{"name":"next","type":"int","value":240},{"name":"prev","type":"int","value":238}],"polyline":[{"x":0,"y":0},{"x":7,"y":1}]},{"id":1133,"x":1312,"y":1896,"visible":true,"properties":[{"name":"layer","type":"int","value":1},{"name":"group","type":"int","value":0},{"name":"id","type":"int","value":240},{"name":"fh_layer","type":"int","value":1},{"name":"fh_group","type":"int","value":0},{"name":"fh_id","type":"int","value":240},{"name":"x1","type":"int","value":1312},{"name":"x2","type":"int","value":1333},{"name":"y1","type":"int","value":1896},{"name":"y2","type":"int","value":1909},{"name":"next","type":"int","value":241},{"name":"prev","type":"int","value":239}],"polyline":[{"x":0,"y":0},{"x":21,"y":13}]},{"id":1134,"x":1333,"y":1909,"visible":true,"properties":[{"name":"layer","type":"int","value":1},{"name":"group","type":"int","value":0},{"name":"id","type":"int","value":241},{"name":"fh_layer","type":"int","value":1},{"name":"fh_group","type":"int","value":0},{"name":"fh_id","type":"int","value":241},{"name":"x1","type":"int","value":1333},{"name":"x2","type":"int","value":1350},{"name":"y1","type":"int","value":1909},{"name":"y2","type":"int","value":1910},{"name":"next","type":"int","value":296},{"name":"prev","type":"int","value":240}],"polyline":[{"x":0,"y":0},{"x":17,"y":1}]},{"id":1135,"x":677,"y":1866,"visible":true,"properties":[{"name":"layer","type":"int","value":1},{"name":"group","type":"int","value":0},{"name":"id","type":"int","value":242},{"name":"fh_layer","type":"int","value":1},{"name":"fh_group","type":"int","value":0},{"name":"fh_id","type":"int","value":242},{"name":"x1","type":"int","value":677},{"name":"x2","type":"int","value":677},{"name":"y1","type":"int","value":1866},{"name":"y2","type":"int","value":1850},{"name":"next","type":"int","value":486},{"name":"prev","type":"int","value":225}],"polyline":[{"x":0,"y":0},{"x":0,"y":-16}]},{"id":1136,"x":677,"y":1800,"visible":true,"properties":[{"name":"layer","type":"int","value":1},{"name":"group","type":"int","value":0},{"name":"id","type":"int","value":243},{"name":"fh_layer","type":"int","value":1},{"name":"fh_group","type":"int","value":0},{"name":"fh_id","type":"int","value":243},{"name":"x1","type":"int","value":677},{"name":"x2","type":"int","value":677},{"name":"y1","type":"int","value":1800},{"name":"y2","type":"int","value":1740},{"name":"next","type":"int","value":244},{"name":"prev","type":"int","value":486}],"polyline":[{"x":0,"y":0},{"x":0,"y":-60}]},{"id":1137,"x":677,"y":1740,"visible":true,"properties":[{"name":"layer","type":"int","value":1},{"name":"group","type":"int","value":0},{"name":"id","type":"int","value":244},{"name":"fh_layer","type":"int","value":1},{"name":"fh_group","type":"int","value":0},{"name":"fh_id","type":"int","value":244},{"name":"x1","type":"int","value":677},{"name":"x2","type":"int","value":677},{"name":"y1","type":"int","value":1740},{"name":"y2","type":"int","value":1680},{"name":"next","type":"int","value":245},{"name":"prev","type":"int","value":243}],"polyline":[{"x":0,"y":0},{"x":0,"y":-60}]},{"id":1138,"x":677,"y":1680,"visible":true,"properties":[{"name":"layer","type":"int","value":1},{"name":"group","type":"int","value":0},{"name":"id","type":"int","value":245},{"name":"fh_layer","type":"int","value":1},{"name":"fh_group","type":"int","value":0},{"name":"fh_id","type":"int","value":245},{"name":"x1","type":"int","value":677},{"name":"x2","type":"int","value":677},{"name":"y1","type":"int","value":1680},{"name":"y2","type":"int","value":1620},{"name":"next","type":"int","value":248},{"name":"prev","type":"int","value":244}],"polyline":[{"x":0,"y":0},{"x":0,"y":-60}]},{"id":1139,"x":677,"y":1508,"visible":true,"properties":[{"name":"layer","type":"int","value":1},{"name":"group","type":"int","value":0},{"name":"id","type":"int","value":246},{"name":"fh_layer","type":"int","value":1},{"name":"fh_group","type":"int","value":0},{"name":"fh_id","type":"int","value":246},{"name":"x1","type":"int","value":677},{"name":"x2","type":"int","value":677},{"name":"y1","type":"int","value":1508},{"name":"y2","type":"int","value":1440},{"name":"next","type":"int","value":254},{"name":"prev","type":"int","value":247}],"polyline":[{"x":0,"y":0},{"x":0,"y":-68}]},{"id":1140,"x":677,"y":1568,"visible":true,"properties":[{"name":"layer","type":"int","value":1},{"name":"group","type":"int","value":0},{"name":"id","type":"int","value":247},{"name":"fh_layer","type":"int","value":1},{"name":"fh_group","type":"int","value":0},{"name":"fh_id","type":"int","value":247},{"name":"x1","type":"int","value":677},{"name":"x2","type":"int","value":677},{"name":"y1","type":"int","value":1568},{"name":"y2","type":"int","value":1508},{"name":"next","type":"int","value":246},{"name":"prev","type":"int","value":471}],"polyline":[{"x":0,"y":0},{"x":0,"y":-60}]},{"id":1141,"x":677,"y":1620,"visible":true,"properties":[{"name":"layer","type":"int","value":1},{"name":"group","type":"int","value":0},{"name":"id","type":"int","value":248},{"name":"fh_layer","type":"int","value":1},{"name":"fh_group","type":"int","value":0},{"name":"fh_id","type":"int","value":248},{"name":"x1","type":"int","value":677},{"name":"x2","type":"int","value":677},{"name":"y1","type":"int","value":1620},{"name":"y2","type":"int","value":1580},{"name":"next","type":"int","value":471},{"name":"prev","type":"int","value":245}],"polyline":[{"x":0,"y":0},{"x":0,"y":-40}]},{"id":1142,"x":720,"y":1250,"visible":true,"properties":[{"name":"layer","type":"int","value":1},{"name":"group","type":"int","value":0},{"name":"id","type":"int","value":249},{"name":"fh_layer","type":"int","value":1},{"name":"fh_group","type":"int","value":0},{"name":"fh_id","type":"int","value":249},{"name":"x1","type":"int","value":720},{"name":"x2","type":"int","value":744},{"name":"y1","type":"int","value":1250},{"name":"y2","type":"int","value":1231},{"name":"next","type":"int","value":250},{"name":"prev","type":"int","value":256}],"polyline":[{"x":0,"y":0},{"x":24,"y":-19}]},{"id":1143,"x":744,"y":1231,"visible":true,"properties":[{"name":"layer","type":"int","value":1},{"name":"group","type":"int","value":0},{"name":"id","type":"int","value":250},{"name":"fh_layer","type":"int","value":1},{"name":"fh_group","type":"int","value":0},{"name":"fh_id","type":"int","value":250},{"name":"x1","type":"int","value":744},{"name":"x2","type":"int","value":754},{"name":"y1","type":"int","value":1231},{"name":"y2","type":"int","value":1212},{"name":"next","type":"int","value":251},{"name":"prev","type":"int","value":249}],"polyline":[{"x":0,"y":0},{"x":10,"y":-19}]},{"id":1144,"x":754,"y":1212,"visible":true,"properties":[{"name":"layer","type":"int","value":1},{"name":"group","type":"int","value":0},{"name":"id","type":"int","value":251},{"name":"fh_layer","type":"int","value":1},{"name":"fh_group","type":"int","value":0},{"name":"fh_id","type":"int","value":251},{"name":"x1","type":"int","value":754},{"name":"x2","type":"int","value":775},{"name":"y1","type":"int","value":1212},{"name":"y2","type":"int","value":1201},{"name":"next","type":"int","value":252},{"name":"prev","type":"int","value":250}],"polyline":[{"x":0,"y":0},{"x":21,"y":-11}]},{"id":1145,"x":775,"y":1201,"visible":true,"properties":[{"name":"layer","type":"int","value":1},{"name":"group","type":"int","value":0},{"name":"id","type":"int","value":252},{"name":"fh_layer","type":"int","value":1},{"name":"fh_group","type":"int","value":0},{"name":"fh_id","type":"int","value":252},{"name":"x1","type":"int","value":775},{"name":"x2","type":"int","value":790},{"name":"y1","type":"int","value":1201},{"name":"y2","type":"int","value":1191},{"name":"next","type":"int","value":253},{"name":"prev","type":"int","value":251}],"polyline":[{"x":0,"y":0},{"x":15,"y":-10}]},{"id":1146,"x":790,"y":1191,"visible":true,"properties":[{"name":"layer","type":"int","value":1},{"name":"group","type":"int","value":0},{"name":"id","type":"int","value":253},{"name":"fh_layer","type":"int","value":1},{"name":"fh_group","type":"int","value":0},{"name":"fh_id","type":"int","value":253},{"name":"x1","type":"int","value":790},{"name":"x2","type":"int","value":810},{"name":"y1","type":"int","value":1191},{"name":"y2","type":"int","value":1190},{"name":"next","type":"int","value":259},{"name":"prev","type":"int","value":252}],"polyline":[{"x":0,"y":0},{"x":20,"y":-1}]},{"id":1147,"x":677,"y":1440,"visible":true,"properties":[{"name":"layer","type":"int","value":1},{"name":"group","type":"int","value":0},{"name":"id","type":"int","value":254},{"name":"fh_layer","type":"int","value":1},{"name":"fh_group","type":"int","value":0},{"name":"fh_id","type":"int","value":254},{"name":"x1","type":"int","value":677},{"name":"x2","type":"int","value":677},{"name":"y1","type":"int","value":1440},{"name":"y2","type":"int","value":1380},{"name":"next","type":"int","value":258},{"name":"prev","type":"int","value":246}],"polyline":[{"x":0,"y":0},{"x":0,"y":-60}]},{"id":1148,"x":677,"y":1260,"visible":true,"properties":[{"name":"layer","type":"int","value":1},{"name":"group","type":"int","value":0},{"name":"id","type":"int","value":255},{"name":"fh_layer","type":"int","value":1},{"name":"fh_group","type":"int","value":0},{"name":"fh_id","type":"int","value":255},{"name":"x1","type":"int","value":677},{"name":"x2","type":"int","value":677},{"name":"y1","type":"int","value":1260},{"name":"y2","type":"int","value":1250},{"name":"next","type":"int","value":256},{"name":"prev","type":"int","value":257}],"polyline":[{"x":0,"y":0},{"x":0,"y":-10}]},{"id":1149,"x":677,"y":1250,"visible":true,"properties":[{"name":"layer","type":"int","value":1},{"name":"group","type":"int","value":0},{"name":"id","type":"int","value":256},{"name":"fh_layer","type":"int","value":1},{"name":"fh_group","type":"int","value":0},{"name":"fh_id","type":"int","value":256},{"name":"x1","type":"int","value":677},{"name":"x2","type":"int","value":720},{"name":"y1","type":"int","value":1250},{"name":"y2","type":"int","value":1250},{"name":"next","type":"int","value":249},{"name":"prev","type":"int","value":427}],"polyline":[{"x":0,"y":0},{"x":43,"y":0}]},{"id":1150,"x":677,"y":1328,"visible":true,"properties":[{"name":"layer","type":"int","value":1},{"name":"group","type":"int","value":0},{"name":"id","type":"int","value":257},{"name":"fh_layer","type":"int","value":1},{"name":"fh_group","type":"int","value":0},{"name":"fh_id","type":"int","value":257},{"name":"x1","type":"int","value":677},{"name":"x2","type":"int","value":677},{"name":"y1","type":"int","value":1328},{"name":"y2","type":"int","value":1260},{"name":"next","type":"int","value":255},{"name":"prev","type":"int","value":258}],"polyline":[{"x":0,"y":0},{"x":0,"y":-68}]},{"id":1151,"x":677,"y":1380,"visible":true,"properties":[{"name":"layer","type":"int","value":1},{"name":"group","type":"int","value":0},{"name":"id","type":"int","value":258},{"name":"fh_layer","type":"int","value":1},{"name":"fh_group","type":"int","value":0},{"name":"fh_id","type":"int","value":258},{"name":"x1","type":"int","value":677},{"name":"x2","type":"int","value":677},{"name":"y1","type":"int","value":1380},{"name":"y2","type":"int","value":1328},{"name":"next","type":"int","value":257},{"name":"prev","type":"int","value":254}],"polyline":[{"x":0,"y":0},{"x":0,"y":-52}]},{"id":1152,"x":810,"y":1190,"visible":true,"properties":[{"name":"layer","type":"int","value":1},{"name":"group","type":"int","value":0},{"name":"id","type":"int","value":259},{"name":"fh_layer","type":"int","value":1},{"name":"fh_group","type":"int","value":0},{"name":"fh_id","type":"int","value":259},{"name":"x1","type":"int","value":810},{"name":"x2","type":"int","value":832},{"name":"y1","type":"int","value":1190},{"name":"y2","type":"int","value":1186},{"name":"next","type":"int","value":260},{"name":"prev","type":"int","value":253}],"polyline":[{"x":0,"y":0},{"x":22,"y":-4}]},{"id":1153,"x":832,"y":1186,"visible":true,"properties":[{"name":"layer","type":"int","value":1},{"name":"group","type":"int","value":0},{"name":"id","type":"int","value":260},{"name":"fh_layer","type":"int","value":1},{"name":"fh_group","type":"int","value":0},{"name":"fh_id","type":"int","value":260},{"name":"x1","type":"int","value":832},{"name":"x2","type":"int","value":840},{"name":"y1","type":"int","value":1186},{"name":"y2","type":"int","value":1179},{"name":"next","type":"int","value":261},{"name":"prev","type":"int","value":259}],"polyline":[{"x":0,"y":0},{"x":8,"y":-7}]},{"id":1154,"x":840,"y":1179,"visible":true,"properties":[{"name":"layer","type":"int","value":1},{"name":"group","type":"int","value":0},{"name":"id","type":"int","value":261},{"name":"fh_layer","type":"int","value":1},{"name":"fh_group","type":"int","value":0},{"name":"fh_id","type":"int","value":261},{"name":"x1","type":"int","value":840},{"name":"x2","type":"int","value":855},{"name":"y1","type":"int","value":1179},{"name":"y2","type":"int","value":1175},{"name":"next","type":"int","value":262},{"name":"prev","type":"int","value":260}],"polyline":[{"x":0,"y":0},{"x":15,"y":-4}]},{"id":1155,"x":855,"y":1175,"visible":true,"properties":[{"name":"layer","type":"int","value":1},{"name":"group","type":"int","value":0},{"name":"id","type":"int","value":262},{"name":"fh_layer","type":"int","value":1},{"name":"fh_group","type":"int","value":0},{"name":"fh_id","type":"int","value":262},{"name":"x1","type":"int","value":855},{"name":"x2","type":"int","value":862},{"name":"y1","type":"int","value":1175},{"name":"y2","type":"int","value":1176},{"name":"next","type":"int","value":263},{"name":"prev","type":"int","value":261}],"polyline":[{"x":0,"y":0},{"x":7,"y":1}]},{"id":1156,"x":862,"y":1176,"visible":true,"properties":[{"name":"layer","type":"int","value":1},{"name":"group","type":"int","value":0},{"name":"id","type":"int","value":263},{"name":"fh_layer","type":"int","value":1},{"name":"fh_group","type":"int","value":0},{"name":"fh_id","type":"int","value":263},{"name":"x1","type":"int","value":862},{"name":"x2","type":"int","value":883},{"name":"y1","type":"int","value":1176},{"name":"y2","type":"int","value":1189},{"name":"next","type":"int","value":264},{"name":"prev","type":"int","value":262}],"polyline":[{"x":0,"y":0},{"x":21,"y":13}]},{"id":1157,"x":883,"y":1189,"visible":true,"properties":[{"name":"layer","type":"int","value":1},{"name":"group","type":"int","value":0},{"name":"id","type":"int","value":264},{"name":"fh_layer","type":"int","value":1},{"name":"fh_group","type":"int","value":0},{"name":"fh_id","type":"int","value":264},{"name":"x1","type":"int","value":883},{"name":"x2","type":"int","value":900},{"name":"y1","type":"int","value":1189},{"name":"y2","type":"int","value":1190},{"name":"next","type":"int","value":271},{"name":"prev","type":"int","value":263}],"polyline":[{"x":0,"y":0},{"x":17,"y":1}]},{"id":1158,"x":990,"y":1190,"visible":true,"properties":[{"name":"layer","type":"int","value":1},{"name":"group","type":"int","value":0},{"name":"id","type":"int","value":265},{"name":"fh_layer","type":"int","value":1},{"name":"fh_group","type":"int","value":0},{"name":"fh_id","type":"int","value":265},{"name":"x1","type":"int","value":990},{"name":"x2","type":"int","value":1012},{"name":"y1","type":"int","value":1190},{"name":"y2","type":"int","value":1186},{"name":"next","type":"int","value":266},{"name":"prev","type":"int","value":276}],"polyline":[{"x":0,"y":0},{"x":22,"y":-4}]},{"id":1159,"x":1012,"y":1186,"visible":true,"properties":[{"name":"layer","type":"int","value":1},{"name":"group","type":"int","value":0},{"name":"id","type":"int","value":266},{"name":"fh_layer","type":"int","value":1},{"name":"fh_group","type":"int","value":0},{"name":"fh_id","type":"int","value":266},{"name":"x1","type":"int","value":1012},{"name":"x2","type":"int","value":1020},{"name":"y1","type":"int","value":1186},{"name":"y2","type":"int","value":1179},{"name":"next","type":"int","value":267},{"name":"prev","type":"int","value":265}],"polyline":[{"x":0,"y":0},{"x":8,"y":-7}]},{"id":1160,"x":1020,"y":1179,"visible":true,"properties":[{"name":"layer","type":"int","value":1},{"name":"group","type":"int","value":0},{"name":"id","type":"int","value":267},{"name":"fh_layer","type":"int","value":1},{"name":"fh_group","type":"int","value":0},{"name":"fh_id","type":"int","value":267},{"name":"x1","type":"int","value":1020},{"name":"x2","type":"int","value":1035},{"name":"y1","type":"int","value":1179},{"name":"y2","type":"int","value":1175},{"name":"next","type":"int","value":268},{"name":"prev","type":"int","value":266}],"polyline":[{"x":0,"y":0},{"x":15,"y":-4}]},{"id":1161,"x":1035,"y":1175,"visible":true,"properties":[{"name":"layer","type":"int","value":1},{"name":"group","type":"int","value":0},{"name":"id","type":"int","value":268},{"name":"fh_layer","type":"int","value":1},{"name":"fh_group","type":"int","value":0},{"name":"fh_id","type":"int","value":268},{"name":"x1","type":"int","value":1035},{"name":"x2","type":"int","value":1042},{"name":"y1","type":"int","value":1175},{"name":"y2","type":"int","value":1176},{"name":"next","type":"int","value":269},{"name":"prev","type":"int","value":267}],"polyline":[{"x":0,"y":0},{"x":7,"y":1}]},{"id":1162,"x":1042,"y":1176,"visible":true,"properties":[{"name":"layer","type":"int","value":1},{"name":"group","type":"int","value":0},{"name":"id","type":"int","value":269},{"name":"fh_layer","type":"int","value":1},{"name":"fh_group","type":"int","value":0},{"name":"fh_id","type":"int","value":269},{"name":"x1","type":"int","value":1042},{"name":"x2","type":"int","value":1063},{"name":"y1","type":"int","value":1176},{"name":"y2","type":"int","value":1189},{"name":"next","type":"int","value":270},{"name":"prev","type":"int","value":268}],"polyline":[{"x":0,"y":0},{"x":21,"y":13}]},{"id":1163,"x":1063,"y":1189,"visible":true,"properties":[{"name":"layer","type":"int","value":1},{"name":"group","type":"int","value":0},{"name":"id","type":"int","value":270},{"name":"fh_layer","type":"int","value":1},{"name":"fh_group","type":"int","value":0},{"name":"fh_id","type":"int","value":270},{"name":"x1","type":"int","value":1063},{"name":"x2","type":"int","value":1080},{"name":"y1","type":"int","value":1189},{"name":"y2","type":"int","value":1190},{"name":"next","type":"int","value":279},{"name":"prev","type":"int","value":269}],"polyline":[{"x":0,"y":0},{"x":17,"y":1}]},{"id":1164,"x":900,"y":1190,"visible":true,"properties":[{"name":"layer","type":"int","value":1},{"name":"group","type":"int","value":0},{"name":"id","type":"int","value":271},{"name":"fh_layer","type":"int","value":1},{"name":"fh_group","type":"int","value":0},{"name":"fh_id","type":"int","value":271},{"name":"x1","type":"int","value":900},{"name":"x2","type":"int","value":922},{"name":"y1","type":"int","value":1190},{"name":"y2","type":"int","value":1186},{"name":"next","type":"int","value":272},{"name":"prev","type":"int","value":264}],"polyline":[{"x":0,"y":0},{"x":22,"y":-4}]},{"id":1165,"x":922,"y":1186,"visible":true,"properties":[{"name":"layer","type":"int","value":1},{"name":"group","type":"int","value":0},{"name":"id","type":"int","value":272},{"name":"fh_layer","type":"int","value":1},{"name":"fh_group","type":"int","value":0},{"name":"fh_id","type":"int","value":272},{"name":"x1","type":"int","value":922},{"name":"x2","type":"int","value":930},{"name":"y1","type":"int","value":1186},{"name":"y2","type":"int","value":1179},{"name":"next","type":"int","value":273},{"name":"prev","type":"int","value":271}],"polyline":[{"x":0,"y":0},{"x":8,"y":-7}]},{"id":1166,"x":930,"y":1179,"visible":true,"properties":[{"name":"layer","type":"int","value":1},{"name":"group","type":"int","value":0},{"name":"id","type":"int","value":273},{"name":"fh_layer","type":"int","value":1},{"name":"fh_group","type":"int","value":0},{"name":"fh_id","type":"int","value":273},{"name":"x1","type":"int","value":930},{"name":"x2","type":"int","value":945},{"name":"y1","type":"int","value":1179},{"name":"y2","type":"int","value":1175},{"name":"next","type":"int","value":274},{"name":"prev","type":"int","value":272}],"polyline":[{"x":0,"y":0},{"x":15,"y":-4}]},{"id":1167,"x":945,"y":1175,"visible":true,"properties":[{"name":"layer","type":"int","value":1},{"name":"group","type":"int","value":0},{"name":"id","type":"int","value":274},{"name":"fh_layer","type":"int","value":1},{"name":"fh_group","type":"int","value":0},{"name":"fh_id","type":"int","value":274},{"name":"x1","type":"int","value":945},{"name":"x2","type":"int","value":952},{"name":"y1","type":"int","value":1175},{"name":"y2","type":"int","value":1176},{"name":"next","type":"int","value":275},{"name":"prev","type":"int","value":273}],"polyline":[{"x":0,"y":0},{"x":7,"y":1}]},{"id":1168,"x":952,"y":1176,"visible":true,"properties":[{"name":"layer","type":"int","value":1},{"name":"group","type":"int","value":0},{"name":"id","type":"int","value":275},{"name":"fh_layer","type":"int","value":1},{"name":"fh_group","type":"int","value":0},{"name":"fh_id","type":"int","value":275},{"name":"x1","type":"int","value":952},{"name":"x2","type":"int","value":973},{"name":"y1","type":"int","value":1176},{"name":"y2","type":"int","value":1189},{"name":"next","type":"int","value":276},{"name":"prev","type":"int","value":274}],"polyline":[{"x":0,"y":0},{"x":21,"y":13}]},{"id":1169,"x":973,"y":1189,"visible":true,"properties":[{"name":"layer","type":"int","value":1},{"name":"group","type":"int","value":0},{"name":"id","type":"int","value":276},{"name":"fh_layer","type":"int","value":1},{"name":"fh_group","type":"int","value":0},{"name":"fh_id","type":"int","value":276},{"name":"x1","type":"int","value":973},{"name":"x2","type":"int","value":990},{"name":"y1","type":"int","value":1189},{"name":"y2","type":"int","value":1190},{"name":"next","type":"int","value":265},{"name":"prev","type":"int","value":275}],"polyline":[{"x":0,"y":0},{"x":17,"y":1}]},{"id":1170,"x":1213,"y":1250,"visible":true,"properties":[{"name":"layer","type":"int","value":1},{"name":"group","type":"int","value":0},{"name":"id","type":"int","value":277},{"name":"fh_layer","type":"int","value":1},{"name":"fh_group","type":"int","value":0},{"name":"fh_id","type":"int","value":277},{"name":"x1","type":"int","value":1213},{"name":"x2","type":"int","value":1213},{"name":"y1","type":"int","value":1250},{"name":"y2","type":"int","value":1260},{"name":"next","type":"int","value":278},{"name":"prev","type":"int","value":487}],"polyline":[{"x":0,"y":0},{"x":0,"y":10}]},{"id":1171,"x":1213,"y":1260,"visible":true,"properties":[{"name":"layer","type":"int","value":1},{"name":"group","type":"int","value":0},{"name":"id","type":"int","value":278},{"name":"fh_layer","type":"int","value":1},{"name":"fh_group","type":"int","value":0},{"name":"fh_id","type":"int","value":278},{"name":"x1","type":"int","value":1213},{"name":"x2","type":"int","value":1213},{"name":"y1","type":"int","value":1260},{"name":"y2","type":"int","value":1328},{"name":"next","type":"int","value":285},{"name":"prev","type":"int","value":277}],"polyline":[{"x":0,"y":0},{"x":0,"y":68}]},{"id":1172,"x":1080,"y":1190,"visible":true,"properties":[{"name":"layer","type":"int","value":1},{"name":"group","type":"int","value":0},{"name":"id","type":"int","value":279},{"name":"fh_layer","type":"int","value":1},{"name":"fh_group","type":"int","value":0},{"name":"fh_id","type":"int","value":279},{"name":"x1","type":"int","value":1080},{"name":"x2","type":"int","value":1100},{"name":"y1","type":"int","value":1190},{"name":"y2","type":"int","value":1191},{"name":"next","type":"int","value":280},{"name":"prev","type":"int","value":270}],"polyline":[{"x":0,"y":0},{"x":20,"y":1}]},{"id":1173,"x":1100,"y":1191,"visible":true,"properties":[{"name":"layer","type":"int","value":1},{"name":"group","type":"int","value":0},{"name":"id","type":"int","value":280},{"name":"fh_layer","type":"int","value":1},{"name":"fh_group","type":"int","value":0},{"name":"fh_id","type":"int","value":280},{"name":"x1","type":"int","value":1100},{"name":"x2","type":"int","value":1115},{"name":"y1","type":"int","value":1191},{"name":"y2","type":"int","value":1201},{"name":"next","type":"int","value":281},{"name":"prev","type":"int","value":279}],"polyline":[{"x":0,"y":0},{"x":15,"y":10}]},{"id":1174,"x":1115,"y":1201,"visible":true,"properties":[{"name":"layer","type":"int","value":1},{"name":"group","type":"int","value":0},{"name":"id","type":"int","value":281},{"name":"fh_layer","type":"int","value":1},{"name":"fh_group","type":"int","value":0},{"name":"fh_id","type":"int","value":281},{"name":"x1","type":"int","value":1115},{"name":"x2","type":"int","value":1136},{"name":"y1","type":"int","value":1201},{"name":"y2","type":"int","value":1212},{"name":"next","type":"int","value":282},{"name":"prev","type":"int","value":280}],"polyline":[{"x":0,"y":0},{"x":21,"y":11}]},{"id":1175,"x":1136,"y":1212,"visible":true,"properties":[{"name":"layer","type":"int","value":1},{"name":"group","type":"int","value":0},{"name":"id","type":"int","value":282},{"name":"fh_layer","type":"int","value":1},{"name":"fh_group","type":"int","value":0},{"name":"fh_id","type":"int","value":282},{"name":"x1","type":"int","value":1136},{"name":"x2","type":"int","value":1146},{"name":"y1","type":"int","value":1212},{"name":"y2","type":"int","value":1231},{"name":"next","type":"int","value":283},{"name":"prev","type":"int","value":281}],"polyline":[{"x":0,"y":0},{"x":10,"y":19}]},{"id":1176,"x":1146,"y":1231,"visible":true,"properties":[{"name":"layer","type":"int","value":1},{"name":"group","type":"int","value":0},{"name":"id","type":"int","value":283},{"name":"fh_layer","type":"int","value":1},{"name":"fh_group","type":"int","value":0},{"name":"fh_id","type":"int","value":283},{"name":"x1","type":"int","value":1146},{"name":"x2","type":"int","value":1170},{"name":"y1","type":"int","value":1231},{"name":"y2","type":"int","value":1250},{"name":"next","type":"int","value":284},{"name":"prev","type":"int","value":282}],"polyline":[{"x":0,"y":0},{"x":24,"y":19}]},{"id":1177,"x":1170,"y":1250,"visible":true,"properties":[{"name":"layer","type":"int","value":1},{"name":"group","type":"int","value":0},{"name":"id","type":"int","value":284},{"name":"fh_layer","type":"int","value":1},{"name":"fh_group","type":"int","value":0},{"name":"fh_id","type":"int","value":284},{"name":"x1","type":"int","value":1170},{"name":"x2","type":"int","value":1211},{"name":"y1","type":"int","value":1250},{"name":"y2","type":"int","value":1250},{"name":"next","type":"int","value":788},{"name":"prev","type":"int","value":283}],"polyline":[{"x":0,"y":0},{"x":41,"y":0}]},{"id":1178,"x":1213,"y":1328,"visible":true,"properties":[{"name":"layer","type":"int","value":1},{"name":"group","type":"int","value":0},{"name":"id","type":"int","value":285},{"name":"fh_layer","type":"int","value":1},{"name":"fh_group","type":"int","value":0},{"name":"fh_id","type":"int","value":285},{"name":"x1","type":"int","value":1213},{"name":"x2","type":"int","value":1213},{"name":"y1","type":"int","value":1328},{"name":"y2","type":"int","value":1388},{"name":"next","type":"int","value":286},{"name":"prev","type":"int","value":278}],"polyline":[{"x":0,"y":0},{"x":0,"y":60}]},{"id":1179,"x":1213,"y":1388,"visible":true,"properties":[{"name":"layer","type":"int","value":1},{"name":"group","type":"int","value":0},{"name":"id","type":"int","value":286},{"name":"fh_layer","type":"int","value":1},{"name":"fh_group","type":"int","value":0},{"name":"fh_id","type":"int","value":286},{"name":"x1","type":"int","value":1213},{"name":"x2","type":"int","value":1213},{"name":"y1","type":"int","value":1388},{"name":"y2","type":"int","value":1448},{"name":"next","type":"int","value":291},{"name":"prev","type":"int","value":285}],"polyline":[{"x":0,"y":0},{"x":0,"y":60}]},{"id":1180,"x":1213,"y":1560,"visible":true,"properties":[{"name":"layer","type":"int","value":1},{"name":"group","type":"int","value":0},{"name":"id","type":"int","value":287},{"name":"fh_layer","type":"int","value":1},{"name":"fh_group","type":"int","value":0},{"name":"fh_id","type":"int","value":287},{"name":"x1","type":"int","value":1213},{"name":"x2","type":"int","value":1213},{"name":"y1","type":"int","value":1560},{"name":"y2","type":"int","value":1583},{"name":"next","type":"int","value":822},{"name":"prev","type":"int","value":292}],"polyline":[{"x":0,"y":0},{"x":0,"y":23}]},{"id":1181,"x":1213,"y":1628,"visible":true,"properties":[{"name":"layer","type":"int","value":1},{"name":"group","type":"int","value":0},{"name":"id","type":"int","value":288},{"name":"fh_layer","type":"int","value":1},{"name":"fh_group","type":"int","value":0},{"name":"fh_id","type":"int","value":288},{"name":"x1","type":"int","value":1213},{"name":"x2","type":"int","value":1213},{"name":"y1","type":"int","value":1628},{"name":"y2","type":"int","value":1688},{"name":"next","type":"int","value":289},{"name":"prev","type":"int","value":488}],"polyline":[{"x":0,"y":0},{"x":0,"y":60}]},{"id":1182,"x":1213,"y":1688,"visible":true,"properties":[{"name":"layer","type":"int","value":1},{"name":"group","type":"int","value":0},{"name":"id","type":"int","value":289},{"name":"fh_layer","type":"int","value":1},{"name":"fh_group","type":"int","value":0},{"name":"fh_id","type":"int","value":289},{"name":"x1","type":"int","value":1213},{"name":"x2","type":"int","value":1213},{"name":"y1","type":"int","value":1688},{"name":"y2","type":"int","value":1748},{"name":"next","type":"int","value":290},{"name":"prev","type":"int","value":288}],"polyline":[{"x":0,"y":0},{"x":0,"y":60}]},{"id":1183,"x":1213,"y":1748,"visible":true,"properties":[{"name":"layer","type":"int","value":1},{"name":"group","type":"int","value":0},{"name":"id","type":"int","value":290},{"name":"fh_layer","type":"int","value":1},{"name":"fh_group","type":"int","value":0},{"name":"fh_id","type":"int","value":290},{"name":"x1","type":"int","value":1213},{"name":"x2","type":"int","value":1213},{"name":"y1","type":"int","value":1748},{"name":"y2","type":"int","value":1783},{"name":"next","type":"int","value":490},{"name":"prev","type":"int","value":289}],"polyline":[{"x":0,"y":0},{"x":0,"y":35}]},{"id":1184,"x":1213,"y":1448,"visible":true,"properties":[{"name":"layer","type":"int","value":1},{"name":"group","type":"int","value":0},{"name":"id","type":"int","value":291},{"name":"fh_layer","type":"int","value":1},{"name":"fh_group","type":"int","value":0},{"name":"fh_id","type":"int","value":291},{"name":"x1","type":"int","value":1213},{"name":"x2","type":"int","value":1213},{"name":"y1","type":"int","value":1448},{"name":"y2","type":"int","value":1508},{"name":"next","type":"int","value":292},{"name":"prev","type":"int","value":286}],"polyline":[{"x":0,"y":0},{"x":0,"y":60}]},{"id":1185,"x":1213,"y":1508,"visible":true,"properties":[{"name":"layer","type":"int","value":1},{"name":"group","type":"int","value":0},{"name":"id","type":"int","value":292},{"name":"fh_layer","type":"int","value":1},{"name":"fh_group","type":"int","value":0},{"name":"fh_id","type":"int","value":292},{"name":"x1","type":"int","value":1213},{"name":"x2","type":"int","value":1213},{"name":"y1","type":"int","value":1508},{"name":"y2","type":"int","value":1560},{"name":"next","type":"int","value":287},{"name":"prev","type":"int","value":291}],"polyline":[{"x":0,"y":0},{"x":0,"y":52}]},{"id":1186,"x":1213,"y":1865,"visible":true,"properties":[{"name":"layer","type":"int","value":1},{"name":"group","type":"int","value":0},{"name":"id","type":"int","value":293},{"name":"fh_layer","type":"int","value":1},{"name":"fh_group","type":"int","value":0},{"name":"fh_id","type":"int","value":293},{"name":"x1","type":"int","value":1213},{"name":"x2","type":"int","value":1226},{"name":"y1","type":"int","value":1865},{"name":"y2","type":"int","value":1872},{"name":"next","type":"int","value":294},{"name":"prev","type":"int","value":235}],"polyline":[{"x":0,"y":0},{"x":13,"y":7}]},{"id":1187,"x":1226,"y":1872,"visible":true,"properties":[{"name":"layer","type":"int","value":1},{"name":"group","type":"int","value":0},{"name":"id","type":"int","value":294},{"name":"fh_layer","type":"int","value":1},{"name":"fh_group","type":"int","value":0},{"name":"fh_id","type":"int","value":294},{"name":"x1","type":"int","value":1226},{"name":"x2","type":"int","value":1236},{"name":"y1","type":"int","value":1872},{"name":"y2","type":"int","value":1891},{"name":"next","type":"int","value":295},{"name":"prev","type":"int","value":293}],"polyline":[{"x":0,"y":0},{"x":10,"y":19}]},{"id":1188,"x":1236,"y":1891,"visible":true,"properties":[{"name":"layer","type":"int","value":1},{"name":"group","type":"int","value":0},{"name":"id","type":"int","value":295},{"name":"fh_layer","type":"int","value":1},{"name":"fh_group","type":"int","value":0},{"name":"fh_id","type":"int","value":295},{"name":"x1","type":"int","value":1236},{"name":"x2","type":"int","value":1260},{"name":"y1","type":"int","value":1891},{"name":"y2","type":"int","value":1910},{"name":"next","type":"int","value":236},{"name":"prev","type":"int","value":294}],"polyline":[{"x":0,"y":0},{"x":24,"y":19}]},{"id":1189,"x":1350,"y":1910,"visible":true,"properties":[{"name":"layer","type":"int","value":1},{"name":"group","type":"int","value":0},{"name":"id","type":"int","value":296},{"name":"fh_layer","type":"int","value":1},{"name":"fh_group","type":"int","value":0},{"name":"fh_id","type":"int","value":296},{"name":"x1","type":"int","value":1350},{"name":"x2","type":"int","value":1372},{"name":"y1","type":"int","value":1910},{"name":"y2","type":"int","value":1906},{"name":"next","type":"int","value":297},{"name":"prev","type":"int","value":241}],"polyline":[{"x":0,"y":0},{"x":22,"y":-4}]},{"id":1190,"x":1372,"y":1906,"visible":true,"properties":[{"name":"layer","type":"int","value":1},{"name":"group","type":"int","value":0},{"name":"id","type":"int","value":297},{"name":"fh_layer","type":"int","value":1},{"name":"fh_group","type":"int","value":0},{"name":"fh_id","type":"int","value":297},{"name":"x1","type":"int","value":1372},{"name":"x2","type":"int","value":1380},{"name":"y1","type":"int","value":1906},{"name":"y2","type":"int","value":1899},{"name":"next","type":"int","value":298},{"name":"prev","type":"int","value":296}],"polyline":[{"x":0,"y":0},{"x":8,"y":-7}]},{"id":1191,"x":1380,"y":1899,"visible":true,"properties":[{"name":"layer","type":"int","value":1},{"name":"group","type":"int","value":0},{"name":"id","type":"int","value":298},{"name":"fh_layer","type":"int","value":1},{"name":"fh_group","type":"int","value":0},{"name":"fh_id","type":"int","value":298},{"name":"x1","type":"int","value":1380},{"name":"x2","type":"int","value":1395},{"name":"y1","type":"int","value":1899},{"name":"y2","type":"int","value":1895},{"name":"next","type":"int","value":299},{"name":"prev","type":"int","value":297}],"polyline":[{"x":0,"y":0},{"x":15,"y":-4}]},{"id":1192,"x":1395,"y":1895,"visible":true,"properties":[{"name":"layer","type":"int","value":1},{"name":"group","type":"int","value":0},{"name":"id","type":"int","value":299},{"name":"fh_layer","type":"int","value":1},{"name":"fh_group","type":"int","value":0},{"name":"fh_id","type":"int","value":299},{"name":"x1","type":"int","value":1395},{"name":"x2","type":"int","value":1402},{"name":"y1","type":"int","value":1895},{"name":"y2","type":"int","value":1896},{"name":"next","type":"int","value":300},{"name":"prev","type":"int","value":298}],"polyline":[{"x":0,"y":0},{"x":7,"y":1}]},{"id":1193,"x":1402,"y":1896,"visible":true,"properties":[{"name":"layer","type":"int","value":1},{"name":"group","type":"int","value":0},{"name":"id","type":"int","value":300},{"name":"fh_layer","type":"int","value":1},{"name":"fh_group","type":"int","value":0},{"name":"fh_id","type":"int","value":300},{"name":"x1","type":"int","value":1402},{"name":"x2","type":"int","value":1423},{"name":"y1","type":"int","value":1896},{"name":"y2","type":"int","value":1909},{"name":"next","type":"int","value":301},{"name":"prev","type":"int","value":299}],"polyline":[{"x":0,"y":0},{"x":21,"y":13}]},{"id":1194,"x":1423,"y":1909,"visible":true,"properties":[{"name":"layer","type":"int","value":1},{"name":"group","type":"int","value":0},{"name":"id","type":"int","value":301},{"name":"fh_layer","type":"int","value":1},{"name":"fh_group","type":"int","value":0},{"name":"fh_id","type":"int","value":301},{"name":"x1","type":"int","value":1423},{"name":"x2","type":"int","value":1440},{"name":"y1","type":"int","value":1909},{"name":"y2","type":"int","value":1910},{"name":"next","type":"int","value":302},{"name":"prev","type":"int","value":300}],"polyline":[{"x":0,"y":0},{"x":17,"y":1}]},{"id":1195,"x":1440,"y":1910,"visible":true,"properties":[{"name":"layer","type":"int","value":1},{"name":"group","type":"int","value":0},{"name":"id","type":"int","value":302},{"name":"fh_layer","type":"int","value":1},{"name":"fh_group","type":"int","value":0},{"name":"fh_id","type":"int","value":302},{"name":"x1","type":"int","value":1440},{"name":"x2","type":"int","value":1462},{"name":"y1","type":"int","value":1910},{"name":"y2","type":"int","value":1906},{"name":"next","type":"int","value":303},{"name":"prev","type":"int","value":301}],"polyline":[{"x":0,"y":0},{"x":22,"y":-4}]},{"id":1196,"x":1462,"y":1906,"visible":true,"properties":[{"name":"layer","type":"int","value":1},{"name":"group","type":"int","value":0},{"name":"id","type":"int","value":303},{"name":"fh_layer","type":"int","value":1},{"name":"fh_group","type":"int","value":0},{"name":"fh_id","type":"int","value":303},{"name":"x1","type":"int","value":1462},{"name":"x2","type":"int","value":1470},{"name":"y1","type":"int","value":1906},{"name":"y2","type":"int","value":1899},{"name":"next","type":"int","value":304},{"name":"prev","type":"int","value":302}],"polyline":[{"x":0,"y":0},{"x":8,"y":-7}]},{"id":1197,"x":1470,"y":1899,"visible":true,"properties":[{"name":"layer","type":"int","value":1},{"name":"group","type":"int","value":0},{"name":"id","type":"int","value":304},{"name":"fh_layer","type":"int","value":1},{"name":"fh_group","type":"int","value":0},{"name":"fh_id","type":"int","value":304},{"name":"x1","type":"int","value":1470},{"name":"x2","type":"int","value":1485},{"name":"y1","type":"int","value":1899},{"name":"y2","type":"int","value":1895},{"name":"next","type":"int","value":305},{"name":"prev","type":"int","value":303}],"polyline":[{"x":0,"y":0},{"x":15,"y":-4}]},{"id":1198,"x":1485,"y":1895,"visible":true,"properties":[{"name":"layer","type":"int","value":1},{"name":"group","type":"int","value":0},{"name":"id","type":"int","value":305},{"name":"fh_layer","type":"int","value":1},{"name":"fh_group","type":"int","value":0},{"name":"fh_id","type":"int","value":305},{"name":"x1","type":"int","value":1485},{"name":"x2","type":"int","value":1492},{"name":"y1","type":"int","value":1895},{"name":"y2","type":"int","value":1896},{"name":"next","type":"int","value":306},{"name":"prev","type":"int","value":304}],"polyline":[{"x":0,"y":0},{"x":7,"y":1}]},{"id":1199,"x":1492,"y":1896,"visible":true,"properties":[{"name":"layer","type":"int","value":1},{"name":"group","type":"int","value":0},{"name":"id","type":"int","value":306},{"name":"fh_layer","type":"int","value":1},{"name":"fh_group","type":"int","value":0},{"name":"fh_id","type":"int","value":306},{"name":"x1","type":"int","value":1492},{"name":"x2","type":"int","value":1513},{"name":"y1","type":"int","value":1896},{"name":"y2","type":"int","value":1909},{"name":"next","type":"int","value":307},{"name":"prev","type":"int","value":305}],"polyline":[{"x":0,"y":0},{"x":21,"y":13}]},{"id":1200,"x":1513,"y":1909,"visible":true,"properties":[{"name":"layer","type":"int","value":1},{"name":"group","type":"int","value":0},{"name":"id","type":"int","value":307},{"name":"fh_layer","type":"int","value":1},{"name":"fh_group","type":"int","value":0},{"name":"fh_id","type":"int","value":307},{"name":"x1","type":"int","value":1513},{"name":"x2","type":"int","value":1530},{"name":"y1","type":"int","value":1909},{"name":"y2","type":"int","value":1910},{"name":"next","type":"int","value":326},{"name":"prev","type":"int","value":306}],"polyline":[{"x":0,"y":0},{"x":17,"y":1}]},{"id":1201,"x":1620,"y":1910,"visible":true,"properties":[{"name":"layer","type":"int","value":1},{"name":"group","type":"int","value":0},{"name":"id","type":"int","value":308},{"name":"fh_layer","type":"int","value":1},{"name":"fh_group","type":"int","value":0},{"name":"fh_id","type":"int","value":308},{"name":"x1","type":"int","value":1620},{"name":"x2","type":"int","value":1642},{"name":"y1","type":"int","value":1910},{"name":"y2","type":"int","value":1906},{"name":"next","type":"int","value":309},{"name":"prev","type":"int","value":331}],"polyline":[{"x":0,"y":0},{"x":22,"y":-4}]},{"id":1202,"x":1642,"y":1906,"visible":true,"properties":[{"name":"layer","type":"int","value":1},{"name":"group","type":"int","value":0},{"name":"id","type":"int","value":309},{"name":"fh_layer","type":"int","value":1},{"name":"fh_group","type":"int","value":0},{"name":"fh_id","type":"int","value":309},{"name":"x1","type":"int","value":1642},{"name":"x2","type":"int","value":1650},{"name":"y1","type":"int","value":1906},{"name":"y2","type":"int","value":1899},{"name":"next","type":"int","value":310},{"name":"prev","type":"int","value":308}],"polyline":[{"x":0,"y":0},{"x":8,"y":-7}]},{"id":1203,"x":1650,"y":1899,"visible":true,"properties":[{"name":"layer","type":"int","value":1},{"name":"group","type":"int","value":0},{"name":"id","type":"int","value":310},{"name":"fh_layer","type":"int","value":1},{"name":"fh_group","type":"int","value":0},{"name":"fh_id","type":"int","value":310},{"name":"x1","type":"int","value":1650},{"name":"x2","type":"int","value":1665},{"name":"y1","type":"int","value":1899},{"name":"y2","type":"int","value":1895},{"name":"next","type":"int","value":311},{"name":"prev","type":"int","value":309}],"polyline":[{"x":0,"y":0},{"x":15,"y":-4}]},{"id":1204,"x":1665,"y":1895,"visible":true,"properties":[{"name":"layer","type":"int","value":1},{"name":"group","type":"int","value":0},{"name":"id","type":"int","value":311},{"name":"fh_layer","type":"int","value":1},{"name":"fh_group","type":"int","value":0},{"name":"fh_id","type":"int","value":311},{"name":"x1","type":"int","value":1665},{"name":"x2","type":"int","value":1672},{"name":"y1","type":"int","value":1895},{"name":"y2","type":"int","value":1896},{"name":"next","type":"int","value":312},{"name":"prev","type":"int","value":310}],"polyline":[{"x":0,"y":0},{"x":7,"y":1}]},{"id":1205,"x":1672,"y":1896,"visible":true,"properties":[{"name":"layer","type":"int","value":1},{"name":"group","type":"int","value":0},{"name":"id","type":"int","value":312},{"name":"fh_layer","type":"int","value":1},{"name":"fh_group","type":"int","value":0},{"name":"fh_id","type":"int","value":312},{"name":"x1","type":"int","value":1672},{"name":"x2","type":"int","value":1693},{"name":"y1","type":"int","value":1896},{"name":"y2","type":"int","value":1909},{"name":"next","type":"int","value":313},{"name":"prev","type":"int","value":311}],"polyline":[{"x":0,"y":0},{"x":21,"y":13}]},{"id":1206,"x":1693,"y":1909,"visible":true,"properties":[{"name":"layer","type":"int","value":1},{"name":"group","type":"int","value":0},{"name":"id","type":"int","value":313},{"name":"fh_layer","type":"int","value":1},{"name":"fh_group","type":"int","value":0},{"name":"fh_id","type":"int","value":313},{"name":"x1","type":"int","value":1693},{"name":"x2","type":"int","value":1710},{"name":"y1","type":"int","value":1909},{"name":"y2","type":"int","value":1910},{"name":"next","type":"int","value":320},{"name":"prev","type":"int","value":312}],"polyline":[{"x":0,"y":0},{"x":17,"y":1}]},{"id":1207,"x":1800,"y":1910,"visible":true,"properties":[{"name":"layer","type":"int","value":1},{"name":"group","type":"int","value":0},{"name":"id","type":"int","value":314},{"name":"fh_layer","type":"int","value":1},{"name":"fh_group","type":"int","value":0},{"name":"fh_id","type":"int","value":314},{"name":"x1","type":"int","value":1800},{"name":"x2","type":"int","value":1822},{"name":"y1","type":"int","value":1910},{"name":"y2","type":"int","value":1906},{"name":"next","type":"int","value":315},{"name":"prev","type":"int","value":325}],"polyline":[{"x":0,"y":0},{"x":22,"y":-4}]},{"id":1208,"x":1822,"y":1906,"visible":true,"properties":[{"name":"layer","type":"int","value":1},{"name":"group","type":"int","value":0},{"name":"id","type":"int","value":315},{"name":"fh_layer","type":"int","value":1},{"name":"fh_group","type":"int","value":0},{"name":"fh_id","type":"int","value":315},{"name":"x1","type":"int","value":1822},{"name":"x2","type":"int","value":1830},{"name":"y1","type":"int","value":1906},{"name":"y2","type":"int","value":1899},{"name":"next","type":"int","value":316},{"name":"prev","type":"int","value":314}],"polyline":[{"x":0,"y":0},{"x":8,"y":-7}]},{"id":1209,"x":1830,"y":1899,"visible":true,"properties":[{"name":"layer","type":"int","value":1},{"name":"group","type":"int","value":0},{"name":"id","type":"int","value":316},{"name":"fh_layer","type":"int","value":1},{"name":"fh_group","type":"int","value":0},{"name":"fh_id","type":"int","value":316},{"name":"x1","type":"int","value":1830},{"name":"x2","type":"int","value":1845},{"name":"y1","type":"int","value":1899},{"name":"y2","type":"int","value":1895},{"name":"next","type":"int","value":317},{"name":"prev","type":"int","value":315}],"polyline":[{"x":0,"y":0},{"x":15,"y":-4}]},{"id":1210,"x":1845,"y":1895,"visible":true,"properties":[{"name":"layer","type":"int","value":1},{"name":"group","type":"int","value":0},{"name":"id","type":"int","value":317},{"name":"fh_layer","type":"int","value":1},{"name":"fh_group","type":"int","value":0},{"name":"fh_id","type":"int","value":317},{"name":"x1","type":"int","value":1845},{"name":"x2","type":"int","value":1852},{"name":"y1","type":"int","value":1895},{"name":"y2","type":"int","value":1896},{"name":"next","type":"int","value":318},{"name":"prev","type":"int","value":316}],"polyline":[{"x":0,"y":0},{"x":7,"y":1}]},{"id":1211,"x":1852,"y":1896,"visible":true,"properties":[{"name":"layer","type":"int","value":1},{"name":"group","type":"int","value":0},{"name":"id","type":"int","value":318},{"name":"fh_layer","type":"int","value":1},{"name":"fh_group","type":"int","value":0},{"name":"fh_id","type":"int","value":318},{"name":"x1","type":"int","value":1852},{"name":"x2","type":"int","value":1873},{"name":"y1","type":"int","value":1896},{"name":"y2","type":"int","value":1909},{"name":"next","type":"int","value":319},{"name":"prev","type":"int","value":317}],"polyline":[{"x":0,"y":0},{"x":21,"y":13}]},{"id":1212,"x":1873,"y":1909,"visible":true,"properties":[{"name":"layer","type":"int","value":1},{"name":"group","type":"int","value":0},{"name":"id","type":"int","value":319},{"name":"fh_layer","type":"int","value":1},{"name":"fh_group","type":"int","value":0},{"name":"fh_id","type":"int","value":319},{"name":"x1","type":"int","value":1873},{"name":"x2","type":"int","value":1890},{"name":"y1","type":"int","value":1909},{"name":"y2","type":"int","value":1910},{"name":"next","type":"int","value":332},{"name":"prev","type":"int","value":318}],"polyline":[{"x":0,"y":0},{"x":17,"y":1}]},{"id":1213,"x":1710,"y":1910,"visible":true,"properties":[{"name":"layer","type":"int","value":1},{"name":"group","type":"int","value":0},{"name":"id","type":"int","value":320},{"name":"fh_layer","type":"int","value":1},{"name":"fh_group","type":"int","value":0},{"name":"fh_id","type":"int","value":320},{"name":"x1","type":"int","value":1710},{"name":"x2","type":"int","value":1732},{"name":"y1","type":"int","value":1910},{"name":"y2","type":"int","value":1906},{"name":"next","type":"int","value":321},{"name":"prev","type":"int","value":313}],"polyline":[{"x":0,"y":0},{"x":22,"y":-4}]},{"id":1214,"x":1732,"y":1906,"visible":true,"properties":[{"name":"layer","type":"int","value":1},{"name":"group","type":"int","value":0},{"name":"id","type":"int","value":321},{"name":"fh_layer","type":"int","value":1},{"name":"fh_group","type":"int","value":0},{"name":"fh_id","type":"int","value":321},{"name":"x1","type":"int","value":1732},{"name":"x2","type":"int","value":1740},{"name":"y1","type":"int","value":1906},{"name":"y2","type":"int","value":1899},{"name":"next","type":"int","value":322},{"name":"prev","type":"int","value":320}],"polyline":[{"x":0,"y":0},{"x":8,"y":-7}]},{"id":1215,"x":1740,"y":1899,"visible":true,"properties":[{"name":"layer","type":"int","value":1},{"name":"group","type":"int","value":0},{"name":"id","type":"int","value":322},{"name":"fh_layer","type":"int","value":1},{"name":"fh_group","type":"int","value":0},{"name":"fh_id","type":"int","value":322},{"name":"x1","type":"int","value":1740},{"name":"x2","type":"int","value":1755},{"name":"y1","type":"int","value":1899},{"name":"y2","type":"int","value":1895},{"name":"next","type":"int","value":323},{"name":"prev","type":"int","value":321}],"polyline":[{"x":0,"y":0},{"x":15,"y":-4}]},{"id":1216,"x":1755,"y":1895,"visible":true,"properties":[{"name":"layer","type":"int","value":1},{"name":"group","type":"int","value":0},{"name":"id","type":"int","value":323},{"name":"fh_layer","type":"int","value":1},{"name":"fh_group","type":"int","value":0},{"name":"fh_id","type":"int","value":323},{"name":"x1","type":"int","value":1755},{"name":"x2","type":"int","value":1762},{"name":"y1","type":"int","value":1895},{"name":"y2","type":"int","value":1896},{"name":"next","type":"int","value":324},{"name":"prev","type":"int","value":322}],"polyline":[{"x":0,"y":0},{"x":7,"y":1}]},{"id":1217,"x":1762,"y":1896,"visible":true,"properties":[{"name":"layer","type":"int","value":1},{"name":"group","type":"int","value":0},{"name":"id","type":"int","value":324},{"name":"fh_layer","type":"int","value":1},{"name":"fh_group","type":"int","value":0},{"name":"fh_id","type":"int","value":324},{"name":"x1","type":"int","value":1762},{"name":"x2","type":"int","value":1783},{"name":"y1","type":"int","value":1896},{"name":"y2","type":"int","value":1909},{"name":"next","type":"int","value":325},{"name":"prev","type":"int","value":323}],"polyline":[{"x":0,"y":0},{"x":21,"y":13}]},{"id":1218,"x":1783,"y":1909,"visible":true,"properties":[{"name":"layer","type":"int","value":1},{"name":"group","type":"int","value":0},{"name":"id","type":"int","value":325},{"name":"fh_layer","type":"int","value":1},{"name":"fh_group","type":"int","value":0},{"name":"fh_id","type":"int","value":325},{"name":"x1","type":"int","value":1783},{"name":"x2","type":"int","value":1800},{"name":"y1","type":"int","value":1909},{"name":"y2","type":"int","value":1910},{"name":"next","type":"int","value":314},{"name":"prev","type":"int","value":324}],"polyline":[{"x":0,"y":0},{"x":17,"y":1}]},{"id":1219,"x":1530,"y":1910,"visible":true,"properties":[{"name":"layer","type":"int","value":1},{"name":"group","type":"int","value":0},{"name":"id","type":"int","value":326},{"name":"fh_layer","type":"int","value":1},{"name":"fh_group","type":"int","value":0},{"name":"fh_id","type":"int","value":326},{"name":"x1","type":"int","value":1530},{"name":"x2","type":"int","value":1552},{"name":"y1","type":"int","value":1910},{"name":"y2","type":"int","value":1906},{"name":"next","type":"int","value":327},{"name":"prev","type":"int","value":307}],"polyline":[{"x":0,"y":0},{"x":22,"y":-4}]},{"id":1220,"x":1552,"y":1906,"visible":true,"properties":[{"name":"layer","type":"int","value":1},{"name":"group","type":"int","value":0},{"name":"id","type":"int","value":327},{"name":"fh_layer","type":"int","value":1},{"name":"fh_group","type":"int","value":0},{"name":"fh_id","type":"int","value":327},{"name":"x1","type":"int","value":1552},{"name":"x2","type":"int","value":1560},{"name":"y1","type":"int","value":1906},{"name":"y2","type":"int","value":1899},{"name":"next","type":"int","value":328},{"name":"prev","type":"int","value":326}],"polyline":[{"x":0,"y":0},{"x":8,"y":-7}]},{"id":1221,"x":1560,"y":1899,"visible":true,"properties":[{"name":"layer","type":"int","value":1},{"name":"group","type":"int","value":0},{"name":"id","type":"int","value":328},{"name":"fh_layer","type":"int","value":1},{"name":"fh_group","type":"int","value":0},{"name":"fh_id","type":"int","value":328},{"name":"x1","type":"int","value":1560},{"name":"x2","type":"int","value":1575},{"name":"y1","type":"int","value":1899},{"name":"y2","type":"int","value":1895},{"name":"next","type":"int","value":329},{"name":"prev","type":"int","value":327}],"polyline":[{"x":0,"y":0},{"x":15,"y":-4}]},{"id":1222,"x":1575,"y":1895,"visible":true,"properties":[{"name":"layer","type":"int","value":1},{"name":"group","type":"int","value":0},{"name":"id","type":"int","value":329},{"name":"fh_layer","type":"int","value":1},{"name":"fh_group","type":"int","value":0},{"name":"fh_id","type":"int","value":329},{"name":"x1","type":"int","value":1575},{"name":"x2","type":"int","value":1582},{"name":"y1","type":"int","value":1895},{"name":"y2","type":"int","value":1896},{"name":"next","type":"int","value":330},{"name":"prev","type":"int","value":328}],"polyline":[{"x":0,"y":0},{"x":7,"y":1}]},{"id":1223,"x":1582,"y":1896,"visible":true,"properties":[{"name":"layer","type":"int","value":1},{"name":"group","type":"int","value":0},{"name":"id","type":"int","value":330},{"name":"fh_layer","type":"int","value":1},{"name":"fh_group","type":"int","value":0},{"name":"fh_id","type":"int","value":330},{"name":"x1","type":"int","value":1582},{"name":"x2","type":"int","value":1603},{"name":"y1","type":"int","value":1896},{"name":"y2","type":"int","value":1909},{"name":"next","type":"int","value":331},{"name":"prev","type":"int","value":329}],"polyline":[{"x":0,"y":0},{"x":21,"y":13}]},{"id":1224,"x":1603,"y":1909,"visible":true,"properties":[{"name":"layer","type":"int","value":1},{"name":"group","type":"int","value":0},{"name":"id","type":"int","value":331},{"name":"fh_layer","type":"int","value":1},{"name":"fh_group","type":"int","value":0},{"name":"fh_id","type":"int","value":331},{"name":"x1","type":"int","value":1603},{"name":"x2","type":"int","value":1620},{"name":"y1","type":"int","value":1909},{"name":"y2","type":"int","value":1910},{"name":"next","type":"int","value":308},{"name":"prev","type":"int","value":330}],"polyline":[{"x":0,"y":0},{"x":17,"y":1}]},{"id":1225,"x":1890,"y":1910,"visible":true,"properties":[{"name":"layer","type":"int","value":1},{"name":"group","type":"int","value":0},{"name":"id","type":"int","value":332},{"name":"fh_layer","type":"int","value":1},{"name":"fh_group","type":"int","value":0},{"name":"fh_id","type":"int","value":332},{"name":"x1","type":"int","value":1890},{"name":"x2","type":"int","value":1914},{"name":"y1","type":"int","value":1910},{"name":"y2","type":"int","value":1891},{"name":"next","type":"int","value":333},{"name":"prev","type":"int","value":319}],"polyline":[{"x":0,"y":0},{"x":24,"y":-19}]},{"id":1226,"x":1914,"y":1891,"visible":true,"properties":[{"name":"layer","type":"int","value":1},{"name":"group","type":"int","value":0},{"name":"id","type":"int","value":333},{"name":"fh_layer","type":"int","value":1},{"name":"fh_group","type":"int","value":0},{"name":"fh_id","type":"int","value":333},{"name":"x1","type":"int","value":1914},{"name":"x2","type":"int","value":1924},{"name":"y1","type":"int","value":1891},{"name":"y2","type":"int","value":1872},{"name":"next","type":"int","value":334},{"name":"prev","type":"int","value":332}],"polyline":[{"x":0,"y":0},{"x":10,"y":-19}]},{"id":1227,"x":1924,"y":1872,"visible":true,"properties":[{"name":"layer","type":"int","value":1},{"name":"group","type":"int","value":0},{"name":"id","type":"int","value":334},{"name":"fh_layer","type":"int","value":1},{"name":"fh_group","type":"int","value":0},{"name":"fh_id","type":"int","value":334},{"name":"x1","type":"int","value":1924},{"name":"x2","type":"int","value":1937},{"name":"y1","type":"int","value":1872},{"name":"y2","type":"int","value":1866},{"name":"next","type":"int","value":335},{"name":"prev","type":"int","value":333}],"polyline":[{"x":0,"y":0},{"x":13,"y":-6}]},{"id":1228,"x":1937,"y":1866,"visible":true,"properties":[{"name":"layer","type":"int","value":1},{"name":"group","type":"int","value":0},{"name":"id","type":"int","value":335},{"name":"fh_layer","type":"int","value":1},{"name":"fh_group","type":"int","value":0},{"name":"fh_id","type":"int","value":335},{"name":"x1","type":"int","value":1937},{"name":"x2","type":"int","value":1937},{"name":"y1","type":"int","value":1866},{"name":"y2","type":"int","value":1834},{"name":"next","type":"int","value":514},{"name":"prev","type":"int","value":334}],"polyline":[{"x":0,"y":0},{"x":0,"y":-32}]},{"id":1229,"x":1937,"y":1568,"visible":true,"properties":[{"name":"layer","type":"int","value":1},{"name":"group","type":"int","value":0},{"name":"id","type":"int","value":336},{"name":"fh_layer","type":"int","value":1},{"name":"fh_group","type":"int","value":0},{"name":"fh_id","type":"int","value":336},{"name":"x1","type":"int","value":1937},{"name":"x2","type":"int","value":1937},{"name":"y1","type":"int","value":1568},{"name":"y2","type":"int","value":1500},{"name":"next","type":"int","value":367},{"name":"prev","type":"int","value":337}],"polyline":[{"x":0,"y":0},{"x":0,"y":-68}]},{"id":1230,"x":1937,"y":1628,"visible":true,"properties":[{"name":"layer","type":"int","value":1},{"name":"group","type":"int","value":0},{"name":"id","type":"int","value":337},{"name":"fh_layer","type":"int","value":1},{"name":"fh_group","type":"int","value":0},{"name":"fh_id","type":"int","value":337},{"name":"x1","type":"int","value":1937},{"name":"x2","type":"int","value":1937},{"name":"y1","type":"int","value":1628},{"name":"y2","type":"int","value":1568},{"name":"next","type":"int","value":336},{"name":"prev","type":"int","value":338}],"polyline":[{"x":0,"y":0},{"x":0,"y":-60}]},{"id":1231,"x":1937,"y":1688,"visible":true,"properties":[{"name":"layer","type":"int","value":1},{"name":"group","type":"int","value":0},{"name":"id","type":"int","value":338},{"name":"fh_layer","type":"int","value":1},{"name":"fh_group","type":"int","value":0},{"name":"fh_id","type":"int","value":338},{"name":"x1","type":"int","value":1937},{"name":"x2","type":"int","value":1937},{"name":"y1","type":"int","value":1688},{"name":"y2","type":"int","value":1628},{"name":"next","type":"int","value":337},{"name":"prev","type":"int","value":339}],"polyline":[{"x":0,"y":0},{"x":0,"y":-60}]},{"id":1232,"x":1937,"y":1748,"visible":true,"properties":[{"name":"layer","type":"int","value":1},{"name":"group","type":"int","value":0},{"name":"id","type":"int","value":339},{"name":"fh_layer","type":"int","value":1},{"name":"fh_group","type":"int","value":0},{"name":"fh_id","type":"int","value":339},{"name":"x1","type":"int","value":1937},{"name":"x2","type":"int","value":1937},{"name":"y1","type":"int","value":1748},{"name":"y2","type":"int","value":1688},{"name":"next","type":"int","value":338},{"name":"prev","type":"int","value":513}],"polyline":[{"x":0,"y":0},{"x":0,"y":-60}]},{"id":1233,"x":1937,"y":1800,"visible":true,"properties":[{"name":"layer","type":"int","value":1},{"name":"group","type":"int","value":0},{"name":"id","type":"int","value":340},{"name":"fh_layer","type":"int","value":1},{"name":"fh_group","type":"int","value":0},{"name":"fh_id","type":"int","value":340},{"name":"x1","type":"int","value":1937},{"name":"x2","type":"int","value":1937},{"name":"y1","type":"int","value":1800},{"name":"y2","type":"int","value":1774},{"name":"next","type":"int","value":513},{"name":"prev","type":"int","value":514}],"polyline":[{"x":0,"y":0},{"x":0,"y":-26}]},{"id":1234,"x":2473,"y":2040,"visible":true,"properties":[{"name":"layer","type":"int","value":1},{"name":"group","type":"int","value":0},{"name":"id","type":"int","value":341},{"name":"fh_layer","type":"int","value":1},{"name":"fh_group","type":"int","value":0},{"name":"fh_id","type":"int","value":341},{"name":"x1","type":"int","value":2473},{"name":"x2","type":"int","value":2473},{"name":"y1","type":"int","value":2040},{"name":"y2","type":"int","value":2108},{"name":"next","type":"int","value":0},{"name":"prev","type":"int","value":396}],"polyline":[{"x":0,"y":0},{"x":0,"y":68}]},{"id":1235,"x":2473,"y":1380,"visible":true,"properties":[{"name":"layer","type":"int","value":1},{"name":"group","type":"int","value":0},{"name":"id","type":"int","value":342},{"name":"fh_layer","type":"int","value":1},{"name":"fh_group","type":"int","value":0},{"name":"fh_id","type":"int","value":342},{"name":"x1","type":"int","value":2473},{"name":"x2","type":"int","value":2473},{"name":"y1","type":"int","value":1380},{"name":"y2","type":"int","value":1448},{"name":"next","type":"int","value":389},{"name":"prev","type":"int","value":387}],"polyline":[{"x":0,"y":0},{"x":0,"y":68}]},{"id":1236,"x":2070,"y":1070,"visible":true,"properties":[{"name":"layer","type":"int","value":1},{"name":"group","type":"int","value":0},{"name":"id","type":"int","value":343},{"name":"fh_layer","type":"int","value":1},{"name":"fh_group","type":"int","value":0},{"name":"fh_id","type":"int","value":343},{"name":"x1","type":"int","value":2070},{"name":"x2","type":"int","value":2092},{"name":"y1","type":"int","value":1070},{"name":"y2","type":"int","value":1066},{"name":"next","type":"int","value":344},{"name":"prev","type":"int","value":365}],"polyline":[{"x":0,"y":0},{"x":22,"y":-4}]},{"id":1237,"x":2092,"y":1066,"visible":true,"properties":[{"name":"layer","type":"int","value":1},{"name":"group","type":"int","value":0},{"name":"id","type":"int","value":344},{"name":"fh_layer","type":"int","value":1},{"name":"fh_group","type":"int","value":0},{"name":"fh_id","type":"int","value":344},{"name":"x1","type":"int","value":2092},{"name":"x2","type":"int","value":2100},{"name":"y1","type":"int","value":1066},{"name":"y2","type":"int","value":1059},{"name":"next","type":"int","value":345},{"name":"prev","type":"int","value":343}],"polyline":[{"x":0,"y":0},{"x":8,"y":-7}]},{"id":1238,"x":2100,"y":1059,"visible":true,"properties":[{"name":"layer","type":"int","value":1},{"name":"group","type":"int","value":0},{"name":"id","type":"int","value":345},{"name":"fh_layer","type":"int","value":1},{"name":"fh_group","type":"int","value":0},{"name":"fh_id","type":"int","value":345},{"name":"x1","type":"int","value":2100},{"name":"x2","type":"int","value":2115},{"name":"y1","type":"int","value":1059},{"name":"y2","type":"int","value":1055},{"name":"next","type":"int","value":346},{"name":"prev","type":"int","value":344}],"polyline":[{"x":0,"y":0},{"x":15,"y":-4}]},{"id":1239,"x":2115,"y":1055,"visible":true,"properties":[{"name":"layer","type":"int","value":1},{"name":"group","type":"int","value":0},{"name":"id","type":"int","value":346},{"name":"fh_layer","type":"int","value":1},{"name":"fh_group","type":"int","value":0},{"name":"fh_id","type":"int","value":346},{"name":"x1","type":"int","value":2115},{"name":"x2","type":"int","value":2122},{"name":"y1","type":"int","value":1055},{"name":"y2","type":"int","value":1056},{"name":"next","type":"int","value":347},{"name":"prev","type":"int","value":345}],"polyline":[{"x":0,"y":0},{"x":7,"y":1}]},{"id":1240,"x":2122,"y":1056,"visible":true,"properties":[{"name":"layer","type":"int","value":1},{"name":"group","type":"int","value":0},{"name":"id","type":"int","value":347},{"name":"fh_layer","type":"int","value":1},{"name":"fh_group","type":"int","value":0},{"name":"fh_id","type":"int","value":347},{"name":"x1","type":"int","value":2122},{"name":"x2","type":"int","value":2143},{"name":"y1","type":"int","value":1056},{"name":"y2","type":"int","value":1069},{"name":"next","type":"int","value":348},{"name":"prev","type":"int","value":346}],"polyline":[{"x":0,"y":0},{"x":21,"y":13}]},{"id":1241,"x":2143,"y":1069,"visible":true,"properties":[{"name":"layer","type":"int","value":1},{"name":"group","type":"int","value":0},{"name":"id","type":"int","value":348},{"name":"fh_layer","type":"int","value":1},{"name":"fh_group","type":"int","value":0},{"name":"fh_id","type":"int","value":348},{"name":"x1","type":"int","value":2143},{"name":"x2","type":"int","value":2160},{"name":"y1","type":"int","value":1069},{"name":"y2","type":"int","value":1070},{"name":"next","type":"int","value":351},{"name":"prev","type":"int","value":347}],"polyline":[{"x":0,"y":0},{"x":17,"y":1}]},{"id":1242,"x":2473,"y":1860,"visible":true,"properties":[{"name":"layer","type":"int","value":1},{"name":"group","type":"int","value":0},{"name":"id","type":"int","value":349},{"name":"fh_layer","type":"int","value":1},{"name":"fh_group","type":"int","value":0},{"name":"fh_id","type":"int","value":349},{"name":"x1","type":"int","value":2473},{"name":"x2","type":"int","value":2473},{"name":"y1","type":"int","value":1860},{"name":"y2","type":"int","value":1928},{"name":"next","type":"int","value":393},{"name":"prev","type":"int","value":395}],"polyline":[{"x":0,"y":0},{"x":0,"y":68}]},{"id":1243,"x":1937,"y":1268,"visible":true,"properties":[{"name":"layer","type":"int","value":1},{"name":"group","type":"int","value":0},{"name":"id","type":"int","value":350},{"name":"fh_layer","type":"int","value":1},{"name":"fh_group","type":"int","value":0},{"name":"fh_id","type":"int","value":350},{"name":"x1","type":"int","value":1937},{"name":"x2","type":"int","value":1937},{"name":"y1","type":"int","value":1268},{"name":"y2","type":"int","value":1200},{"name":"next","type":"int","value":358},{"name":"prev","type":"int","value":369}],"polyline":[{"x":0,"y":0},{"x":0,"y":-68}]},{"id":1244,"x":2160,"y":1070,"visible":true,"properties":[{"name":"layer","type":"int","value":1},{"name":"group","type":"int","value":0},{"name":"id","type":"int","value":351},{"name":"fh_layer","type":"int","value":1},{"name":"fh_group","type":"int","value":0},{"name":"fh_id","type":"int","value":351},{"name":"x1","type":"int","value":2160},{"name":"x2","type":"int","value":2182},{"name":"y1","type":"int","value":1070},{"name":"y2","type":"int","value":1066},{"name":"next","type":"int","value":352},{"name":"prev","type":"int","value":348}],"polyline":[{"x":0,"y":0},{"x":22,"y":-4}]},{"id":1245,"x":2182,"y":1066,"visible":true,"properties":[{"name":"layer","type":"int","value":1},{"name":"group","type":"int","value":0},{"name":"id","type":"int","value":352},{"name":"fh_layer","type":"int","value":1},{"name":"fh_group","type":"int","value":0},{"name":"fh_id","type":"int","value":352},{"name":"x1","type":"int","value":2182},{"name":"x2","type":"int","value":2190},{"name":"y1","type":"int","value":1066},{"name":"y2","type":"int","value":1059},{"name":"next","type":"int","value":353},{"name":"prev","type":"int","value":351}],"polyline":[{"x":0,"y":0},{"x":8,"y":-7}]},{"id":1246,"x":2190,"y":1059,"visible":true,"properties":[{"name":"layer","type":"int","value":1},{"name":"group","type":"int","value":0},{"name":"id","type":"int","value":353},{"name":"fh_layer","type":"int","value":1},{"name":"fh_group","type":"int","value":0},{"name":"fh_id","type":"int","value":353},{"name":"x1","type":"int","value":2190},{"name":"x2","type":"int","value":2205},{"name":"y1","type":"int","value":1059},{"name":"y2","type":"int","value":1055},{"name":"next","type":"int","value":354},{"name":"prev","type":"int","value":352}],"polyline":[{"x":0,"y":0},{"x":15,"y":-4}]},{"id":1247,"x":2205,"y":1055,"visible":true,"properties":[{"name":"layer","type":"int","value":1},{"name":"group","type":"int","value":0},{"name":"id","type":"int","value":354},{"name":"fh_layer","type":"int","value":1},{"name":"fh_group","type":"int","value":0},{"name":"fh_id","type":"int","value":354},{"name":"x1","type":"int","value":2205},{"name":"x2","type":"int","value":2212},{"name":"y1","type":"int","value":1055},{"name":"y2","type":"int","value":1056},{"name":"next","type":"int","value":355},{"name":"prev","type":"int","value":353}],"polyline":[{"x":0,"y":0},{"x":7,"y":1}]},{"id":1248,"x":2212,"y":1056,"visible":true,"properties":[{"name":"layer","type":"int","value":1},{"name":"group","type":"int","value":0},{"name":"id","type":"int","value":355},{"name":"fh_layer","type":"int","value":1},{"name":"fh_group","type":"int","value":0},{"name":"fh_id","type":"int","value":355},{"name":"x1","type":"int","value":2212},{"name":"x2","type":"int","value":2233},{"name":"y1","type":"int","value":1056},{"name":"y2","type":"int","value":1069},{"name":"next","type":"int","value":356},{"name":"prev","type":"int","value":354}],"polyline":[{"x":0,"y":0},{"x":21,"y":13}]},{"id":1249,"x":2233,"y":1069,"visible":true,"properties":[{"name":"layer","type":"int","value":1},{"name":"group","type":"int","value":0},{"name":"id","type":"int","value":356},{"name":"fh_layer","type":"int","value":1},{"name":"fh_group","type":"int","value":0},{"name":"fh_id","type":"int","value":356},{"name":"x1","type":"int","value":2233},{"name":"x2","type":"int","value":2250},{"name":"y1","type":"int","value":1069},{"name":"y2","type":"int","value":1070},{"name":"next","type":"int","value":370},{"name":"prev","type":"int","value":355}],"polyline":[{"x":0,"y":0},{"x":17,"y":1}]},{"id":1250,"x":2473,"y":1260,"visible":true,"properties":[{"name":"layer","type":"int","value":1},{"name":"group","type":"int","value":0},{"name":"id","type":"int","value":357},{"name":"fh_layer","type":"int","value":1},{"name":"fh_group","type":"int","value":0},{"name":"fh_id","type":"int","value":357},{"name":"x1","type":"int","value":2473},{"name":"x2","type":"int","value":2473},{"name":"y1","type":"int","value":1260},{"name":"y2","type":"int","value":1328},{"name":"next","type":"int","value":387},{"name":"prev","type":"int","value":386}],"polyline":[{"x":0,"y":0},{"x":0,"y":68}]},{"id":1251,"x":1937,"y":1200,"visible":true,"properties":[{"name":"layer","type":"int","value":1},{"name":"group","type":"int","value":0},{"name":"id","type":"int","value":358},{"name":"fh_layer","type":"int","value":1},{"name":"fh_group","type":"int","value":0},{"name":"fh_id","type":"int","value":358},{"name":"x1","type":"int","value":1937},{"name":"x2","type":"int","value":1937},{"name":"y1","type":"int","value":1200},{"name":"y2","type":"int","value":1140},{"name":"next","type":"int","value":359},{"name":"prev","type":"int","value":350}],"polyline":[{"x":0,"y":0},{"x":0,"y":-60}]},{"id":1252,"x":1937,"y":1140,"visible":true,"properties":[{"name":"layer","type":"int","value":1},{"name":"group","type":"int","value":0},{"name":"id","type":"int","value":359},{"name":"fh_layer","type":"int","value":1},{"name":"fh_group","type":"int","value":0},{"name":"fh_id","type":"int","value":359},{"name":"x1","type":"int","value":1937},{"name":"x2","type":"int","value":1937},{"name":"y1","type":"int","value":1140},{"name":"y2","type":"int","value":1130},{"name":"next","type":"int","value":360},{"name":"prev","type":"int","value":358}],"polyline":[{"x":0,"y":0},{"x":0,"y":-10}]},{"id":1253,"x":1937,"y":1130,"visible":true,"properties":[{"name":"layer","type":"int","value":1},{"name":"group","type":"int","value":0},{"name":"id","type":"int","value":360},{"name":"fh_layer","type":"int","value":1},{"name":"fh_group","type":"int","value":0},{"name":"fh_id","type":"int","value":360},{"name":"x1","type":"int","value":1937},{"name":"x2","type":"int","value":1980},{"name":"y1","type":"int","value":1130},{"name":"y2","type":"int","value":1130},{"name":"next","type":"int","value":361},{"name":"prev","type":"int","value":862}],"polyline":[{"x":0,"y":0},{"x":43,"y":0}]},{"id":1254,"x":1980,"y":1130,"visible":true,"properties":[{"name":"layer","type":"int","value":1},{"name":"group","type":"int","value":0},{"name":"id","type":"int","value":361},{"name":"fh_layer","type":"int","value":1},{"name":"fh_group","type":"int","value":0},{"name":"fh_id","type":"int","value":361},{"name":"x1","type":"int","value":1980},{"name":"x2","type":"int","value":2004},{"name":"y1","type":"int","value":1130},{"name":"y2","type":"int","value":1111},{"name":"next","type":"int","value":362},{"name":"prev","type":"int","value":360}],"polyline":[{"x":0,"y":0},{"x":24,"y":-19}]},{"id":1255,"x":2004,"y":1111,"visible":true,"properties":[{"name":"layer","type":"int","value":1},{"name":"group","type":"int","value":0},{"name":"id","type":"int","value":362},{"name":"fh_layer","type":"int","value":1},{"name":"fh_group","type":"int","value":0},{"name":"fh_id","type":"int","value":362},{"name":"x1","type":"int","value":2004},{"name":"x2","type":"int","value":2014},{"name":"y1","type":"int","value":1111},{"name":"y2","type":"int","value":1092},{"name":"next","type":"int","value":363},{"name":"prev","type":"int","value":361}],"polyline":[{"x":0,"y":0},{"x":10,"y":-19}]},{"id":1256,"x":2014,"y":1092,"visible":true,"properties":[{"name":"layer","type":"int","value":1},{"name":"group","type":"int","value":0},{"name":"id","type":"int","value":363},{"name":"fh_layer","type":"int","value":1},{"name":"fh_group","type":"int","value":0},{"name":"fh_id","type":"int","value":363},{"name":"x1","type":"int","value":2014},{"name":"x2","type":"int","value":2035},{"name":"y1","type":"int","value":1092},{"name":"y2","type":"int","value":1081},{"name":"next","type":"int","value":364},{"name":"prev","type":"int","value":362}],"polyline":[{"x":0,"y":0},{"x":21,"y":-11}]},{"id":1257,"x":2035,"y":1081,"visible":true,"properties":[{"name":"layer","type":"int","value":1},{"name":"group","type":"int","value":0},{"name":"id","type":"int","value":364},{"name":"fh_layer","type":"int","value":1},{"name":"fh_group","type":"int","value":0},{"name":"fh_id","type":"int","value":364},{"name":"x1","type":"int","value":2035},{"name":"x2","type":"int","value":2050},{"name":"y1","type":"int","value":1081},{"name":"y2","type":"int","value":1071},{"name":"next","type":"int","value":365},{"name":"prev","type":"int","value":363}],"polyline":[{"x":0,"y":0},{"x":15,"y":-10}]},{"id":1258,"x":2050,"y":1071,"visible":true,"properties":[{"name":"layer","type":"int","value":1},{"name":"group","type":"int","value":0},{"name":"id","type":"int","value":365},{"name":"fh_layer","type":"int","value":1},{"name":"fh_group","type":"int","value":0},{"name":"fh_id","type":"int","value":365},{"name":"x1","type":"int","value":2050},{"name":"x2","type":"int","value":2070},{"name":"y1","type":"int","value":1071},{"name":"y2","type":"int","value":1070},{"name":"next","type":"int","value":343},{"name":"prev","type":"int","value":364}],"polyline":[{"x":0,"y":0},{"x":20,"y":-1}]},{"id":1259,"x":1937,"y":1448,"visible":true,"properties":[{"name":"layer","type":"int","value":1},{"name":"group","type":"int","value":0},{"name":"id","type":"int","value":366},{"name":"fh_layer","type":"int","value":1},{"name":"fh_group","type":"int","value":0},{"name":"fh_id","type":"int","value":366},{"name":"x1","type":"int","value":1937},{"name":"x2","type":"int","value":1937},{"name":"y1","type":"int","value":1448},{"name":"y2","type":"int","value":1426},{"name":"next","type":"int","value":515},{"name":"prev","type":"int","value":367}],"polyline":[{"x":0,"y":0},{"x":0,"y":-22}]},{"id":1260,"x":1937,"y":1500,"visible":true,"properties":[{"name":"layer","type":"int","value":1},{"name":"group","type":"int","value":0},{"name":"id","type":"int","value":367},{"name":"fh_layer","type":"int","value":1},{"name":"fh_group","type":"int","value":0},{"name":"fh_id","type":"int","value":367},{"name":"x1","type":"int","value":1937},{"name":"x2","type":"int","value":1937},{"name":"y1","type":"int","value":1500},{"name":"y2","type":"int","value":1448},{"name":"next","type":"int","value":366},{"name":"prev","type":"int","value":336}],"polyline":[{"x":0,"y":0},{"x":0,"y":-52}]},{"id":1261,"x":1937,"y":1380,"visible":true,"properties":[{"name":"layer","type":"int","value":1},{"name":"group","type":"int","value":0},{"name":"id","type":"int","value":368},{"name":"fh_layer","type":"int","value":1},{"name":"fh_group","type":"int","value":0},{"name":"fh_id","type":"int","value":368},{"name":"x1","type":"int","value":1937},{"name":"x2","type":"int","value":1937},{"name":"y1","type":"int","value":1380},{"name":"y2","type":"int","value":1320},{"name":"next","type":"int","value":369},{"name":"prev","type":"int","value":515}],"polyline":[{"x":0,"y":0},{"x":0,"y":-60}]},{"id":1262,"x":1937,"y":1320,"visible":true,"properties":[{"name":"layer","type":"int","value":1},{"name":"group","type":"int","value":0},{"name":"id","type":"int","value":369},{"name":"fh_layer","type":"int","value":1},{"name":"fh_group","type":"int","value":0},{"name":"fh_id","type":"int","value":369},{"name":"x1","type":"int","value":1937},{"name":"x2","type":"int","value":1937},{"name":"y1","type":"int","value":1320},{"name":"y2","type":"int","value":1268},{"name":"next","type":"int","value":350},{"name":"prev","type":"int","value":368}],"polyline":[{"x":0,"y":0},{"x":0,"y":-52}]},{"id":1263,"x":2250,"y":1070,"visible":true,"properties":[{"name":"layer","type":"int","value":1},{"name":"group","type":"int","value":0},{"name":"id","type":"int","value":370},{"name":"fh_layer","type":"int","value":1},{"name":"fh_group","type":"int","value":0},{"name":"fh_id","type":"int","value":370},{"name":"x1","type":"int","value":2250},{"name":"x2","type":"int","value":2272},{"name":"y1","type":"int","value":1070},{"name":"y2","type":"int","value":1066},{"name":"next","type":"int","value":371},{"name":"prev","type":"int","value":356}],"polyline":[{"x":0,"y":0},{"x":22,"y":-4}]},{"id":1264,"x":2272,"y":1066,"visible":true,"properties":[{"name":"layer","type":"int","value":1},{"name":"group","type":"int","value":0},{"name":"id","type":"int","value":371},{"name":"fh_layer","type":"int","value":1},{"name":"fh_group","type":"int","value":0},{"name":"fh_id","type":"int","value":371},{"name":"x1","type":"int","value":2272},{"name":"x2","type":"int","value":2280},{"name":"y1","type":"int","value":1066},{"name":"y2","type":"int","value":1059},{"name":"next","type":"int","value":372},{"name":"prev","type":"int","value":370}],"polyline":[{"x":0,"y":0},{"x":8,"y":-7}]},{"id":1265,"x":2280,"y":1059,"visible":true,"properties":[{"name":"layer","type":"int","value":1},{"name":"group","type":"int","value":0},{"name":"id","type":"int","value":372},{"name":"fh_layer","type":"int","value":1},{"name":"fh_group","type":"int","value":0},{"name":"fh_id","type":"int","value":372},{"name":"x1","type":"int","value":2280},{"name":"x2","type":"int","value":2295},{"name":"y1","type":"int","value":1059},{"name":"y2","type":"int","value":1055},{"name":"next","type":"int","value":373},{"name":"prev","type":"int","value":371}],"polyline":[{"x":0,"y":0},{"x":15,"y":-4}]},{"id":1266,"x":2295,"y":1055,"visible":true,"properties":[{"name":"layer","type":"int","value":1},{"name":"group","type":"int","value":0},{"name":"id","type":"int","value":373},{"name":"fh_layer","type":"int","value":1},{"name":"fh_group","type":"int","value":0},{"name":"fh_id","type":"int","value":373},{"name":"x1","type":"int","value":2295},{"name":"x2","type":"int","value":2302},{"name":"y1","type":"int","value":1055},{"name":"y2","type":"int","value":1056},{"name":"next","type":"int","value":374},{"name":"prev","type":"int","value":372}],"polyline":[{"x":0,"y":0},{"x":7,"y":1}]},{"id":1267,"x":2302,"y":1056,"visible":true,"properties":[{"name":"layer","type":"int","value":1},{"name":"group","type":"int","value":0},{"name":"id","type":"int","value":374},{"name":"fh_layer","type":"int","value":1},{"name":"fh_group","type":"int","value":0},{"name":"fh_id","type":"int","value":374},{"name":"x1","type":"int","value":2302},{"name":"x2","type":"int","value":2323},{"name":"y1","type":"int","value":1056},{"name":"y2","type":"int","value":1069},{"name":"next","type":"int","value":375},{"name":"prev","type":"int","value":373}],"polyline":[{"x":0,"y":0},{"x":21,"y":13}]},{"id":1268,"x":2323,"y":1069,"visible":true,"properties":[{"name":"layer","type":"int","value":1},{"name":"group","type":"int","value":0},{"name":"id","type":"int","value":375},{"name":"fh_layer","type":"int","value":1},{"name":"fh_group","type":"int","value":0},{"name":"fh_id","type":"int","value":375},{"name":"x1","type":"int","value":2323},{"name":"x2","type":"int","value":2340},{"name":"y1","type":"int","value":1069},{"name":"y2","type":"int","value":1070},{"name":"next","type":"int","value":379},{"name":"prev","type":"int","value":374}],"polyline":[{"x":0,"y":0},{"x":17,"y":1}]},{"id":1269,"x":2473,"y":1140,"visible":true,"properties":[{"name":"layer","type":"int","value":1},{"name":"group","type":"int","value":0},{"name":"id","type":"int","value":376},{"name":"fh_layer","type":"int","value":1},{"name":"fh_group","type":"int","value":0},{"name":"fh_id","type":"int","value":376},{"name":"x1","type":"int","value":2473},{"name":"x2","type":"int","value":2473},{"name":"y1","type":"int","value":1140},{"name":"y2","type":"int","value":1208},{"name":"next","type":"int","value":386},{"name":"prev","type":"int","value":378}],"polyline":[{"x":0,"y":0},{"x":0,"y":68}]},{"id":1270,"x":2473,"y":1070,"visible":true,"properties":[{"name":"layer","type":"int","value":1},{"name":"group","type":"int","value":0},{"name":"id","type":"int","value":377},{"name":"fh_layer","type":"int","value":1},{"name":"fh_group","type":"int","value":0},{"name":"fh_id","type":"int","value":377},{"name":"x1","type":"int","value":2473},{"name":"x2","type":"int","value":2473},{"name":"y1","type":"int","value":1070},{"name":"y2","type":"int","value":1080},{"name":"next","type":"int","value":378},{"name":"prev","type":"int","value":385}],"polyline":[{"x":0,"y":0},{"x":0,"y":10}]},{"id":1271,"x":2473,"y":1080,"visible":true,"properties":[{"name":"layer","type":"int","value":1},{"name":"group","type":"int","value":0},{"name":"id","type":"int","value":378},{"name":"fh_layer","type":"int","value":1},{"name":"fh_group","type":"int","value":0},{"name":"fh_id","type":"int","value":378},{"name":"x1","type":"int","value":2473},{"name":"x2","type":"int","value":2473},{"name":"y1","type":"int","value":1080},{"name":"y2","type":"int","value":1140},{"name":"next","type":"int","value":376},{"name":"prev","type":"int","value":377}],"polyline":[{"x":0,"y":0},{"x":0,"y":60}]},{"id":1272,"x":2340,"y":1070,"visible":true,"properties":[{"name":"layer","type":"int","value":1},{"name":"group","type":"int","value":0},{"name":"id","type":"int","value":379},{"name":"fh_layer","type":"int","value":1},{"name":"fh_group","type":"int","value":0},{"name":"fh_id","type":"int","value":379},{"name":"x1","type":"int","value":2340},{"name":"x2","type":"int","value":2362},{"name":"y1","type":"int","value":1070},{"name":"y2","type":"int","value":1066},{"name":"next","type":"int","value":380},{"name":"prev","type":"int","value":375}],"polyline":[{"x":0,"y":0},{"x":22,"y":-4}]},{"id":1273,"x":2362,"y":1066,"visible":true,"properties":[{"name":"layer","type":"int","value":1},{"name":"group","type":"int","value":0},{"name":"id","type":"int","value":380},{"name":"fh_layer","type":"int","value":1},{"name":"fh_group","type":"int","value":0},{"name":"fh_id","type":"int","value":380},{"name":"x1","type":"int","value":2362},{"name":"x2","type":"int","value":2370},{"name":"y1","type":"int","value":1066},{"name":"y2","type":"int","value":1059},{"name":"next","type":"int","value":381},{"name":"prev","type":"int","value":379}],"polyline":[{"x":0,"y":0},{"x":8,"y":-7}]},{"id":1274,"x":2370,"y":1059,"visible":true,"properties":[{"name":"layer","type":"int","value":1},{"name":"group","type":"int","value":0},{"name":"id","type":"int","value":381},{"name":"fh_layer","type":"int","value":1},{"name":"fh_group","type":"int","value":0},{"name":"fh_id","type":"int","value":381},{"name":"x1","type":"int","value":2370},{"name":"x2","type":"int","value":2385},{"name":"y1","type":"int","value":1059},{"name":"y2","type":"int","value":1055},{"name":"next","type":"int","value":382},{"name":"prev","type":"int","value":380}],"polyline":[{"x":0,"y":0},{"x":15,"y":-4}]},{"id":1275,"x":2385,"y":1055,"visible":true,"properties":[{"name":"layer","type":"int","value":1},{"name":"group","type":"int","value":0},{"name":"id","type":"int","value":382},{"name":"fh_layer","type":"int","value":1},{"name":"fh_group","type":"int","value":0},{"name":"fh_id","type":"int","value":382},{"name":"x1","type":"int","value":2385},{"name":"x2","type":"int","value":2392},{"name":"y1","type":"int","value":1055},{"name":"y2","type":"int","value":1056},{"name":"next","type":"int","value":383},{"name":"prev","type":"int","value":381}],"polyline":[{"x":0,"y":0},{"x":7,"y":1}]},{"id":1276,"x":2392,"y":1056,"visible":true,"properties":[{"name":"layer","type":"int","value":1},{"name":"group","type":"int","value":0},{"name":"id","type":"int","value":383},{"name":"fh_layer","type":"int","value":1},{"name":"fh_group","type":"int","value":0},{"name":"fh_id","type":"int","value":383},{"name":"x1","type":"int","value":2392},{"name":"x2","type":"int","value":2413},{"name":"y1","type":"int","value":1056},{"name":"y2","type":"int","value":1069},{"name":"next","type":"int","value":384},{"name":"prev","type":"int","value":382}],"polyline":[{"x":0,"y":0},{"x":21,"y":13}]},{"id":1277,"x":2413,"y":1069,"visible":true,"properties":[{"name":"layer","type":"int","value":1},{"name":"group","type":"int","value":0},{"name":"id","type":"int","value":384},{"name":"fh_layer","type":"int","value":1},{"name":"fh_group","type":"int","value":0},{"name":"fh_id","type":"int","value":384},{"name":"x1","type":"int","value":2413},{"name":"x2","type":"int","value":2430},{"name":"y1","type":"int","value":1069},{"name":"y2","type":"int","value":1070},{"name":"next","type":"int","value":385},{"name":"prev","type":"int","value":383}],"polyline":[{"x":0,"y":0},{"x":17,"y":1}]},{"id":1278,"x":2430,"y":1070,"visible":true,"properties":[{"name":"layer","type":"int","value":1},{"name":"group","type":"int","value":0},{"name":"id","type":"int","value":385},{"name":"fh_layer","type":"int","value":1},{"name":"fh_group","type":"int","value":0},{"name":"fh_id","type":"int","value":385},{"name":"x1","type":"int","value":2430},{"name":"x2","type":"int","value":2473},{"name":"y1","type":"int","value":1070},{"name":"y2","type":"int","value":1070},{"name":"next","type":"int","value":377},{"name":"prev","type":"int","value":384}],"polyline":[{"x":0,"y":0},{"x":43,"y":0}]},{"id":1279,"x":2473,"y":1208,"visible":true,"properties":[{"name":"layer","type":"int","value":1},{"name":"group","type":"int","value":0},{"name":"id","type":"int","value":386},{"name":"fh_layer","type":"int","value":1},{"name":"fh_group","type":"int","value":0},{"name":"fh_id","type":"int","value":386},{"name":"x1","type":"int","value":2473},{"name":"x2","type":"int","value":2473},{"name":"y1","type":"int","value":1208},{"name":"y2","type":"int","value":1260},{"name":"next","type":"int","value":357},{"name":"prev","type":"int","value":376}],"polyline":[{"x":0,"y":0},{"x":0,"y":52}]},{"id":1280,"x":2473,"y":1328,"visible":true,"properties":[{"name":"layer","type":"int","value":1},{"name":"group","type":"int","value":0},{"name":"id","type":"int","value":387},{"name":"fh_layer","type":"int","value":1},{"name":"fh_group","type":"int","value":0},{"name":"fh_id","type":"int","value":387},{"name":"x1","type":"int","value":2473},{"name":"x2","type":"int","value":2473},{"name":"y1","type":"int","value":1328},{"name":"y2","type":"int","value":1380},{"name":"next","type":"int","value":342},{"name":"prev","type":"int","value":357}],"polyline":[{"x":0,"y":0},{"x":0,"y":52}]},{"id":1281,"x":2473,"y":1500,"visible":true,"properties":[{"name":"layer","type":"int","value":1},{"name":"group","type":"int","value":0},{"name":"id","type":"int","value":388},{"name":"fh_layer","type":"int","value":1},{"name":"fh_group","type":"int","value":0},{"name":"fh_id","type":"int","value":388},{"name":"x1","type":"int","value":2473},{"name":"x2","type":"int","value":2473},{"name":"y1","type":"int","value":1500},{"name":"y2","type":"int","value":1568},{"name":"next","type":"int","value":390},{"name":"prev","type":"int","value":389}],"polyline":[{"x":0,"y":0},{"x":0,"y":68}]},{"id":1282,"x":2473,"y":1448,"visible":true,"properties":[{"name":"layer","type":"int","value":1},{"name":"group","type":"int","value":0},{"name":"id","type":"int","value":389},{"name":"fh_layer","type":"int","value":1},{"name":"fh_group","type":"int","value":0},{"name":"fh_id","type":"int","value":389},{"name":"x1","type":"int","value":2473},{"name":"x2","type":"int","value":2473},{"name":"y1","type":"int","value":1448},{"name":"y2","type":"int","value":1500},{"name":"next","type":"int","value":388},{"name":"prev","type":"int","value":342}],"polyline":[{"x":0,"y":0},{"x":0,"y":52}]},{"id":1283,"x":2473,"y":1568,"visible":true,"properties":[{"name":"layer","type":"int","value":1},{"name":"group","type":"int","value":0},{"name":"id","type":"int","value":390},{"name":"fh_layer","type":"int","value":1},{"name":"fh_group","type":"int","value":0},{"name":"fh_id","type":"int","value":390},{"name":"x1","type":"int","value":2473},{"name":"x2","type":"int","value":2473},{"name":"y1","type":"int","value":1568},{"name":"y2","type":"int","value":1628},{"name":"next","type":"int","value":391},{"name":"prev","type":"int","value":388}],"polyline":[{"x":0,"y":0},{"x":0,"y":60}]},{"id":1284,"x":2473,"y":1628,"visible":true,"properties":[{"name":"layer","type":"int","value":1},{"name":"group","type":"int","value":0},{"name":"id","type":"int","value":391},{"name":"fh_layer","type":"int","value":1},{"name":"fh_group","type":"int","value":0},{"name":"fh_id","type":"int","value":391},{"name":"x1","type":"int","value":2473},{"name":"x2","type":"int","value":2473},{"name":"y1","type":"int","value":1628},{"name":"y2","type":"int","value":1688},{"name":"next","type":"int","value":392},{"name":"prev","type":"int","value":390}],"polyline":[{"x":0,"y":0},{"x":0,"y":60}]},{"id":1285,"x":2473,"y":1688,"visible":true,"properties":[{"name":"layer","type":"int","value":1},{"name":"group","type":"int","value":0},{"name":"id","type":"int","value":392},{"name":"fh_layer","type":"int","value":1},{"name":"fh_group","type":"int","value":0},{"name":"fh_id","type":"int","value":392},{"name":"x1","type":"int","value":2473},{"name":"x2","type":"int","value":2473},{"name":"y1","type":"int","value":1688},{"name":"y2","type":"int","value":1748},{"name":"next","type":"int","value":394},{"name":"prev","type":"int","value":391}],"polyline":[{"x":0,"y":0},{"x":0,"y":60}]},{"id":1286,"x":2473,"y":1928,"visible":true,"properties":[{"name":"layer","type":"int","value":1},{"name":"group","type":"int","value":0},{"name":"id","type":"int","value":393},{"name":"fh_layer","type":"int","value":1},{"name":"fh_group","type":"int","value":0},{"name":"fh_id","type":"int","value":393},{"name":"x1","type":"int","value":2473},{"name":"x2","type":"int","value":2473},{"name":"y1","type":"int","value":1928},{"name":"y2","type":"int","value":1988},{"name":"next","type":"int","value":396},{"name":"prev","type":"int","value":349}],"polyline":[{"x":0,"y":0},{"x":0,"y":60}]},{"id":1287,"x":2473,"y":1748,"visible":true,"properties":[{"name":"layer","type":"int","value":1},{"name":"group","type":"int","value":0},{"name":"id","type":"int","value":394},{"name":"fh_layer","type":"int","value":1},{"name":"fh_group","type":"int","value":0},{"name":"fh_id","type":"int","value":394},{"name":"x1","type":"int","value":2473},{"name":"x2","type":"int","value":2473},{"name":"y1","type":"int","value":1748},{"name":"y2","type":"int","value":1808},{"name":"next","type":"int","value":395},{"name":"prev","type":"int","value":392}],"polyline":[{"x":0,"y":0},{"x":0,"y":60}]},{"id":1288,"x":2473,"y":1808,"visible":true,"properties":[{"name":"layer","type":"int","value":1},{"name":"group","type":"int","value":0},{"name":"id","type":"int","value":395},{"name":"fh_layer","type":"int","value":1},{"name":"fh_group","type":"int","value":0},{"name":"fh_id","type":"int","value":395},{"name":"x1","type":"int","value":2473},{"name":"x2","type":"int","value":2473},{"name":"y1","type":"int","value":1808},{"name":"y2","type":"int","value":1860},{"name":"next","type":"int","value":349},{"name":"prev","type":"int","value":394}],"polyline":[{"x":0,"y":0},{"x":0,"y":52}]},{"id":1289,"x":2473,"y":1988,"visible":true,"properties":[{"name":"layer","type":"int","value":1},{"name":"group","type":"int","value":0},{"name":"id","type":"int","value":396},{"name":"fh_layer","type":"int","value":1},{"name":"fh_group","type":"int","value":0},{"name":"fh_id","type":"int","value":396},{"name":"x1","type":"int","value":2473},{"name":"x2","type":"int","value":2473},{"name":"y1","type":"int","value":1988},{"name":"y2","type":"int","value":2040},{"name":"next","type":"int","value":341},{"name":"prev","type":"int","value":393}],"polyline":[{"x":0,"y":0},{"x":0,"y":52}]},{"id":1290,"x":-47,"y":1419,"visible":true,"properties":[{"name":"layer","type":"int","value":1},{"name":"group","type":"int","value":0},{"name":"id","type":"int","value":397},{"name":"fh_layer","type":"int","value":1},{"name":"fh_group","type":"int","value":0},{"name":"fh_id","type":"int","value":397},{"name":"x1","type":"int","value":-47},{"name":"x2","type":"int","value":-47},{"name":"y1","type":"int","value":1419},{"name":"y2","type":"int","value":1440},{"name":"next","type":"int","value":173},{"name":"prev","type":"int","value":178}],"polyline":[{"x":0,"y":0},{"x":0,"y":21}]},{"id":1291,"x":-47,"y":1419,"visible":true,"properties":[{"name":"layer","type":"int","value":1},{"name":"group","type":"int","value":0},{"name":"id","type":"int","value":398},{"name":"fh_layer","type":"int","value":1},{"name":"fh_group","type":"int","value":0},{"name":"fh_id","type":"int","value":398},{"name":"x1","type":"int","value":-47},{"name":"x2","type":"int","value":-37},{"name":"y1","type":"int","value":1419},{"name":"y2","type":"int","value":1417},{"name":"next","type":"int","value":399},{"name":"prev","type":"int","value":178}],"polyline":[{"x":0,"y":0},{"x":10,"y":-2}]},{"id":1292,"x":-37,"y":1417,"visible":true,"properties":[{"name":"layer","type":"int","value":1},{"name":"group","type":"int","value":0},{"name":"id","type":"int","value":399},{"name":"fh_layer","type":"int","value":1},{"name":"fh_group","type":"int","value":0},{"name":"fh_id","type":"int","value":399},{"name":"x1","type":"int","value":-37},{"name":"x2","type":"int","value":-22},{"name":"y1","type":"int","value":1417},{"name":"y2","type":"int","value":1426},{"name":"next","type":"int","value":400},{"name":"prev","type":"int","value":398}],"polyline":[{"x":0,"y":0},{"x":15,"y":9}]},{"id":1293,"x":-22,"y":1426,"visible":true,"properties":[{"name":"layer","type":"int","value":1},{"name":"group","type":"int","value":0},{"name":"id","type":"int","value":400},{"name":"fh_layer","type":"int","value":1},{"name":"fh_group","type":"int","value":0},{"name":"fh_id","type":"int","value":400},{"name":"x1","type":"int","value":-22},{"name":"x2","type":"int","value":3},{"name":"y1","type":"int","value":1426},{"name":"y2","type":"int","value":1427},{"name":"next","type":"int","value":401},{"name":"prev","type":"int","value":399}],"polyline":[{"x":0,"y":0},{"x":25,"y":1}]},{"id":1294,"x":3,"y":1427,"visible":true,"properties":[{"name":"layer","type":"int","value":1},{"name":"group","type":"int","value":0},{"name":"id","type":"int","value":401},{"name":"fh_layer","type":"int","value":1},{"name":"fh_group","type":"int","value":0},{"name":"fh_id","type":"int","value":401},{"name":"x1","type":"int","value":3},{"name":"x2","type":"int","value":17},{"name":"y1","type":"int","value":1427},{"name":"y2","type":"int","value":1420},{"name":"next","type":"int","value":402},{"name":"prev","type":"int","value":400}],"polyline":[{"x":0,"y":0},{"x":14,"y":-7}]},{"id":1295,"x":17,"y":1420,"visible":true,"properties":[{"name":"layer","type":"int","value":1},{"name":"group","type":"int","value":0},{"name":"id","type":"int","value":402},{"name":"fh_layer","type":"int","value":1},{"name":"fh_group","type":"int","value":0},{"name":"fh_id","type":"int","value":402},{"name":"x1","type":"int","value":17},{"name":"x2","type":"int","value":47},{"name":"y1","type":"int","value":1420},{"name":"y2","type":"int","value":1418},{"name":"next","type":"int","value":403},{"name":"prev","type":"int","value":401}],"polyline":[{"x":0,"y":0},{"x":30,"y":-2}]},{"id":1296,"x":47,"y":1418,"visible":true,"properties":[{"name":"layer","type":"int","value":1},{"name":"group","type":"int","value":0},{"name":"id","type":"int","value":403},{"name":"fh_layer","type":"int","value":1},{"name":"fh_group","type":"int","value":0},{"name":"fh_id","type":"int","value":403},{"name":"x1","type":"int","value":47},{"name":"x2","type":"int","value":70},{"name":"y1","type":"int","value":1418},{"name":"y2","type":"int","value":1424},{"name":"next","type":"int","value":404},{"name":"prev","type":"int","value":402}],"polyline":[{"x":0,"y":0},{"x":23,"y":6}]},{"id":1297,"x":70,"y":1424,"visible":true,"properties":[{"name":"layer","type":"int","value":1},{"name":"group","type":"int","value":0},{"name":"id","type":"int","value":404},{"name":"fh_layer","type":"int","value":1},{"name":"fh_group","type":"int","value":0},{"name":"fh_id","type":"int","value":404},{"name":"x1","type":"int","value":70},{"name":"x2","type":"int","value":80},{"name":"y1","type":"int","value":1424},{"name":"y2","type":"int","value":1424},{"name":"next","type":"int","value":405},{"name":"prev","type":"int","value":403}],"polyline":[{"x":0,"y":0},{"x":10,"y":0}]},{"id":1298,"x":80,"y":1424,"visible":true,"properties":[{"name":"layer","type":"int","value":1},{"name":"group","type":"int","value":0},{"name":"id","type":"int","value":405},{"name":"fh_layer","type":"int","value":1},{"name":"fh_group","type":"int","value":0},{"name":"fh_id","type":"int","value":405},{"name":"x1","type":"int","value":80},{"name":"x2","type":"int","value":104},{"name":"y1","type":"int","value":1424},{"name":"y2","type":"int","value":1415},{"name":"next","type":"int","value":406},{"name":"prev","type":"int","value":404}],"polyline":[{"x":0,"y":0},{"x":24,"y":-9}]},{"id":1299,"x":104,"y":1415,"visible":true,"properties":[{"name":"layer","type":"int","value":1},{"name":"group","type":"int","value":0},{"name":"id","type":"int","value":406},{"name":"fh_layer","type":"int","value":1},{"name":"fh_group","type":"int","value":0},{"name":"fh_id","type":"int","value":406},{"name":"x1","type":"int","value":104},{"name":"x2","type":"int","value":125},{"name":"y1","type":"int","value":1415},{"name":"y2","type":"int","value":1423},{"name":"next","type":"int","value":0},{"name":"prev","type":"int","value":405}],"polyline":[{"x":0,"y":0},{"x":21,"y":8}]},{"id":1300,"x":14,"y":1427,"visible":true,"properties":[{"name":"layer","type":"int","value":1},{"name":"group","type":"int","value":0},{"name":"id","type":"int","value":407},{"name":"fh_layer","type":"int","value":1},{"name":"fh_group","type":"int","value":0},{"name":"fh_id","type":"int","value":407},{"name":"x1","type":"int","value":14},{"name":"x2","type":"int","value":14},{"name":"y1","type":"int","value":1427},{"name":"y2","type":"int","value":1445},{"name":"next","type":"int","value":408},{"name":"prev","type":"int","value":0}],"polyline":[{"x":0,"y":0},{"x":0,"y":18}]},{"id":1301,"x":14,"y":1445,"visible":true,"properties":[{"name":"layer","type":"int","value":1},{"name":"group","type":"int","value":0},{"name":"id","type":"int","value":408},{"name":"fh_layer","type":"int","value":1},{"name":"fh_group","type":"int","value":0},{"name":"fh_id","type":"int","value":408},{"name":"x1","type":"int","value":14},{"name":"x2","type":"int","value":30},{"name":"y1","type":"int","value":1445},{"name":"y2","type":"int","value":1447},{"name":"next","type":"int","value":409},{"name":"prev","type":"int","value":407}],"polyline":[{"x":0,"y":0},{"x":16,"y":2}]},{"id":1302,"x":30,"y":1447,"visible":true,"properties":[{"name":"layer","type":"int","value":1},{"name":"group","type":"int","value":0},{"name":"id","type":"int","value":409},{"name":"fh_layer","type":"int","value":1},{"name":"fh_group","type":"int","value":0},{"name":"fh_id","type":"int","value":409},{"name":"x1","type":"int","value":30},{"name":"x2","type":"int","value":43},{"name":"y1","type":"int","value":1447},{"name":"y2","type":"int","value":1456},{"name":"next","type":"int","value":410},{"name":"prev","type":"int","value":408}],"polyline":[{"x":0,"y":0},{"x":13,"y":9}]},{"id":1303,"x":43,"y":1456,"visible":true,"properties":[{"name":"layer","type":"int","value":1},{"name":"group","type":"int","value":0},{"name":"id","type":"int","value":410},{"name":"fh_layer","type":"int","value":1},{"name":"fh_group","type":"int","value":0},{"name":"fh_id","type":"int","value":410},{"name":"x1","type":"int","value":43},{"name":"x2","type":"int","value":63},{"name":"y1","type":"int","value":1456},{"name":"y2","type":"int","value":1455},{"name":"next","type":"int","value":411},{"name":"prev","type":"int","value":409}],"polyline":[{"x":0,"y":0},{"x":20,"y":-1}]},{"id":1304,"x":63,"y":1455,"visible":true,"properties":[{"name":"layer","type":"int","value":1},{"name":"group","type":"int","value":0},{"name":"id","type":"int","value":411},{"name":"fh_layer","type":"int","value":1},{"name":"fh_group","type":"int","value":0},{"name":"fh_id","type":"int","value":411},{"name":"x1","type":"int","value":63},{"name":"x2","type":"int","value":74},{"name":"y1","type":"int","value":1455},{"name":"y2","type":"int","value":1451},{"name":"next","type":"int","value":412},{"name":"prev","type":"int","value":410}],"polyline":[{"x":0,"y":0},{"x":11,"y":-4}]},{"id":1305,"x":74,"y":1451,"visible":true,"properties":[{"name":"layer","type":"int","value":1},{"name":"group","type":"int","value":0},{"name":"id","type":"int","value":412},{"name":"fh_layer","type":"int","value":1},{"name":"fh_group","type":"int","value":0},{"name":"fh_id","type":"int","value":412},{"name":"x1","type":"int","value":74},{"name":"x2","type":"int","value":83},{"name":"y1","type":"int","value":1451},{"name":"y2","type":"int","value":1454},{"name":"next","type":"int","value":413},{"name":"prev","type":"int","value":411}],"polyline":[{"x":0,"y":0},{"x":9,"y":3}]},{"id":1306,"x":83,"y":1454,"visible":true,"properties":[{"name":"layer","type":"int","value":1},{"name":"group","type":"int","value":0},{"name":"id","type":"int","value":413},{"name":"fh_layer","type":"int","value":1},{"name":"fh_group","type":"int","value":0},{"name":"fh_id","type":"int","value":413},{"name":"x1","type":"int","value":83},{"name":"x2","type":"int","value":92},{"name":"y1","type":"int","value":1454},{"name":"y2","type":"int","value":1450},{"name":"next","type":"int","value":414},{"name":"prev","type":"int","value":412}],"polyline":[{"x":0,"y":0},{"x":9,"y":-4}]},{"id":1307,"x":92,"y":1450,"visible":true,"properties":[{"name":"layer","type":"int","value":1},{"name":"group","type":"int","value":0},{"name":"id","type":"int","value":414},{"name":"fh_layer","type":"int","value":1},{"name":"fh_group","type":"int","value":0},{"name":"fh_id","type":"int","value":414},{"name":"x1","type":"int","value":92},{"name":"x2","type":"int","value":103},{"name":"y1","type":"int","value":1450},{"name":"y2","type":"int","value":1455},{"name":"next","type":"int","value":415},{"name":"prev","type":"int","value":413}],"polyline":[{"x":0,"y":0},{"x":11,"y":5}]},{"id":1308,"x":103,"y":1455,"visible":true,"properties":[{"name":"layer","type":"int","value":1},{"name":"group","type":"int","value":0},{"name":"id","type":"int","value":415},{"name":"fh_layer","type":"int","value":1},{"name":"fh_group","type":"int","value":0},{"name":"fh_id","type":"int","value":415},{"name":"x1","type":"int","value":103},{"name":"x2","type":"int","value":131},{"name":"y1","type":"int","value":1455},{"name":"y2","type":"int","value":1454},{"name":"next","type":"int","value":416},{"name":"prev","type":"int","value":414}],"polyline":[{"x":0,"y":0},{"x":28,"y":-1}]},{"id":1309,"x":131,"y":1454,"visible":true,"properties":[{"name":"layer","type":"int","value":1},{"name":"group","type":"int","value":0},{"name":"id","type":"int","value":416},{"name":"fh_layer","type":"int","value":1},{"name":"fh_group","type":"int","value":0},{"name":"fh_id","type":"int","value":416},{"name":"x1","type":"int","value":131},{"name":"x2","type":"int","value":136},{"name":"y1","type":"int","value":1454},{"name":"y2","type":"int","value":1451},{"name":"next","type":"int","value":417},{"name":"prev","type":"int","value":415}],"polyline":[{"x":0,"y":0},{"x":5,"y":-3}]},{"id":1310,"x":136,"y":1451,"visible":true,"properties":[{"name":"layer","type":"int","value":1},{"name":"group","type":"int","value":0},{"name":"id","type":"int","value":417},{"name":"fh_layer","type":"int","value":1},{"name":"fh_group","type":"int","value":0},{"name":"fh_id","type":"int","value":417},{"name":"x1","type":"int","value":136},{"name":"x2","type":"int","value":173},{"name":"y1","type":"int","value":1451},{"name":"y2","type":"int","value":1450},{"name":"next","type":"int","value":418},{"name":"prev","type":"int","value":416}],"polyline":[{"x":0,"y":0},{"x":37,"y":-1}]},{"id":1311,"x":173,"y":1450,"visible":true,"properties":[{"name":"layer","type":"int","value":1},{"name":"group","type":"int","value":0},{"name":"id","type":"int","value":418},{"name":"fh_layer","type":"int","value":1},{"name":"fh_group","type":"int","value":0},{"name":"fh_id","type":"int","value":418},{"name":"x1","type":"int","value":173},{"name":"x2","type":"int","value":187},{"name":"y1","type":"int","value":1450},{"name":"y2","type":"int","value":1456},{"name":"next","type":"int","value":419},{"name":"prev","type":"int","value":417}],"polyline":[{"x":0,"y":0},{"x":14,"y":6}]},{"id":1312,"x":187,"y":1456,"visible":true,"properties":[{"name":"layer","type":"int","value":1},{"name":"group","type":"int","value":0},{"name":"id","type":"int","value":419},{"name":"fh_layer","type":"int","value":1},{"name":"fh_group","type":"int","value":0},{"name":"fh_id","type":"int","value":419},{"name":"x1","type":"int","value":187},{"name":"x2","type":"int","value":195},{"name":"y1","type":"int","value":1456},{"name":"y2","type":"int","value":1451},{"name":"next","type":"int","value":420},{"name":"prev","type":"int","value":418}],"polyline":[{"x":0,"y":0},{"x":8,"y":-5}]},{"id":1313,"x":195,"y":1451,"visible":true,"properties":[{"name":"layer","type":"int","value":1},{"name":"group","type":"int","value":0},{"name":"id","type":"int","value":420},{"name":"fh_layer","type":"int","value":1},{"name":"fh_group","type":"int","value":0},{"name":"fh_id","type":"int","value":420},{"name":"x1","type":"int","value":195},{"name":"x2","type":"int","value":230},{"name":"y1","type":"int","value":1451},{"name":"y2","type":"int","value":1451},{"name":"next","type":"int","value":0},{"name":"prev","type":"int","value":419}],"polyline":[{"x":0,"y":0},{"x":35,"y":0}]},{"id":1314,"x":162,"y":1377,"visible":true,"properties":[{"name":"layer","type":"int","value":1},{"name":"group","type":"int","value":0},{"name":"id","type":"int","value":421},{"name":"fh_layer","type":"int","value":1},{"name":"fh_group","type":"int","value":0},{"name":"fh_id","type":"int","value":421},{"name":"x1","type":"int","value":162},{"name":"x2","type":"int","value":184},{"name":"y1","type":"int","value":1377},{"name":"y2","type":"int","value":1375},{"name":"next","type":"int","value":422},{"name":"prev","type":"int","value":0}],"polyline":[{"x":0,"y":0},{"x":22,"y":-2}]},{"id":1315,"x":184,"y":1375,"visible":true,"properties":[{"name":"layer","type":"int","value":1},{"name":"group","type":"int","value":0},{"name":"id","type":"int","value":422},{"name":"fh_layer","type":"int","value":1},{"name":"fh_group","type":"int","value":0},{"name":"fh_id","type":"int","value":422},{"name":"x1","type":"int","value":184},{"name":"x2","type":"int","value":197},{"name":"y1","type":"int","value":1375},{"name":"y2","type":"int","value":1382},{"name":"next","type":"int","value":423},{"name":"prev","type":"int","value":421}],"polyline":[{"x":0,"y":0},{"x":13,"y":7}]},{"id":1316,"x":197,"y":1382,"visible":true,"properties":[{"name":"layer","type":"int","value":1},{"name":"group","type":"int","value":0},{"name":"id","type":"int","value":423},{"name":"fh_layer","type":"int","value":1},{"name":"fh_group","type":"int","value":0},{"name":"fh_id","type":"int","value":423},{"name":"x1","type":"int","value":197},{"name":"x2","type":"int","value":252},{"name":"y1","type":"int","value":1382},{"name":"y2","type":"int","value":1375},{"name":"next","type":"int","value":424},{"name":"prev","type":"int","value":422}],"polyline":[{"x":0,"y":0},{"x":55,"y":-7}]},{"id":1317,"x":252,"y":1375,"visible":true,"properties":[{"name":"layer","type":"int","value":1},{"name":"group","type":"int","value":0},{"name":"id","type":"int","value":424},{"name":"fh_layer","type":"int","value":1},{"name":"fh_group","type":"int","value":0},{"name":"fh_id","type":"int","value":424},{"name":"x1","type":"int","value":252},{"name":"x2","type":"int","value":281},{"name":"y1","type":"int","value":1375},{"name":"y2","type":"int","value":1381},{"name":"next","type":"int","value":425},{"name":"prev","type":"int","value":423}],"polyline":[{"x":0,"y":0},{"x":29,"y":6}]},{"id":1318,"x":281,"y":1381,"visible":true,"properties":[{"name":"layer","type":"int","value":1},{"name":"group","type":"int","value":0},{"name":"id","type":"int","value":425},{"name":"fh_layer","type":"int","value":1},{"name":"fh_group","type":"int","value":0},{"name":"fh_id","type":"int","value":425},{"name":"x1","type":"int","value":281},{"name":"x2","type":"int","value":298},{"name":"y1","type":"int","value":1381},{"name":"y2","type":"int","value":1373},{"name":"next","type":"int","value":426},{"name":"prev","type":"int","value":424}],"polyline":[{"x":0,"y":0},{"x":17,"y":-8}]},{"id":1319,"x":298,"y":1373,"visible":true,"properties":[{"name":"layer","type":"int","value":1},{"name":"group","type":"int","value":0},{"name":"id","type":"int","value":426},{"name":"fh_layer","type":"int","value":1},{"name":"fh_group","type":"int","value":0},{"name":"fh_id","type":"int","value":426},{"name":"x1","type":"int","value":298},{"name":"x2","type":"int","value":326},{"name":"y1","type":"int","value":1373},{"name":"y2","type":"int","value":1378},{"name":"next","type":"int","value":0},{"name":"prev","type":"int","value":425}],"polyline":[{"x":0,"y":0},{"x":28,"y":5}]},{"id":1320,"x":673,"y":1250,"visible":true,"properties":[{"name":"layer","type":"int","value":1},{"name":"group","type":"int","value":0},{"name":"id","type":"int","value":427},{"name":"fh_layer","type":"int","value":1},{"name":"fh_group","type":"int","value":0},{"name":"fh_id","type":"int","value":427},{"name":"x1","type":"int","value":673},{"name":"x2","type":"int","value":677},{"name":"y1","type":"int","value":1250},{"name":"y2","type":"int","value":1250},{"name":"next","type":"int","value":256},{"name":"prev","type":"int","value":428}],"polyline":[{"x":0,"y":0},{"x":4,"y":0}]},{"id":1321,"x":658,"y":1259,"visible":true,"properties":[{"name":"layer","type":"int","value":1},{"name":"group","type":"int","value":0},{"name":"id","type":"int","value":428},{"name":"fh_layer","type":"int","value":1},{"name":"fh_group","type":"int","value":0},{"name":"fh_id","type":"int","value":428},{"name":"x1","type":"int","value":658},{"name":"x2","type":"int","value":673},{"name":"y1","type":"int","value":1259},{"name":"y2","type":"int","value":1250},{"name":"next","type":"int","value":427},{"name":"prev","type":"int","value":429}],"polyline":[{"x":0,"y":0},{"x":15,"y":-9}]},{"id":1322,"x":633,"y":1260,"visible":true,"properties":[{"name":"layer","type":"int","value":1},{"name":"group","type":"int","value":0},{"name":"id","type":"int","value":429},{"name":"fh_layer","type":"int","value":1},{"name":"fh_group","type":"int","value":0},{"name":"fh_id","type":"int","value":429},{"name":"x1","type":"int","value":633},{"name":"x2","type":"int","value":658},{"name":"y1","type":"int","value":1260},{"name":"y2","type":"int","value":1259},{"name":"next","type":"int","value":428},{"name":"prev","type":"int","value":430}],"polyline":[{"x":0,"y":0},{"x":25,"y":-1}]},{"id":1323,"x":619,"y":1253,"visible":true,"properties":[{"name":"layer","type":"int","value":1},{"name":"group","type":"int","value":0},{"name":"id","type":"int","value":430},{"name":"fh_layer","type":"int","value":1},{"name":"fh_group","type":"int","value":0},{"name":"fh_id","type":"int","value":430},{"name":"x1","type":"int","value":619},{"name":"x2","type":"int","value":633},{"name":"y1","type":"int","value":1253},{"name":"y2","type":"int","value":1260},{"name":"next","type":"int","value":429},{"name":"prev","type":"int","value":431}],"polyline":[{"x":0,"y":0},{"x":14,"y":7}]},{"id":1324,"x":589,"y":1251,"visible":true,"properties":[{"name":"layer","type":"int","value":1},{"name":"group","type":"int","value":0},{"name":"id","type":"int","value":431},{"name":"fh_layer","type":"int","value":1},{"name":"fh_group","type":"int","value":0},{"name":"fh_id","type":"int","value":431},{"name":"x1","type":"int","value":589},{"name":"x2","type":"int","value":619},{"name":"y1","type":"int","value":1251},{"name":"y2","type":"int","value":1253},{"name":"next","type":"int","value":430},{"name":"prev","type":"int","value":432}],"polyline":[{"x":0,"y":0},{"x":30,"y":2}]},{"id":1325,"x":566,"y":1257,"visible":true,"properties":[{"name":"layer","type":"int","value":1},{"name":"group","type":"int","value":0},{"name":"id","type":"int","value":432},{"name":"fh_layer","type":"int","value":1},{"name":"fh_group","type":"int","value":0},{"name":"fh_id","type":"int","value":432},{"name":"x1","type":"int","value":566},{"name":"x2","type":"int","value":589},{"name":"y1","type":"int","value":1257},{"name":"y2","type":"int","value":1251},{"name":"next","type":"int","value":431},{"name":"prev","type":"int","value":433}],"polyline":[{"x":0,"y":0},{"x":23,"y":-6}]},{"id":1326,"x":556,"y":1257,"visible":true,"properties":[{"name":"layer","type":"int","value":1},{"name":"group","type":"int","value":0},{"name":"id","type":"int","value":433},{"name":"fh_layer","type":"int","value":1},{"name":"fh_group","type":"int","value":0},{"name":"fh_id","type":"int","value":433},{"name":"x1","type":"int","value":556},{"name":"x2","type":"int","value":566},{"name":"y1","type":"int","value":1257},{"name":"y2","type":"int","value":1257},{"name":"next","type":"int","value":432},{"name":"prev","type":"int","value":434}],"polyline":[{"x":0,"y":0},{"x":10,"y":0}]},{"id":1327,"x":532,"y":1248,"visible":true,"properties":[{"name":"layer","type":"int","value":1},{"name":"group","type":"int","value":0},{"name":"id","type":"int","value":434},{"name":"fh_layer","type":"int","value":1},{"name":"fh_group","type":"int","value":0},{"name":"fh_id","type":"int","value":434},{"name":"x1","type":"int","value":532},{"name":"x2","type":"int","value":556},{"name":"y1","type":"int","value":1248},{"name":"y2","type":"int","value":1257},{"name":"next","type":"int","value":433},{"name":"prev","type":"int","value":435}],"polyline":[{"x":0,"y":0},{"x":24,"y":9}]},{"id":1328,"x":511,"y":1256,"visible":true,"properties":[{"name":"layer","type":"int","value":1},{"name":"group","type":"int","value":0},{"name":"id","type":"int","value":435},{"name":"fh_layer","type":"int","value":1},{"name":"fh_group","type":"int","value":0},{"name":"fh_id","type":"int","value":435},{"name":"x1","type":"int","value":511},{"name":"x2","type":"int","value":532},{"name":"y1","type":"int","value":1256},{"name":"y2","type":"int","value":1248},{"name":"next","type":"int","value":434},{"name":"prev","type":"int","value":0}],"polyline":[{"x":0,"y":0},{"x":21,"y":-8}]},{"id":1329,"x":622,"y":1278,"visible":true,"properties":[{"name":"layer","type":"int","value":1},{"name":"group","type":"int","value":0},{"name":"id","type":"int","value":436},{"name":"fh_layer","type":"int","value":1},{"name":"fh_group","type":"int","value":0},{"name":"fh_id","type":"int","value":436},{"name":"x1","type":"int","value":622},{"name":"x2","type":"int","value":622},{"name":"y1","type":"int","value":1278},{"name":"y2","type":"int","value":1260},{"name":"next","type":"int","value":0},{"name":"prev","type":"int","value":437}],"polyline":[{"x":0,"y":0},{"x":0,"y":-18}]},{"id":1330,"x":606,"y":1280,"visible":true,"properties":[{"name":"layer","type":"int","value":1},{"name":"group","type":"int","value":0},{"name":"id","type":"int","value":437},{"name":"fh_layer","type":"int","value":1},{"name":"fh_group","type":"int","value":0},{"name":"fh_id","type":"int","value":437},{"name":"x1","type":"int","value":606},{"name":"x2","type":"int","value":622},{"name":"y1","type":"int","value":1280},{"name":"y2","type":"int","value":1278},{"name":"next","type":"int","value":436},{"name":"prev","type":"int","value":438}],"polyline":[{"x":0,"y":0},{"x":16,"y":-2}]},{"id":1331,"x":593,"y":1289,"visible":true,"properties":[{"name":"layer","type":"int","value":1},{"name":"group","type":"int","value":0},{"name":"id","type":"int","value":438},{"name":"fh_layer","type":"int","value":1},{"name":"fh_group","type":"int","value":0},{"name":"fh_id","type":"int","value":438},{"name":"x1","type":"int","value":593},{"name":"x2","type":"int","value":606},{"name":"y1","type":"int","value":1289},{"name":"y2","type":"int","value":1280},{"name":"next","type":"int","value":437},{"name":"prev","type":"int","value":439}],"polyline":[{"x":0,"y":0},{"x":13,"y":-9}]},{"id":1332,"x":573,"y":1288,"visible":true,"properties":[{"name":"layer","type":"int","value":1},{"name":"group","type":"int","value":0},{"name":"id","type":"int","value":439},{"name":"fh_layer","type":"int","value":1},{"name":"fh_group","type":"int","value":0},{"name":"fh_id","type":"int","value":439},{"name":"x1","type":"int","value":573},{"name":"x2","type":"int","value":593},{"name":"y1","type":"int","value":1288},{"name":"y2","type":"int","value":1289},{"name":"next","type":"int","value":438},{"name":"prev","type":"int","value":440}],"polyline":[{"x":0,"y":0},{"x":20,"y":1}]},{"id":1333,"x":562,"y":1284,"visible":true,"properties":[{"name":"layer","type":"int","value":1},{"name":"group","type":"int","value":0},{"name":"id","type":"int","value":440},{"name":"fh_layer","type":"int","value":1},{"name":"fh_group","type":"int","value":0},{"name":"fh_id","type":"int","value":440},{"name":"x1","type":"int","value":562},{"name":"x2","type":"int","value":573},{"name":"y1","type":"int","value":1284},{"name":"y2","type":"int","value":1288},{"name":"next","type":"int","value":439},{"name":"prev","type":"int","value":441}],"polyline":[{"x":0,"y":0},{"x":11,"y":4}]},{"id":1334,"x":553,"y":1287,"visible":true,"properties":[{"name":"layer","type":"int","value":1},{"name":"group","type":"int","value":0},{"name":"id","type":"int","value":441},{"name":"fh_layer","type":"int","value":1},{"name":"fh_group","type":"int","value":0},{"name":"fh_id","type":"int","value":441},{"name":"x1","type":"int","value":553},{"name":"x2","type":"int","value":562},{"name":"y1","type":"int","value":1287},{"name":"y2","type":"int","value":1284},{"name":"next","type":"int","value":440},{"name":"prev","type":"int","value":442}],"polyline":[{"x":0,"y":0},{"x":9,"y":-3}]},{"id":1335,"x":544,"y":1283,"visible":true,"properties":[{"name":"layer","type":"int","value":1},{"name":"group","type":"int","value":0},{"name":"id","type":"int","value":442},{"name":"fh_layer","type":"int","value":1},{"name":"fh_group","type":"int","value":0},{"name":"fh_id","type":"int","value":442},{"name":"x1","type":"int","value":544},{"name":"x2","type":"int","value":553},{"name":"y1","type":"int","value":1283},{"name":"y2","type":"int","value":1287},{"name":"next","type":"int","value":441},{"name":"prev","type":"int","value":443}],"polyline":[{"x":0,"y":0},{"x":9,"y":4}]},{"id":1336,"x":533,"y":1288,"visible":true,"properties":[{"name":"layer","type":"int","value":1},{"name":"group","type":"int","value":0},{"name":"id","type":"int","value":443},{"name":"fh_layer","type":"int","value":1},{"name":"fh_group","type":"int","value":0},{"name":"fh_id","type":"int","value":443},{"name":"x1","type":"int","value":533},{"name":"x2","type":"int","value":544},{"name":"y1","type":"int","value":1288},{"name":"y2","type":"int","value":1283},{"name":"next","type":"int","value":442},{"name":"prev","type":"int","value":444}],"polyline":[{"x":0,"y":0},{"x":11,"y":-5}]},{"id":1337,"x":505,"y":1287,"visible":true,"properties":[{"name":"layer","type":"int","value":1},{"name":"group","type":"int","value":0},{"name":"id","type":"int","value":444},{"name":"fh_layer","type":"int","value":1},{"name":"fh_group","type":"int","value":0},{"name":"fh_id","type":"int","value":444},{"name":"x1","type":"int","value":505},{"name":"x2","type":"int","value":533},{"name":"y1","type":"int","value":1287},{"name":"y2","type":"int","value":1288},{"name":"next","type":"int","value":443},{"name":"prev","type":"int","value":445}],"polyline":[{"x":0,"y":0},{"x":28,"y":1}]},{"id":1338,"x":500,"y":1284,"visible":true,"properties":[{"name":"layer","type":"int","value":1},{"name":"group","type":"int","value":0},{"name":"id","type":"int","value":445},{"name":"fh_layer","type":"int","value":1},{"name":"fh_group","type":"int","value":0},{"name":"fh_id","type":"int","value":445},{"name":"x1","type":"int","value":500},{"name":"x2","type":"int","value":505},{"name":"y1","type":"int","value":1284},{"name":"y2","type":"int","value":1287},{"name":"next","type":"int","value":444},{"name":"prev","type":"int","value":446}],"polyline":[{"x":0,"y":0},{"x":5,"y":3}]},{"id":1339,"x":463,"y":1283,"visible":true,"properties":[{"name":"layer","type":"int","value":1},{"name":"group","type":"int","value":0},{"name":"id","type":"int","value":446},{"name":"fh_layer","type":"int","value":1},{"name":"fh_group","type":"int","value":0},{"name":"fh_id","type":"int","value":446},{"name":"x1","type":"int","value":463},{"name":"x2","type":"int","value":500},{"name":"y1","type":"int","value":1283},{"name":"y2","type":"int","value":1284},{"name":"next","type":"int","value":445},{"name":"prev","type":"int","value":447}],"polyline":[{"x":0,"y":0},{"x":37,"y":1}]},{"id":1340,"x":449,"y":1289,"visible":true,"properties":[{"name":"layer","type":"int","value":1},{"name":"group","type":"int","value":0},{"name":"id","type":"int","value":447},{"name":"fh_layer","type":"int","value":1},{"name":"fh_group","type":"int","value":0},{"name":"fh_id","type":"int","value":447},{"name":"x1","type":"int","value":449},{"name":"x2","type":"int","value":463},{"name":"y1","type":"int","value":1289},{"name":"y2","type":"int","value":1283},{"name":"next","type":"int","value":446},{"name":"prev","type":"int","value":448}],"polyline":[{"x":0,"y":0},{"x":14,"y":-6}]},{"id":1341,"x":441,"y":1284,"visible":true,"properties":[{"name":"layer","type":"int","value":1},{"name":"group","type":"int","value":0},{"name":"id","type":"int","value":448},{"name":"fh_layer","type":"int","value":1},{"name":"fh_group","type":"int","value":0},{"name":"fh_id","type":"int","value":448},{"name":"x1","type":"int","value":441},{"name":"x2","type":"int","value":449},{"name":"y1","type":"int","value":1284},{"name":"y2","type":"int","value":1289},{"name":"next","type":"int","value":447},{"name":"prev","type":"int","value":449}],"polyline":[{"x":0,"y":0},{"x":8,"y":5}]},{"id":1342,"x":406,"y":1284,"visible":true,"properties":[{"name":"layer","type":"int","value":1},{"name":"group","type":"int","value":0},{"name":"id","type":"int","value":449},{"name":"fh_layer","type":"int","value":1},{"name":"fh_group","type":"int","value":0},{"name":"fh_id","type":"int","value":449},{"name":"x1","type":"int","value":406},{"name":"x2","type":"int","value":441},{"name":"y1","type":"int","value":1284},{"name":"y2","type":"int","value":1284},{"name":"next","type":"int","value":448},{"name":"prev","type":"int","value":0}],"polyline":[{"x":0,"y":0},{"x":35,"y":0}]},{"id":1343,"x":-47,"y":1758,"visible":true,"properties":[{"name":"layer","type":"int","value":1},{"name":"group","type":"int","value":0},{"name":"id","type":"int","value":450},{"name":"fh_layer","type":"int","value":1},{"name":"fh_group","type":"int","value":0},{"name":"fh_id","type":"int","value":450},{"name":"x1","type":"int","value":-47},{"name":"x2","type":"int","value":-47},{"name":"y1","type":"int","value":1758},{"name":"y2","type":"int","value":1805},{"name":"next","type":"int","value":226},{"name":"prev","type":"int","value":180}],"polyline":[{"x":0,"y":0},{"x":0,"y":47}]},{"id":1344,"x":-47,"y":1758,"visible":true,"properties":[{"name":"layer","type":"int","value":1},{"name":"group","type":"int","value":0},{"name":"id","type":"int","value":451},{"name":"fh_layer","type":"int","value":1},{"name":"fh_group","type":"int","value":0},{"name":"fh_id","type":"int","value":451},{"name":"x1","type":"int","value":-47},{"name":"x2","type":"int","value":-42},{"name":"y1","type":"int","value":1758},{"name":"y2","type":"int","value":1751},{"name":"next","type":"int","value":452},{"name":"prev","type":"int","value":180}],"polyline":[{"x":0,"y":0},{"x":5,"y":-7}]},{"id":1345,"x":-42,"y":1751,"visible":true,"properties":[{"name":"layer","type":"int","value":1},{"name":"group","type":"int","value":0},{"name":"id","type":"int","value":452},{"name":"fh_layer","type":"int","value":1},{"name":"fh_group","type":"int","value":0},{"name":"fh_id","type":"int","value":452},{"name":"x1","type":"int","value":-42},{"name":"x2","type":"int","value":-26},{"name":"y1","type":"int","value":1751},{"name":"y2","type":"int","value":1745},{"name":"next","type":"int","value":453},{"name":"prev","type":"int","value":451}],"polyline":[{"x":0,"y":0},{"x":16,"y":-6}]},{"id":1346,"x":-26,"y":1745,"visible":true,"properties":[{"name":"layer","type":"int","value":1},{"name":"group","type":"int","value":0},{"name":"id","type":"int","value":453},{"name":"fh_layer","type":"int","value":1},{"name":"fh_group","type":"int","value":0},{"name":"fh_id","type":"int","value":453},{"name":"x1","type":"int","value":-26},{"name":"x2","type":"int","value":-25},{"name":"y1","type":"int","value":1745},{"name":"y2","type":"int","value":1733},{"name":"next","type":"int","value":454},{"name":"prev","type":"int","value":452}],"polyline":[{"x":0,"y":0},{"x":1,"y":-12}]},{"id":1347,"x":-25,"y":1733,"visible":true,"properties":[{"name":"layer","type":"int","value":1},{"name":"group","type":"int","value":0},{"name":"id","type":"int","value":454},{"name":"fh_layer","type":"int","value":1},{"name":"fh_group","type":"int","value":0},{"name":"fh_id","type":"int","value":454},{"name":"x1","type":"int","value":-25},{"name":"x2","type":"int","value":3},{"name":"y1","type":"int","value":1733},{"name":"y2","type":"int","value":1711},{"name":"next","type":"int","value":455},{"name":"prev","type":"int","value":453}],"polyline":[{"x":0,"y":0},{"x":28,"y":-22}]},{"id":1348,"x":3,"y":1711,"visible":true,"properties":[{"name":"layer","type":"int","value":1},{"name":"group","type":"int","value":0},{"name":"id","type":"int","value":455},{"name":"fh_layer","type":"int","value":1},{"name":"fh_group","type":"int","value":0},{"name":"fh_id","type":"int","value":455},{"name":"x1","type":"int","value":3},{"name":"x2","type":"int","value":19},{"name":"y1","type":"int","value":1711},{"name":"y2","type":"int","value":1724},{"name":"next","type":"int","value":456},{"name":"prev","type":"int","value":454}],"polyline":[{"x":0,"y":0},{"x":16,"y":13}]},{"id":1349,"x":19,"y":1724,"visible":true,"properties":[{"name":"layer","type":"int","value":1},{"name":"group","type":"int","value":0},{"name":"id","type":"int","value":456},{"name":"fh_layer","type":"int","value":1},{"name":"fh_group","type":"int","value":0},{"name":"fh_id","type":"int","value":456},{"name":"x1","type":"int","value":19},{"name":"x2","type":"int","value":35},{"name":"y1","type":"int","value":1724},{"name":"y2","type":"int","value":1727},{"name":"next","type":"int","value":457},{"name":"prev","type":"int","value":455}],"polyline":[{"x":0,"y":0},{"x":16,"y":3}]},{"id":1350,"x":35,"y":1727,"visible":true,"properties":[{"name":"layer","type":"int","value":1},{"name":"group","type":"int","value":0},{"name":"id","type":"int","value":457},{"name":"fh_layer","type":"int","value":1},{"name":"fh_group","type":"int","value":0},{"name":"fh_id","type":"int","value":457},{"name":"x1","type":"int","value":35},{"name":"x2","type":"int","value":75},{"name":"y1","type":"int","value":1727},{"name":"y2","type":"int","value":1714},{"name":"next","type":"int","value":458},{"name":"prev","type":"int","value":456}],"polyline":[{"x":0,"y":0},{"x":40,"y":-13}]},{"id":1351,"x":75,"y":1714,"visible":true,"properties":[{"name":"layer","type":"int","value":1},{"name":"group","type":"int","value":0},{"name":"id","type":"int","value":458},{"name":"fh_layer","type":"int","value":1},{"name":"fh_group","type":"int","value":0},{"name":"fh_id","type":"int","value":458},{"name":"x1","type":"int","value":75},{"name":"x2","type":"int","value":96},{"name":"y1","type":"int","value":1714},{"name":"y2","type":"int","value":1724},{"name":"next","type":"int","value":459},{"name":"prev","type":"int","value":457}],"polyline":[{"x":0,"y":0},{"x":21,"y":10}]},{"id":1352,"x":96,"y":1724,"visible":true,"properties":[{"name":"layer","type":"int","value":1},{"name":"group","type":"int","value":0},{"name":"id","type":"int","value":459},{"name":"fh_layer","type":"int","value":1},{"name":"fh_group","type":"int","value":0},{"name":"fh_id","type":"int","value":459},{"name":"x1","type":"int","value":96},{"name":"x2","type":"int","value":115},{"name":"y1","type":"int","value":1724},{"name":"y2","type":"int","value":1724},{"name":"next","type":"int","value":460},{"name":"prev","type":"int","value":458}],"polyline":[{"x":0,"y":0},{"x":19,"y":0}]},{"id":1353,"x":115,"y":1724,"visible":true,"properties":[{"name":"layer","type":"int","value":1},{"name":"group","type":"int","value":0},{"name":"id","type":"int","value":460},{"name":"fh_layer","type":"int","value":1},{"name":"fh_group","type":"int","value":0},{"name":"fh_id","type":"int","value":460},{"name":"x1","type":"int","value":115},{"name":"x2","type":"int","value":131},{"name":"y1","type":"int","value":1724},{"name":"y2","type":"int","value":1718},{"name":"next","type":"int","value":461},{"name":"prev","type":"int","value":459}],"polyline":[{"x":0,"y":0},{"x":16,"y":-6}]},{"id":1354,"x":131,"y":1718,"visible":true,"properties":[{"name":"layer","type":"int","value":1},{"name":"group","type":"int","value":0},{"name":"id","type":"int","value":461},{"name":"fh_layer","type":"int","value":1},{"name":"fh_group","type":"int","value":0},{"name":"fh_id","type":"int","value":461},{"name":"x1","type":"int","value":131},{"name":"x2","type":"int","value":144},{"name":"y1","type":"int","value":1718},{"name":"y2","type":"int","value":1727},{"name":"next","type":"int","value":462},{"name":"prev","type":"int","value":460}],"polyline":[{"x":0,"y":0},{"x":13,"y":9}]},{"id":1355,"x":144,"y":1727,"visible":true,"properties":[{"name":"layer","type":"int","value":1},{"name":"group","type":"int","value":0},{"name":"id","type":"int","value":462},{"name":"fh_layer","type":"int","value":1},{"name":"fh_group","type":"int","value":0},{"name":"fh_id","type":"int","value":462},{"name":"x1","type":"int","value":144},{"name":"x2","type":"int","value":151},{"name":"y1","type":"int","value":1727},{"name":"y2","type":"int","value":1758},{"name":"next","type":"int","value":463},{"name":"prev","type":"int","value":461}],"polyline":[{"x":0,"y":0},{"x":7,"y":31}]},{"id":1356,"x":151,"y":1758,"visible":true,"properties":[{"name":"layer","type":"int","value":1},{"name":"group","type":"int","value":0},{"name":"id","type":"int","value":463},{"name":"fh_layer","type":"int","value":1},{"name":"fh_group","type":"int","value":0},{"name":"fh_id","type":"int","value":463},{"name":"x1","type":"int","value":151},{"name":"x2","type":"int","value":208},{"name":"y1","type":"int","value":1758},{"name":"y2","type":"int","value":1793},{"name":"next","type":"int","value":464},{"name":"prev","type":"int","value":462}],"polyline":[{"x":0,"y":0},{"x":57,"y":35}]},{"id":1357,"x":208,"y":1793,"visible":true,"properties":[{"name":"layer","type":"int","value":1},{"name":"group","type":"int","value":0},{"name":"id","type":"int","value":464},{"name":"fh_layer","type":"int","value":1},{"name":"fh_group","type":"int","value":0},{"name":"fh_id","type":"int","value":464},{"name":"x1","type":"int","value":208},{"name":"x2","type":"int","value":217},{"name":"y1","type":"int","value":1793},{"name":"y2","type":"int","value":1809},{"name":"next","type":"int","value":465},{"name":"prev","type":"int","value":463}],"polyline":[{"x":0,"y":0},{"x":9,"y":16}]},{"id":1358,"x":217,"y":1809,"visible":true,"properties":[{"name":"layer","type":"int","value":1},{"name":"group","type":"int","value":0},{"name":"id","type":"int","value":465},{"name":"fh_layer","type":"int","value":1},{"name":"fh_group","type":"int","value":0},{"name":"fh_id","type":"int","value":465},{"name":"x1","type":"int","value":217},{"name":"x2","type":"int","value":258},{"name":"y1","type":"int","value":1809},{"name":"y2","type":"int","value":1816},{"name":"next","type":"int","value":466},{"name":"prev","type":"int","value":464}],"polyline":[{"x":0,"y":0},{"x":41,"y":7}]},{"id":1359,"x":258,"y":1816,"visible":true,"properties":[{"name":"layer","type":"int","value":1},{"name":"group","type":"int","value":0},{"name":"id","type":"int","value":466},{"name":"fh_layer","type":"int","value":1},{"name":"fh_group","type":"int","value":0},{"name":"fh_id","type":"int","value":466},{"name":"x1","type":"int","value":258},{"name":"x2","type":"int","value":270},{"name":"y1","type":"int","value":1816},{"name":"y2","type":"int","value":1831},{"name":"next","type":"int","value":0},{"name":"prev","type":"int","value":465}],"polyline":[{"x":0,"y":0},{"x":12,"y":15}]},{"id":1360,"x":523,"y":1583,"visible":true,"properties":[{"name":"layer","type":"int","value":1},{"name":"group","type":"int","value":0},{"name":"id","type":"int","value":467},{"name":"fh_layer","type":"int","value":1},{"name":"fh_group","type":"int","value":0},{"name":"fh_id","type":"int","value":467},{"name":"x1","type":"int","value":523},{"name":"x2","type":"int","value":613},{"name":"y1","type":"int","value":1583},{"name":"y2","type":"int","value":1581},{"name":"next","type":"int","value":468},{"name":"prev","type":"int","value":0}],"polyline":[{"x":0,"y":0},{"x":90,"y":-2}]},{"id":1361,"x":613,"y":1581,"visible":true,"properties":[{"name":"layer","type":"int","value":1},{"name":"group","type":"int","value":0},{"name":"id","type":"int","value":468},{"name":"fh_layer","type":"int","value":1},{"name":"fh_group","type":"int","value":0},{"name":"fh_id","type":"int","value":468},{"name":"x1","type":"int","value":613},{"name":"x2","type":"int","value":628},{"name":"y1","type":"int","value":1581},{"name":"y2","type":"int","value":1583},{"name":"next","type":"int","value":469},{"name":"prev","type":"int","value":467}],"polyline":[{"x":0,"y":0},{"x":15,"y":2}]},{"id":1362,"x":628,"y":1583,"visible":true,"properties":[{"name":"layer","type":"int","value":1},{"name":"group","type":"int","value":0},{"name":"id","type":"int","value":469},{"name":"fh_layer","type":"int","value":1},{"name":"fh_group","type":"int","value":0},{"name":"fh_id","type":"int","value":469},{"name":"x1","type":"int","value":628},{"name":"x2","type":"int","value":648},{"name":"y1","type":"int","value":1583},{"name":"y2","type":"int","value":1580},{"name":"next","type":"int","value":470},{"name":"prev","type":"int","value":468}],"polyline":[{"x":0,"y":0},{"x":20,"y":-3}]},{"id":1363,"x":648,"y":1580,"visible":true,"properties":[{"name":"layer","type":"int","value":1},{"name":"group","type":"int","value":0},{"name":"id","type":"int","value":470},{"name":"fh_layer","type":"int","value":1},{"name":"fh_group","type":"int","value":0},{"name":"fh_id","type":"int","value":470},{"name":"x1","type":"int","value":648},{"name":"x2","type":"int","value":677},{"name":"y1","type":"int","value":1580},{"name":"y2","type":"int","value":1580},{"name":"next","type":"int","value":471},{"name":"prev","type":"int","value":469}],"polyline":[{"x":0,"y":0},{"x":29,"y":0}]},{"id":1364,"x":677,"y":1580,"visible":true,"properties":[{"name":"layer","type":"int","value":1},{"name":"group","type":"int","value":0},{"name":"id","type":"int","value":471},{"name":"fh_layer","type":"int","value":1},{"name":"fh_group","type":"int","value":0},{"name":"fh_id","type":"int","value":471},{"name":"x1","type":"int","value":677},{"name":"x2","type":"int","value":677},{"name":"y1","type":"int","value":1580},{"name":"y2","type":"int","value":1568},{"name":"next","type":"int","value":247},{"name":"prev","type":"int","value":470}],"polyline":[{"x":0,"y":0},{"x":0,"y":-12}]},{"id":1365,"x":441,"y":1889,"visible":true,"properties":[{"name":"layer","type":"int","value":1},{"name":"group","type":"int","value":0},{"name":"id","type":"int","value":472},{"name":"fh_layer","type":"int","value":1},{"name":"fh_group","type":"int","value":0},{"name":"fh_id","type":"int","value":472},{"name":"x1","type":"int","value":441},{"name":"x2","type":"int","value":462},{"name":"y1","type":"int","value":1889},{"name":"y2","type":"int","value":1855},{"name":"next","type":"int","value":473},{"name":"prev","type":"int","value":0}],"polyline":[{"x":0,"y":0},{"x":21,"y":-34}]},{"id":1366,"x":462,"y":1855,"visible":true,"properties":[{"name":"layer","type":"int","value":1},{"name":"group","type":"int","value":0},{"name":"id","type":"int","value":473},{"name":"fh_layer","type":"int","value":1},{"name":"fh_group","type":"int","value":0},{"name":"fh_id","type":"int","value":473},{"name":"x1","type":"int","value":462},{"name":"x2","type":"int","value":477},{"name":"y1","type":"int","value":1855},{"name":"y2","type":"int","value":1852},{"name":"next","type":"int","value":474},{"name":"prev","type":"int","value":472}],"polyline":[{"x":0,"y":0},{"x":15,"y":-3}]},{"id":1367,"x":477,"y":1852,"visible":true,"properties":[{"name":"layer","type":"int","value":1},{"name":"group","type":"int","value":0},{"name":"id","type":"int","value":474},{"name":"fh_layer","type":"int","value":1},{"name":"fh_group","type":"int","value":0},{"name":"fh_id","type":"int","value":474},{"name":"x1","type":"int","value":477},{"name":"x2","type":"int","value":484},{"name":"y1","type":"int","value":1852},{"name":"y2","type":"int","value":1843},{"name":"next","type":"int","value":475},{"name":"prev","type":"int","value":473}],"polyline":[{"x":0,"y":0},{"x":7,"y":-9}]},{"id":1368,"x":484,"y":1843,"visible":true,"properties":[{"name":"layer","type":"int","value":1},{"name":"group","type":"int","value":0},{"name":"id","type":"int","value":475},{"name":"fh_layer","type":"int","value":1},{"name":"fh_group","type":"int","value":0},{"name":"fh_id","type":"int","value":475},{"name":"x1","type":"int","value":484},{"name":"x2","type":"int","value":500},{"name":"y1","type":"int","value":1843},{"name":"y2","type":"int","value":1837},{"name":"next","type":"int","value":476},{"name":"prev","type":"int","value":474}],"polyline":[{"x":0,"y":0},{"x":16,"y":-6}]},{"id":1369,"x":500,"y":1837,"visible":true,"properties":[{"name":"layer","type":"int","value":1},{"name":"group","type":"int","value":0},{"name":"id","type":"int","value":476},{"name":"fh_layer","type":"int","value":1},{"name":"fh_group","type":"int","value":0},{"name":"fh_id","type":"int","value":476},{"name":"x1","type":"int","value":500},{"name":"x2","type":"int","value":501},{"name":"y1","type":"int","value":1837},{"name":"y2","type":"int","value":1825},{"name":"next","type":"int","value":477},{"name":"prev","type":"int","value":475}],"polyline":[{"x":0,"y":0},{"x":1,"y":-12}]},{"id":1370,"x":501,"y":1825,"visible":true,"properties":[{"name":"layer","type":"int","value":1},{"name":"group","type":"int","value":0},{"name":"id","type":"int","value":477},{"name":"fh_layer","type":"int","value":1},{"name":"fh_group","type":"int","value":0},{"name":"fh_id","type":"int","value":477},{"name":"x1","type":"int","value":501},{"name":"x2","type":"int","value":529},{"name":"y1","type":"int","value":1825},{"name":"y2","type":"int","value":1803},{"name":"next","type":"int","value":478},{"name":"prev","type":"int","value":476}],"polyline":[{"x":0,"y":0},{"x":28,"y":-22}]},{"id":1371,"x":529,"y":1803,"visible":true,"properties":[{"name":"layer","type":"int","value":1},{"name":"group","type":"int","value":0},{"name":"id","type":"int","value":478},{"name":"fh_layer","type":"int","value":1},{"name":"fh_group","type":"int","value":0},{"name":"fh_id","type":"int","value":478},{"name":"x1","type":"int","value":529},{"name":"x2","type":"int","value":545},{"name":"y1","type":"int","value":1803},{"name":"y2","type":"int","value":1816},{"name":"next","type":"int","value":479},{"name":"prev","type":"int","value":477}],"polyline":[{"x":0,"y":0},{"x":16,"y":13}]},{"id":1372,"x":545,"y":1816,"visible":true,"properties":[{"name":"layer","type":"int","value":1},{"name":"group","type":"int","value":0},{"name":"id","type":"int","value":479},{"name":"fh_layer","type":"int","value":1},{"name":"fh_group","type":"int","value":0},{"name":"fh_id","type":"int","value":479},{"name":"x1","type":"int","value":545},{"name":"x2","type":"int","value":561},{"name":"y1","type":"int","value":1816},{"name":"y2","type":"int","value":1819},{"name":"next","type":"int","value":480},{"name":"prev","type":"int","value":478}],"polyline":[{"x":0,"y":0},{"x":16,"y":3}]},{"id":1373,"x":561,"y":1819,"visible":true,"properties":[{"name":"layer","type":"int","value":1},{"name":"group","type":"int","value":0},{"name":"id","type":"int","value":480},{"name":"fh_layer","type":"int","value":1},{"name":"fh_group","type":"int","value":0},{"name":"fh_id","type":"int","value":480},{"name":"x1","type":"int","value":561},{"name":"x2","type":"int","value":601},{"name":"y1","type":"int","value":1819},{"name":"y2","type":"int","value":1806},{"name":"next","type":"int","value":481},{"name":"prev","type":"int","value":479}],"polyline":[{"x":0,"y":0},{"x":40,"y":-13}]},{"id":1374,"x":601,"y":1806,"visible":true,"properties":[{"name":"layer","type":"int","value":1},{"name":"group","type":"int","value":0},{"name":"id","type":"int","value":481},{"name":"fh_layer","type":"int","value":1},{"name":"fh_group","type":"int","value":0},{"name":"fh_id","type":"int","value":481},{"name":"x1","type":"int","value":601},{"name":"x2","type":"int","value":622},{"name":"y1","type":"int","value":1806},{"name":"y2","type":"int","value":1816},{"name":"next","type":"int","value":482},{"name":"prev","type":"int","value":480}],"polyline":[{"x":0,"y":0},{"x":21,"y":10}]},{"id":1375,"x":622,"y":1816,"visible":true,"properties":[{"name":"layer","type":"int","value":1},{"name":"group","type":"int","value":0},{"name":"id","type":"int","value":482},{"name":"fh_layer","type":"int","value":1},{"name":"fh_group","type":"int","value":0},{"name":"fh_id","type":"int","value":482},{"name":"x1","type":"int","value":622},{"name":"x2","type":"int","value":641},{"name":"y1","type":"int","value":1816},{"name":"y2","type":"int","value":1816},{"name":"next","type":"int","value":483},{"name":"prev","type":"int","value":481}],"polyline":[{"x":0,"y":0},{"x":19,"y":0}]},{"id":1376,"x":641,"y":1816,"visible":true,"properties":[{"name":"layer","type":"int","value":1},{"name":"group","type":"int","value":0},{"name":"id","type":"int","value":483},{"name":"fh_layer","type":"int","value":1},{"name":"fh_group","type":"int","value":0},{"name":"fh_id","type":"int","value":483},{"name":"x1","type":"int","value":641},{"name":"x2","type":"int","value":657},{"name":"y1","type":"int","value":1816},{"name":"y2","type":"int","value":1810},{"name":"next","type":"int","value":484},{"name":"prev","type":"int","value":482}],"polyline":[{"x":0,"y":0},{"x":16,"y":-6}]},{"id":1377,"x":657,"y":1810,"visible":true,"properties":[{"name":"layer","type":"int","value":1},{"name":"group","type":"int","value":0},{"name":"id","type":"int","value":484},{"name":"fh_layer","type":"int","value":1},{"name":"fh_group","type":"int","value":0},{"name":"fh_id","type":"int","value":484},{"name":"x1","type":"int","value":657},{"name":"x2","type":"int","value":670},{"name":"y1","type":"int","value":1810},{"name":"y2","type":"int","value":1819},{"name":"next","type":"int","value":485},{"name":"prev","type":"int","value":483}],"polyline":[{"x":0,"y":0},{"x":13,"y":9}]},{"id":1378,"x":670,"y":1819,"visible":true,"properties":[{"name":"layer","type":"int","value":1},{"name":"group","type":"int","value":0},{"name":"id","type":"int","value":485},{"name":"fh_layer","type":"int","value":1},{"name":"fh_group","type":"int","value":0},{"name":"fh_id","type":"int","value":485},{"name":"x1","type":"int","value":670},{"name":"x2","type":"int","value":677},{"name":"y1","type":"int","value":1819},{"name":"y2","type":"int","value":1850},{"name":"next","type":"int","value":486},{"name":"prev","type":"int","value":484}],"polyline":[{"x":0,"y":0},{"x":7,"y":31}]},{"id":1379,"x":677,"y":1850,"visible":true,"properties":[{"name":"layer","type":"int","value":1},{"name":"group","type":"int","value":0},{"name":"id","type":"int","value":486},{"name":"fh_layer","type":"int","value":1},{"name":"fh_group","type":"int","value":0},{"name":"fh_id","type":"int","value":486},{"name":"x1","type":"int","value":677},{"name":"x2","type":"int","value":677},{"name":"y1","type":"int","value":1850},{"name":"y2","type":"int","value":1800},{"name":"next","type":"int","value":243},{"name":"prev","type":"int","value":485}],"polyline":[{"x":0,"y":0},{"x":0,"y":-50}]},{"id":1380,"x":1211,"y":1250,"visible":true,"properties":[{"name":"layer","type":"int","value":1},{"name":"group","type":"int","value":0},{"name":"id","type":"int","value":487},{"name":"fh_layer","type":"int","value":1},{"name":"fh_group","type":"int","value":0},{"name":"fh_id","type":"int","value":487},{"name":"x1","type":"int","value":1211},{"name":"x2","type":"int","value":1213},{"name":"y1","type":"int","value":1250},{"name":"y2","type":"int","value":1250},{"name":"next","type":"int","value":277},{"name":"prev","type":"int","value":284}],"polyline":[{"x":0,"y":0},{"x":2,"y":0}]},{"id":1381,"x":1213,"y":1583,"visible":true,"properties":[{"name":"layer","type":"int","value":1},{"name":"group","type":"int","value":0},{"name":"id","type":"int","value":488},{"name":"fh_layer","type":"int","value":1},{"name":"fh_group","type":"int","value":0},{"name":"fh_id","type":"int","value":488},{"name":"x1","type":"int","value":1213},{"name":"x2","type":"int","value":1213},{"name":"y1","type":"int","value":1583},{"name":"y2","type":"int","value":1628},{"name":"next","type":"int","value":288},{"name":"prev","type":"int","value":287}],"polyline":[{"x":0,"y":0},{"x":0,"y":45}]},{"id":1382,"x":1213,"y":1783,"visible":true,"properties":[{"name":"layer","type":"int","value":1},{"name":"group","type":"int","value":0},{"name":"id","type":"int","value":489},{"name":"fh_layer","type":"int","value":1},{"name":"fh_group","type":"int","value":0},{"name":"fh_id","type":"int","value":489},{"name":"x1","type":"int","value":1213},{"name":"x2","type":"int","value":1213},{"name":"y1","type":"int","value":1783},{"name":"y2","type":"int","value":1800},{"name":"next","type":"int","value":235},{"name":"prev","type":"int","value":290}],"polyline":[{"x":0,"y":0},{"x":0,"y":17}]},{"id":1383,"x":1213,"y":1783,"visible":true,"properties":[{"name":"layer","type":"int","value":1},{"name":"group","type":"int","value":0},{"name":"id","type":"int","value":490},{"name":"fh_layer","type":"int","value":1},{"name":"fh_group","type":"int","value":0},{"name":"fh_id","type":"int","value":490},{"name":"x1","type":"int","value":1213},{"name":"x2","type":"int","value":1234},{"name":"y1","type":"int","value":1783},{"name":"y2","type":"int","value":1766},{"name":"next","type":"int","value":491},{"name":"prev","type":"int","value":290}],"polyline":[{"x":0,"y":0},{"x":21,"y":-17}]},{"id":1384,"x":1234,"y":1766,"visible":true,"properties":[{"name":"layer","type":"int","value":1},{"name":"group","type":"int","value":0},{"name":"id","type":"int","value":491},{"name":"fh_layer","type":"int","value":1},{"name":"fh_group","type":"int","value":0},{"name":"fh_id","type":"int","value":491},{"name":"x1","type":"int","value":1234},{"name":"x2","type":"int","value":1250},{"name":"y1","type":"int","value":1766},{"name":"y2","type":"int","value":1779},{"name":"next","type":"int","value":492},{"name":"prev","type":"int","value":490}],"polyline":[{"x":0,"y":0},{"x":16,"y":13}]},{"id":1385,"x":1250,"y":1779,"visible":true,"properties":[{"name":"layer","type":"int","value":1},{"name":"group","type":"int","value":0},{"name":"id","type":"int","value":492},{"name":"fh_layer","type":"int","value":1},{"name":"fh_group","type":"int","value":0},{"name":"fh_id","type":"int","value":492},{"name":"x1","type":"int","value":1250},{"name":"x2","type":"int","value":1266},{"name":"y1","type":"int","value":1779},{"name":"y2","type":"int","value":1782},{"name":"next","type":"int","value":493},{"name":"prev","type":"int","value":491}],"polyline":[{"x":0,"y":0},{"x":16,"y":3}]},{"id":1386,"x":1266,"y":1782,"visible":true,"properties":[{"name":"layer","type":"int","value":1},{"name":"group","type":"int","value":0},{"name":"id","type":"int","value":493},{"name":"fh_layer","type":"int","value":1},{"name":"fh_group","type":"int","value":0},{"name":"fh_id","type":"int","value":493},{"name":"x1","type":"int","value":1266},{"name":"x2","type":"int","value":1306},{"name":"y1","type":"int","value":1782},{"name":"y2","type":"int","value":1769},{"name":"next","type":"int","value":494},{"name":"prev","type":"int","value":492}],"polyline":[{"x":0,"y":0},{"x":40,"y":-13}]},{"id":1387,"x":1306,"y":1769,"visible":true,"properties":[{"name":"layer","type":"int","value":1},{"name":"group","type":"int","value":0},{"name":"id","type":"int","value":494},{"name":"fh_layer","type":"int","value":1},{"name":"fh_group","type":"int","value":0},{"name":"fh_id","type":"int","value":494},{"name":"x1","type":"int","value":1306},{"name":"x2","type":"int","value":1327},{"name":"y1","type":"int","value":1769},{"name":"y2","type":"int","value":1779},{"name":"next","type":"int","value":495},{"name":"prev","type":"int","value":493}],"polyline":[{"x":0,"y":0},{"x":21,"y":10}]},{"id":1388,"x":1327,"y":1779,"visible":true,"properties":[{"name":"layer","type":"int","value":1},{"name":"group","type":"int","value":0},{"name":"id","type":"int","value":495},{"name":"fh_layer","type":"int","value":1},{"name":"fh_group","type":"int","value":0},{"name":"fh_id","type":"int","value":495},{"name":"x1","type":"int","value":1327},{"name":"x2","type":"int","value":1346},{"name":"y1","type":"int","value":1779},{"name":"y2","type":"int","value":1779},{"name":"next","type":"int","value":496},{"name":"prev","type":"int","value":494}],"polyline":[{"x":0,"y":0},{"x":19,"y":0}]},{"id":1389,"x":1346,"y":1779,"visible":true,"properties":[{"name":"layer","type":"int","value":1},{"name":"group","type":"int","value":0},{"name":"id","type":"int","value":496},{"name":"fh_layer","type":"int","value":1},{"name":"fh_group","type":"int","value":0},{"name":"fh_id","type":"int","value":496},{"name":"x1","type":"int","value":1346},{"name":"x2","type":"int","value":1362},{"name":"y1","type":"int","value":1779},{"name":"y2","type":"int","value":1773},{"name":"next","type":"int","value":497},{"name":"prev","type":"int","value":495}],"polyline":[{"x":0,"y":0},{"x":16,"y":-6}]},{"id":1390,"x":1362,"y":1773,"visible":true,"properties":[{"name":"layer","type":"int","value":1},{"name":"group","type":"int","value":0},{"name":"id","type":"int","value":497},{"name":"fh_layer","type":"int","value":1},{"name":"fh_group","type":"int","value":0},{"name":"fh_id","type":"int","value":497},{"name":"x1","type":"int","value":1362},{"name":"x2","type":"int","value":1375},{"name":"y1","type":"int","value":1773},{"name":"y2","type":"int","value":1782},{"name":"next","type":"int","value":498},{"name":"prev","type":"int","value":496}],"polyline":[{"x":0,"y":0},{"x":13,"y":9}]},{"id":1391,"x":1375,"y":1782,"visible":true,"properties":[{"name":"layer","type":"int","value":1},{"name":"group","type":"int","value":0},{"name":"id","type":"int","value":498},{"name":"fh_layer","type":"int","value":1},{"name":"fh_group","type":"int","value":0},{"name":"fh_id","type":"int","value":498},{"name":"x1","type":"int","value":1375},{"name":"x2","type":"int","value":1382},{"name":"y1","type":"int","value":1782},{"name":"y2","type":"int","value":1813},{"name":"next","type":"int","value":499},{"name":"prev","type":"int","value":497}],"polyline":[{"x":0,"y":0},{"x":7,"y":31}]},{"id":1392,"x":1382,"y":1813,"visible":true,"properties":[{"name":"layer","type":"int","value":1},{"name":"group","type":"int","value":0},{"name":"id","type":"int","value":499},{"name":"fh_layer","type":"int","value":1},{"name":"fh_group","type":"int","value":0},{"name":"fh_id","type":"int","value":499},{"name":"x1","type":"int","value":1382},{"name":"x2","type":"int","value":1439},{"name":"y1","type":"int","value":1813},{"name":"y2","type":"int","value":1848},{"name":"next","type":"int","value":500},{"name":"prev","type":"int","value":498}],"polyline":[{"x":0,"y":0},{"x":57,"y":35}]},{"id":1393,"x":1439,"y":1848,"visible":true,"properties":[{"name":"layer","type":"int","value":1},{"name":"group","type":"int","value":0},{"name":"id","type":"int","value":500},{"name":"fh_layer","type":"int","value":1},{"name":"fh_group","type":"int","value":0},{"name":"fh_id","type":"int","value":500},{"name":"x1","type":"int","value":1439},{"name":"x2","type":"int","value":1448},{"name":"y1","type":"int","value":1848},{"name":"y2","type":"int","value":1864},{"name":"next","type":"int","value":501},{"name":"prev","type":"int","value":499}],"polyline":[{"x":0,"y":0},{"x":9,"y":16}]},{"id":1394,"x":1448,"y":1864,"visible":true,"properties":[{"name":"layer","type":"int","value":1},{"name":"group","type":"int","value":0},{"name":"id","type":"int","value":501},{"name":"fh_layer","type":"int","value":1},{"name":"fh_group","type":"int","value":0},{"name":"fh_id","type":"int","value":501},{"name":"x1","type":"int","value":1448},{"name":"x2","type":"int","value":1489},{"name":"y1","type":"int","value":1864},{"name":"y2","type":"int","value":1871},{"name":"next","type":"int","value":502},{"name":"prev","type":"int","value":500}],"polyline":[{"x":0,"y":0},{"x":41,"y":7}]},{"id":1395,"x":1489,"y":1871,"visible":true,"properties":[{"name":"layer","type":"int","value":1},{"name":"group","type":"int","value":0},{"name":"id","type":"int","value":502},{"name":"fh_layer","type":"int","value":1},{"name":"fh_group","type":"int","value":0},{"name":"fh_id","type":"int","value":502},{"name":"x1","type":"int","value":1489},{"name":"x2","type":"int","value":1501},{"name":"y1","type":"int","value":1871},{"name":"y2","type":"int","value":1886},{"name":"next","type":"int","value":0},{"name":"prev","type":"int","value":501}],"polyline":[{"x":0,"y":0},{"x":12,"y":15}]},{"id":1396,"x":1683,"y":1778,"visible":true,"properties":[{"name":"layer","type":"int","value":1},{"name":"group","type":"int","value":0},{"name":"id","type":"int","value":503},{"name":"fh_layer","type":"int","value":1},{"name":"fh_group","type":"int","value":0},{"name":"fh_id","type":"int","value":503},{"name":"x1","type":"int","value":1683},{"name":"x2","type":"int","value":1710},{"name":"y1","type":"int","value":1778},{"name":"y2","type":"int","value":1772},{"name":"next","type":"int","value":504},{"name":"prev","type":"int","value":0}],"polyline":[{"x":0,"y":0},{"x":27,"y":-6}]},{"id":1397,"x":1710,"y":1772,"visible":true,"properties":[{"name":"layer","type":"int","value":1},{"name":"group","type":"int","value":0},{"name":"id","type":"int","value":504},{"name":"fh_layer","type":"int","value":1},{"name":"fh_group","type":"int","value":0},{"name":"fh_id","type":"int","value":504},{"name":"x1","type":"int","value":1710},{"name":"x2","type":"int","value":1757},{"name":"y1","type":"int","value":1772},{"name":"y2","type":"int","value":1767},{"name":"next","type":"int","value":505},{"name":"prev","type":"int","value":503}],"polyline":[{"x":0,"y":0},{"x":47,"y":-5}]},{"id":1398,"x":1757,"y":1767,"visible":true,"properties":[{"name":"layer","type":"int","value":1},{"name":"group","type":"int","value":0},{"name":"id","type":"int","value":505},{"name":"fh_layer","type":"int","value":1},{"name":"fh_group","type":"int","value":0},{"name":"fh_id","type":"int","value":505},{"name":"x1","type":"int","value":1757},{"name":"x2","type":"int","value":1826},{"name":"y1","type":"int","value":1767},{"name":"y2","type":"int","value":1769},{"name":"next","type":"int","value":506},{"name":"prev","type":"int","value":504}],"polyline":[{"x":0,"y":0},{"x":69,"y":2}]},{"id":1399,"x":1826,"y":1769,"visible":true,"properties":[{"name":"layer","type":"int","value":1},{"name":"group","type":"int","value":0},{"name":"id","type":"int","value":506},{"name":"fh_layer","type":"int","value":1},{"name":"fh_group","type":"int","value":0},{"name":"fh_id","type":"int","value":506},{"name":"x1","type":"int","value":1826},{"name":"x2","type":"int","value":1834},{"name":"y1","type":"int","value":1769},{"name":"y2","type":"int","value":1766},{"name":"next","type":"int","value":507},{"name":"prev","type":"int","value":505}],"polyline":[{"x":0,"y":0},{"x":8,"y":-3}]},{"id":1400,"x":1834,"y":1766,"visible":true,"properties":[{"name":"layer","type":"int","value":1},{"name":"group","type":"int","value":0},{"name":"id","type":"int","value":507},{"name":"fh_layer","type":"int","value":1},{"name":"fh_group","type":"int","value":0},{"name":"fh_id","type":"int","value":507},{"name":"x1","type":"int","value":1834},{"name":"x2","type":"int","value":1870},{"name":"y1","type":"int","value":1766},{"name":"y2","type":"int","value":1765},{"name":"next","type":"int","value":508},{"name":"prev","type":"int","value":506}],"polyline":[{"x":0,"y":0},{"x":36,"y":-1}]},{"id":1401,"x":1870,"y":1765,"visible":true,"properties":[{"name":"layer","type":"int","value":1},{"name":"group","type":"int","value":0},{"name":"id","type":"int","value":508},{"name":"fh_layer","type":"int","value":1},{"name":"fh_group","type":"int","value":0},{"name":"fh_id","type":"int","value":508},{"name":"x1","type":"int","value":1870},{"name":"x2","type":"int","value":1883},{"name":"y1","type":"int","value":1765},{"name":"y2","type":"int","value":1770},{"name":"next","type":"int","value":509},{"name":"prev","type":"int","value":507}],"polyline":[{"x":0,"y":0},{"x":13,"y":5}]},{"id":1402,"x":1883,"y":1770,"visible":true,"properties":[{"name":"layer","type":"int","value":1},{"name":"group","type":"int","value":0},{"name":"id","type":"int","value":509},{"name":"fh_layer","type":"int","value":1},{"name":"fh_group","type":"int","value":0},{"name":"fh_id","type":"int","value":509},{"name":"x1","type":"int","value":1883},{"name":"x2","type":"int","value":1893},{"name":"y1","type":"int","value":1770},{"name":"y2","type":"int","value":1765},{"name":"next","type":"int","value":510},{"name":"prev","type":"int","value":508}],"polyline":[{"x":0,"y":0},{"x":10,"y":-5}]},{"id":1403,"x":1893,"y":1765,"visible":true,"properties":[{"name":"layer","type":"int","value":1},{"name":"group","type":"int","value":0},{"name":"id","type":"int","value":510},{"name":"fh_layer","type":"int","value":1},{"name":"fh_group","type":"int","value":0},{"name":"fh_id","type":"int","value":510},{"name":"x1","type":"int","value":1893},{"name":"x2","type":"int","value":1920},{"name":"y1","type":"int","value":1765},{"name":"y2","type":"int","value":1765},{"name":"next","type":"int","value":511},{"name":"prev","type":"int","value":509}],"polyline":[{"x":0,"y":0},{"x":27,"y":0}]},{"id":1404,"x":1920,"y":1765,"visible":true,"properties":[{"name":"layer","type":"int","value":1},{"name":"group","type":"int","value":0},{"name":"id","type":"int","value":511},{"name":"fh_layer","type":"int","value":1},{"name":"fh_group","type":"int","value":0},{"name":"fh_id","type":"int","value":511},{"name":"x1","type":"int","value":1920},{"name":"x2","type":"int","value":1934},{"name":"y1","type":"int","value":1765},{"name":"y2","type":"int","value":1774},{"name":"next","type":"int","value":512},{"name":"prev","type":"int","value":510}],"polyline":[{"x":0,"y":0},{"x":14,"y":9}]},{"id":1405,"x":1934,"y":1774,"visible":true,"properties":[{"name":"layer","type":"int","value":1},{"name":"group","type":"int","value":0},{"name":"id","type":"int","value":512},{"name":"fh_layer","type":"int","value":1},{"name":"fh_group","type":"int","value":0},{"name":"fh_id","type":"int","value":512},{"name":"x1","type":"int","value":1934},{"name":"x2","type":"int","value":1937},{"name":"y1","type":"int","value":1774},{"name":"y2","type":"int","value":1774},{"name":"next","type":"int","value":513},{"name":"prev","type":"int","value":511}],"polyline":[{"x":0,"y":0},{"x":3,"y":0}]},{"id":1406,"x":1937,"y":1774,"visible":true,"properties":[{"name":"layer","type":"int","value":1},{"name":"group","type":"int","value":0},{"name":"id","type":"int","value":513},{"name":"fh_layer","type":"int","value":1},{"name":"fh_group","type":"int","value":0},{"name":"fh_id","type":"int","value":513},{"name":"x1","type":"int","value":1937},{"name":"x2","type":"int","value":1937},{"name":"y1","type":"int","value":1774},{"name":"y2","type":"int","value":1748},{"name":"next","type":"int","value":339},{"name":"prev","type":"int","value":512}],"polyline":[{"x":0,"y":0},{"x":0,"y":-26}]},{"id":1407,"x":1937,"y":1834,"visible":true,"properties":[{"name":"layer","type":"int","value":1},{"name":"group","type":"int","value":0},{"name":"id","type":"int","value":514},{"name":"fh_layer","type":"int","value":1},{"name":"fh_group","type":"int","value":0},{"name":"fh_id","type":"int","value":514},{"name":"x1","type":"int","value":1937},{"name":"x2","type":"int","value":1937},{"name":"y1","type":"int","value":1834},{"name":"y2","type":"int","value":1800},{"name":"next","type":"int","value":340},{"name":"prev","type":"int","value":335}],"polyline":[{"x":0,"y":0},{"x":0,"y":-34}]},{"id":1408,"x":1937,"y":1426,"visible":true,"properties":[{"name":"layer","type":"int","value":1},{"name":"group","type":"int","value":0},{"name":"id","type":"int","value":515},{"name":"fh_layer","type":"int","value":1},{"name":"fh_group","type":"int","value":0},{"name":"fh_id","type":"int","value":515},{"name":"x1","type":"int","value":1937},{"name":"x2","type":"int","value":1937},{"name":"y1","type":"int","value":1426},{"name":"y2","type":"int","value":1380},{"name":"next","type":"int","value":368},{"name":"prev","type":"int","value":836}],"polyline":[{"x":0,"y":0},{"x":0,"y":-46}]},{"id":1409,"x":352,"y":1344,"visible":true,"properties":[{"name":"layer","type":"int","value":1},{"name":"group","type":"int","value":0},{"name":"id","type":"int","value":516},{"name":"fh_layer","type":"int","value":1},{"name":"fh_group","type":"int","value":0},{"name":"fh_id","type":"int","value":516},{"name":"x1","type":"int","value":352},{"name":"x2","type":"int","value":371},{"name":"y1","type":"int","value":1344},{"name":"y2","type":"int","value":1340},{"name":"next","type":"int","value":517},{"name":"prev","type":"int","value":0}],"polyline":[{"x":0,"y":0},{"x":19,"y":-4}]},{"id":1410,"x":371,"y":1340,"visible":true,"properties":[{"name":"layer","type":"int","value":1},{"name":"group","type":"int","value":0},{"name":"id","type":"int","value":517},{"name":"fh_layer","type":"int","value":1},{"name":"fh_group","type":"int","value":0},{"name":"fh_id","type":"int","value":517},{"name":"x1","type":"int","value":371},{"name":"x2","type":"int","value":396},{"name":"y1","type":"int","value":1340},{"name":"y2","type":"int","value":1335},{"name":"next","type":"int","value":518},{"name":"prev","type":"int","value":516}],"polyline":[{"x":0,"y":0},{"x":25,"y":-5}]},{"id":1411,"x":396,"y":1335,"visible":true,"properties":[{"name":"layer","type":"int","value":1},{"name":"group","type":"int","value":0},{"name":"id","type":"int","value":518},{"name":"fh_layer","type":"int","value":1},{"name":"fh_group","type":"int","value":0},{"name":"fh_id","type":"int","value":518},{"name":"x1","type":"int","value":396},{"name":"x2","type":"int","value":415},{"name":"y1","type":"int","value":1335},{"name":"y2","type":"int","value":1335},{"name":"next","type":"int","value":519},{"name":"prev","type":"int","value":517}],"polyline":[{"x":0,"y":0},{"x":19,"y":0}]},{"id":1412,"x":415,"y":1335,"visible":true,"properties":[{"name":"layer","type":"int","value":1},{"name":"group","type":"int","value":0},{"name":"id","type":"int","value":519},{"name":"fh_layer","type":"int","value":1},{"name":"fh_group","type":"int","value":0},{"name":"fh_id","type":"int","value":519},{"name":"x1","type":"int","value":415},{"name":"x2","type":"int","value":442},{"name":"y1","type":"int","value":1335},{"name":"y2","type":"int","value":1335},{"name":"next","type":"int","value":0},{"name":"prev","type":"int","value":518}],"polyline":[{"x":0,"y":0},{"x":27,"y":0}]},{"id":1413,"x":1933,"y":1426,"visible":true,"properties":[{"name":"layer","type":"int","value":1},{"name":"group","type":"int","value":12},{"name":"id","type":"int","value":836},{"name":"fh_layer","type":"int","value":1},{"name":"fh_group","type":"int","value":12},{"name":"fh_id","type":"int","value":836},{"name":"x1","type":"int","value":1933},{"name":"x2","type":"int","value":1937},{"name":"y1","type":"int","value":1426},{"name":"y2","type":"int","value":1426},{"name":"next","type":"int","value":515},{"name":"prev","type":"int","value":837}],"polyline":[{"x":0,"y":0},{"x":4,"y":0}]},{"id":1414,"x":1918,"y":1435,"visible":true,"properties":[{"name":"layer","type":"int","value":1},{"name":"group","type":"int","value":12},{"name":"id","type":"int","value":837},{"name":"fh_layer","type":"int","value":1},{"name":"fh_group","type":"int","value":12},{"name":"fh_id","type":"int","value":837},{"name":"x1","type":"int","value":1918},{"name":"x2","type":"int","value":1933},{"name":"y1","type":"int","value":1435},{"name":"y2","type":"int","value":1426},{"name":"next","type":"int","value":836},{"name":"prev","type":"int","value":838}],"polyline":[{"x":0,"y":0},{"x":15,"y":-9}]},{"id":1415,"x":1893,"y":1436,"visible":true,"properties":[{"name":"layer","type":"int","value":1},{"name":"group","type":"int","value":12},{"name":"id","type":"int","value":838},{"name":"fh_layer","type":"int","value":1},{"name":"fh_group","type":"int","value":12},{"name":"fh_id","type":"int","value":838},{"name":"x1","type":"int","value":1893},{"name":"x2","type":"int","value":1918},{"name":"y1","type":"int","value":1436},{"name":"y2","type":"int","value":1435},{"name":"next","type":"int","value":837},{"name":"prev","type":"int","value":839}],"polyline":[{"x":0,"y":0},{"x":25,"y":-1}]},{"id":1416,"x":1879,"y":1429,"visible":true,"properties":[{"name":"layer","type":"int","value":1},{"name":"group","type":"int","value":12},{"name":"id","type":"int","value":839},{"name":"fh_layer","type":"int","value":1},{"name":"fh_group","type":"int","value":12},{"name":"fh_id","type":"int","value":839},{"name":"x1","type":"int","value":1879},{"name":"x2","type":"int","value":1893},{"name":"y1","type":"int","value":1429},{"name":"y2","type":"int","value":1436},{"name":"next","type":"int","value":838},{"name":"prev","type":"int","value":840}],"polyline":[{"x":0,"y":0},{"x":14,"y":7}]},{"id":1417,"x":1849,"y":1427,"visible":true,"properties":[{"name":"layer","type":"int","value":1},{"name":"group","type":"int","value":12},{"name":"id","type":"int","value":840},{"name":"fh_layer","type":"int","value":1},{"name":"fh_group","type":"int","value":12},{"name":"fh_id","type":"int","value":840},{"name":"x1","type":"int","value":1849},{"name":"x2","type":"int","value":1879},{"name":"y1","type":"int","value":1427},{"name":"y2","type":"int","value":1429},{"name":"next","type":"int","value":839},{"name":"prev","type":"int","value":841}],"polyline":[{"x":0,"y":0},{"x":30,"y":2}]},{"id":1418,"x":1826,"y":1433,"visible":true,"properties":[{"name":"layer","type":"int","value":1},{"name":"group","type":"int","value":12},{"name":"id","type":"int","value":841},{"name":"fh_layer","type":"int","value":1},{"name":"fh_group","type":"int","value":12},{"name":"fh_id","type":"int","value":841},{"name":"x1","type":"int","value":1826},{"name":"x2","type":"int","value":1849},{"name":"y1","type":"int","value":1433},{"name":"y2","type":"int","value":1427},{"name":"next","type":"int","value":840},{"name":"prev","type":"int","value":842}],"polyline":[{"x":0,"y":0},{"x":23,"y":-6}]},{"id":1419,"x":1816,"y":1433,"visible":true,"properties":[{"name":"layer","type":"int","value":1},{"name":"group","type":"int","value":12},{"name":"id","type":"int","value":842},{"name":"fh_layer","type":"int","value":1},{"name":"fh_group","type":"int","value":12},{"name":"fh_id","type":"int","value":842},{"name":"x1","type":"int","value":1816},{"name":"x2","type":"int","value":1826},{"name":"y1","type":"int","value":1433},{"name":"y2","type":"int","value":1433},{"name":"next","type":"int","value":841},{"name":"prev","type":"int","value":843}],"polyline":[{"x":0,"y":0},{"x":10,"y":0}]},{"id":1420,"x":1792,"y":1424,"visible":true,"properties":[{"name":"layer","type":"int","value":1},{"name":"group","type":"int","value":12},{"name":"id","type":"int","value":843},{"name":"fh_layer","type":"int","value":1},{"name":"fh_group","type":"int","value":12},{"name":"fh_id","type":"int","value":843},{"name":"x1","type":"int","value":1792},{"name":"x2","type":"int","value":1816},{"name":"y1","type":"int","value":1424},{"name":"y2","type":"int","value":1433},{"name":"next","type":"int","value":842},{"name":"prev","type":"int","value":844}],"polyline":[{"x":0,"y":0},{"x":24,"y":9}]},{"id":1421,"x":1771,"y":1432,"visible":true,"properties":[{"name":"layer","type":"int","value":1},{"name":"group","type":"int","value":12},{"name":"id","type":"int","value":844},{"name":"fh_layer","type":"int","value":1},{"name":"fh_group","type":"int","value":12},{"name":"fh_id","type":"int","value":844},{"name":"x1","type":"int","value":1771},{"name":"x2","type":"int","value":1792},{"name":"y1","type":"int","value":1432},{"name":"y2","type":"int","value":1424},{"name":"next","type":"int","value":843},{"name":"prev","type":"int","value":0}],"polyline":[{"x":0,"y":0},{"x":21,"y":-8}]},{"id":1422,"x":1882,"y":1454,"visible":true,"properties":[{"name":"layer","type":"int","value":1},{"name":"group","type":"int","value":12},{"name":"id","type":"int","value":845},{"name":"fh_layer","type":"int","value":1},{"name":"fh_group","type":"int","value":12},{"name":"fh_id","type":"int","value":845},{"name":"x1","type":"int","value":1882},{"name":"x2","type":"int","value":1882},{"name":"y1","type":"int","value":1454},{"name":"y2","type":"int","value":1436},{"name":"next","type":"int","value":0},{"name":"prev","type":"int","value":846}],"polyline":[{"x":0,"y":0},{"x":0,"y":-18}]},{"id":1423,"x":1866,"y":1456,"visible":true,"properties":[{"name":"layer","type":"int","value":1},{"name":"group","type":"int","value":12},{"name":"id","type":"int","value":846},{"name":"fh_layer","type":"int","value":1},{"name":"fh_group","type":"int","value":12},{"name":"fh_id","type":"int","value":846},{"name":"x1","type":"int","value":1866},{"name":"x2","type":"int","value":1882},{"name":"y1","type":"int","value":1456},{"name":"y2","type":"int","value":1454},{"name":"next","type":"int","value":845},{"name":"prev","type":"int","value":847}],"polyline":[{"x":0,"y":0},{"x":16,"y":-2}]},{"id":1424,"x":1853,"y":1465,"visible":true,"properties":[{"name":"layer","type":"int","value":1},{"name":"group","type":"int","value":12},{"name":"id","type":"int","value":847},{"name":"fh_layer","type":"int","value":1},{"name":"fh_group","type":"int","value":12},{"name":"fh_id","type":"int","value":847},{"name":"x1","type":"int","value":1853},{"name":"x2","type":"int","value":1866},{"name":"y1","type":"int","value":1465},{"name":"y2","type":"int","value":1456},{"name":"next","type":"int","value":846},{"name":"prev","type":"int","value":848}],"polyline":[{"x":0,"y":0},{"x":13,"y":-9}]},{"id":1425,"x":1833,"y":1464,"visible":true,"properties":[{"name":"layer","type":"int","value":1},{"name":"group","type":"int","value":12},{"name":"id","type":"int","value":848},{"name":"fh_layer","type":"int","value":1},{"name":"fh_group","type":"int","value":12},{"name":"fh_id","type":"int","value":848},{"name":"x1","type":"int","value":1833},{"name":"x2","type":"int","value":1853},{"name":"y1","type":"int","value":1464},{"name":"y2","type":"int","value":1465},{"name":"next","type":"int","value":847},{"name":"prev","type":"int","value":849}],"polyline":[{"x":0,"y":0},{"x":20,"y":1}]},{"id":1426,"x":1822,"y":1460,"visible":true,"properties":[{"name":"layer","type":"int","value":1},{"name":"group","type":"int","value":12},{"name":"id","type":"int","value":849},{"name":"fh_layer","type":"int","value":1},{"name":"fh_group","type":"int","value":12},{"name":"fh_id","type":"int","value":849},{"name":"x1","type":"int","value":1822},{"name":"x2","type":"int","value":1833},{"name":"y1","type":"int","value":1460},{"name":"y2","type":"int","value":1464},{"name":"next","type":"int","value":848},{"name":"prev","type":"int","value":850}],"polyline":[{"x":0,"y":0},{"x":11,"y":4}]},{"id":1427,"x":1813,"y":1463,"visible":true,"properties":[{"name":"layer","type":"int","value":1},{"name":"group","type":"int","value":12},{"name":"id","type":"int","value":850},{"name":"fh_layer","type":"int","value":1},{"name":"fh_group","type":"int","value":12},{"name":"fh_id","type":"int","value":850},{"name":"x1","type":"int","value":1813},{"name":"x2","type":"int","value":1822},{"name":"y1","type":"int","value":1463},{"name":"y2","type":"int","value":1460},{"name":"next","type":"int","value":849},{"name":"prev","type":"int","value":851}],"polyline":[{"x":0,"y":0},{"x":9,"y":-3}]},{"id":1428,"x":1804,"y":1459,"visible":true,"properties":[{"name":"layer","type":"int","value":1},{"name":"group","type":"int","value":12},{"name":"id","type":"int","value":851},{"name":"fh_layer","type":"int","value":1},{"name":"fh_group","type":"int","value":12},{"name":"fh_id","type":"int","value":851},{"name":"x1","type":"int","value":1804},{"name":"x2","type":"int","value":1813},{"name":"y1","type":"int","value":1459},{"name":"y2","type":"int","value":1463},{"name":"next","type":"int","value":850},{"name":"prev","type":"int","value":852}],"polyline":[{"x":0,"y":0},{"x":9,"y":4}]},{"id":1429,"x":1793,"y":1464,"visible":true,"properties":[{"name":"layer","type":"int","value":1},{"name":"group","type":"int","value":12},{"name":"id","type":"int","value":852},{"name":"fh_layer","type":"int","value":1},{"name":"fh_group","type":"int","value":12},{"name":"fh_id","type":"int","value":852},{"name":"x1","type":"int","value":1793},{"name":"x2","type":"int","value":1804},{"name":"y1","type":"int","value":1464},{"name":"y2","type":"int","value":1459},{"name":"next","type":"int","value":851},{"name":"prev","type":"int","value":853}],"polyline":[{"x":0,"y":0},{"x":11,"y":-5}]},{"id":1430,"x":1765,"y":1463,"visible":true,"properties":[{"name":"layer","type":"int","value":1},{"name":"group","type":"int","value":12},{"name":"id","type":"int","value":853},{"name":"fh_layer","type":"int","value":1},{"name":"fh_group","type":"int","value":12},{"name":"fh_id","type":"int","value":853},{"name":"x1","type":"int","value":1765},{"name":"x2","type":"int","value":1793},{"name":"y1","type":"int","value":1463},{"name":"y2","type":"int","value":1464},{"name":"next","type":"int","value":852},{"name":"prev","type":"int","value":854}],"polyline":[{"x":0,"y":0},{"x":28,"y":1}]},{"id":1431,"x":1760,"y":1460,"visible":true,"properties":[{"name":"layer","type":"int","value":1},{"name":"group","type":"int","value":12},{"name":"id","type":"int","value":854},{"name":"fh_layer","type":"int","value":1},{"name":"fh_group","type":"int","value":12},{"name":"fh_id","type":"int","value":854},{"name":"x1","type":"int","value":1760},{"name":"x2","type":"int","value":1765},{"name":"y1","type":"int","value":1460},{"name":"y2","type":"int","value":1463},{"name":"next","type":"int","value":853},{"name":"prev","type":"int","value":855}],"polyline":[{"x":0,"y":0},{"x":5,"y":3}]},{"id":1432,"x":1723,"y":1459,"visible":true,"properties":[{"name":"layer","type":"int","value":1},{"name":"group","type":"int","value":12},{"name":"id","type":"int","value":855},{"name":"fh_layer","type":"int","value":1},{"name":"fh_group","type":"int","value":12},{"name":"fh_id","type":"int","value":855},{"name":"x1","type":"int","value":1723},{"name":"x2","type":"int","value":1760},{"name":"y1","type":"int","value":1459},{"name":"y2","type":"int","value":1460},{"name":"next","type":"int","value":854},{"name":"prev","type":"int","value":856}],"polyline":[{"x":0,"y":0},{"x":37,"y":1}]},{"id":1433,"x":1709,"y":1465,"visible":true,"properties":[{"name":"layer","type":"int","value":1},{"name":"group","type":"int","value":12},{"name":"id","type":"int","value":856},{"name":"fh_layer","type":"int","value":1},{"name":"fh_group","type":"int","value":12},{"name":"fh_id","type":"int","value":856},{"name":"x1","type":"int","value":1709},{"name":"x2","type":"int","value":1723},{"name":"y1","type":"int","value":1465},{"name":"y2","type":"int","value":1459},{"name":"next","type":"int","value":855},{"name":"prev","type":"int","value":857}],"polyline":[{"x":0,"y":0},{"x":14,"y":-6}]},{"id":1434,"x":1701,"y":1460,"visible":true,"properties":[{"name":"layer","type":"int","value":1},{"name":"group","type":"int","value":12},{"name":"id","type":"int","value":857},{"name":"fh_layer","type":"int","value":1},{"name":"fh_group","type":"int","value":12},{"name":"fh_id","type":"int","value":857},{"name":"x1","type":"int","value":1701},{"name":"x2","type":"int","value":1709},{"name":"y1","type":"int","value":1460},{"name":"y2","type":"int","value":1465},{"name":"next","type":"int","value":856},{"name":"prev","type":"int","value":858}],"polyline":[{"x":0,"y":0},{"x":8,"y":5}]},{"id":1435,"x":1666,"y":1460,"visible":true,"properties":[{"name":"layer","type":"int","value":1},{"name":"group","type":"int","value":12},{"name":"id","type":"int","value":858},{"name":"fh_layer","type":"int","value":1},{"name":"fh_group","type":"int","value":12},{"name":"fh_id","type":"int","value":858},{"name":"x1","type":"int","value":1666},{"name":"x2","type":"int","value":1701},{"name":"y1","type":"int","value":1460},{"name":"y2","type":"int","value":1460},{"name":"next","type":"int","value":857},{"name":"prev","type":"int","value":0}],"polyline":[{"x":0,"y":0},{"x":35,"y":0}]},{"id":1436,"x":1783,"y":1133,"visible":true,"properties":[{"name":"layer","type":"int","value":1},{"name":"group","type":"int","value":12},{"name":"id","type":"int","value":859},{"name":"fh_layer","type":"int","value":1},{"name":"fh_group","type":"int","value":12},{"name":"fh_id","type":"int","value":859},{"name":"x1","type":"int","value":1783},{"name":"x2","type":"int","value":1873},{"name":"y1","type":"int","value":1133},{"name":"y2","type":"int","value":1131},{"name":"next","type":"int","value":860},{"name":"prev","type":"int","value":0}],"polyline":[{"x":0,"y":0},{"x":90,"y":-2}]},{"id":1437,"x":1873,"y":1131,"visible":true,"properties":[{"name":"layer","type":"int","value":1},{"name":"group","type":"int","value":12},{"name":"id","type":"int","value":860},{"name":"fh_layer","type":"int","value":1},{"name":"fh_group","type":"int","value":12},{"name":"fh_id","type":"int","value":860},{"name":"x1","type":"int","value":1873},{"name":"x2","type":"int","value":1888},{"name":"y1","type":"int","value":1131},{"name":"y2","type":"int","value":1133},{"name":"next","type":"int","value":861},{"name":"prev","type":"int","value":859}],"polyline":[{"x":0,"y":0},{"x":15,"y":2}]},{"id":1438,"x":1888,"y":1133,"visible":true,"properties":[{"name":"layer","type":"int","value":1},{"name":"group","type":"int","value":12},{"name":"id","type":"int","value":861},{"name":"fh_layer","type":"int","value":1},{"name":"fh_group","type":"int","value":12},{"name":"fh_id","type":"int","value":861},{"name":"x1","type":"int","value":1888},{"name":"x2","type":"int","value":1908},{"name":"y1","type":"int","value":1133},{"name":"y2","type":"int","value":1130},{"name":"next","type":"int","value":862},{"name":"prev","type":"int","value":860}],"polyline":[{"x":0,"y":0},{"x":20,"y":-3}]},{"id":1439,"x":1908,"y":1130,"visible":true,"properties":[{"name":"layer","type":"int","value":1},{"name":"group","type":"int","value":12},{"name":"id","type":"int","value":862},{"name":"fh_layer","type":"int","value":1},{"name":"fh_group","type":"int","value":12},{"name":"fh_id","type":"int","value":862},{"name":"x1","type":"int","value":1908},{"name":"x2","type":"int","value":1937},{"name":"y1","type":"int","value":1130},{"name":"y2","type":"int","value":1130},{"name":"next","type":"int","value":360},{"name":"prev","type":"int","value":861}],"polyline":[{"x":0,"y":0},{"x":29,"y":0}]},{"id":1440,"x":1547,"y":1258,"visible":true,"properties":[{"name":"layer","type":"int","value":1},{"name":"group","type":"int","value":12},{"name":"id","type":"int","value":863},{"name":"fh_layer","type":"int","value":1},{"name":"fh_group","type":"int","value":12},{"name":"fh_id","type":"int","value":863},{"name":"x1","type":"int","value":1547},{"name":"x2","type":"int","value":1569},{"name":"y1","type":"int","value":1258},{"name":"y2","type":"int","value":1256},{"name":"next","type":"int","value":864},{"name":"prev","type":"int","value":0}],"polyline":[{"x":0,"y":0},{"x":22,"y":-2}]},{"id":1441,"x":1569,"y":1256,"visible":true,"properties":[{"name":"layer","type":"int","value":1},{"name":"group","type":"int","value":12},{"name":"id","type":"int","value":864},{"name":"fh_layer","type":"int","value":1},{"name":"fh_group","type":"int","value":12},{"name":"fh_id","type":"int","value":864},{"name":"x1","type":"int","value":1569},{"name":"x2","type":"int","value":1582},{"name":"y1","type":"int","value":1256},{"name":"y2","type":"int","value":1263},{"name":"next","type":"int","value":865},{"name":"prev","type":"int","value":863}],"polyline":[{"x":0,"y":0},{"x":13,"y":7}]},{"id":1442,"x":1582,"y":1263,"visible":true,"properties":[{"name":"layer","type":"int","value":1},{"name":"group","type":"int","value":12},{"name":"id","type":"int","value":865},{"name":"fh_layer","type":"int","value":1},{"name":"fh_group","type":"int","value":12},{"name":"fh_id","type":"int","value":865},{"name":"x1","type":"int","value":1582},{"name":"x2","type":"int","value":1637},{"name":"y1","type":"int","value":1263},{"name":"y2","type":"int","value":1256},{"name":"next","type":"int","value":866},{"name":"prev","type":"int","value":864}],"polyline":[{"x":0,"y":0},{"x":55,"y":-7}]},{"id":1443,"x":1637,"y":1256,"visible":true,"properties":[{"name":"layer","type":"int","value":1},{"name":"group","type":"int","value":12},{"name":"id","type":"int","value":866},{"name":"fh_layer","type":"int","value":1},{"name":"fh_group","type":"int","value":12},{"name":"fh_id","type":"int","value":866},{"name":"x1","type":"int","value":1637},{"name":"x2","type":"int","value":1666},{"name":"y1","type":"int","value":1256},{"name":"y2","type":"int","value":1262},{"name":"next","type":"int","value":867},{"name":"prev","type":"int","value":865}],"polyline":[{"x":0,"y":0},{"x":29,"y":6}]},{"id":1444,"x":1666,"y":1262,"visible":true,"properties":[{"name":"layer","type":"int","value":1},{"name":"group","type":"int","value":12},{"name":"id","type":"int","value":867},{"name":"fh_layer","type":"int","value":1},{"name":"fh_group","type":"int","value":12},{"name":"fh_id","type":"int","value":867},{"name":"x1","type":"int","value":1666},{"name":"x2","type":"int","value":1683},{"name":"y1","type":"int","value":1262},{"name":"y2","type":"int","value":1254},{"name":"next","type":"int","value":868},{"name":"prev","type":"int","value":866}],"polyline":[{"x":0,"y":0},{"x":17,"y":-8}]},{"id":1445,"x":1683,"y":1254,"visible":true,"properties":[{"name":"layer","type":"int","value":1},{"name":"group","type":"int","value":12},{"name":"id","type":"int","value":868},{"name":"fh_layer","type":"int","value":1},{"name":"fh_group","type":"int","value":12},{"name":"fh_id","type":"int","value":868},{"name":"x1","type":"int","value":1683},{"name":"x2","type":"int","value":1711},{"name":"y1","type":"int","value":1254},{"name":"y2","type":"int","value":1259},{"name":"next","type":"int","value":0},{"name":"prev","type":"int","value":867}],"polyline":[{"x":0,"y":0},{"x":28,"y":5}]},{"id":1446,"x":1211,"y":1250,"visible":true,"properties":[{"name":"layer","type":"int","value":1},{"name":"group","type":"int","value":16},{"name":"id","type":"int","value":788},{"name":"fh_layer","type":"int","value":1},{"name":"fh_group","type":"int","value":16},{"name":"fh_id","type":"int","value":788},{"name":"x1","type":"int","value":1211},{"name":"x2","type":"int","value":1224},{"name":"y1","type":"int","value":1250},{"name":"y2","type":"int","value":1248},{"name":"next","type":"int","value":789},{"name":"prev","type":"int","value":284}],"polyline":[{"x":0,"y":0},{"x":13,"y":-2}]},{"id":1447,"x":1224,"y":1248,"visible":true,"properties":[{"name":"layer","type":"int","value":1},{"name":"group","type":"int","value":16},{"name":"id","type":"int","value":789},{"name":"fh_layer","type":"int","value":1},{"name":"fh_group","type":"int","value":16},{"name":"fh_id","type":"int","value":789},{"name":"x1","type":"int","value":1224},{"name":"x2","type":"int","value":1239},{"name":"y1","type":"int","value":1248},{"name":"y2","type":"int","value":1257},{"name":"next","type":"int","value":790},{"name":"prev","type":"int","value":788}],"polyline":[{"x":0,"y":0},{"x":15,"y":9}]},{"id":1448,"x":1239,"y":1257,"visible":true,"properties":[{"name":"layer","type":"int","value":1},{"name":"group","type":"int","value":16},{"name":"id","type":"int","value":790},{"name":"fh_layer","type":"int","value":1},{"name":"fh_group","type":"int","value":16},{"name":"fh_id","type":"int","value":790},{"name":"x1","type":"int","value":1239},{"name":"x2","type":"int","value":1264},{"name":"y1","type":"int","value":1257},{"name":"y2","type":"int","value":1258},{"name":"next","type":"int","value":791},{"name":"prev","type":"int","value":789}],"polyline":[{"x":0,"y":0},{"x":25,"y":1}]},{"id":1449,"x":1264,"y":1258,"visible":true,"properties":[{"name":"layer","type":"int","value":1},{"name":"group","type":"int","value":16},{"name":"id","type":"int","value":791},{"name":"fh_layer","type":"int","value":1},{"name":"fh_group","type":"int","value":16},{"name":"fh_id","type":"int","value":791},{"name":"x1","type":"int","value":1264},{"name":"x2","type":"int","value":1278},{"name":"y1","type":"int","value":1258},{"name":"y2","type":"int","value":1251},{"name":"next","type":"int","value":792},{"name":"prev","type":"int","value":790}],"polyline":[{"x":0,"y":0},{"x":14,"y":-7}]},{"id":1450,"x":1278,"y":1251,"visible":true,"properties":[{"name":"layer","type":"int","value":1},{"name":"group","type":"int","value":16},{"name":"id","type":"int","value":792},{"name":"fh_layer","type":"int","value":1},{"name":"fh_group","type":"int","value":16},{"name":"fh_id","type":"int","value":792},{"name":"x1","type":"int","value":1278},{"name":"x2","type":"int","value":1308},{"name":"y1","type":"int","value":1251},{"name":"y2","type":"int","value":1249},{"name":"next","type":"int","value":793},{"name":"prev","type":"int","value":791}],"polyline":[{"x":0,"y":0},{"x":30,"y":-2}]},{"id":1451,"x":1308,"y":1249,"visible":true,"properties":[{"name":"layer","type":"int","value":1},{"name":"group","type":"int","value":16},{"name":"id","type":"int","value":793},{"name":"fh_layer","type":"int","value":1},{"name":"fh_group","type":"int","value":16},{"name":"fh_id","type":"int","value":793},{"name":"x1","type":"int","value":1308},{"name":"x2","type":"int","value":1331},{"name":"y1","type":"int","value":1249},{"name":"y2","type":"int","value":1255},{"name":"next","type":"int","value":794},{"name":"prev","type":"int","value":792}],"polyline":[{"x":0,"y":0},{"x":23,"y":6}]},{"id":1452,"x":1331,"y":1255,"visible":true,"properties":[{"name":"layer","type":"int","value":1},{"name":"group","type":"int","value":16},{"name":"id","type":"int","value":794},{"name":"fh_layer","type":"int","value":1},{"name":"fh_group","type":"int","value":16},{"name":"fh_id","type":"int","value":794},{"name":"x1","type":"int","value":1331},{"name":"x2","type":"int","value":1341},{"name":"y1","type":"int","value":1255},{"name":"y2","type":"int","value":1255},{"name":"next","type":"int","value":795},{"name":"prev","type":"int","value":793}],"polyline":[{"x":0,"y":0},{"x":10,"y":0}]},{"id":1453,"x":1341,"y":1255,"visible":true,"properties":[{"name":"layer","type":"int","value":1},{"name":"group","type":"int","value":16},{"name":"id","type":"int","value":795},{"name":"fh_layer","type":"int","value":1},{"name":"fh_group","type":"int","value":16},{"name":"fh_id","type":"int","value":795},{"name":"x1","type":"int","value":1341},{"name":"x2","type":"int","value":1365},{"name":"y1","type":"int","value":1255},{"name":"y2","type":"int","value":1246},{"name":"next","type":"int","value":796},{"name":"prev","type":"int","value":794}],"polyline":[{"x":0,"y":0},{"x":24,"y":-9}]},{"id":1454,"x":1365,"y":1246,"visible":true,"properties":[{"name":"layer","type":"int","value":1},{"name":"group","type":"int","value":16},{"name":"id","type":"int","value":796},{"name":"fh_layer","type":"int","value":1},{"name":"fh_group","type":"int","value":16},{"name":"fh_id","type":"int","value":796},{"name":"x1","type":"int","value":1365},{"name":"x2","type":"int","value":1386},{"name":"y1","type":"int","value":1246},{"name":"y2","type":"int","value":1254},{"name":"next","type":"int","value":0},{"name":"prev","type":"int","value":795}],"polyline":[{"x":0,"y":0},{"x":21,"y":8}]},{"id":1455,"x":1275,"y":1258,"visible":true,"properties":[{"name":"layer","type":"int","value":1},{"name":"group","type":"int","value":16},{"name":"id","type":"int","value":797},{"name":"fh_layer","type":"int","value":1},{"name":"fh_group","type":"int","value":16},{"name":"fh_id","type":"int","value":797},{"name":"x1","type":"int","value":1275},{"name":"x2","type":"int","value":1275},{"name":"y1","type":"int","value":1258},{"name":"y2","type":"int","value":1276},{"name":"next","type":"int","value":798},{"name":"prev","type":"int","value":0}],"polyline":[{"x":0,"y":0},{"x":0,"y":18}]},{"id":1456,"x":1275,"y":1276,"visible":true,"properties":[{"name":"layer","type":"int","value":1},{"name":"group","type":"int","value":16},{"name":"id","type":"int","value":798},{"name":"fh_layer","type":"int","value":1},{"name":"fh_group","type":"int","value":16},{"name":"fh_id","type":"int","value":798},{"name":"x1","type":"int","value":1275},{"name":"x2","type":"int","value":1291},{"name":"y1","type":"int","value":1276},{"name":"y2","type":"int","value":1278},{"name":"next","type":"int","value":799},{"name":"prev","type":"int","value":797}],"polyline":[{"x":0,"y":0},{"x":16,"y":2}]},{"id":1457,"x":1291,"y":1278,"visible":true,"properties":[{"name":"layer","type":"int","value":1},{"name":"group","type":"int","value":16},{"name":"id","type":"int","value":799},{"name":"fh_layer","type":"int","value":1},{"name":"fh_group","type":"int","value":16},{"name":"fh_id","type":"int","value":799},{"name":"x1","type":"int","value":1291},{"name":"x2","type":"int","value":1304},{"name":"y1","type":"int","value":1278},{"name":"y2","type":"int","value":1287},{"name":"next","type":"int","value":800},{"name":"prev","type":"int","value":798}],"polyline":[{"x":0,"y":0},{"x":13,"y":9}]},{"id":1458,"x":1304,"y":1287,"visible":true,"properties":[{"name":"layer","type":"int","value":1},{"name":"group","type":"int","value":16},{"name":"id","type":"int","value":800},{"name":"fh_layer","type":"int","value":1},{"name":"fh_group","type":"int","value":16},{"name":"fh_id","type":"int","value":800},{"name":"x1","type":"int","value":1304},{"name":"x2","type":"int","value":1324},{"name":"y1","type":"int","value":1287},{"name":"y2","type":"int","value":1286},{"name":"next","type":"int","value":801},{"name":"prev","type":"int","value":799}],"polyline":[{"x":0,"y":0},{"x":20,"y":-1}]},{"id":1459,"x":1324,"y":1286,"visible":true,"properties":[{"name":"layer","type":"int","value":1},{"name":"group","type":"int","value":16},{"name":"id","type":"int","value":801},{"name":"fh_layer","type":"int","value":1},{"name":"fh_group","type":"int","value":16},{"name":"fh_id","type":"int","value":801},{"name":"x1","type":"int","value":1324},{"name":"x2","type":"int","value":1335},{"name":"y1","type":"int","value":1286},{"name":"y2","type":"int","value":1282},{"name":"next","type":"int","value":802},{"name":"prev","type":"int","value":800}],"polyline":[{"x":0,"y":0},{"x":11,"y":-4}]},{"id":1460,"x":1335,"y":1282,"visible":true,"properties":[{"name":"layer","type":"int","value":1},{"name":"group","type":"int","value":16},{"name":"id","type":"int","value":802},{"name":"fh_layer","type":"int","value":1},{"name":"fh_group","type":"int","value":16},{"name":"fh_id","type":"int","value":802},{"name":"x1","type":"int","value":1335},{"name":"x2","type":"int","value":1344},{"name":"y1","type":"int","value":1282},{"name":"y2","type":"int","value":1285},{"name":"next","type":"int","value":803},{"name":"prev","type":"int","value":801}],"polyline":[{"x":0,"y":0},{"x":9,"y":3}]},{"id":1461,"x":1344,"y":1285,"visible":true,"properties":[{"name":"layer","type":"int","value":1},{"name":"group","type":"int","value":16},{"name":"id","type":"int","value":803},{"name":"fh_layer","type":"int","value":1},{"name":"fh_group","type":"int","value":16},{"name":"fh_id","type":"int","value":803},{"name":"x1","type":"int","value":1344},{"name":"x2","type":"int","value":1353},{"name":"y1","type":"int","value":1285},{"name":"y2","type":"int","value":1281},{"name":"next","type":"int","value":804},{"name":"prev","type":"int","value":802}],"polyline":[{"x":0,"y":0},{"x":9,"y":-4}]},{"id":1462,"x":1353,"y":1281,"visible":true,"properties":[{"name":"layer","type":"int","value":1},{"name":"group","type":"int","value":16},{"name":"id","type":"int","value":804},{"name":"fh_layer","type":"int","value":1},{"name":"fh_group","type":"int","value":16},{"name":"fh_id","type":"int","value":804},{"name":"x1","type":"int","value":1353},{"name":"x2","type":"int","value":1364},{"name":"y1","type":"int","value":1281},{"name":"y2","type":"int","value":1286},{"name":"next","type":"int","value":805},{"name":"prev","type":"int","value":803}],"polyline":[{"x":0,"y":0},{"x":11,"y":5}]},{"id":1463,"x":1364,"y":1286,"visible":true,"properties":[{"name":"layer","type":"int","value":1},{"name":"group","type":"int","value":16},{"name":"id","type":"int","value":805},{"name":"fh_layer","type":"int","value":1},{"name":"fh_group","type":"int","value":16},{"name":"fh_id","type":"int","value":805},{"name":"x1","type":"int","value":1364},{"name":"x2","type":"int","value":1392},{"name":"y1","type":"int","value":1286},{"name":"y2","type":"int","value":1285},{"name":"next","type":"int","value":806},{"name":"prev","type":"int","value":804}],"polyline":[{"x":0,"y":0},{"x":28,"y":-1}]},{"id":1464,"x":1392,"y":1285,"visible":true,"properties":[{"name":"layer","type":"int","value":1},{"name":"group","type":"int","value":16},{"name":"id","type":"int","value":806},{"name":"fh_layer","type":"int","value":1},{"name":"fh_group","type":"int","value":16},{"name":"fh_id","type":"int","value":806},{"name":"x1","type":"int","value":1392},{"name":"x2","type":"int","value":1397},{"name":"y1","type":"int","value":1285},{"name":"y2","type":"int","value":1282},{"name":"next","type":"int","value":807},{"name":"prev","type":"int","value":805}],"polyline":[{"x":0,"y":0},{"x":5,"y":-3}]},{"id":1465,"x":1397,"y":1282,"visible":true,"properties":[{"name":"layer","type":"int","value":1},{"name":"group","type":"int","value":16},{"name":"id","type":"int","value":807},{"name":"fh_layer","type":"int","value":1},{"name":"fh_group","type":"int","value":16},{"name":"fh_id","type":"int","value":807},{"name":"x1","type":"int","value":1397},{"name":"x2","type":"int","value":1434},{"name":"y1","type":"int","value":1282},{"name":"y2","type":"int","value":1281},{"name":"next","type":"int","value":808},{"name":"prev","type":"int","value":806}],"polyline":[{"x":0,"y":0},{"x":37,"y":-1}]},{"id":1466,"x":1434,"y":1281,"visible":true,"properties":[{"name":"layer","type":"int","value":1},{"name":"group","type":"int","value":16},{"name":"id","type":"int","value":808},{"name":"fh_layer","type":"int","value":1},{"name":"fh_group","type":"int","value":16},{"name":"fh_id","type":"int","value":808},{"name":"x1","type":"int","value":1434},{"name":"x2","type":"int","value":1448},{"name":"y1","type":"int","value":1281},{"name":"y2","type":"int","value":1287},{"name":"next","type":"int","value":809},{"name":"prev","type":"int","value":807}],"polyline":[{"x":0,"y":0},{"x":14,"y":6}]},{"id":1467,"x":1448,"y":1287,"visible":true,"properties":[{"name":"layer","type":"int","value":1},{"name":"group","type":"int","value":16},{"name":"id","type":"int","value":809},{"name":"fh_layer","type":"int","value":1},{"name":"fh_group","type":"int","value":16},{"name":"fh_id","type":"int","value":809},{"name":"x1","type":"int","value":1448},{"name":"x2","type":"int","value":1456},{"name":"y1","type":"int","value":1287},{"name":"y2","type":"int","value":1282},{"name":"next","type":"int","value":810},{"name":"prev","type":"int","value":808}],"polyline":[{"x":0,"y":0},{"x":8,"y":-5}]},{"id":1468,"x":1456,"y":1282,"visible":true,"properties":[{"name":"layer","type":"int","value":1},{"name":"group","type":"int","value":16},{"name":"id","type":"int","value":810},{"name":"fh_layer","type":"int","value":1},{"name":"fh_group","type":"int","value":16},{"name":"fh_id","type":"int","value":810},{"name":"x1","type":"int","value":1456},{"name":"x2","type":"int","value":1491},{"name":"y1","type":"int","value":1282},{"name":"y2","type":"int","value":1282},{"name":"next","type":"int","value":0},{"name":"prev","type":"int","value":809}],"polyline":[{"x":0,"y":0},{"x":35,"y":0}]},{"id":1469,"x":1269,"y":1581,"visible":true,"properties":[{"name":"layer","type":"int","value":1},{"name":"group","type":"int","value":16},{"name":"id","type":"int","value":811},{"name":"fh_layer","type":"int","value":1},{"name":"fh_group","type":"int","value":16},{"name":"fh_id","type":"int","value":811},{"name":"x1","type":"int","value":1269},{"name":"x2","type":"int","value":1269},{"name":"y1","type":"int","value":1581},{"name":"y2","type":"int","value":1602},{"name":"next","type":"int","value":812},{"name":"prev","type":"int","value":0}],"polyline":[{"x":0,"y":0},{"x":0,"y":21}]},{"id":1470,"x":1269,"y":1602,"visible":true,"properties":[{"name":"layer","type":"int","value":1},{"name":"group","type":"int","value":16},{"name":"id","type":"int","value":812},{"name":"fh_layer","type":"int","value":1},{"name":"fh_group","type":"int","value":16},{"name":"fh_id","type":"int","value":812},{"name":"x1","type":"int","value":1269},{"name":"x2","type":"int","value":1288},{"name":"y1","type":"int","value":1602},{"name":"y2","type":"int","value":1602},{"name":"next","type":"int","value":813},{"name":"prev","type":"int","value":811}],"polyline":[{"x":0,"y":0},{"x":19,"y":0}]},{"id":1471,"x":1288,"y":1602,"visible":true,"properties":[{"name":"layer","type":"int","value":1},{"name":"group","type":"int","value":16},{"name":"id","type":"int","value":813},{"name":"fh_layer","type":"int","value":1},{"name":"fh_group","type":"int","value":16},{"name":"fh_id","type":"int","value":813},{"name":"x1","type":"int","value":1288},{"name":"x2","type":"int","value":1298},{"name":"y1","type":"int","value":1602},{"name":"y2","type":"int","value":1612},{"name":"next","type":"int","value":814},{"name":"prev","type":"int","value":812}],"polyline":[{"x":0,"y":0},{"x":10,"y":10}]},{"id":1472,"x":1298,"y":1612,"visible":true,"properties":[{"name":"layer","type":"int","value":1},{"name":"group","type":"int","value":16},{"name":"id","type":"int","value":814},{"name":"fh_layer","type":"int","value":1},{"name":"fh_group","type":"int","value":16},{"name":"fh_id","type":"int","value":814},{"name":"x1","type":"int","value":1298},{"name":"x2","type":"int","value":1316},{"name":"y1","type":"int","value":1612},{"name":"y2","type":"int","value":1612},{"name":"next","type":"int","value":815},{"name":"prev","type":"int","value":813}],"polyline":[{"x":0,"y":0},{"x":18,"y":0}]},{"id":1473,"x":1316,"y":1612,"visible":true,"properties":[{"name":"layer","type":"int","value":1},{"name":"group","type":"int","value":16},{"name":"id","type":"int","value":815},{"name":"fh_layer","type":"int","value":1},{"name":"fh_group","type":"int","value":16},{"name":"fh_id","type":"int","value":815},{"name":"x1","type":"int","value":1316},{"name":"x2","type":"int","value":1346},{"name":"y1","type":"int","value":1612},{"name":"y2","type":"int","value":1606},{"name":"next","type":"int","value":816},{"name":"prev","type":"int","value":814}],"polyline":[{"x":0,"y":0},{"x":30,"y":-6}]},{"id":1474,"x":1346,"y":1606,"visible":true,"properties":[{"name":"layer","type":"int","value":1},{"name":"group","type":"int","value":16},{"name":"id","type":"int","value":816},{"name":"fh_layer","type":"int","value":1},{"name":"fh_group","type":"int","value":16},{"name":"fh_id","type":"int","value":816},{"name":"x1","type":"int","value":1346},{"name":"x2","type":"int","value":1359},{"name":"y1","type":"int","value":1606},{"name":"y2","type":"int","value":1610},{"name":"next","type":"int","value":817},{"name":"prev","type":"int","value":815}],"polyline":[{"x":0,"y":0},{"x":13,"y":4}]},{"id":1475,"x":1359,"y":1610,"visible":true,"properties":[{"name":"layer","type":"int","value":1},{"name":"group","type":"int","value":16},{"name":"id","type":"int","value":817},{"name":"fh_layer","type":"int","value":1},{"name":"fh_group","type":"int","value":16},{"name":"fh_id","type":"int","value":817},{"name":"x1","type":"int","value":1359},{"name":"x2","type":"int","value":1388},{"name":"y1","type":"int","value":1610},{"name":"y2","type":"int","value":1608},{"name":"next","type":"int","value":818},{"name":"prev","type":"int","value":816}],"polyline":[{"x":0,"y":0},{"x":29,"y":-2}]},{"id":1476,"x":1388,"y":1608,"visible":true,"properties":[{"name":"layer","type":"int","value":1},{"name":"group","type":"int","value":16},{"name":"id","type":"int","value":818},{"name":"fh_layer","type":"int","value":1},{"name":"fh_group","type":"int","value":16},{"name":"fh_id","type":"int","value":818},{"name":"x1","type":"int","value":1388},{"name":"x2","type":"int","value":1426},{"name":"y1","type":"int","value":1608},{"name":"y2","type":"int","value":1605},{"name":"next","type":"int","value":819},{"name":"prev","type":"int","value":817}],"polyline":[{"x":0,"y":0},{"x":38,"y":-3}]},{"id":1477,"x":1426,"y":1605,"visible":true,"properties":[{"name":"layer","type":"int","value":1},{"name":"group","type":"int","value":16},{"name":"id","type":"int","value":819},{"name":"fh_layer","type":"int","value":1},{"name":"fh_group","type":"int","value":16},{"name":"fh_id","type":"int","value":819},{"name":"x1","type":"int","value":1426},{"name":"x2","type":"int","value":1440},{"name":"y1","type":"int","value":1605},{"name":"y2","type":"int","value":1610},{"name":"next","type":"int","value":820},{"name":"prev","type":"int","value":818}],"polyline":[{"x":0,"y":0},{"x":14,"y":5}]},{"id":1478,"x":1440,"y":1610,"visible":true,"properties":[{"name":"layer","type":"int","value":1},{"name":"group","type":"int","value":16},{"name":"id","type":"int","value":820},{"name":"fh_layer","type":"int","value":1},{"name":"fh_group","type":"int","value":16},{"name":"fh_id","type":"int","value":820},{"name":"x1","type":"int","value":1440},{"name":"x2","type":"int","value":1461},{"name":"y1","type":"int","value":1610},{"name":"y2","type":"int","value":1604},{"name":"next","type":"int","value":821},{"name":"prev","type":"int","value":819}],"polyline":[{"x":0,"y":0},{"x":21,"y":-6}]},{"id":1479,"x":1461,"y":1604,"visible":true,"properties":[{"name":"layer","type":"int","value":1},{"name":"group","type":"int","value":16},{"name":"id","type":"int","value":821},{"name":"fh_layer","type":"int","value":1},{"name":"fh_group","type":"int","value":16},{"name":"fh_id","type":"int","value":821},{"name":"x1","type":"int","value":1461},{"name":"x2","type":"int","value":1485},{"name":"y1","type":"int","value":1604},{"name":"y2","type":"int","value":1608},{"name":"next","type":"int","value":0},{"name":"prev","type":"int","value":820}],"polyline":[{"x":0,"y":0},{"x":24,"y":4}]},{"id":1480,"x":1213,"y":1583,"visible":true,"properties":[{"name":"layer","type":"int","value":1},{"name":"group","type":"int","value":16},{"name":"id","type":"int","value":822},{"name":"fh_layer","type":"int","value":1},{"name":"fh_group","type":"int","value":16},{"name":"fh_id","type":"int","value":822},{"name":"x1","type":"int","value":1213},{"name":"x2","type":"int","value":1257},{"name":"y1","type":"int","value":1583},{"name":"y2","type":"int","value":1582},{"name":"next","type":"int","value":823},{"name":"prev","type":"int","value":287}],"polyline":[{"x":0,"y":0},{"x":44,"y":-1}]},{"id":1481,"x":1257,"y":1582,"visible":true,"properties":[{"name":"layer","type":"int","value":1},{"name":"group","type":"int","value":16},{"name":"id","type":"int","value":823},{"name":"fh_layer","type":"int","value":1},{"name":"fh_group","type":"int","value":16},{"name":"fh_id","type":"int","value":823},{"name":"x1","type":"int","value":1257},{"name":"x2","type":"int","value":1284},{"name":"y1","type":"int","value":1582},{"name":"y2","type":"int","value":1577},{"name":"next","type":"int","value":824},{"name":"prev","type":"int","value":822}],"polyline":[{"x":0,"y":0},{"x":27,"y":-5}]},{"id":1482,"x":1284,"y":1577,"visible":true,"properties":[{"name":"layer","type":"int","value":1},{"name":"group","type":"int","value":16},{"name":"id","type":"int","value":824},{"name":"fh_layer","type":"int","value":1},{"name":"fh_group","type":"int","value":16},{"name":"fh_id","type":"int","value":824},{"name":"x1","type":"int","value":1284},{"name":"x2","type":"int","value":1313},{"name":"y1","type":"int","value":1577},{"name":"y2","type":"int","value":1575},{"name":"next","type":"int","value":825},{"name":"prev","type":"int","value":823}],"polyline":[{"x":0,"y":0},{"x":29,"y":-2}]},{"id":1483,"x":1313,"y":1575,"visible":true,"properties":[{"name":"layer","type":"int","value":1},{"name":"group","type":"int","value":16},{"name":"id","type":"int","value":825},{"name":"fh_layer","type":"int","value":1},{"name":"fh_group","type":"int","value":16},{"name":"fh_id","type":"int","value":825},{"name":"x1","type":"int","value":1313},{"name":"x2","type":"int","value":1330},{"name":"y1","type":"int","value":1575},{"name":"y2","type":"int","value":1582},{"name":"next","type":"int","value":826},{"name":"prev","type":"int","value":824}],"polyline":[{"x":0,"y":0},{"x":17,"y":7}]},{"id":1484,"x":1330,"y":1582,"visible":true,"properties":[{"name":"layer","type":"int","value":1},{"name":"group","type":"int","value":16},{"name":"id","type":"int","value":826},{"name":"fh_layer","type":"int","value":1},{"name":"fh_group","type":"int","value":16},{"name":"fh_id","type":"int","value":826},{"name":"x1","type":"int","value":1330},{"name":"x2","type":"int","value":1355},{"name":"y1","type":"int","value":1582},{"name":"y2","type":"int","value":1573},{"name":"next","type":"int","value":827},{"name":"prev","type":"int","value":825}],"polyline":[{"x":0,"y":0},{"x":25,"y":-9}]},{"id":1485,"x":1355,"y":1573,"visible":true,"properties":[{"name":"layer","type":"int","value":1},{"name":"group","type":"int","value":16},{"name":"id","type":"int","value":827},{"name":"fh_layer","type":"int","value":1},{"name":"fh_group","type":"int","value":16},{"name":"fh_id","type":"int","value":827},{"name":"x1","type":"int","value":1355},{"name":"x2","type":"int","value":1380},{"name":"y1","type":"int","value":1573},{"name":"y2","type":"int","value":1579},{"name":"next","type":"int","value":0},{"name":"prev","type":"int","value":826}],"polyline":[{"x":0,"y":0},{"x":25,"y":6}]},{"id":1486,"x":1504,"y":1645,"visible":true,"properties":[{"name":"layer","type":"int","value":1},{"name":"group","type":"int","value":17},{"name":"id","type":"int","value":828},{"name":"fh_layer","type":"int","value":1},{"name":"fh_group","type":"int","value":17},{"name":"fh_id","type":"int","value":828},{"name":"x1","type":"int","value":1504},{"name":"x2","type":"int","value":1527},{"name":"y1","type":"int","value":1645},{"name":"y2","type":"int","value":1641},{"name":"next","type":"int","value":829},{"name":"prev","type":"int","value":0}],"polyline":[{"x":0,"y":0},{"x":23,"y":-4}]},{"id":1487,"x":1527,"y":1641,"visible":true,"properties":[{"name":"layer","type":"int","value":1},{"name":"group","type":"int","value":17},{"name":"id","type":"int","value":829},{"name":"fh_layer","type":"int","value":1},{"name":"fh_group","type":"int","value":17},{"name":"fh_id","type":"int","value":829},{"name":"x1","type":"int","value":1527},{"name":"x2","type":"int","value":1544},{"name":"y1","type":"int","value":1641},{"name":"y2","type":"int","value":1648},{"name":"next","type":"int","value":830},{"name":"prev","type":"int","value":828}],"polyline":[{"x":0,"y":0},{"x":17,"y":7}]},{"id":1488,"x":1544,"y":1648,"visible":true,"properties":[{"name":"layer","type":"int","value":1},{"name":"group","type":"int","value":17},{"name":"id","type":"int","value":830},{"name":"fh_layer","type":"int","value":1},{"name":"fh_group","type":"int","value":17},{"name":"fh_id","type":"int","value":830},{"name":"x1","type":"int","value":1544},{"name":"x2","type":"int","value":1569},{"name":"y1","type":"int","value":1648},{"name":"y2","type":"int","value":1647},{"name":"next","type":"int","value":831},{"name":"prev","type":"int","value":829}],"polyline":[{"x":0,"y":0},{"x":25,"y":-1}]},{"id":1489,"x":1569,"y":1647,"visible":true,"properties":[{"name":"layer","type":"int","value":1},{"name":"group","type":"int","value":17},{"name":"id","type":"int","value":831},{"name":"fh_layer","type":"int","value":1},{"name":"fh_group","type":"int","value":17},{"name":"fh_id","type":"int","value":831},{"name":"x1","type":"int","value":1569},{"name":"x2","type":"int","value":1583},{"name":"y1","type":"int","value":1647},{"name":"y2","type":"int","value":1640},{"name":"next","type":"int","value":832},{"name":"prev","type":"int","value":830}],"polyline":[{"x":0,"y":0},{"x":14,"y":-7}]},{"id":1490,"x":1583,"y":1640,"visible":true,"properties":[{"name":"layer","type":"int","value":1},{"name":"group","type":"int","value":17},{"name":"id","type":"int","value":832},{"name":"fh_layer","type":"int","value":1},{"name":"fh_group","type":"int","value":17},{"name":"fh_id","type":"int","value":832},{"name":"x1","type":"int","value":1583},{"name":"x2","type":"int","value":1618},{"name":"y1","type":"int","value":1640},{"name":"y2","type":"int","value":1636},{"name":"next","type":"int","value":833},{"name":"prev","type":"int","value":831}],"polyline":[{"x":0,"y":0},{"x":35,"y":-4}]},{"id":1491,"x":1618,"y":1636,"visible":true,"properties":[{"name":"layer","type":"int","value":1},{"name":"group","type":"int","value":17},{"name":"id","type":"int","value":833},{"name":"fh_layer","type":"int","value":1},{"name":"fh_group","type":"int","value":17},{"name":"fh_id","type":"int","value":833},{"name":"x1","type":"int","value":1618},{"name":"x2","type":"int","value":1638},{"name":"y1","type":"int","value":1636},{"name":"y2","type":"int","value":1644},{"name":"next","type":"int","value":834},{"name":"prev","type":"int","value":832}],"polyline":[{"x":0,"y":0},{"x":20,"y":8}]},{"id":1492,"x":1638,"y":1644,"visible":true,"properties":[{"name":"layer","type":"int","value":1},{"name":"group","type":"int","value":17},{"name":"id","type":"int","value":834},{"name":"fh_layer","type":"int","value":1},{"name":"fh_group","type":"int","value":17},{"name":"fh_id","type":"int","value":834},{"name":"x1","type":"int","value":1638},{"name":"x2","type":"int","value":1668},{"name":"y1","type":"int","value":1644},{"name":"y2","type":"int","value":1636},{"name":"next","type":"int","value":835},{"name":"prev","type":"int","value":833}],"polyline":[{"x":0,"y":0},{"x":30,"y":-8}]},{"id":1493,"x":1668,"y":1636,"visible":true,"properties":[{"name":"layer","type":"int","value":1},{"name":"group","type":"int","value":17},{"name":"id","type":"int","value":835},{"name":"fh_layer","type":"int","value":1},{"name":"fh_group","type":"int","value":17},{"name":"fh_id","type":"int","value":835},{"name":"x1","type":"int","value":1668},{"name":"x2","type":"int","value":1696},{"name":"y1","type":"int","value":1636},{"name":"y2","type":"int","value":1642},{"name":"next","type":"int","value":0},{"name":"prev","type":"int","value":834}],"polyline":[{"x":0,"y":0},{"x":28,"y":6}]},{"id":1494,"x":245,"y":1230,"visible":true,"properties":[{"name":"layer","type":"int","value":1},{"name":"group","type":"int","value":37},{"name":"id","type":"int","value":730},{"name":"fh_layer","type":"int","value":1},{"name":"fh_group","type":"int","value":37},{"name":"fh_id","type":"int","value":730},{"name":"x1","type":"int","value":245},{"name":"x2","type":"int","value":262},{"name":"y1","type":"int","value":1230},{"name":"y2","type":"int","value":1231},{"name":"next","type":"int","value":731},{"name":"prev","type":"int","value":0}],"polyline":[{"x":0,"y":0},{"x":17,"y":1}]},{"id":1495,"x":262,"y":1231,"visible":true,"properties":[{"name":"layer","type":"int","value":1},{"name":"group","type":"int","value":37},{"name":"id","type":"int","value":731},{"name":"fh_layer","type":"int","value":1},{"name":"fh_group","type":"int","value":37},{"name":"fh_id","type":"int","value":731},{"name":"x1","type":"int","value":262},{"name":"x2","type":"int","value":271},{"name":"y1","type":"int","value":1231},{"name":"y2","type":"int","value":1228},{"name":"next","type":"int","value":732},{"name":"prev","type":"int","value":730}],"polyline":[{"x":0,"y":0},{"x":9,"y":-3}]},{"id":1496,"x":271,"y":1228,"visible":true,"properties":[{"name":"layer","type":"int","value":1},{"name":"group","type":"int","value":37},{"name":"id","type":"int","value":732},{"name":"fh_layer","type":"int","value":1},{"name":"fh_group","type":"int","value":37},{"name":"fh_id","type":"int","value":732},{"name":"x1","type":"int","value":271},{"name":"x2","type":"int","value":305},{"name":"y1","type":"int","value":1228},{"name":"y2","type":"int","value":1227},{"name":"next","type":"int","value":733},{"name":"prev","type":"int","value":731}],"polyline":[{"x":0,"y":0},{"x":34,"y":-1}]},{"id":1497,"x":305,"y":1227,"visible":true,"properties":[{"name":"layer","type":"int","value":1},{"name":"group","type":"int","value":37},{"name":"id","type":"int","value":733},{"name":"fh_layer","type":"int","value":1},{"name":"fh_group","type":"int","value":37},{"name":"fh_id","type":"int","value":733},{"name":"x1","type":"int","value":305},{"name":"x2","type":"int","value":321},{"name":"y1","type":"int","value":1227},{"name":"y2","type":"int","value":1222},{"name":"next","type":"int","value":734},{"name":"prev","type":"int","value":732}],"polyline":[{"x":0,"y":0},{"x":16,"y":-5}]},{"id":1498,"x":321,"y":1222,"visible":true,"properties":[{"name":"layer","type":"int","value":1},{"name":"group","type":"int","value":37},{"name":"id","type":"int","value":734},{"name":"fh_layer","type":"int","value":1},{"name":"fh_group","type":"int","value":37},{"name":"fh_id","type":"int","value":734},{"name":"x1","type":"int","value":321},{"name":"x2","type":"int","value":373},{"name":"y1","type":"int","value":1222},{"name":"y2","type":"int","value":1223},{"name":"next","type":"int","value":735},{"name":"prev","type":"int","value":733}],"polyline":[{"x":0,"y":0},{"x":52,"y":1}]},{"id":1499,"x":373,"y":1223,"visible":true,"properties":[{"name":"layer","type":"int","value":1},{"name":"group","type":"int","value":37},{"name":"id","type":"int","value":735},{"name":"fh_layer","type":"int","value":1},{"name":"fh_group","type":"int","value":37},{"name":"fh_id","type":"int","value":735},{"name":"x1","type":"int","value":373},{"name":"x2","type":"int","value":403},{"name":"y1","type":"int","value":1223},{"name":"y2","type":"int","value":1228},{"name":"next","type":"int","value":0},{"name":"prev","type":"int","value":734}],"polyline":[{"x":0,"y":0},{"x":30,"y":5}]},{"id":1500,"x":-25,"y":1191,"visible":true,"properties":[{"name":"layer","type":"int","value":1},{"name":"group","type":"int","value":38},{"name":"id","type":"int","value":725},{"name":"fh_layer","type":"int","value":1},{"name":"fh_group","type":"int","value":38},{"name":"fh_id","type":"int","value":725},{"name":"x1","type":"int","value":-25},{"name":"x2","type":"int","value":24},{"name":"y1","type":"int","value":1191},{"name":"y2","type":"int","value":1176},{"name":"next","type":"int","value":726},{"name":"prev","type":"int","value":0}],"polyline":[{"x":0,"y":0},{"x":49,"y":-15}]},{"id":1501,"x":24,"y":1176,"visible":true,"properties":[{"name":"layer","type":"int","value":1},{"name":"group","type":"int","value":38},{"name":"id","type":"int","value":726},{"name":"fh_layer","type":"int","value":1},{"name":"fh_group","type":"int","value":38},{"name":"fh_id","type":"int","value":726},{"name":"x1","type":"int","value":24},{"name":"x2","type":"int","value":116},{"name":"y1","type":"int","value":1176},{"name":"y2","type":"int","value":1174},{"name":"next","type":"int","value":727},{"name":"prev","type":"int","value":725}],"polyline":[{"x":0,"y":0},{"x":92,"y":-2}]},{"id":1502,"x":116,"y":1174,"visible":true,"properties":[{"name":"layer","type":"int","value":1},{"name":"group","type":"int","value":38},{"name":"id","type":"int","value":727},{"name":"fh_layer","type":"int","value":1},{"name":"fh_group","type":"int","value":38},{"name":"fh_id","type":"int","value":727},{"name":"x1","type":"int","value":116},{"name":"x2","type":"int","value":132},{"name":"y1","type":"int","value":1174},{"name":"y2","type":"int","value":1180},{"name":"next","type":"int","value":728},{"name":"prev","type":"int","value":726}],"polyline":[{"x":0,"y":0},{"x":16,"y":6}]},{"id":1503,"x":132,"y":1180,"visible":true,"properties":[{"name":"layer","type":"int","value":1},{"name":"group","type":"int","value":38},{"name":"id","type":"int","value":728},{"name":"fh_layer","type":"int","value":1},{"name":"fh_group","type":"int","value":38},{"name":"fh_id","type":"int","value":728},{"name":"x1","type":"int","value":132},{"name":"x2","type":"int","value":164},{"name":"y1","type":"int","value":1180},{"name":"y2","type":"int","value":1187},{"name":"next","type":"int","value":729},{"name":"prev","type":"int","value":727}],"polyline":[{"x":0,"y":0},{"x":32,"y":7}]},{"id":1504,"x":164,"y":1187,"visible":true,"properties":[{"name":"layer","type":"int","value":1},{"name":"group","type":"int","value":38},{"name":"id","type":"int","value":729},{"name":"fh_layer","type":"int","value":1},{"name":"fh_group","type":"int","value":38},{"name":"fh_id","type":"int","value":729},{"name":"x1","type":"int","value":164},{"name":"x2","type":"int","value":195},{"name":"y1","type":"int","value":1187},{"name":"y2","type":"int","value":1195},{"name":"next","type":"int","value":0},{"name":"prev","type":"int","value":728}],"polyline":[{"x":0,"y":0},{"x":31,"y":8}]},{"id":1505,"x":-28,"y":1008,"visible":true,"properties":[{"name":"layer","type":"int","value":1},{"name":"group","type":"int","value":51},{"name":"id","type":"int","value":708},{"name":"fh_layer","type":"int","value":1},{"name":"fh_group","type":"int","value":51},{"name":"fh_id","type":"int","value":708},{"name":"x1","type":"int","value":-28},{"name":"x2","type":"int","value":-28},{"name":"y1","type":"int","value":1008},{"name":"y2","type":"int","value":1029},{"name":"next","type":"int","value":709},{"name":"prev","type":"int","value":0}],"polyline":[{"x":0,"y":0},{"x":0,"y":21}]},{"id":1506,"x":-28,"y":1029,"visible":true,"properties":[{"name":"layer","type":"int","value":1},{"name":"group","type":"int","value":51},{"name":"id","type":"int","value":709},{"name":"fh_layer","type":"int","value":1},{"name":"fh_group","type":"int","value":51},{"name":"fh_id","type":"int","value":709},{"name":"x1","type":"int","value":-28},{"name":"x2","type":"int","value":-9},{"name":"y1","type":"int","value":1029},{"name":"y2","type":"int","value":1029},{"name":"next","type":"int","value":710},{"name":"prev","type":"int","value":708}],"polyline":[{"x":0,"y":0},{"x":19,"y":0}]},{"id":1507,"x":-9,"y":1029,"visible":true,"properties":[{"name":"layer","type":"int","value":1},{"name":"group","type":"int","value":51},{"name":"id","type":"int","value":710},{"name":"fh_layer","type":"int","value":1},{"name":"fh_group","type":"int","value":51},{"name":"fh_id","type":"int","value":710},{"name":"x1","type":"int","value":-9},{"name":"x2","type":"int","value":1},{"name":"y1","type":"int","value":1029},{"name":"y2","type":"int","value":1039},{"name":"next","type":"int","value":711},{"name":"prev","type":"int","value":709}],"polyline":[{"x":0,"y":0},{"x":10,"y":10}]},{"id":1508,"x":1,"y":1039,"visible":true,"properties":[{"name":"layer","type":"int","value":1},{"name":"group","type":"int","value":51},{"name":"id","type":"int","value":711},{"name":"fh_layer","type":"int","value":1},{"name":"fh_group","type":"int","value":51},{"name":"fh_id","type":"int","value":711},{"name":"x1","type":"int","value":1},{"name":"x2","type":"int","value":19},{"name":"y1","type":"int","value":1039},{"name":"y2","type":"int","value":1039},{"name":"next","type":"int","value":712},{"name":"prev","type":"int","value":710}],"polyline":[{"x":0,"y":0},{"x":18,"y":0}]},{"id":1509,"x":19,"y":1039,"visible":true,"properties":[{"name":"layer","type":"int","value":1},{"name":"group","type":"int","value":51},{"name":"id","type":"int","value":712},{"name":"fh_layer","type":"int","value":1},{"name":"fh_group","type":"int","value":51},{"name":"fh_id","type":"int","value":712},{"name":"x1","type":"int","value":19},{"name":"x2","type":"int","value":49},{"name":"y1","type":"int","value":1039},{"name":"y2","type":"int","value":1033},{"name":"next","type":"int","value":713},{"name":"prev","type":"int","value":711}],"polyline":[{"x":0,"y":0},{"x":30,"y":-6}]},{"id":1510,"x":49,"y":1033,"visible":true,"properties":[{"name":"layer","type":"int","value":1},{"name":"group","type":"int","value":51},{"name":"id","type":"int","value":713},{"name":"fh_layer","type":"int","value":1},{"name":"fh_group","type":"int","value":51},{"name":"fh_id","type":"int","value":713},{"name":"x1","type":"int","value":49},{"name":"x2","type":"int","value":62},{"name":"y1","type":"int","value":1033},{"name":"y2","type":"int","value":1037},{"name":"next","type":"int","value":714},{"name":"prev","type":"int","value":712}],"polyline":[{"x":0,"y":0},{"x":13,"y":4}]},{"id":1511,"x":62,"y":1037,"visible":true,"properties":[{"name":"layer","type":"int","value":1},{"name":"group","type":"int","value":51},{"name":"id","type":"int","value":714},{"name":"fh_layer","type":"int","value":1},{"name":"fh_group","type":"int","value":51},{"name":"fh_id","type":"int","value":714},{"name":"x1","type":"int","value":62},{"name":"x2","type":"int","value":91},{"name":"y1","type":"int","value":1037},{"name":"y2","type":"int","value":1035},{"name":"next","type":"int","value":715},{"name":"prev","type":"int","value":713}],"polyline":[{"x":0,"y":0},{"x":29,"y":-2}]},{"id":1512,"x":91,"y":1035,"visible":true,"properties":[{"name":"layer","type":"int","value":1},{"name":"group","type":"int","value":51},{"name":"id","type":"int","value":715},{"name":"fh_layer","type":"int","value":1},{"name":"fh_group","type":"int","value":51},{"name":"fh_id","type":"int","value":715},{"name":"x1","type":"int","value":91},{"name":"x2","type":"int","value":129},{"name":"y1","type":"int","value":1035},{"name":"y2","type":"int","value":1032},{"name":"next","type":"int","value":716},{"name":"prev","type":"int","value":714}],"polyline":[{"x":0,"y":0},{"x":38,"y":-3}]},{"id":1513,"x":129,"y":1032,"visible":true,"properties":[{"name":"layer","type":"int","value":1},{"name":"group","type":"int","value":51},{"name":"id","type":"int","value":716},{"name":"fh_layer","type":"int","value":1},{"name":"fh_group","type":"int","value":51},{"name":"fh_id","type":"int","value":716},{"name":"x1","type":"int","value":129},{"name":"x2","type":"int","value":143},{"name":"y1","type":"int","value":1032},{"name":"y2","type":"int","value":1037},{"name":"next","type":"int","value":717},{"name":"prev","type":"int","value":715}],"polyline":[{"x":0,"y":0},{"x":14,"y":5}]},{"id":1514,"x":143,"y":1037,"visible":true,"properties":[{"name":"layer","type":"int","value":1},{"name":"group","type":"int","value":51},{"name":"id","type":"int","value":717},{"name":"fh_layer","type":"int","value":1},{"name":"fh_group","type":"int","value":51},{"name":"fh_id","type":"int","value":717},{"name":"x1","type":"int","value":143},{"name":"x2","type":"int","value":164},{"name":"y1","type":"int","value":1037},{"name":"y2","type":"int","value":1031},{"name":"next","type":"int","value":718},{"name":"prev","type":"int","value":716}],"polyline":[{"x":0,"y":0},{"x":21,"y":-6}]},{"id":1515,"x":164,"y":1031,"visible":true,"properties":[{"name":"layer","type":"int","value":1},{"name":"group","type":"int","value":51},{"name":"id","type":"int","value":718},{"name":"fh_layer","type":"int","value":1},{"name":"fh_group","type":"int","value":51},{"name":"fh_id","type":"int","value":718},{"name":"x1","type":"int","value":164},{"name":"x2","type":"int","value":188},{"name":"y1","type":"int","value":1031},{"name":"y2","type":"int","value":1035},{"name":"next","type":"int","value":0},{"name":"prev","type":"int","value":717}],"polyline":[{"x":0,"y":0},{"x":24,"y":4}]},{"id":1516,"x":-90,"y":1010,"visible":true,"properties":[{"name":"layer","type":"int","value":1},{"name":"group","type":"int","value":51},{"name":"id","type":"int","value":719},{"name":"fh_layer","type":"int","value":1},{"name":"fh_group","type":"int","value":51},{"name":"fh_id","type":"int","value":719},{"name":"x1","type":"int","value":-90},{"name":"x2","type":"int","value":-40},{"name":"y1","type":"int","value":1010},{"name":"y2","type":"int","value":1009},{"name":"next","type":"int","value":720},{"name":"prev","type":"int","value":169}],"polyline":[{"x":0,"y":0},{"x":50,"y":-1}]},{"id":1517,"x":-40,"y":1009,"visible":true,"properties":[{"name":"layer","type":"int","value":1},{"name":"group","type":"int","value":51},{"name":"id","type":"int","value":720},{"name":"fh_layer","type":"int","value":1},{"name":"fh_group","type":"int","value":51},{"name":"fh_id","type":"int","value":720},{"name":"x1","type":"int","value":-40},{"name":"x2","type":"int","value":-13},{"name":"y1","type":"int","value":1009},{"name":"y2","type":"int","value":1004},{"name":"next","type":"int","value":721},{"name":"prev","type":"int","value":719}],"polyline":[{"x":0,"y":0},{"x":27,"y":-5}]},{"id":1518,"x":-13,"y":1004,"visible":true,"properties":[{"name":"layer","type":"int","value":1},{"name":"group","type":"int","value":51},{"name":"id","type":"int","value":721},{"name":"fh_layer","type":"int","value":1},{"name":"fh_group","type":"int","value":51},{"name":"fh_id","type":"int","value":721},{"name":"x1","type":"int","value":-13},{"name":"x2","type":"int","value":16},{"name":"y1","type":"int","value":1004},{"name":"y2","type":"int","value":1002},{"name":"next","type":"int","value":722},{"name":"prev","type":"int","value":720}],"polyline":[{"x":0,"y":0},{"x":29,"y":-2}]},{"id":1519,"x":16,"y":1002,"visible":true,"properties":[{"name":"layer","type":"int","value":1},{"name":"group","type":"int","value":51},{"name":"id","type":"int","value":722},{"name":"fh_layer","type":"int","value":1},{"name":"fh_group","type":"int","value":51},{"name":"fh_id","type":"int","value":722},{"name":"x1","type":"int","value":16},{"name":"x2","type":"int","value":33},{"name":"y1","type":"int","value":1002},{"name":"y2","type":"int","value":1009},{"name":"next","type":"int","value":723},{"name":"prev","type":"int","value":721}],"polyline":[{"x":0,"y":0},{"x":17,"y":7}]},{"id":1520,"x":33,"y":1009,"visible":true,"properties":[{"name":"layer","type":"int","value":1},{"name":"group","type":"int","value":51},{"name":"id","type":"int","value":723},{"name":"fh_layer","type":"int","value":1},{"name":"fh_group","type":"int","value":51},{"name":"fh_id","type":"int","value":723},{"name":"x1","type":"int","value":33},{"name":"x2","type":"int","value":58},{"name":"y1","type":"int","value":1009},{"name":"y2","type":"int","value":1000},{"name":"next","type":"int","value":724},{"name":"prev","type":"int","value":722}],"polyline":[{"x":0,"y":0},{"x":25,"y":-9}]},{"id":1521,"x":58,"y":1000,"visible":true,"properties":[{"name":"layer","type":"int","value":1},{"name":"group","type":"int","value":51},{"name":"id","type":"int","value":724},{"name":"fh_layer","type":"int","value":1},{"name":"fh_group","type":"int","value":51},{"name":"fh_id","type":"int","value":724},{"name":"x1","type":"int","value":58},{"name":"x2","type":"int","value":83},{"name":"y1","type":"int","value":1000},{"name":"y2","type":"int","value":1006},{"name":"next","type":"int","value":0},{"name":"prev","type":"int","value":723}],"polyline":[{"x":0,"y":0},{"x":25,"y":6}]},{"id":1522,"x":1556,"y":987,"visible":true,"properties":[{"name":"layer","type":"int","value":1},{"name":"group","type":"int","value":60},{"name":"id","type":"int","value":882},{"name":"fh_layer","type":"int","value":1},{"name":"fh_group","type":"int","value":60},{"name":"fh_id","type":"int","value":882},{"name":"x1","type":"int","value":1556},{"name":"x2","type":"int","value":1559},{"name":"y1","type":"int","value":987},{"name":"y2","type":"int","value":988},{"name":"next","type":"int","value":897},{"name":"prev","type":"int","value":896}],"polyline":[{"x":0,"y":0},{"x":3,"y":1}]},{"id":1523,"x":1573,"y":994,"visible":true,"properties":[{"name":"layer","type":"int","value":1},{"name":"group","type":"int","value":60},{"name":"id","type":"int","value":883},{"name":"fh_layer","type":"int","value":1},{"name":"fh_group","type":"int","value":60},{"name":"fh_id","type":"int","value":883},{"name":"x1","type":"int","value":1573},{"name":"x2","type":"int","value":1598},{"name":"y1","type":"int","value":994},{"name":"y2","type":"int","value":993},{"name":"next","type":"int","value":884},{"name":"prev","type":"int","value":897}],"polyline":[{"x":0,"y":0},{"x":25,"y":-1}]},{"id":1524,"x":1598,"y":993,"visible":true,"properties":[{"name":"layer","type":"int","value":1},{"name":"group","type":"int","value":60},{"name":"id","type":"int","value":884},{"name":"fh_layer","type":"int","value":1},{"name":"fh_group","type":"int","value":60},{"name":"fh_id","type":"int","value":884},{"name":"x1","type":"int","value":1598},{"name":"x2","type":"int","value":1612},{"name":"y1","type":"int","value":993},{"name":"y2","type":"int","value":986},{"name":"next","type":"int","value":885},{"name":"prev","type":"int","value":883}],"polyline":[{"x":0,"y":0},{"x":14,"y":-7}]},{"id":1525,"x":1612,"y":986,"visible":true,"properties":[{"name":"layer","type":"int","value":1},{"name":"group","type":"int","value":60},{"name":"id","type":"int","value":885},{"name":"fh_layer","type":"int","value":1},{"name":"fh_group","type":"int","value":60},{"name":"fh_id","type":"int","value":885},{"name":"x1","type":"int","value":1612},{"name":"x2","type":"int","value":1647},{"name":"y1","type":"int","value":986},{"name":"y2","type":"int","value":982},{"name":"next","type":"int","value":886},{"name":"prev","type":"int","value":884}],"polyline":[{"x":0,"y":0},{"x":35,"y":-4}]},{"id":1526,"x":1647,"y":982,"visible":true,"properties":[{"name":"layer","type":"int","value":1},{"name":"group","type":"int","value":60},{"name":"id","type":"int","value":886},{"name":"fh_layer","type":"int","value":1},{"name":"fh_group","type":"int","value":60},{"name":"fh_id","type":"int","value":886},{"name":"x1","type":"int","value":1647},{"name":"x2","type":"int","value":1667},{"name":"y1","type":"int","value":982},{"name":"y2","type":"int","value":990},{"name":"next","type":"int","value":887},{"name":"prev","type":"int","value":885}],"polyline":[{"x":0,"y":0},{"x":20,"y":8}]},{"id":1527,"x":1667,"y":990,"visible":true,"properties":[{"name":"layer","type":"int","value":1},{"name":"group","type":"int","value":60},{"name":"id","type":"int","value":887},{"name":"fh_layer","type":"int","value":1},{"name":"fh_group","type":"int","value":60},{"name":"fh_id","type":"int","value":887},{"name":"x1","type":"int","value":1667},{"name":"x2","type":"int","value":1697},{"name":"y1","type":"int","value":990},{"name":"y2","type":"int","value":982},{"name":"next","type":"int","value":888},{"name":"prev","type":"int","value":886}],"polyline":[{"x":0,"y":0},{"x":30,"y":-8}]},{"id":1528,"x":1697,"y":982,"visible":true,"properties":[{"name":"layer","type":"int","value":1},{"name":"group","type":"int","value":60},{"name":"id","type":"int","value":888},{"name":"fh_layer","type":"int","value":1},{"name":"fh_group","type":"int","value":60},{"name":"fh_id","type":"int","value":888},{"name":"x1","type":"int","value":1697},{"name":"x2","type":"int","value":1725},{"name":"y1","type":"int","value":982},{"name":"y2","type":"int","value":988},{"name":"next","type":"int","value":0},{"name":"prev","type":"int","value":887}],"polyline":[{"x":0,"y":0},{"x":28,"y":6}]},{"id":1529,"x":1396,"y":988,"visible":true,"properties":[{"name":"layer","type":"int","value":1},{"name":"group","type":"int","value":60},{"name":"id","type":"int","value":889},{"name":"fh_layer","type":"int","value":1},{"name":"fh_group","type":"int","value":60},{"name":"fh_id","type":"int","value":889},{"name":"x1","type":"int","value":1396},{"name":"x2","type":"int","value":1400},{"name":"y1","type":"int","value":988},{"name":"y2","type":"int","value":989},{"name":"next","type":"int","value":904},{"name":"prev","type":"int","value":903}],"polyline":[{"x":0,"y":0},{"x":4,"y":1}]},{"id":1530,"x":1413,"y":995,"visible":true,"properties":[{"name":"layer","type":"int","value":1},{"name":"group","type":"int","value":60},{"name":"id","type":"int","value":890},{"name":"fh_layer","type":"int","value":1},{"name":"fh_group","type":"int","value":60},{"name":"fh_id","type":"int","value":890},{"name":"x1","type":"int","value":1413},{"name":"x2","type":"int","value":1438},{"name":"y1","type":"int","value":995},{"name":"y2","type":"int","value":994},{"name":"next","type":"int","value":891},{"name":"prev","type":"int","value":904}],"polyline":[{"x":0,"y":0},{"x":25,"y":-1}]},{"id":1531,"x":1438,"y":994,"visible":true,"properties":[{"name":"layer","type":"int","value":1},{"name":"group","type":"int","value":60},{"name":"id","type":"int","value":891},{"name":"fh_layer","type":"int","value":1},{"name":"fh_group","type":"int","value":60},{"name":"fh_id","type":"int","value":891},{"name":"x1","type":"int","value":1438},{"name":"x2","type":"int","value":1452},{"name":"y1","type":"int","value":994},{"name":"y2","type":"int","value":987},{"name":"next","type":"int","value":892},{"name":"prev","type":"int","value":890}],"polyline":[{"x":0,"y":0},{"x":14,"y":-7}]},{"id":1532,"x":1452,"y":987,"visible":true,"properties":[{"name":"layer","type":"int","value":1},{"name":"group","type":"int","value":60},{"name":"id","type":"int","value":892},{"name":"fh_layer","type":"int","value":1},{"name":"fh_group","type":"int","value":60},{"name":"fh_id","type":"int","value":892},{"name":"x1","type":"int","value":1452},{"name":"x2","type":"int","value":1487},{"name":"y1","type":"int","value":987},{"name":"y2","type":"int","value":983},{"name":"next","type":"int","value":893},{"name":"prev","type":"int","value":891}],"polyline":[{"x":0,"y":0},{"x":35,"y":-4}]},{"id":1533,"x":1487,"y":983,"visible":true,"properties":[{"name":"layer","type":"int","value":1},{"name":"group","type":"int","value":60},{"name":"id","type":"int","value":893},{"name":"fh_layer","type":"int","value":1},{"name":"fh_group","type":"int","value":60},{"name":"fh_id","type":"int","value":893},{"name":"x1","type":"int","value":1487},{"name":"x2","type":"int","value":1507},{"name":"y1","type":"int","value":983},{"name":"y2","type":"int","value":991},{"name":"next","type":"int","value":894},{"name":"prev","type":"int","value":892}],"polyline":[{"x":0,"y":0},{"x":20,"y":8}]},{"id":1534,"x":1507,"y":991,"visible":true,"properties":[{"name":"layer","type":"int","value":1},{"name":"group","type":"int","value":60},{"name":"id","type":"int","value":894},{"name":"fh_layer","type":"int","value":1},{"name":"fh_group","type":"int","value":60},{"name":"fh_id","type":"int","value":894},{"name":"x1","type":"int","value":1507},{"name":"x2","type":"int","value":1537},{"name":"y1","type":"int","value":991},{"name":"y2","type":"int","value":983},{"name":"next","type":"int","value":895},{"name":"prev","type":"int","value":893}],"polyline":[{"x":0,"y":0},{"x":30,"y":-8}]},{"id":1535,"x":1537,"y":983,"visible":true,"properties":[{"name":"layer","type":"int","value":1},{"name":"group","type":"int","value":60},{"name":"id","type":"int","value":895},{"name":"fh_layer","type":"int","value":1},{"name":"fh_group","type":"int","value":60},{"name":"fh_id","type":"int","value":895},{"name":"x1","type":"int","value":1537},{"name":"x2","type":"int","value":1555},{"name":"y1","type":"int","value":983},{"name":"y2","type":"int","value":988},{"name":"next","type":"int","value":896},{"name":"prev","type":"int","value":894}],"polyline":[{"x":0,"y":0},{"x":18,"y":5}]},{"id":1536,"x":1555,"y":988,"visible":true,"properties":[{"name":"layer","type":"int","value":1},{"name":"group","type":"int","value":60},{"name":"id","type":"int","value":896},{"name":"fh_layer","type":"int","value":1},{"name":"fh_group","type":"int","value":60},{"name":"fh_id","type":"int","value":896},{"name":"x1","type":"int","value":1555},{"name":"x2","type":"int","value":1556},{"name":"y1","type":"int","value":988},{"name":"y2","type":"int","value":987},{"name":"next","type":"int","value":882},{"name":"prev","type":"int","value":895}],"polyline":[{"x":0,"y":0},{"x":1,"y":-1}]},{"id":1537,"x":1559,"y":988,"visible":true,"properties":[{"name":"layer","type":"int","value":1},{"name":"group","type":"int","value":60},{"name":"id","type":"int","value":897},{"name":"fh_layer","type":"int","value":1},{"name":"fh_group","type":"int","value":60},{"name":"fh_id","type":"int","value":897},{"name":"x1","type":"int","value":1559},{"name":"x2","type":"int","value":1573},{"name":"y1","type":"int","value":988},{"name":"y2","type":"int","value":994},{"name":"next","type":"int","value":883},{"name":"prev","type":"int","value":882}],"polyline":[{"x":0,"y":0},{"x":14,"y":6}]},{"id":1538,"x":1182,"y":986,"visible":true,"properties":[{"name":"layer","type":"int","value":1},{"name":"group","type":"int","value":60},{"name":"id","type":"int","value":898},{"name":"fh_layer","type":"int","value":1},{"name":"fh_group","type":"int","value":60},{"name":"fh_id","type":"int","value":898},{"name":"x1","type":"int","value":1182},{"name":"x2","type":"int","value":1231},{"name":"y1","type":"int","value":986},{"name":"y2","type":"int","value":971},{"name":"next","type":"int","value":899},{"name":"prev","type":"int","value":0}],"polyline":[{"x":0,"y":0},{"x":49,"y":-15}]},{"id":1539,"x":1231,"y":971,"visible":true,"properties":[{"name":"layer","type":"int","value":1},{"name":"group","type":"int","value":60},{"name":"id","type":"int","value":899},{"name":"fh_layer","type":"int","value":1},{"name":"fh_group","type":"int","value":60},{"name":"fh_id","type":"int","value":899},{"name":"x1","type":"int","value":1231},{"name":"x2","type":"int","value":1323},{"name":"y1","type":"int","value":971},{"name":"y2","type":"int","value":969},{"name":"next","type":"int","value":900},{"name":"prev","type":"int","value":898}],"polyline":[{"x":0,"y":0},{"x":92,"y":-2}]},{"id":1540,"x":1323,"y":969,"visible":true,"properties":[{"name":"layer","type":"int","value":1},{"name":"group","type":"int","value":60},{"name":"id","type":"int","value":900},{"name":"fh_layer","type":"int","value":1},{"name":"fh_group","type":"int","value":60},{"name":"fh_id","type":"int","value":900},{"name":"x1","type":"int","value":1323},{"name":"x2","type":"int","value":1339},{"name":"y1","type":"int","value":969},{"name":"y2","type":"int","value":975},{"name":"next","type":"int","value":901},{"name":"prev","type":"int","value":899}],"polyline":[{"x":0,"y":0},{"x":16,"y":6}]},{"id":1541,"x":1339,"y":975,"visible":true,"properties":[{"name":"layer","type":"int","value":1},{"name":"group","type":"int","value":60},{"name":"id","type":"int","value":901},{"name":"fh_layer","type":"int","value":1},{"name":"fh_group","type":"int","value":60},{"name":"fh_id","type":"int","value":901},{"name":"x1","type":"int","value":1339},{"name":"x2","type":"int","value":1371},{"name":"y1","type":"int","value":975},{"name":"y2","type":"int","value":982},{"name":"next","type":"int","value":902},{"name":"prev","type":"int","value":900}],"polyline":[{"x":0,"y":0},{"x":32,"y":7}]},{"id":1542,"x":1371,"y":982,"visible":true,"properties":[{"name":"layer","type":"int","value":1},{"name":"group","type":"int","value":60},{"name":"id","type":"int","value":902},{"name":"fh_layer","type":"int","value":1},{"name":"fh_group","type":"int","value":60},{"name":"fh_id","type":"int","value":902},{"name":"x1","type":"int","value":1371},{"name":"x2","type":"int","value":1394},{"name":"y1","type":"int","value":982},{"name":"y2","type":"int","value":989},{"name":"next","type":"int","value":903},{"name":"prev","type":"int","value":901}],"polyline":[{"x":0,"y":0},{"x":23,"y":7}]},{"id":1543,"x":1394,"y":989,"visible":true,"properties":[{"name":"layer","type":"int","value":1},{"name":"group","type":"int","value":60},{"name":"id","type":"int","value":903},{"name":"fh_layer","type":"int","value":1},{"name":"fh_group","type":"int","value":60},{"name":"fh_id","type":"int","value":903},{"name":"x1","type":"int","value":1394},{"name":"x2","type":"int","value":1396},{"name":"y1","type":"int","value":989},{"name":"y2","type":"int","value":988},{"name":"next","type":"int","value":889},{"name":"prev","type":"int","value":902}],"polyline":[{"x":0,"y":0},{"x":2,"y":-1}]},{"id":1544,"x":1400,"y":989,"visible":true,"properties":[{"name":"layer","type":"int","value":1},{"name":"group","type":"int","value":60},{"name":"id","type":"int","value":904},{"name":"fh_layer","type":"int","value":1},{"name":"fh_group","type":"int","value":60},{"name":"fh_id","type":"int","value":904},{"name":"x1","type":"int","value":1400},{"name":"x2","type":"int","value":1413},{"name":"y1","type":"int","value":989},{"name":"y2","type":"int","value":995},{"name":"next","type":"int","value":890},{"name":"prev","type":"int","value":889}],"polyline":[{"x":0,"y":0},{"x":13,"y":6}]},{"id":1545,"x":756,"y":999,"visible":true,"properties":[{"name":"layer","type":"int","value":1},{"name":"group","type":"int","value":66},{"name":"id","type":"int","value":905},{"name":"fh_layer","type":"int","value":1},{"name":"fh_group","type":"int","value":66},{"name":"fh_id","type":"int","value":905},{"name":"x1","type":"int","value":756},{"name":"x2","type":"int","value":778},{"name":"y1","type":"int","value":999},{"name":"y2","type":"int","value":997},{"name":"next","type":"int","value":906},{"name":"prev","type":"int","value":0}],"polyline":[{"x":0,"y":0},{"x":22,"y":-2}]},{"id":1546,"x":778,"y":997,"visible":true,"properties":[{"name":"layer","type":"int","value":1},{"name":"group","type":"int","value":66},{"name":"id","type":"int","value":906},{"name":"fh_layer","type":"int","value":1},{"name":"fh_group","type":"int","value":66},{"name":"fh_id","type":"int","value":906},{"name":"x1","type":"int","value":778},{"name":"x2","type":"int","value":791},{"name":"y1","type":"int","value":997},{"name":"y2","type":"int","value":1004},{"name":"next","type":"int","value":907},{"name":"prev","type":"int","value":905}],"polyline":[{"x":0,"y":0},{"x":13,"y":7}]},{"id":1547,"x":791,"y":1004,"visible":true,"properties":[{"name":"layer","type":"int","value":1},{"name":"group","type":"int","value":66},{"name":"id","type":"int","value":907},{"name":"fh_layer","type":"int","value":1},{"name":"fh_group","type":"int","value":66},{"name":"fh_id","type":"int","value":907},{"name":"x1","type":"int","value":791},{"name":"x2","type":"int","value":846},{"name":"y1","type":"int","value":1004},{"name":"y2","type":"int","value":997},{"name":"next","type":"int","value":908},{"name":"prev","type":"int","value":906}],"polyline":[{"x":0,"y":0},{"x":55,"y":-7}]},{"id":1548,"x":846,"y":997,"visible":true,"properties":[{"name":"layer","type":"int","value":1},{"name":"group","type":"int","value":66},{"name":"id","type":"int","value":908},{"name":"fh_layer","type":"int","value":1},{"name":"fh_group","type":"int","value":66},{"name":"fh_id","type":"int","value":908},{"name":"x1","type":"int","value":846},{"name":"x2","type":"int","value":875},{"name":"y1","type":"int","value":997},{"name":"y2","type":"int","value":1003},{"name":"next","type":"int","value":909},{"name":"prev","type":"int","value":907}],"polyline":[{"x":0,"y":0},{"x":29,"y":6}]},{"id":1549,"x":875,"y":1003,"visible":true,"properties":[{"name":"layer","type":"int","value":1},{"name":"group","type":"int","value":66},{"name":"id","type":"int","value":909},{"name":"fh_layer","type":"int","value":1},{"name":"fh_group","type":"int","value":66},{"name":"fh_id","type":"int","value":909},{"name":"x1","type":"int","value":875},{"name":"x2","type":"int","value":892},{"name":"y1","type":"int","value":1003},{"name":"y2","type":"int","value":995},{"name":"next","type":"int","value":910},{"name":"prev","type":"int","value":908}],"polyline":[{"x":0,"y":0},{"x":17,"y":-8}]},{"id":1550,"x":892,"y":995,"visible":true,"properties":[{"name":"layer","type":"int","value":1},{"name":"group","type":"int","value":66},{"name":"id","type":"int","value":910},{"name":"fh_layer","type":"int","value":1},{"name":"fh_group","type":"int","value":66},{"name":"fh_id","type":"int","value":910},{"name":"x1","type":"int","value":892},{"name":"x2","type":"int","value":920},{"name":"y1","type":"int","value":995},{"name":"y2","type":"int","value":1000},{"name":"next","type":"int","value":0},{"name":"prev","type":"int","value":909}],"polyline":[{"x":0,"y":0},{"x":28,"y":5}]},{"id":1551,"x":265,"y":859,"visible":true,"properties":[{"name":"layer","type":"int","value":1},{"name":"group","type":"int","value":73},{"name":"id","type":"int","value":783},{"name":"fh_layer","type":"int","value":1},{"name":"fh_group","type":"int","value":73},{"name":"fh_id","type":"int","value":783},{"name":"x1","type":"int","value":265},{"name":"x2","type":"int","value":314},{"name":"y1","type":"int","value":859},{"name":"y2","type":"int","value":844},{"name":"next","type":"int","value":784},{"name":"prev","type":"int","value":0}],"polyline":[{"x":0,"y":0},{"x":49,"y":-15}]},{"id":1552,"x":314,"y":844,"visible":true,"properties":[{"name":"layer","type":"int","value":1},{"name":"group","type":"int","value":73},{"name":"id","type":"int","value":784},{"name":"fh_layer","type":"int","value":1},{"name":"fh_group","type":"int","value":73},{"name":"fh_id","type":"int","value":784},{"name":"x1","type":"int","value":314},{"name":"x2","type":"int","value":406},{"name":"y1","type":"int","value":844},{"name":"y2","type":"int","value":842},{"name":"next","type":"int","value":785},{"name":"prev","type":"int","value":783}],"polyline":[{"x":0,"y":0},{"x":92,"y":-2}]},{"id":1553,"x":406,"y":842,"visible":true,"properties":[{"name":"layer","type":"int","value":1},{"name":"group","type":"int","value":73},{"name":"id","type":"int","value":785},{"name":"fh_layer","type":"int","value":1},{"name":"fh_group","type":"int","value":73},{"name":"fh_id","type":"int","value":785},{"name":"x1","type":"int","value":406},{"name":"x2","type":"int","value":422},{"name":"y1","type":"int","value":842},{"name":"y2","type":"int","value":848},{"name":"next","type":"int","value":786},{"name":"prev","type":"int","value":784}],"polyline":[{"x":0,"y":0},{"x":16,"y":6}]},{"id":1554,"x":422,"y":848,"visible":true,"properties":[{"name":"layer","type":"int","value":1},{"name":"group","type":"int","value":73},{"name":"id","type":"int","value":786},{"name":"fh_layer","type":"int","value":1},{"name":"fh_group","type":"int","value":73},{"name":"fh_id","type":"int","value":786},{"name":"x1","type":"int","value":422},{"name":"x2","type":"int","value":454},{"name":"y1","type":"int","value":848},{"name":"y2","type":"int","value":855},{"name":"next","type":"int","value":787},{"name":"prev","type":"int","value":785}],"polyline":[{"x":0,"y":0},{"x":32,"y":7}]},{"id":1555,"x":454,"y":855,"visible":true,"properties":[{"name":"layer","type":"int","value":1},{"name":"group","type":"int","value":73},{"name":"id","type":"int","value":787},{"name":"fh_layer","type":"int","value":1},{"name":"fh_group","type":"int","value":73},{"name":"fh_id","type":"int","value":787},{"name":"x1","type":"int","value":454},{"name":"x2","type":"int","value":485},{"name":"y1","type":"int","value":855},{"name":"y2","type":"int","value":863},{"name":"next","type":"int","value":0},{"name":"prev","type":"int","value":786}],"polyline":[{"x":0,"y":0},{"x":31,"y":8}]},{"id":1556,"x":630,"y":770,"visible":true,"properties":[{"name":"layer","type":"int","value":1},{"name":"group","type":"int","value":75},{"name":"id","type":"int","value":564},{"name":"fh_layer","type":"int","value":1},{"name":"fh_group","type":"int","value":75},{"name":"fh_id","type":"int","value":564},{"name":"x1","type":"int","value":630},{"name":"x2","type":"int","value":654},{"name":"y1","type":"int","value":770},{"name":"y2","type":"int","value":751},{"name":"next","type":"int","value":565},{"name":"prev","type":"int","value":591}],"polyline":[{"x":0,"y":0},{"x":24,"y":-19}]},{"id":1557,"x":654,"y":751,"visible":true,"properties":[{"name":"layer","type":"int","value":1},{"name":"group","type":"int","value":75},{"name":"id","type":"int","value":565},{"name":"fh_layer","type":"int","value":1},{"name":"fh_group","type":"int","value":75},{"name":"fh_id","type":"int","value":565},{"name":"x1","type":"int","value":654},{"name":"x2","type":"int","value":664},{"name":"y1","type":"int","value":751},{"name":"y2","type":"int","value":732},{"name":"next","type":"int","value":566},{"name":"prev","type":"int","value":564}],"polyline":[{"x":0,"y":0},{"x":10,"y":-19}]},{"id":1558,"x":664,"y":732,"visible":true,"properties":[{"name":"layer","type":"int","value":1},{"name":"group","type":"int","value":75},{"name":"id","type":"int","value":566},{"name":"fh_layer","type":"int","value":1},{"name":"fh_group","type":"int","value":75},{"name":"fh_id","type":"int","value":566},{"name":"x1","type":"int","value":664},{"name":"x2","type":"int","value":685},{"name":"y1","type":"int","value":732},{"name":"y2","type":"int","value":721},{"name":"next","type":"int","value":567},{"name":"prev","type":"int","value":565}],"polyline":[{"x":0,"y":0},{"x":21,"y":-11}]},{"id":1559,"x":685,"y":721,"visible":true,"properties":[{"name":"layer","type":"int","value":1},{"name":"group","type":"int","value":75},{"name":"id","type":"int","value":567},{"name":"fh_layer","type":"int","value":1},{"name":"fh_group","type":"int","value":75},{"name":"fh_id","type":"int","value":567},{"name":"x1","type":"int","value":685},{"name":"x2","type":"int","value":700},{"name":"y1","type":"int","value":721},{"name":"y2","type":"int","value":711},{"name":"next","type":"int","value":568},{"name":"prev","type":"int","value":566}],"polyline":[{"x":0,"y":0},{"x":15,"y":-10}]},{"id":1560,"x":700,"y":711,"visible":true,"properties":[{"name":"layer","type":"int","value":1},{"name":"group","type":"int","value":75},{"name":"id","type":"int","value":568},{"name":"fh_layer","type":"int","value":1},{"name":"fh_group","type":"int","value":75},{"name":"fh_id","type":"int","value":568},{"name":"x1","type":"int","value":700},{"name":"x2","type":"int","value":720},{"name":"y1","type":"int","value":711},{"name":"y2","type":"int","value":710},{"name":"next","type":"int","value":602},{"name":"prev","type":"int","value":567}],"polyline":[{"x":0,"y":0},{"x":20,"y":-1}]},{"id":1561,"x":900,"y":710,"visible":true,"properties":[{"name":"layer","type":"int","value":1},{"name":"group","type":"int","value":75},{"name":"id","type":"int","value":569},{"name":"fh_layer","type":"int","value":1},{"name":"fh_group","type":"int","value":75},{"name":"fh_id","type":"int","value":569},{"name":"x1","type":"int","value":900},{"name":"x2","type":"int","value":922},{"name":"y1","type":"int","value":710},{"name":"y2","type":"int","value":706},{"name":"next","type":"int","value":570},{"name":"prev","type":"int","value":601}],"polyline":[{"x":0,"y":0},{"x":22,"y":-4}]},{"id":1562,"x":922,"y":706,"visible":true,"properties":[{"name":"layer","type":"int","value":1},{"name":"group","type":"int","value":75},{"name":"id","type":"int","value":570},{"name":"fh_layer","type":"int","value":1},{"name":"fh_group","type":"int","value":75},{"name":"fh_id","type":"int","value":570},{"name":"x1","type":"int","value":922},{"name":"x2","type":"int","value":930},{"name":"y1","type":"int","value":706},{"name":"y2","type":"int","value":699},{"name":"next","type":"int","value":571},{"name":"prev","type":"int","value":569}],"polyline":[{"x":0,"y":0},{"x":8,"y":-7}]},{"id":1563,"x":930,"y":699,"visible":true,"properties":[{"name":"layer","type":"int","value":1},{"name":"group","type":"int","value":75},{"name":"id","type":"int","value":571},{"name":"fh_layer","type":"int","value":1},{"name":"fh_group","type":"int","value":75},{"name":"fh_id","type":"int","value":571},{"name":"x1","type":"int","value":930},{"name":"x2","type":"int","value":945},{"name":"y1","type":"int","value":699},{"name":"y2","type":"int","value":695},{"name":"next","type":"int","value":572},{"name":"prev","type":"int","value":570}],"polyline":[{"x":0,"y":0},{"x":15,"y":-4}]},{"id":1564,"x":945,"y":695,"visible":true,"properties":[{"name":"layer","type":"int","value":1},{"name":"group","type":"int","value":75},{"name":"id","type":"int","value":572},{"name":"fh_layer","type":"int","value":1},{"name":"fh_group","type":"int","value":75},{"name":"fh_id","type":"int","value":572},{"name":"x1","type":"int","value":945},{"name":"x2","type":"int","value":952},{"name":"y1","type":"int","value":695},{"name":"y2","type":"int","value":696},{"name":"next","type":"int","value":573},{"name":"prev","type":"int","value":571}],"polyline":[{"x":0,"y":0},{"x":7,"y":1}]},{"id":1565,"x":952,"y":696,"visible":true,"properties":[{"name":"layer","type":"int","value":1},{"name":"group","type":"int","value":75},{"name":"id","type":"int","value":573},{"name":"fh_layer","type":"int","value":1},{"name":"fh_group","type":"int","value":75},{"name":"fh_id","type":"int","value":573},{"name":"x1","type":"int","value":952},{"name":"x2","type":"int","value":973},{"name":"y1","type":"int","value":696},{"name":"y2","type":"int","value":709},{"name":"next","type":"int","value":574},{"name":"prev","type":"int","value":572}],"polyline":[{"x":0,"y":0},{"x":21,"y":13}]},{"id":1566,"x":973,"y":709,"visible":true,"properties":[{"name":"layer","type":"int","value":1},{"name":"group","type":"int","value":75},{"name":"id","type":"int","value":574},{"name":"fh_layer","type":"int","value":1},{"name":"fh_group","type":"int","value":75},{"name":"fh_id","type":"int","value":574},{"name":"x1","type":"int","value":973},{"name":"x2","type":"int","value":990},{"name":"y1","type":"int","value":709},{"name":"y2","type":"int","value":710},{"name":"next","type":"int","value":608},{"name":"prev","type":"int","value":573}],"polyline":[{"x":0,"y":0},{"x":17,"y":1}]},{"id":1567,"x":1080,"y":710,"visible":true,"properties":[{"name":"layer","type":"int","value":1},{"name":"group","type":"int","value":75},{"name":"id","type":"int","value":575},{"name":"fh_layer","type":"int","value":1},{"name":"fh_group","type":"int","value":75},{"name":"fh_id","type":"int","value":575},{"name":"x1","type":"int","value":1080},{"name":"x2","type":"int","value":1100},{"name":"y1","type":"int","value":710},{"name":"y2","type":"int","value":711},{"name":"next","type":"int","value":576},{"name":"prev","type":"int","value":613}],"polyline":[{"x":0,"y":0},{"x":20,"y":1}]},{"id":1568,"x":1100,"y":711,"visible":true,"properties":[{"name":"layer","type":"int","value":1},{"name":"group","type":"int","value":75},{"name":"id","type":"int","value":576},{"name":"fh_layer","type":"int","value":1},{"name":"fh_group","type":"int","value":75},{"name":"fh_id","type":"int","value":576},{"name":"x1","type":"int","value":1100},{"name":"x2","type":"int","value":1115},{"name":"y1","type":"int","value":711},{"name":"y2","type":"int","value":721},{"name":"next","type":"int","value":577},{"name":"prev","type":"int","value":575}],"polyline":[{"x":0,"y":0},{"x":15,"y":10}]},{"id":1569,"x":1115,"y":721,"visible":true,"properties":[{"name":"layer","type":"int","value":1},{"name":"group","type":"int","value":75},{"name":"id","type":"int","value":577},{"name":"fh_layer","type":"int","value":1},{"name":"fh_group","type":"int","value":75},{"name":"fh_id","type":"int","value":577},{"name":"x1","type":"int","value":1115},{"name":"x2","type":"int","value":1136},{"name":"y1","type":"int","value":721},{"name":"y2","type":"int","value":732},{"name":"next","type":"int","value":578},{"name":"prev","type":"int","value":576}],"polyline":[{"x":0,"y":0},{"x":21,"y":11}]},{"id":1570,"x":1136,"y":732,"visible":true,"properties":[{"name":"layer","type":"int","value":1},{"name":"group","type":"int","value":75},{"name":"id","type":"int","value":578},{"name":"fh_layer","type":"int","value":1},{"name":"fh_group","type":"int","value":75},{"name":"fh_id","type":"int","value":578},{"name":"x1","type":"int","value":1136},{"name":"x2","type":"int","value":1146},{"name":"y1","type":"int","value":732},{"name":"y2","type":"int","value":751},{"name":"next","type":"int","value":579},{"name":"prev","type":"int","value":577}],"polyline":[{"x":0,"y":0},{"x":10,"y":19}]},{"id":1571,"x":1146,"y":751,"visible":true,"properties":[{"name":"layer","type":"int","value":1},{"name":"group","type":"int","value":75},{"name":"id","type":"int","value":579},{"name":"fh_layer","type":"int","value":1},{"name":"fh_group","type":"int","value":75},{"name":"fh_id","type":"int","value":579},{"name":"x1","type":"int","value":1146},{"name":"x2","type":"int","value":1170},{"name":"y1","type":"int","value":751},{"name":"y2","type":"int","value":770},{"name":"next","type":"int","value":580},{"name":"prev","type":"int","value":578}],"polyline":[{"x":0,"y":0},{"x":24,"y":19}]},{"id":1572,"x":1170,"y":770,"visible":true,"properties":[{"name":"layer","type":"int","value":1},{"name":"group","type":"int","value":75},{"name":"id","type":"int","value":580},{"name":"fh_layer","type":"int","value":1},{"name":"fh_group","type":"int","value":75},{"name":"fh_id","type":"int","value":580},{"name":"x1","type":"int","value":1170},{"name":"x2","type":"int","value":1192},{"name":"y1","type":"int","value":770},{"name":"y2","type":"int","value":766},{"name":"next","type":"int","value":581},{"name":"prev","type":"int","value":579}],"polyline":[{"x":0,"y":0},{"x":22,"y":-4}]},{"id":1573,"x":1192,"y":766,"visible":true,"properties":[{"name":"layer","type":"int","value":1},{"name":"group","type":"int","value":75},{"name":"id","type":"int","value":581},{"name":"fh_layer","type":"int","value":1},{"name":"fh_group","type":"int","value":75},{"name":"fh_id","type":"int","value":581},{"name":"x1","type":"int","value":1192},{"name":"x2","type":"int","value":1200},{"name":"y1","type":"int","value":766},{"name":"y2","type":"int","value":759},{"name":"next","type":"int","value":582},{"name":"prev","type":"int","value":580}],"polyline":[{"x":0,"y":0},{"x":8,"y":-7}]},{"id":1574,"x":1200,"y":759,"visible":true,"properties":[{"name":"layer","type":"int","value":1},{"name":"group","type":"int","value":75},{"name":"id","type":"int","value":582},{"name":"fh_layer","type":"int","value":1},{"name":"fh_group","type":"int","value":75},{"name":"fh_id","type":"int","value":582},{"name":"x1","type":"int","value":1200},{"name":"x2","type":"int","value":1215},{"name":"y1","type":"int","value":759},{"name":"y2","type":"int","value":755},{"name":"next","type":"int","value":583},{"name":"prev","type":"int","value":581}],"polyline":[{"x":0,"y":0},{"x":15,"y":-4}]},{"id":1575,"x":1215,"y":755,"visible":true,"properties":[{"name":"layer","type":"int","value":1},{"name":"group","type":"int","value":75},{"name":"id","type":"int","value":583},{"name":"fh_layer","type":"int","value":1},{"name":"fh_group","type":"int","value":75},{"name":"fh_id","type":"int","value":583},{"name":"x1","type":"int","value":1215},{"name":"x2","type":"int","value":1222},{"name":"y1","type":"int","value":755},{"name":"y2","type":"int","value":756},{"name":"next","type":"int","value":584},{"name":"prev","type":"int","value":582}],"polyline":[{"x":0,"y":0},{"x":7,"y":1}]},{"id":1576,"x":1222,"y":756,"visible":true,"properties":[{"name":"layer","type":"int","value":1},{"name":"group","type":"int","value":75},{"name":"id","type":"int","value":584},{"name":"fh_layer","type":"int","value":1},{"name":"fh_group","type":"int","value":75},{"name":"fh_id","type":"int","value":584},{"name":"x1","type":"int","value":1222},{"name":"x2","type":"int","value":1243},{"name":"y1","type":"int","value":756},{"name":"y2","type":"int","value":769},{"name":"next","type":"int","value":585},{"name":"prev","type":"int","value":583}],"polyline":[{"x":0,"y":0},{"x":21,"y":13}]},{"id":1577,"x":1243,"y":769,"visible":true,"properties":[{"name":"layer","type":"int","value":1},{"name":"group","type":"int","value":75},{"name":"id","type":"int","value":585},{"name":"fh_layer","type":"int","value":1},{"name":"fh_group","type":"int","value":75},{"name":"fh_id","type":"int","value":585},{"name":"x1","type":"int","value":1243},{"name":"x2","type":"int","value":1260},{"name":"y1","type":"int","value":769},{"name":"y2","type":"int","value":770},{"name":"next","type":"int","value":592},{"name":"prev","type":"int","value":584}],"polyline":[{"x":0,"y":0},{"x":17,"y":1}]},{"id":1578,"x":540,"y":770,"visible":true,"properties":[{"name":"layer","type":"int","value":1},{"name":"group","type":"int","value":75},{"name":"id","type":"int","value":586},{"name":"fh_layer","type":"int","value":1},{"name":"fh_group","type":"int","value":75},{"name":"fh_id","type":"int","value":586},{"name":"x1","type":"int","value":540},{"name":"x2","type":"int","value":562},{"name":"y1","type":"int","value":770},{"name":"y2","type":"int","value":766},{"name":"next","type":"int","value":587},{"name":"prev","type":"int","value":595}],"polyline":[{"x":0,"y":0},{"x":22,"y":-4}]},{"id":1579,"x":562,"y":766,"visible":true,"properties":[{"name":"layer","type":"int","value":1},{"name":"group","type":"int","value":75},{"name":"id","type":"int","value":587},{"name":"fh_layer","type":"int","value":1},{"name":"fh_group","type":"int","value":75},{"name":"fh_id","type":"int","value":587},{"name":"x1","type":"int","value":562},{"name":"x2","type":"int","value":570},{"name":"y1","type":"int","value":766},{"name":"y2","type":"int","value":759},{"name":"next","type":"int","value":588},{"name":"prev","type":"int","value":586}],"polyline":[{"x":0,"y":0},{"x":8,"y":-7}]},{"id":1580,"x":570,"y":759,"visible":true,"properties":[{"name":"layer","type":"int","value":1},{"name":"group","type":"int","value":75},{"name":"id","type":"int","value":588},{"name":"fh_layer","type":"int","value":1},{"name":"fh_group","type":"int","value":75},{"name":"fh_id","type":"int","value":588},{"name":"x1","type":"int","value":570},{"name":"x2","type":"int","value":585},{"name":"y1","type":"int","value":759},{"name":"y2","type":"int","value":755},{"name":"next","type":"int","value":589},{"name":"prev","type":"int","value":587}],"polyline":[{"x":0,"y":0},{"x":15,"y":-4}]},{"id":1581,"x":585,"y":755,"visible":true,"properties":[{"name":"layer","type":"int","value":1},{"name":"group","type":"int","value":75},{"name":"id","type":"int","value":589},{"name":"fh_layer","type":"int","value":1},{"name":"fh_group","type":"int","value":75},{"name":"fh_id","type":"int","value":589},{"name":"x1","type":"int","value":585},{"name":"x2","type":"int","value":592},{"name":"y1","type":"int","value":755},{"name":"y2","type":"int","value":756},{"name":"next","type":"int","value":590},{"name":"prev","type":"int","value":588}],"polyline":[{"x":0,"y":0},{"x":7,"y":1}]},{"id":1582,"x":592,"y":756,"visible":true,"properties":[{"name":"layer","type":"int","value":1},{"name":"group","type":"int","value":75},{"name":"id","type":"int","value":590},{"name":"fh_layer","type":"int","value":1},{"name":"fh_group","type":"int","value":75},{"name":"fh_id","type":"int","value":590},{"name":"x1","type":"int","value":592},{"name":"x2","type":"int","value":613},{"name":"y1","type":"int","value":756},{"name":"y2","type":"int","value":769},{"name":"next","type":"int","value":591},{"name":"prev","type":"int","value":589}],"polyline":[{"x":0,"y":0},{"x":21,"y":13}]},{"id":1583,"x":613,"y":769,"visible":true,"properties":[{"name":"layer","type":"int","value":1},{"name":"group","type":"int","value":75},{"name":"id","type":"int","value":591},{"name":"fh_layer","type":"int","value":1},{"name":"fh_group","type":"int","value":75},{"name":"fh_id","type":"int","value":591},{"name":"x1","type":"int","value":613},{"name":"x2","type":"int","value":630},{"name":"y1","type":"int","value":769},{"name":"y2","type":"int","value":770},{"name":"next","type":"int","value":564},{"name":"prev","type":"int","value":590}],"polyline":[{"x":0,"y":0},{"x":17,"y":1}]},{"id":1584,"x":1260,"y":770,"visible":true,"properties":[{"name":"layer","type":"int","value":1},{"name":"group","type":"int","value":75},{"name":"id","type":"int","value":592},{"name":"fh_layer","type":"int","value":1},{"name":"fh_group","type":"int","value":75},{"name":"fh_id","type":"int","value":592},{"name":"x1","type":"int","value":1260},{"name":"x2","type":"int","value":1303},{"name":"y1","type":"int","value":770},{"name":"y2","type":"int","value":770},{"name":"next","type":"int","value":593},{"name":"prev","type":"int","value":585}],"polyline":[{"x":0,"y":0},{"x":43,"y":0}]},{"id":1585,"x":1303,"y":770,"visible":true,"properties":[{"name":"layer","type":"int","value":1},{"name":"group","type":"int","value":75},{"name":"id","type":"int","value":593},{"name":"fh_layer","type":"int","value":1},{"name":"fh_group","type":"int","value":75},{"name":"fh_id","type":"int","value":593},{"name":"x1","type":"int","value":1303},{"name":"x2","type":"int","value":1303},{"name":"y1","type":"int","value":770},{"name":"y2","type":"int","value":780},{"name":"next","type":"int","value":0},{"name":"prev","type":"int","value":592}],"polyline":[{"x":0,"y":0},{"x":0,"y":10}]},{"id":1586,"x":497,"y":780,"visible":true,"properties":[{"name":"layer","type":"int","value":1},{"name":"group","type":"int","value":75},{"name":"id","type":"int","value":594},{"name":"fh_layer","type":"int","value":1},{"name":"fh_group","type":"int","value":75},{"name":"fh_id","type":"int","value":594},{"name":"x1","type":"int","value":497},{"name":"x2","type":"int","value":497},{"name":"y1","type":"int","value":780},{"name":"y2","type":"int","value":770},{"name":"next","type":"int","value":595},{"name":"prev","type":"int","value":0}],"polyline":[{"x":0,"y":0},{"x":0,"y":-10}]},{"id":1587,"x":497,"y":770,"visible":true,"properties":[{"name":"layer","type":"int","value":1},{"name":"group","type":"int","value":75},{"name":"id","type":"int","value":595},{"name":"fh_layer","type":"int","value":1},{"name":"fh_group","type":"int","value":75},{"name":"fh_id","type":"int","value":595},{"name":"x1","type":"int","value":497},{"name":"x2","type":"int","value":540},{"name":"y1","type":"int","value":770},{"name":"y2","type":"int","value":770},{"name":"next","type":"int","value":586},{"name":"prev","type":"int","value":594}],"polyline":[{"x":0,"y":0},{"x":43,"y":0}]},{"id":1588,"x":810,"y":710,"visible":true,"properties":[{"name":"layer","type":"int","value":1},{"name":"group","type":"int","value":75},{"name":"id","type":"int","value":596},{"name":"fh_layer","type":"int","value":1},{"name":"fh_group","type":"int","value":75},{"name":"fh_id","type":"int","value":596},{"name":"x1","type":"int","value":810},{"name":"x2","type":"int","value":832},{"name":"y1","type":"int","value":710},{"name":"y2","type":"int","value":706},{"name":"next","type":"int","value":597},{"name":"prev","type":"int","value":607}],"polyline":[{"x":0,"y":0},{"x":22,"y":-4}]},{"id":1589,"x":832,"y":706,"visible":true,"properties":[{"name":"layer","type":"int","value":1},{"name":"group","type":"int","value":75},{"name":"id","type":"int","value":597},{"name":"fh_layer","type":"int","value":1},{"name":"fh_group","type":"int","value":75},{"name":"fh_id","type":"int","value":597},{"name":"x1","type":"int","value":832},{"name":"x2","type":"int","value":840},{"name":"y1","type":"int","value":706},{"name":"y2","type":"int","value":699},{"name":"next","type":"int","value":598},{"name":"prev","type":"int","value":596}],"polyline":[{"x":0,"y":0},{"x":8,"y":-7}]},{"id":1590,"x":840,"y":699,"visible":true,"properties":[{"name":"layer","type":"int","value":1},{"name":"group","type":"int","value":75},{"name":"id","type":"int","value":598},{"name":"fh_layer","type":"int","value":1},{"name":"fh_group","type":"int","value":75},{"name":"fh_id","type":"int","value":598},{"name":"x1","type":"int","value":840},{"name":"x2","type":"int","value":855},{"name":"y1","type":"int","value":699},{"name":"y2","type":"int","value":695},{"name":"next","type":"int","value":599},{"name":"prev","type":"int","value":597}],"polyline":[{"x":0,"y":0},{"x":15,"y":-4}]},{"id":1591,"x":855,"y":695,"visible":true,"properties":[{"name":"layer","type":"int","value":1},{"name":"group","type":"int","value":75},{"name":"id","type":"int","value":599},{"name":"fh_layer","type":"int","value":1},{"name":"fh_group","type":"int","value":75},{"name":"fh_id","type":"int","value":599},{"name":"x1","type":"int","value":855},{"name":"x2","type":"int","value":862},{"name":"y1","type":"int","value":695},{"name":"y2","type":"int","value":696},{"name":"next","type":"int","value":600},{"name":"prev","type":"int","value":598}],"polyline":[{"x":0,"y":0},{"x":7,"y":1}]},{"id":1592,"x":862,"y":696,"visible":true,"properties":[{"name":"layer","type":"int","value":1},{"name":"group","type":"int","value":75},{"name":"id","type":"int","value":600},{"name":"fh_layer","type":"int","value":1},{"name":"fh_group","type":"int","value":75},{"name":"fh_id","type":"int","value":600},{"name":"x1","type":"int","value":862},{"name":"x2","type":"int","value":883},{"name":"y1","type":"int","value":696},{"name":"y2","type":"int","value":709},{"name":"next","type":"int","value":601},{"name":"prev","type":"int","value":599}],"polyline":[{"x":0,"y":0},{"x":21,"y":13}]},{"id":1593,"x":883,"y":709,"visible":true,"properties":[{"name":"layer","type":"int","value":1},{"name":"group","type":"int","value":75},{"name":"id","type":"int","value":601},{"name":"fh_layer","type":"int","value":1},{"name":"fh_group","type":"int","value":75},{"name":"fh_id","type":"int","value":601},{"name":"x1","type":"int","value":883},{"name":"x2","type":"int","value":900},{"name":"y1","type":"int","value":709},{"name":"y2","type":"int","value":710},{"name":"next","type":"int","value":569},{"name":"prev","type":"int","value":600}],"polyline":[{"x":0,"y":0},{"x":17,"y":1}]},{"id":1594,"x":720,"y":710,"visible":true,"properties":[{"name":"layer","type":"int","value":1},{"name":"group","type":"int","value":75},{"name":"id","type":"int","value":602},{"name":"fh_layer","type":"int","value":1},{"name":"fh_group","type":"int","value":75},{"name":"fh_id","type":"int","value":602},{"name":"x1","type":"int","value":720},{"name":"x2","type":"int","value":742},{"name":"y1","type":"int","value":710},{"name":"y2","type":"int","value":706},{"name":"next","type":"int","value":603},{"name":"prev","type":"int","value":568}],"polyline":[{"x":0,"y":0},{"x":22,"y":-4}]},{"id":1595,"x":742,"y":706,"visible":true,"properties":[{"name":"layer","type":"int","value":1},{"name":"group","type":"int","value":75},{"name":"id","type":"int","value":603},{"name":"fh_layer","type":"int","value":1},{"name":"fh_group","type":"int","value":75},{"name":"fh_id","type":"int","value":603},{"name":"x1","type":"int","value":742},{"name":"x2","type":"int","value":750},{"name":"y1","type":"int","value":706},{"name":"y2","type":"int","value":699},{"name":"next","type":"int","value":604},{"name":"prev","type":"int","value":602}],"polyline":[{"x":0,"y":0},{"x":8,"y":-7}]},{"id":1596,"x":750,"y":699,"visible":true,"properties":[{"name":"layer","type":"int","value":1},{"name":"group","type":"int","value":75},{"name":"id","type":"int","value":604},{"name":"fh_layer","type":"int","value":1},{"name":"fh_group","type":"int","value":75},{"name":"fh_id","type":"int","value":604},{"name":"x1","type":"int","value":750},{"name":"x2","type":"int","value":765},{"name":"y1","type":"int","value":699},{"name":"y2","type":"int","value":695},{"name":"next","type":"int","value":605},{"name":"prev","type":"int","value":603}],"polyline":[{"x":0,"y":0},{"x":15,"y":-4}]},{"id":1597,"x":765,"y":695,"visible":true,"properties":[{"name":"layer","type":"int","value":1},{"name":"group","type":"int","value":75},{"name":"id","type":"int","value":605},{"name":"fh_layer","type":"int","value":1},{"name":"fh_group","type":"int","value":75},{"name":"fh_id","type":"int","value":605},{"name":"x1","type":"int","value":765},{"name":"x2","type":"int","value":772},{"name":"y1","type":"int","value":695},{"name":"y2","type":"int","value":696},{"name":"next","type":"int","value":606},{"name":"prev","type":"int","value":604}],"polyline":[{"x":0,"y":0},{"x":7,"y":1}]},{"id":1598,"x":772,"y":696,"visible":true,"properties":[{"name":"layer","type":"int","value":1},{"name":"group","type":"int","value":75},{"name":"id","type":"int","value":606},{"name":"fh_layer","type":"int","value":1},{"name":"fh_group","type":"int","value":75},{"name":"fh_id","type":"int","value":606},{"name":"x1","type":"int","value":772},{"name":"x2","type":"int","value":793},{"name":"y1","type":"int","value":696},{"name":"y2","type":"int","value":709},{"name":"next","type":"int","value":607},{"name":"prev","type":"int","value":605}],"polyline":[{"x":0,"y":0},{"x":21,"y":13}]},{"id":1599,"x":793,"y":709,"visible":true,"properties":[{"name":"layer","type":"int","value":1},{"name":"group","type":"int","value":75},{"name":"id","type":"int","value":607},{"name":"fh_layer","type":"int","value":1},{"name":"fh_group","type":"int","value":75},{"name":"fh_id","type":"int","value":607},{"name":"x1","type":"int","value":793},{"name":"x2","type":"int","value":810},{"name":"y1","type":"int","value":709},{"name":"y2","type":"int","value":710},{"name":"next","type":"int","value":596},{"name":"prev","type":"int","value":606}],"polyline":[{"x":0,"y":0},{"x":17,"y":1}]},{"id":1600,"x":990,"y":710,"visible":true,"properties":[{"name":"layer","type":"int","value":1},{"name":"group","type":"int","value":75},{"name":"id","type":"int","value":608},{"name":"fh_layer","type":"int","value":1},{"name":"fh_group","type":"int","value":75},{"name":"fh_id","type":"int","value":608},{"name":"x1","type":"int","value":990},{"name":"x2","type":"int","value":1012},{"name":"y1","type":"int","value":710},{"name":"y2","type":"int","value":706},{"name":"next","type":"int","value":609},{"name":"prev","type":"int","value":574}],"polyline":[{"x":0,"y":0},{"x":22,"y":-4}]},{"id":1601,"x":1012,"y":706,"visible":true,"properties":[{"name":"layer","type":"int","value":1},{"name":"group","type":"int","value":75},{"name":"id","type":"int","value":609},{"name":"fh_layer","type":"int","value":1},{"name":"fh_group","type":"int","value":75},{"name":"fh_id","type":"int","value":609},{"name":"x1","type":"int","value":1012},{"name":"x2","type":"int","value":1020},{"name":"y1","type":"int","value":706},{"name":"y2","type":"int","value":699},{"name":"next","type":"int","value":610},{"name":"prev","type":"int","value":608}],"polyline":[{"x":0,"y":0},{"x":8,"y":-7}]},{"id":1602,"x":1020,"y":699,"visible":true,"properties":[{"name":"layer","type":"int","value":1},{"name":"group","type":"int","value":75},{"name":"id","type":"int","value":610},{"name":"fh_layer","type":"int","value":1},{"name":"fh_group","type":"int","value":75},{"name":"fh_id","type":"int","value":610},{"name":"x1","type":"int","value":1020},{"name":"x2","type":"int","value":1035},{"name":"y1","type":"int","value":699},{"name":"y2","type":"int","value":695},{"name":"next","type":"int","value":611},{"name":"prev","type":"int","value":609}],"polyline":[{"x":0,"y":0},{"x":15,"y":-4}]},{"id":1603,"x":1035,"y":695,"visible":true,"properties":[{"name":"layer","type":"int","value":1},{"name":"group","type":"int","value":75},{"name":"id","type":"int","value":611},{"name":"fh_layer","type":"int","value":1},{"name":"fh_group","type":"int","value":75},{"name":"fh_id","type":"int","value":611},{"name":"x1","type":"int","value":1035},{"name":"x2","type":"int","value":1042},{"name":"y1","type":"int","value":695},{"name":"y2","type":"int","value":696},{"name":"next","type":"int","value":612},{"name":"prev","type":"int","value":610}],"polyline":[{"x":0,"y":0},{"x":7,"y":1}]},{"id":1604,"x":1042,"y":696,"visible":true,"properties":[{"name":"layer","type":"int","value":1},{"name":"group","type":"int","value":75},{"name":"id","type":"int","value":612},{"name":"fh_layer","type":"int","value":1},{"name":"fh_group","type":"int","value":75},{"name":"fh_id","type":"int","value":612},{"name":"x1","type":"int","value":1042},{"name":"x2","type":"int","value":1063},{"name":"y1","type":"int","value":696},{"name":"y2","type":"int","value":709},{"name":"next","type":"int","value":613},{"name":"prev","type":"int","value":611}],"polyline":[{"x":0,"y":0},{"x":21,"y":13}]},{"id":1605,"x":1063,"y":709,"visible":true,"properties":[{"name":"layer","type":"int","value":1},{"name":"group","type":"int","value":75},{"name":"id","type":"int","value":613},{"name":"fh_layer","type":"int","value":1},{"name":"fh_group","type":"int","value":75},{"name":"fh_id","type":"int","value":613},{"name":"x1","type":"int","value":1063},{"name":"x2","type":"int","value":1080},{"name":"y1","type":"int","value":709},{"name":"y2","type":"int","value":710},{"name":"next","type":"int","value":575},{"name":"prev","type":"int","value":612}],"polyline":[{"x":0,"y":0},{"x":17,"y":1}]},{"id":1606,"x":1575,"y":774,"visible":true,"properties":[{"name":"layer","type":"int","value":1},{"name":"group","type":"int","value":79},{"name":"id","type":"int","value":874},{"name":"fh_layer","type":"int","value":1},{"name":"fh_group","type":"int","value":79},{"name":"fh_id","type":"int","value":874},{"name":"x1","type":"int","value":1575},{"name":"x2","type":"int","value":1598},{"name":"y1","type":"int","value":774},{"name":"y2","type":"int","value":770},{"name":"next","type":"int","value":875},{"name":"prev","type":"int","value":0}],"polyline":[{"x":0,"y":0},{"x":23,"y":-4}]},{"id":1607,"x":1598,"y":770,"visible":true,"properties":[{"name":"layer","type":"int","value":1},{"name":"group","type":"int","value":79},{"name":"id","type":"int","value":875},{"name":"fh_layer","type":"int","value":1},{"name":"fh_group","type":"int","value":79},{"name":"fh_id","type":"int","value":875},{"name":"x1","type":"int","value":1598},{"name":"x2","type":"int","value":1615},{"name":"y1","type":"int","value":770},{"name":"y2","type":"int","value":777},{"name":"next","type":"int","value":876},{"name":"prev","type":"int","value":874}],"polyline":[{"x":0,"y":0},{"x":17,"y":7}]},{"id":1608,"x":1615,"y":777,"visible":true,"properties":[{"name":"layer","type":"int","value":1},{"name":"group","type":"int","value":79},{"name":"id","type":"int","value":876},{"name":"fh_layer","type":"int","value":1},{"name":"fh_group","type":"int","value":79},{"name":"fh_id","type":"int","value":876},{"name":"x1","type":"int","value":1615},{"name":"x2","type":"int","value":1640},{"name":"y1","type":"int","value":777},{"name":"y2","type":"int","value":776},{"name":"next","type":"int","value":877},{"name":"prev","type":"int","value":875}],"polyline":[{"x":0,"y":0},{"x":25,"y":-1}]},{"id":1609,"x":1640,"y":776,"visible":true,"properties":[{"name":"layer","type":"int","value":1},{"name":"group","type":"int","value":79},{"name":"id","type":"int","value":877},{"name":"fh_layer","type":"int","value":1},{"name":"fh_group","type":"int","value":79},{"name":"fh_id","type":"int","value":877},{"name":"x1","type":"int","value":1640},{"name":"x2","type":"int","value":1654},{"name":"y1","type":"int","value":776},{"name":"y2","type":"int","value":769},{"name":"next","type":"int","value":878},{"name":"prev","type":"int","value":876}],"polyline":[{"x":0,"y":0},{"x":14,"y":-7}]},{"id":1610,"x":1654,"y":769,"visible":true,"properties":[{"name":"layer","type":"int","value":1},{"name":"group","type":"int","value":79},{"name":"id","type":"int","value":878},{"name":"fh_layer","type":"int","value":1},{"name":"fh_group","type":"int","value":79},{"name":"fh_id","type":"int","value":878},{"name":"x1","type":"int","value":1654},{"name":"x2","type":"int","value":1689},{"name":"y1","type":"int","value":769},{"name":"y2","type":"int","value":765},{"name":"next","type":"int","value":879},{"name":"prev","type":"int","value":877}],"polyline":[{"x":0,"y":0},{"x":35,"y":-4}]},{"id":1611,"x":1689,"y":765,"visible":true,"properties":[{"name":"layer","type":"int","value":1},{"name":"group","type":"int","value":79},{"name":"id","type":"int","value":879},{"name":"fh_layer","type":"int","value":1},{"name":"fh_group","type":"int","value":79},{"name":"fh_id","type":"int","value":879},{"name":"x1","type":"int","value":1689},{"name":"x2","type":"int","value":1709},{"name":"y1","type":"int","value":765},{"name":"y2","type":"int","value":773},{"name":"next","type":"int","value":880},{"name":"prev","type":"int","value":878}],"polyline":[{"x":0,"y":0},{"x":20,"y":8}]},{"id":1612,"x":1709,"y":773,"visible":true,"properties":[{"name":"layer","type":"int","value":1},{"name":"group","type":"int","value":79},{"name":"id","type":"int","value":880},{"name":"fh_layer","type":"int","value":1},{"name":"fh_group","type":"int","value":79},{"name":"fh_id","type":"int","value":880},{"name":"x1","type":"int","value":1709},{"name":"x2","type":"int","value":1739},{"name":"y1","type":"int","value":773},{"name":"y2","type":"int","value":765},{"name":"next","type":"int","value":881},{"name":"prev","type":"int","value":879}],"polyline":[{"x":0,"y":0},{"x":30,"y":-8}]},{"id":1613,"x":1739,"y":765,"visible":true,"properties":[{"name":"layer","type":"int","value":1},{"name":"group","type":"int","value":79},{"name":"id","type":"int","value":881},{"name":"fh_layer","type":"int","value":1},{"name":"fh_group","type":"int","value":79},{"name":"fh_id","type":"int","value":881},{"name":"x1","type":"int","value":1739},{"name":"x2","type":"int","value":1767},{"name":"y1","type":"int","value":765},{"name":"y2","type":"int","value":771},{"name":"next","type":"int","value":0},{"name":"prev","type":"int","value":880}],"polyline":[{"x":0,"y":0},{"x":28,"y":6}]},{"id":1614,"x":1315,"y":730,"visible":true,"properties":[{"name":"layer","type":"int","value":1},{"name":"group","type":"int","value":80},{"name":"id","type":"int","value":869},{"name":"fh_layer","type":"int","value":1},{"name":"fh_group","type":"int","value":80},{"name":"fh_id","type":"int","value":869},{"name":"x1","type":"int","value":1315},{"name":"x2","type":"int","value":1364},{"name":"y1","type":"int","value":730},{"name":"y2","type":"int","value":715},{"name":"next","type":"int","value":870},{"name":"prev","type":"int","value":0}],"polyline":[{"x":0,"y":0},{"x":49,"y":-15}]},{"id":1615,"x":1364,"y":715,"visible":true,"properties":[{"name":"layer","type":"int","value":1},{"name":"group","type":"int","value":80},{"name":"id","type":"int","value":870},{"name":"fh_layer","type":"int","value":1},{"name":"fh_group","type":"int","value":80},{"name":"fh_id","type":"int","value":870},{"name":"x1","type":"int","value":1364},{"name":"x2","type":"int","value":1456},{"name":"y1","type":"int","value":715},{"name":"y2","type":"int","value":713},{"name":"next","type":"int","value":871},{"name":"prev","type":"int","value":869}],"polyline":[{"x":0,"y":0},{"x":92,"y":-2}]},{"id":1616,"x":1456,"y":713,"visible":true,"properties":[{"name":"layer","type":"int","value":1},{"name":"group","type":"int","value":80},{"name":"id","type":"int","value":871},{"name":"fh_layer","type":"int","value":1},{"name":"fh_group","type":"int","value":80},{"name":"fh_id","type":"int","value":871},{"name":"x1","type":"int","value":1456},{"name":"x2","type":"int","value":1472},{"name":"y1","type":"int","value":713},{"name":"y2","type":"int","value":719},{"name":"next","type":"int","value":872},{"name":"prev","type":"int","value":870}],"polyline":[{"x":0,"y":0},{"x":16,"y":6}]},{"id":1617,"x":1472,"y":719,"visible":true,"properties":[{"name":"layer","type":"int","value":1},{"name":"group","type":"int","value":80},{"name":"id","type":"int","value":872},{"name":"fh_layer","type":"int","value":1},{"name":"fh_group","type":"int","value":80},{"name":"fh_id","type":"int","value":872},{"name":"x1","type":"int","value":1472},{"name":"x2","type":"int","value":1504},{"name":"y1","type":"int","value":719},{"name":"y2","type":"int","value":726},{"name":"next","type":"int","value":873},{"name":"prev","type":"int","value":871}],"polyline":[{"x":0,"y":0},{"x":32,"y":7}]},{"id":1618,"x":1504,"y":726,"visible":true,"properties":[{"name":"layer","type":"int","value":1},{"name":"group","type":"int","value":80},{"name":"id","type":"int","value":873},{"name":"fh_layer","type":"int","value":1},{"name":"fh_group","type":"int","value":80},{"name":"fh_id","type":"int","value":873},{"name":"x1","type":"int","value":1504},{"name":"x2","type":"int","value":1535},{"name":"y1","type":"int","value":726},{"name":"y2","type":"int","value":734},{"name":"next","type":"int","value":0},{"name":"prev","type":"int","value":872}],"polyline":[{"x":0,"y":0},{"x":31,"y":8}]},{"id":1619,"x":2473,"y":660,"visible":true,"properties":[{"name":"layer","type":"int","value":1},{"name":"group","type":"int","value":81},{"name":"id","type":"int","value":1},{"name":"fh_layer","type":"int","value":1},{"name":"fh_group","type":"int","value":81},{"name":"fh_id","type":"int","value":1},{"name":"x1","type":"int","value":2473},{"name":"x2","type":"int","value":2473},{"name":"y1","type":"int","value":660},{"name":"y2","type":"int","value":728},{"name":"next","type":"int","value":0},{"name":"prev","type":"int","value":2}],"polyline":[{"x":0,"y":0},{"x":0,"y":68}]},{"id":1620,"x":2473,"y":600,"visible":true,"properties":[{"name":"layer","type":"int","value":1},{"name":"group","type":"int","value":81},{"name":"id","type":"int","value":2},{"name":"fh_layer","type":"int","value":1},{"name":"fh_group","type":"int","value":81},{"name":"fh_id","type":"int","value":2},{"name":"x1","type":"int","value":2473},{"name":"x2","type":"int","value":2473},{"name":"y1","type":"int","value":600},{"name":"y2","type":"int","value":660},{"name":"next","type":"int","value":1},{"name":"prev","type":"int","value":46}],"polyline":[{"x":0,"y":0},{"x":0,"y":60}]},{"id":1621,"x":1890,"y":650,"visible":true,"properties":[{"name":"layer","type":"int","value":1},{"name":"group","type":"int","value":81},{"name":"id","type":"int","value":3},{"name":"fh_layer","type":"int","value":1},{"name":"fh_group","type":"int","value":81},{"name":"fh_id","type":"int","value":3},{"name":"x1","type":"int","value":1890},{"name":"x2","type":"int","value":1914},{"name":"y1","type":"int","value":650},{"name":"y2","type":"int","value":631},{"name":"next","type":"int","value":4},{"name":"prev","type":"int","value":12}],"polyline":[{"x":0,"y":0},{"x":24,"y":-19}]},{"id":1622,"x":1914,"y":631,"visible":true,"properties":[{"name":"layer","type":"int","value":1},{"name":"group","type":"int","value":81},{"name":"id","type":"int","value":4},{"name":"fh_layer","type":"int","value":1},{"name":"fh_group","type":"int","value":81},{"name":"fh_id","type":"int","value":4},{"name":"x1","type":"int","value":1914},{"name":"x2","type":"int","value":1924},{"name":"y1","type":"int","value":631},{"name":"y2","type":"int","value":612},{"name":"next","type":"int","value":5},{"name":"prev","type":"int","value":3}],"polyline":[{"x":0,"y":0},{"x":10,"y":-19}]},{"id":1623,"x":1924,"y":612,"visible":true,"properties":[{"name":"layer","type":"int","value":1},{"name":"group","type":"int","value":81},{"name":"id","type":"int","value":5},{"name":"fh_layer","type":"int","value":1},{"name":"fh_group","type":"int","value":81},{"name":"fh_id","type":"int","value":5},{"name":"x1","type":"int","value":1924},{"name":"x2","type":"int","value":1945},{"name":"y1","type":"int","value":612},{"name":"y2","type":"int","value":601},{"name":"next","type":"int","value":6},{"name":"prev","type":"int","value":4}],"polyline":[{"x":0,"y":0},{"x":21,"y":-11}]},{"id":1624,"x":1945,"y":601,"visible":true,"properties":[{"name":"layer","type":"int","value":1},{"name":"group","type":"int","value":81},{"name":"id","type":"int","value":6},{"name":"fh_layer","type":"int","value":1},{"name":"fh_group","type":"int","value":81},{"name":"fh_id","type":"int","value":6},{"name":"x1","type":"int","value":1945},{"name":"x2","type":"int","value":1960},{"name":"y1","type":"int","value":601},{"name":"y2","type":"int","value":591},{"name":"next","type":"int","value":7},{"name":"prev","type":"int","value":5}],"polyline":[{"x":0,"y":0},{"x":15,"y":-10}]},{"id":1625,"x":1960,"y":591,"visible":true,"properties":[{"name":"layer","type":"int","value":1},{"name":"group","type":"int","value":81},{"name":"id","type":"int","value":7},{"name":"fh_layer","type":"int","value":1},{"name":"fh_group","type":"int","value":81},{"name":"fh_id","type":"int","value":7},{"name":"x1","type":"int","value":1960},{"name":"x2","type":"int","value":1980},{"name":"y1","type":"int","value":591},{"name":"y2","type":"int","value":590},{"name":"next","type":"int","value":35},{"name":"prev","type":"int","value":6}],"polyline":[{"x":0,"y":0},{"x":20,"y":-1}]},{"id":1626,"x":1800,"y":710,"visible":true,"properties":[{"name":"layer","type":"int","value":1},{"name":"group","type":"int","value":81},{"name":"id","type":"int","value":8},{"name":"fh_layer","type":"int","value":1},{"name":"fh_group","type":"int","value":81},{"name":"fh_id","type":"int","value":8},{"name":"x1","type":"int","value":1800},{"name":"x2","type":"int","value":1824},{"name":"y1","type":"int","value":710},{"name":"y2","type":"int","value":691},{"name":"next","type":"int","value":9},{"name":"prev","type":"int","value":28}],"polyline":[{"x":0,"y":0},{"x":24,"y":-19}]},{"id":1627,"x":1824,"y":691,"visible":true,"properties":[{"name":"layer","type":"int","value":1},{"name":"group","type":"int","value":81},{"name":"id","type":"int","value":9},{"name":"fh_layer","type":"int","value":1},{"name":"fh_group","type":"int","value":81},{"name":"fh_id","type":"int","value":9},{"name":"x1","type":"int","value":1824},{"name":"x2","type":"int","value":1834},{"name":"y1","type":"int","value":691},{"name":"y2","type":"int","value":672},{"name":"next","type":"int","value":10},{"name":"prev","type":"int","value":8}],"polyline":[{"x":0,"y":0},{"x":10,"y":-19}]},{"id":1628,"x":1834,"y":672,"visible":true,"properties":[{"name":"layer","type":"int","value":1},{"name":"group","type":"int","value":81},{"name":"id","type":"int","value":10},{"name":"fh_layer","type":"int","value":1},{"name":"fh_group","type":"int","value":81},{"name":"fh_id","type":"int","value":10},{"name":"x1","type":"int","value":1834},{"name":"x2","type":"int","value":1855},{"name":"y1","type":"int","value":672},{"name":"y2","type":"int","value":661},{"name":"next","type":"int","value":11},{"name":"prev","type":"int","value":9}],"polyline":[{"x":0,"y":0},{"x":21,"y":-11}]},{"id":1629,"x":1855,"y":661,"visible":true,"properties":[{"name":"layer","type":"int","value":1},{"name":"group","type":"int","value":81},{"name":"id","type":"int","value":11},{"name":"fh_layer","type":"int","value":1},{"name":"fh_group","type":"int","value":81},{"name":"fh_id","type":"int","value":11},{"name":"x1","type":"int","value":1855},{"name":"x2","type":"int","value":1870},{"name":"y1","type":"int","value":661},{"name":"y2","type":"int","value":651},{"name":"next","type":"int","value":12},{"name":"prev","type":"int","value":10}],"polyline":[{"x":0,"y":0},{"x":15,"y":-10}]},{"id":1630,"x":1870,"y":651,"visible":true,"properties":[{"name":"layer","type":"int","value":1},{"name":"group","type":"int","value":81},{"name":"id","type":"int","value":12},{"name":"fh_layer","type":"int","value":1},{"name":"fh_group","type":"int","value":81},{"name":"fh_id","type":"int","value":12},{"name":"x1","type":"int","value":1870},{"name":"x2","type":"int","value":1890},{"name":"y1","type":"int","value":651},{"name":"y2","type":"int","value":650},{"name":"next","type":"int","value":3},{"name":"prev","type":"int","value":11}],"polyline":[{"x":0,"y":0},{"x":20,"y":-1}]},{"id":1631,"x":2473,"y":530,"visible":true,"properties":[{"name":"layer","type":"int","value":1},{"name":"group","type":"int","value":81},{"name":"id","type":"int","value":13},{"name":"fh_layer","type":"int","value":1},{"name":"fh_group","type":"int","value":81},{"name":"fh_id","type":"int","value":13},{"name":"x1","type":"int","value":2473},{"name":"x2","type":"int","value":2473},{"name":"y1","type":"int","value":530},{"name":"y2","type":"int","value":540},{"name":"next","type":"int","value":46},{"name":"prev","type":"int","value":20}],"polyline":[{"x":0,"y":0},{"x":0,"y":10}]},{"id":1632,"x":2340,"y":530,"visible":true,"properties":[{"name":"layer","type":"int","value":1},{"name":"group","type":"int","value":81},{"name":"id","type":"int","value":14},{"name":"fh_layer","type":"int","value":1},{"name":"fh_group","type":"int","value":81},{"name":"fh_id","type":"int","value":14},{"name":"x1","type":"int","value":2340},{"name":"x2","type":"int","value":2362},{"name":"y1","type":"int","value":530},{"name":"y2","type":"int","value":526},{"name":"next","type":"int","value":15},{"name":"prev","type":"int","value":45}],"polyline":[{"x":0,"y":0},{"x":22,"y":-4}]},{"id":1633,"x":2362,"y":526,"visible":true,"properties":[{"name":"layer","type":"int","value":1},{"name":"group","type":"int","value":81},{"name":"id","type":"int","value":15},{"name":"fh_layer","type":"int","value":1},{"name":"fh_group","type":"int","value":81},{"name":"fh_id","type":"int","value":15},{"name":"x1","type":"int","value":2362},{"name":"x2","type":"int","value":2370},{"name":"y1","type":"int","value":526},{"name":"y2","type":"int","value":519},{"name":"next","type":"int","value":16},{"name":"prev","type":"int","value":14}],"polyline":[{"x":0,"y":0},{"x":8,"y":-7}]},{"id":1634,"x":2370,"y":519,"visible":true,"properties":[{"name":"layer","type":"int","value":1},{"name":"group","type":"int","value":81},{"name":"id","type":"int","value":16},{"name":"fh_layer","type":"int","value":1},{"name":"fh_group","type":"int","value":81},{"name":"fh_id","type":"int","value":16},{"name":"x1","type":"int","value":2370},{"name":"x2","type":"int","value":2385},{"name":"y1","type":"int","value":519},{"name":"y2","type":"int","value":515},{"name":"next","type":"int","value":17},{"name":"prev","type":"int","value":15}],"polyline":[{"x":0,"y":0},{"x":15,"y":-4}]},{"id":1635,"x":2385,"y":515,"visible":true,"properties":[{"name":"layer","type":"int","value":1},{"name":"group","type":"int","value":81},{"name":"id","type":"int","value":17},{"name":"fh_layer","type":"int","value":1},{"name":"fh_group","type":"int","value":81},{"name":"fh_id","type":"int","value":17},{"name":"x1","type":"int","value":2385},{"name":"x2","type":"int","value":2392},{"name":"y1","type":"int","value":515},{"name":"y2","type":"int","value":516},{"name":"next","type":"int","value":18},{"name":"prev","type":"int","value":16}],"polyline":[{"x":0,"y":0},{"x":7,"y":1}]},{"id":1636,"x":2392,"y":516,"visible":true,"properties":[{"name":"layer","type":"int","value":1},{"name":"group","type":"int","value":81},{"name":"id","type":"int","value":18},{"name":"fh_layer","type":"int","value":1},{"name":"fh_group","type":"int","value":81},{"name":"fh_id","type":"int","value":18},{"name":"x1","type":"int","value":2392},{"name":"x2","type":"int","value":2413},{"name":"y1","type":"int","value":516},{"name":"y2","type":"int","value":529},{"name":"next","type":"int","value":19},{"name":"prev","type":"int","value":17}],"polyline":[{"x":0,"y":0},{"x":21,"y":13}]},{"id":1637,"x":2413,"y":529,"visible":true,"properties":[{"name":"layer","type":"int","value":1},{"name":"group","type":"int","value":81},{"name":"id","type":"int","value":19},{"name":"fh_layer","type":"int","value":1},{"name":"fh_group","type":"int","value":81},{"name":"fh_id","type":"int","value":19},{"name":"x1","type":"int","value":2413},{"name":"x2","type":"int","value":2430},{"name":"y1","type":"int","value":529},{"name":"y2","type":"int","value":530},{"name":"next","type":"int","value":20},{"name":"prev","type":"int","value":18}],"polyline":[{"x":0,"y":0},{"x":17,"y":1}]},{"id":1638,"x":2430,"y":530,"visible":true,"properties":[{"name":"layer","type":"int","value":1},{"name":"group","type":"int","value":81},{"name":"id","type":"int","value":20},{"name":"fh_layer","type":"int","value":1},{"name":"fh_group","type":"int","value":81},{"name":"fh_id","type":"int","value":20},{"name":"x1","type":"int","value":2430},{"name":"x2","type":"int","value":2473},{"name":"y1","type":"int","value":530},{"name":"y2","type":"int","value":530},{"name":"next","type":"int","value":13},{"name":"prev","type":"int","value":19}],"polyline":[{"x":0,"y":0},{"x":43,"y":0}]},{"id":1639,"x":2070,"y":530,"visible":true,"properties":[{"name":"layer","type":"int","value":1},{"name":"group","type":"int","value":81},{"name":"id","type":"int","value":21},{"name":"fh_layer","type":"int","value":1},{"name":"fh_group","type":"int","value":81},{"name":"fh_id","type":"int","value":21},{"name":"x1","type":"int","value":2070},{"name":"x2","type":"int","value":2092},{"name":"y1","type":"int","value":530},{"name":"y2","type":"int","value":526},{"name":"next","type":"int","value":22},{"name":"prev","type":"int","value":39}],"polyline":[{"x":0,"y":0},{"x":22,"y":-4}]},{"id":1640,"x":2092,"y":526,"visible":true,"properties":[{"name":"layer","type":"int","value":1},{"name":"group","type":"int","value":81},{"name":"id","type":"int","value":22},{"name":"fh_layer","type":"int","value":1},{"name":"fh_group","type":"int","value":81},{"name":"fh_id","type":"int","value":22},{"name":"x1","type":"int","value":2092},{"name":"x2","type":"int","value":2100},{"name":"y1","type":"int","value":526},{"name":"y2","type":"int","value":519},{"name":"next","type":"int","value":23},{"name":"prev","type":"int","value":21}],"polyline":[{"x":0,"y":0},{"x":8,"y":-7}]},{"id":1641,"x":2100,"y":519,"visible":true,"properties":[{"name":"layer","type":"int","value":1},{"name":"group","type":"int","value":81},{"name":"id","type":"int","value":23},{"name":"fh_layer","type":"int","value":1},{"name":"fh_group","type":"int","value":81},{"name":"fh_id","type":"int","value":23},{"name":"x1","type":"int","value":2100},{"name":"x2","type":"int","value":2115},{"name":"y1","type":"int","value":519},{"name":"y2","type":"int","value":515},{"name":"next","type":"int","value":24},{"name":"prev","type":"int","value":22}],"polyline":[{"x":0,"y":0},{"x":15,"y":-4}]},{"id":1642,"x":2115,"y":515,"visible":true,"properties":[{"name":"layer","type":"int","value":1},{"name":"group","type":"int","value":81},{"name":"id","type":"int","value":24},{"name":"fh_layer","type":"int","value":1},{"name":"fh_group","type":"int","value":81},{"name":"fh_id","type":"int","value":24},{"name":"x1","type":"int","value":2115},{"name":"x2","type":"int","value":2122},{"name":"y1","type":"int","value":515},{"name":"y2","type":"int","value":516},{"name":"next","type":"int","value":25},{"name":"prev","type":"int","value":23}],"polyline":[{"x":0,"y":0},{"x":7,"y":1}]},{"id":1643,"x":2122,"y":516,"visible":true,"properties":[{"name":"layer","type":"int","value":1},{"name":"group","type":"int","value":81},{"name":"id","type":"int","value":25},{"name":"fh_layer","type":"int","value":1},{"name":"fh_group","type":"int","value":81},{"name":"fh_id","type":"int","value":25},{"name":"x1","type":"int","value":2122},{"name":"x2","type":"int","value":2143},{"name":"y1","type":"int","value":516},{"name":"y2","type":"int","value":529},{"name":"next","type":"int","value":26},{"name":"prev","type":"int","value":24}],"polyline":[{"x":0,"y":0},{"x":21,"y":13}]},{"id":1644,"x":2143,"y":529,"visible":true,"properties":[{"name":"layer","type":"int","value":1},{"name":"group","type":"int","value":81},{"name":"id","type":"int","value":26},{"name":"fh_layer","type":"int","value":1},{"name":"fh_group","type":"int","value":81},{"name":"fh_id","type":"int","value":26},{"name":"x1","type":"int","value":2143},{"name":"x2","type":"int","value":2160},{"name":"y1","type":"int","value":529},{"name":"y2","type":"int","value":530},{"name":"next","type":"int","value":29},{"name":"prev","type":"int","value":25}],"polyline":[{"x":0,"y":0},{"x":17,"y":1}]},{"id":1645,"x":1757,"y":720,"visible":true,"properties":[{"name":"layer","type":"int","value":1},{"name":"group","type":"int","value":81},{"name":"id","type":"int","value":27},{"name":"fh_layer","type":"int","value":1},{"name":"fh_group","type":"int","value":81},{"name":"fh_id","type":"int","value":27},{"name":"x1","type":"int","value":1757},{"name":"x2","type":"int","value":1757},{"name":"y1","type":"int","value":720},{"name":"y2","type":"int","value":710},{"name":"next","type":"int","value":28},{"name":"prev","type":"int","value":0}],"polyline":[{"x":0,"y":0},{"x":0,"y":-10}]},{"id":1646,"x":1757,"y":710,"visible":true,"properties":[{"name":"layer","type":"int","value":1},{"name":"group","type":"int","value":81},{"name":"id","type":"int","value":28},{"name":"fh_layer","type":"int","value":1},{"name":"fh_group","type":"int","value":81},{"name":"fh_id","type":"int","value":28},{"name":"x1","type":"int","value":1757},{"name":"x2","type":"int","value":1800},{"name":"y1","type":"int","value":710},{"name":"y2","type":"int","value":710},{"name":"next","type":"int","value":8},{"name":"prev","type":"int","value":27}],"polyline":[{"x":0,"y":0},{"x":43,"y":0}]},{"id":1647,"x":2160,"y":530,"visible":true,"properties":[{"name":"layer","type":"int","value":1},{"name":"group","type":"int","value":81},{"name":"id","type":"int","value":29},{"name":"fh_layer","type":"int","value":1},{"name":"fh_group","type":"int","value":81},{"name":"fh_id","type":"int","value":29},{"name":"x1","type":"int","value":2160},{"name":"x2","type":"int","value":2182},{"name":"y1","type":"int","value":530},{"name":"y2","type":"int","value":526},{"name":"next","type":"int","value":30},{"name":"prev","type":"int","value":26}],"polyline":[{"x":0,"y":0},{"x":22,"y":-4}]},{"id":1648,"x":2182,"y":526,"visible":true,"properties":[{"name":"layer","type":"int","value":1},{"name":"group","type":"int","value":81},{"name":"id","type":"int","value":30},{"name":"fh_layer","type":"int","value":1},{"name":"fh_group","type":"int","value":81},{"name":"fh_id","type":"int","value":30},{"name":"x1","type":"int","value":2182},{"name":"x2","type":"int","value":2190},{"name":"y1","type":"int","value":526},{"name":"y2","type":"int","value":519},{"name":"next","type":"int","value":31},{"name":"prev","type":"int","value":29}],"polyline":[{"x":0,"y":0},{"x":8,"y":-7}]},{"id":1649,"x":2190,"y":519,"visible":true,"properties":[{"name":"layer","type":"int","value":1},{"name":"group","type":"int","value":81},{"name":"id","type":"int","value":31},{"name":"fh_layer","type":"int","value":1},{"name":"fh_group","type":"int","value":81},{"name":"fh_id","type":"int","value":31},{"name":"x1","type":"int","value":2190},{"name":"x2","type":"int","value":2205},{"name":"y1","type":"int","value":519},{"name":"y2","type":"int","value":515},{"name":"next","type":"int","value":32},{"name":"prev","type":"int","value":30}],"polyline":[{"x":0,"y":0},{"x":15,"y":-4}]},{"id":1650,"x":2205,"y":515,"visible":true,"properties":[{"name":"layer","type":"int","value":1},{"name":"group","type":"int","value":81},{"name":"id","type":"int","value":32},{"name":"fh_layer","type":"int","value":1},{"name":"fh_group","type":"int","value":81},{"name":"fh_id","type":"int","value":32},{"name":"x1","type":"int","value":2205},{"name":"x2","type":"int","value":2212},{"name":"y1","type":"int","value":515},{"name":"y2","type":"int","value":516},{"name":"next","type":"int","value":33},{"name":"prev","type":"int","value":31}],"polyline":[{"x":0,"y":0},{"x":7,"y":1}]},{"id":1651,"x":2212,"y":516,"visible":true,"properties":[{"name":"layer","type":"int","value":1},{"name":"group","type":"int","value":81},{"name":"id","type":"int","value":33},{"name":"fh_layer","type":"int","value":1},{"name":"fh_group","type":"int","value":81},{"name":"fh_id","type":"int","value":33},{"name":"x1","type":"int","value":2212},{"name":"x2","type":"int","value":2233},{"name":"y1","type":"int","value":516},{"name":"y2","type":"int","value":529},{"name":"next","type":"int","value":34},{"name":"prev","type":"int","value":32}],"polyline":[{"x":0,"y":0},{"x":21,"y":13}]},{"id":1652,"x":2233,"y":529,"visible":true,"properties":[{"name":"layer","type":"int","value":1},{"name":"group","type":"int","value":81},{"name":"id","type":"int","value":34},{"name":"fh_layer","type":"int","value":1},{"name":"fh_group","type":"int","value":81},{"name":"fh_id","type":"int","value":34},{"name":"x1","type":"int","value":2233},{"name":"x2","type":"int","value":2250},{"name":"y1","type":"int","value":529},{"name":"y2","type":"int","value":530},{"name":"next","type":"int","value":40},{"name":"prev","type":"int","value":33}],"polyline":[{"x":0,"y":0},{"x":17,"y":1}]},{"id":1653,"x":1980,"y":590,"visible":true,"properties":[{"name":"layer","type":"int","value":1},{"name":"group","type":"int","value":81},{"name":"id","type":"int","value":35},{"name":"fh_layer","type":"int","value":1},{"name":"fh_group","type":"int","value":81},{"name":"fh_id","type":"int","value":35},{"name":"x1","type":"int","value":1980},{"name":"x2","type":"int","value":2004},{"name":"y1","type":"int","value":590},{"name":"y2","type":"int","value":571},{"name":"next","type":"int","value":36},{"name":"prev","type":"int","value":7}],"polyline":[{"x":0,"y":0},{"x":24,"y":-19}]},{"id":1654,"x":2004,"y":571,"visible":true,"properties":[{"name":"layer","type":"int","value":1},{"name":"group","type":"int","value":81},{"name":"id","type":"int","value":36},{"name":"fh_layer","type":"int","value":1},{"name":"fh_group","type":"int","value":81},{"name":"fh_id","type":"int","value":36},{"name":"x1","type":"int","value":2004},{"name":"x2","type":"int","value":2014},{"name":"y1","type":"int","value":571},{"name":"y2","type":"int","value":552},{"name":"next","type":"int","value":37},{"name":"prev","type":"int","value":35}],"polyline":[{"x":0,"y":0},{"x":10,"y":-19}]},{"id":1655,"x":2014,"y":552,"visible":true,"properties":[{"name":"layer","type":"int","value":1},{"name":"group","type":"int","value":81},{"name":"id","type":"int","value":37},{"name":"fh_layer","type":"int","value":1},{"name":"fh_group","type":"int","value":81},{"name":"fh_id","type":"int","value":37},{"name":"x1","type":"int","value":2014},{"name":"x2","type":"int","value":2035},{"name":"y1","type":"int","value":552},{"name":"y2","type":"int","value":541},{"name":"next","type":"int","value":38},{"name":"prev","type":"int","value":36}],"polyline":[{"x":0,"y":0},{"x":21,"y":-11}]},{"id":1656,"x":2035,"y":541,"visible":true,"properties":[{"name":"layer","type":"int","value":1},{"name":"group","type":"int","value":81},{"name":"id","type":"int","value":38},{"name":"fh_layer","type":"int","value":1},{"name":"fh_group","type":"int","value":81},{"name":"fh_id","type":"int","value":38},{"name":"x1","type":"int","value":2035},{"name":"x2","type":"int","value":2050},{"name":"y1","type":"int","value":541},{"name":"y2","type":"int","value":531},{"name":"next","type":"int","value":39},{"name":"prev","type":"int","value":37}],"polyline":[{"x":0,"y":0},{"x":15,"y":-10}]},{"id":1657,"x":2050,"y":531,"visible":true,"properties":[{"name":"layer","type":"int","value":1},{"name":"group","type":"int","value":81},{"name":"id","type":"int","value":39},{"name":"fh_layer","type":"int","value":1},{"name":"fh_group","type":"int","value":81},{"name":"fh_id","type":"int","value":39},{"name":"x1","type":"int","value":2050},{"name":"x2","type":"int","value":2070},{"name":"y1","type":"int","value":531},{"name":"y2","type":"int","value":530},{"name":"next","type":"int","value":21},{"name":"prev","type":"int","value":38}],"polyline":[{"x":0,"y":0},{"x":20,"y":-1}]},{"id":1658,"x":2250,"y":530,"visible":true,"properties":[{"name":"layer","type":"int","value":1},{"name":"group","type":"int","value":81},{"name":"id","type":"int","value":40},{"name":"fh_layer","type":"int","value":1},{"name":"fh_group","type":"int","value":81},{"name":"fh_id","type":"int","value":40},{"name":"x1","type":"int","value":2250},{"name":"x2","type":"int","value":2272},{"name":"y1","type":"int","value":530},{"name":"y2","type":"int","value":526},{"name":"next","type":"int","value":41},{"name":"prev","type":"int","value":34}],"polyline":[{"x":0,"y":0},{"x":22,"y":-4}]},{"id":1659,"x":2272,"y":526,"visible":true,"properties":[{"name":"layer","type":"int","value":1},{"name":"group","type":"int","value":81},{"name":"id","type":"int","value":41},{"name":"fh_layer","type":"int","value":1},{"name":"fh_group","type":"int","value":81},{"name":"fh_id","type":"int","value":41},{"name":"x1","type":"int","value":2272},{"name":"x2","type":"int","value":2280},{"name":"y1","type":"int","value":526},{"name":"y2","type":"int","value":519},{"name":"next","type":"int","value":42},{"name":"prev","type":"int","value":40}],"polyline":[{"x":0,"y":0},{"x":8,"y":-7}]},{"id":1660,"x":2280,"y":519,"visible":true,"properties":[{"name":"layer","type":"int","value":1},{"name":"group","type":"int","value":81},{"name":"id","type":"int","value":42},{"name":"fh_layer","type":"int","value":1},{"name":"fh_group","type":"int","value":81},{"name":"fh_id","type":"int","value":42},{"name":"x1","type":"int","value":2280},{"name":"x2","type":"int","value":2295},{"name":"y1","type":"int","value":519},{"name":"y2","type":"int","value":515},{"name":"next","type":"int","value":43},{"name":"prev","type":"int","value":41}],"polyline":[{"x":0,"y":0},{"x":15,"y":-4}]},{"id":1661,"x":2295,"y":515,"visible":true,"properties":[{"name":"layer","type":"int","value":1},{"name":"group","type":"int","value":81},{"name":"id","type":"int","value":43},{"name":"fh_layer","type":"int","value":1},{"name":"fh_group","type":"int","value":81},{"name":"fh_id","type":"int","value":43},{"name":"x1","type":"int","value":2295},{"name":"x2","type":"int","value":2302},{"name":"y1","type":"int","value":515},{"name":"y2","type":"int","value":516},{"name":"next","type":"int","value":44},{"name":"prev","type":"int","value":42}],"polyline":[{"x":0,"y":0},{"x":7,"y":1}]},{"id":1662,"x":2302,"y":516,"visible":true,"properties":[{"name":"layer","type":"int","value":1},{"name":"group","type":"int","value":81},{"name":"id","type":"int","value":44},{"name":"fh_layer","type":"int","value":1},{"name":"fh_group","type":"int","value":81},{"name":"fh_id","type":"int","value":44},{"name":"x1","type":"int","value":2302},{"name":"x2","type":"int","value":2323},{"name":"y1","type":"int","value":516},{"name":"y2","type":"int","value":529},{"name":"next","type":"int","value":45},{"name":"prev","type":"int","value":43}],"polyline":[{"x":0,"y":0},{"x":21,"y":13}]},{"id":1663,"x":2323,"y":529,"visible":true,"properties":[{"name":"layer","type":"int","value":1},{"name":"group","type":"int","value":81},{"name":"id","type":"int","value":45},{"name":"fh_layer","type":"int","value":1},{"name":"fh_group","type":"int","value":81},{"name":"fh_id","type":"int","value":45},{"name":"x1","type":"int","value":2323},{"name":"x2","type":"int","value":2340},{"name":"y1","type":"int","value":529},{"name":"y2","type":"int","value":530},{"name":"next","type":"int","value":14},{"name":"prev","type":"int","value":44}],"polyline":[{"x":0,"y":0},{"x":17,"y":1}]},{"id":1664,"x":2473,"y":540,"visible":true,"properties":[{"name":"layer","type":"int","value":1},{"name":"group","type":"int","value":81},{"name":"id","type":"int","value":46},{"name":"fh_layer","type":"int","value":1},{"name":"fh_group","type":"int","value":81},{"name":"fh_id","type":"int","value":46},{"name":"x1","type":"int","value":2473},{"name":"x2","type":"int","value":2473},{"name":"y1","type":"int","value":540},{"name":"y2","type":"int","value":600},{"name":"next","type":"int","value":2},{"name":"prev","type":"int","value":13}],"polyline":[{"x":0,"y":0},{"x":0,"y":60}]},{"id":1665,"x":25,"y":741,"visible":true,"properties":[{"name":"layer","type":"int","value":1},{"name":"group","type":"int","value":82},{"name":"id","type":"int","value":736},{"name":"fh_layer","type":"int","value":1},{"name":"fh_group","type":"int","value":82},{"name":"fh_id","type":"int","value":736},{"name":"x1","type":"int","value":25},{"name":"x2","type":"int","value":42},{"name":"y1","type":"int","value":741},{"name":"y2","type":"int","value":742},{"name":"next","type":"int","value":737},{"name":"prev","type":"int","value":0}],"polyline":[{"x":0,"y":0},{"x":17,"y":1}]},{"id":1666,"x":42,"y":742,"visible":true,"properties":[{"name":"layer","type":"int","value":1},{"name":"group","type":"int","value":82},{"name":"id","type":"int","value":737},{"name":"fh_layer","type":"int","value":1},{"name":"fh_group","type":"int","value":82},{"name":"fh_id","type":"int","value":737},{"name":"x1","type":"int","value":42},{"name":"x2","type":"int","value":51},{"name":"y1","type":"int","value":742},{"name":"y2","type":"int","value":739},{"name":"next","type":"int","value":738},{"name":"prev","type":"int","value":736}],"polyline":[{"x":0,"y":0},{"x":9,"y":-3}]},{"id":1667,"x":51,"y":739,"visible":true,"properties":[{"name":"layer","type":"int","value":1},{"name":"group","type":"int","value":82},{"name":"id","type":"int","value":738},{"name":"fh_layer","type":"int","value":1},{"name":"fh_group","type":"int","value":82},{"name":"fh_id","type":"int","value":738},{"name":"x1","type":"int","value":51},{"name":"x2","type":"int","value":85},{"name":"y1","type":"int","value":739},{"name":"y2","type":"int","value":738},{"name":"next","type":"int","value":739},{"name":"prev","type":"int","value":737}],"polyline":[{"x":0,"y":0},{"x":34,"y":-1}]},{"id":1668,"x":85,"y":738,"visible":true,"properties":[{"name":"layer","type":"int","value":1},{"name":"group","type":"int","value":82},{"name":"id","type":"int","value":739},{"name":"fh_layer","type":"int","value":1},{"name":"fh_group","type":"int","value":82},{"name":"fh_id","type":"int","value":739},{"name":"x1","type":"int","value":85},{"name":"x2","type":"int","value":101},{"name":"y1","type":"int","value":738},{"name":"y2","type":"int","value":733},{"name":"next","type":"int","value":740},{"name":"prev","type":"int","value":738}],"polyline":[{"x":0,"y":0},{"x":16,"y":-5}]},{"id":1669,"x":101,"y":733,"visible":true,"properties":[{"name":"layer","type":"int","value":1},{"name":"group","type":"int","value":82},{"name":"id","type":"int","value":740},{"name":"fh_layer","type":"int","value":1},{"name":"fh_group","type":"int","value":82},{"name":"fh_id","type":"int","value":740},{"name":"x1","type":"int","value":101},{"name":"x2","type":"int","value":153},{"name":"y1","type":"int","value":733},{"name":"y2","type":"int","value":734},{"name":"next","type":"int","value":741},{"name":"prev","type":"int","value":739}],"polyline":[{"x":0,"y":0},{"x":52,"y":1}]},{"id":1670,"x":153,"y":734,"visible":true,"properties":[{"name":"layer","type":"int","value":1},{"name":"group","type":"int","value":82},{"name":"id","type":"int","value":741},{"name":"fh_layer","type":"int","value":1},{"name":"fh_group","type":"int","value":82},{"name":"fh_id","type":"int","value":741},{"name":"x1","type":"int","value":153},{"name":"x2","type":"int","value":183},{"name":"y1","type":"int","value":734},{"name":"y2","type":"int","value":739},{"name":"next","type":"int","value":0},{"name":"prev","type":"int","value":740}],"polyline":[{"x":0,"y":0},{"x":30,"y":5}]},{"id":1671,"x":-360,"y":110,"visible":true,"properties":[{"name":"layer","type":"int","value":1},{"name":"group","type":"int","value":94},{"name":"id","type":"int","value":47},{"name":"fh_layer","type":"int","value":1},{"name":"fh_group","type":"int","value":94},{"name":"fh_id","type":"int","value":47},{"name":"x1","type":"int","value":-360},{"name":"x2","type":"int","value":-338},{"name":"y1","type":"int","value":110},{"name":"y2","type":"int","value":106},{"name":"next","type":"int","value":48},{"name":"prev","type":"int","value":69}],"polyline":[{"x":0,"y":0},{"x":22,"y":-4}]},{"id":1672,"x":-338,"y":106,"visible":true,"properties":[{"name":"layer","type":"int","value":1},{"name":"group","type":"int","value":94},{"name":"id","type":"int","value":48},{"name":"fh_layer","type":"int","value":1},{"name":"fh_group","type":"int","value":94},{"name":"fh_id","type":"int","value":48},{"name":"x1","type":"int","value":-338},{"name":"x2","type":"int","value":-330},{"name":"y1","type":"int","value":106},{"name":"y2","type":"int","value":99},{"name":"next","type":"int","value":49},{"name":"prev","type":"int","value":47}],"polyline":[{"x":0,"y":0},{"x":8,"y":-7}]},{"id":1673,"x":-330,"y":99,"visible":true,"properties":[{"name":"layer","type":"int","value":1},{"name":"group","type":"int","value":94},{"name":"id","type":"int","value":49},{"name":"fh_layer","type":"int","value":1},{"name":"fh_group","type":"int","value":94},{"name":"fh_id","type":"int","value":49},{"name":"x1","type":"int","value":-330},{"name":"x2","type":"int","value":-315},{"name":"y1","type":"int","value":99},{"name":"y2","type":"int","value":95},{"name":"next","type":"int","value":50},{"name":"prev","type":"int","value":48}],"polyline":[{"x":0,"y":0},{"x":15,"y":-4}]},{"id":1674,"x":-315,"y":95,"visible":true,"properties":[{"name":"layer","type":"int","value":1},{"name":"group","type":"int","value":94},{"name":"id","type":"int","value":50},{"name":"fh_layer","type":"int","value":1},{"name":"fh_group","type":"int","value":94},{"name":"fh_id","type":"int","value":50},{"name":"x1","type":"int","value":-315},{"name":"x2","type":"int","value":-308},{"name":"y1","type":"int","value":95},{"name":"y2","type":"int","value":96},{"name":"next","type":"int","value":51},{"name":"prev","type":"int","value":49}],"polyline":[{"x":0,"y":0},{"x":7,"y":1}]},{"id":1675,"x":-308,"y":96,"visible":true,"properties":[{"name":"layer","type":"int","value":1},{"name":"group","type":"int","value":94},{"name":"id","type":"int","value":51},{"name":"fh_layer","type":"int","value":1},{"name":"fh_group","type":"int","value":94},{"name":"fh_id","type":"int","value":51},{"name":"x1","type":"int","value":-308},{"name":"x2","type":"int","value":-287},{"name":"y1","type":"int","value":96},{"name":"y2","type":"int","value":109},{"name":"next","type":"int","value":52},{"name":"prev","type":"int","value":50}],"polyline":[{"x":0,"y":0},{"x":21,"y":13}]},{"id":1676,"x":-287,"y":109,"visible":true,"properties":[{"name":"layer","type":"int","value":1},{"name":"group","type":"int","value":94},{"name":"id","type":"int","value":52},{"name":"fh_layer","type":"int","value":1},{"name":"fh_group","type":"int","value":94},{"name":"fh_id","type":"int","value":52},{"name":"x1","type":"int","value":-287},{"name":"x2","type":"int","value":-279},{"name":"y1","type":"int","value":109},{"name":"y2","type":"int","value":109},{"name":"next","type":"int","value":114},{"name":"prev","type":"int","value":51}],"polyline":[{"x":0,"y":0},{"x":8,"y":0}]},{"id":1677,"x":-583,"y":188,"visible":true,"properties":[{"name":"layer","type":"int","value":1},{"name":"group","type":"int","value":94},{"name":"id","type":"int","value":53},{"name":"fh_layer","type":"int","value":1},{"name":"fh_group","type":"int","value":94},{"name":"fh_id","type":"int","value":53},{"name":"x1","type":"int","value":-583},{"name":"x2","type":"int","value":-583},{"name":"y1","type":"int","value":188},{"name":"y2","type":"int","value":120},{"name":"next","type":"int","value":62},{"name":"prev","type":"int","value":70}],"polyline":[{"x":0,"y":0},{"x":0,"y":-68}]},{"id":1678,"x":-583,"y":308,"visible":true,"properties":[{"name":"layer","type":"int","value":1},{"name":"group","type":"int","value":94},{"name":"id","type":"int","value":54},{"name":"fh_layer","type":"int","value":1},{"name":"fh_group","type":"int","value":94},{"name":"fh_id","type":"int","value":54},{"name":"x1","type":"int","value":-583},{"name":"x2","type":"int","value":-583},{"name":"y1","type":"int","value":308},{"name":"y2","type":"int","value":240},{"name":"next","type":"int","value":70},{"name":"prev","type":"int","value":55}],"polyline":[{"x":0,"y":0},{"x":0,"y":-68}]},{"id":1679,"x":-583,"y":368,"visible":true,"properties":[{"name":"layer","type":"int","value":1},{"name":"group","type":"int","value":94},{"name":"id","type":"int","value":55},{"name":"fh_layer","type":"int","value":1},{"name":"fh_group","type":"int","value":94},{"name":"fh_id","type":"int","value":55},{"name":"x1","type":"int","value":-583},{"name":"x2","type":"int","value":-583},{"name":"y1","type":"int","value":368},{"name":"y2","type":"int","value":308},{"name":"next","type":"int","value":54},{"name":"prev","type":"int","value":75}],"polyline":[{"x":0,"y":0},{"x":0,"y":-60}]},{"id":1680,"x":-540,"y":110,"visible":true,"properties":[{"name":"layer","type":"int","value":1},{"name":"group","type":"int","value":94},{"name":"id","type":"int","value":56},{"name":"fh_layer","type":"int","value":1},{"name":"fh_group","type":"int","value":94},{"name":"fh_id","type":"int","value":56},{"name":"x1","type":"int","value":-540},{"name":"x2","type":"int","value":-518},{"name":"y1","type":"int","value":110},{"name":"y2","type":"int","value":106},{"name":"next","type":"int","value":57},{"name":"prev","type":"int","value":63}],"polyline":[{"x":0,"y":0},{"x":22,"y":-4}]},{"id":1681,"x":-518,"y":106,"visible":true,"properties":[{"name":"layer","type":"int","value":1},{"name":"group","type":"int","value":94},{"name":"id","type":"int","value":57},{"name":"fh_layer","type":"int","value":1},{"name":"fh_group","type":"int","value":94},{"name":"fh_id","type":"int","value":57},{"name":"x1","type":"int","value":-518},{"name":"x2","type":"int","value":-510},{"name":"y1","type":"int","value":106},{"name":"y2","type":"int","value":99},{"name":"next","type":"int","value":58},{"name":"prev","type":"int","value":56}],"polyline":[{"x":0,"y":0},{"x":8,"y":-7}]},{"id":1682,"x":-510,"y":99,"visible":true,"properties":[{"name":"layer","type":"int","value":1},{"name":"group","type":"int","value":94},{"name":"id","type":"int","value":58},{"name":"fh_layer","type":"int","value":1},{"name":"fh_group","type":"int","value":94},{"name":"fh_id","type":"int","value":58},{"name":"x1","type":"int","value":-510},{"name":"x2","type":"int","value":-495},{"name":"y1","type":"int","value":99},{"name":"y2","type":"int","value":95},{"name":"next","type":"int","value":59},{"name":"prev","type":"int","value":57}],"polyline":[{"x":0,"y":0},{"x":15,"y":-4}]},{"id":1683,"x":-495,"y":95,"visible":true,"properties":[{"name":"layer","type":"int","value":1},{"name":"group","type":"int","value":94},{"name":"id","type":"int","value":59},{"name":"fh_layer","type":"int","value":1},{"name":"fh_group","type":"int","value":94},{"name":"fh_id","type":"int","value":59},{"name":"x1","type":"int","value":-495},{"name":"x2","type":"int","value":-488},{"name":"y1","type":"int","value":95},{"name":"y2","type":"int","value":96},{"name":"next","type":"int","value":60},{"name":"prev","type":"int","value":58}],"polyline":[{"x":0,"y":0},{"x":7,"y":1}]},{"id":1684,"x":-488,"y":96,"visible":true,"properties":[{"name":"layer","type":"int","value":1},{"name":"group","type":"int","value":94},{"name":"id","type":"int","value":60},{"name":"fh_layer","type":"int","value":1},{"name":"fh_group","type":"int","value":94},{"name":"fh_id","type":"int","value":60},{"name":"x1","type":"int","value":-488},{"name":"x2","type":"int","value":-467},{"name":"y1","type":"int","value":96},{"name":"y2","type":"int","value":109},{"name":"next","type":"int","value":61},{"name":"prev","type":"int","value":59}],"polyline":[{"x":0,"y":0},{"x":21,"y":13}]},{"id":1685,"x":-467,"y":109,"visible":true,"properties":[{"name":"layer","type":"int","value":1},{"name":"group","type":"int","value":94},{"name":"id","type":"int","value":61},{"name":"fh_layer","type":"int","value":1},{"name":"fh_group","type":"int","value":94},{"name":"fh_id","type":"int","value":61},{"name":"x1","type":"int","value":-467},{"name":"x2","type":"int","value":-450},{"name":"y1","type":"int","value":109},{"name":"y2","type":"int","value":110},{"name":"next","type":"int","value":64},{"name":"prev","type":"int","value":60}],"polyline":[{"x":0,"y":0},{"x":17,"y":1}]},{"id":1686,"x":-583,"y":120,"visible":true,"properties":[{"name":"layer","type":"int","value":1},{"name":"group","type":"int","value":94},{"name":"id","type":"int","value":62},{"name":"fh_layer","type":"int","value":1},{"name":"fh_group","type":"int","value":94},{"name":"fh_id","type":"int","value":62},{"name":"x1","type":"int","value":-583},{"name":"x2","type":"int","value":-583},{"name":"y1","type":"int","value":120},{"name":"y2","type":"int","value":110},{"name":"next","type":"int","value":63},{"name":"prev","type":"int","value":53}],"polyline":[{"x":0,"y":0},{"x":0,"y":-10}]},{"id":1687,"x":-583,"y":110,"visible":true,"properties":[{"name":"layer","type":"int","value":1},{"name":"group","type":"int","value":94},{"name":"id","type":"int","value":63},{"name":"fh_layer","type":"int","value":1},{"name":"fh_group","type":"int","value":94},{"name":"fh_id","type":"int","value":63},{"name":"x1","type":"int","value":-583},{"name":"x2","type":"int","value":-540},{"name":"y1","type":"int","value":110},{"name":"y2","type":"int","value":110},{"name":"next","type":"int","value":56},{"name":"prev","type":"int","value":62}],"polyline":[{"x":0,"y":0},{"x":43,"y":0}]},{"id":1688,"x":-450,"y":110,"visible":true,"properties":[{"name":"layer","type":"int","value":1},{"name":"group","type":"int","value":94},{"name":"id","type":"int","value":64},{"name":"fh_layer","type":"int","value":1},{"name":"fh_group","type":"int","value":94},{"name":"fh_id","type":"int","value":64},{"name":"x1","type":"int","value":-450},{"name":"x2","type":"int","value":-428},{"name":"y1","type":"int","value":110},{"name":"y2","type":"int","value":106},{"name":"next","type":"int","value":65},{"name":"prev","type":"int","value":61}],"polyline":[{"x":0,"y":0},{"x":22,"y":-4}]},{"id":1689,"x":-428,"y":106,"visible":true,"properties":[{"name":"layer","type":"int","value":1},{"name":"group","type":"int","value":94},{"name":"id","type":"int","value":65},{"name":"fh_layer","type":"int","value":1},{"name":"fh_group","type":"int","value":94},{"name":"fh_id","type":"int","value":65},{"name":"x1","type":"int","value":-428},{"name":"x2","type":"int","value":-420},{"name":"y1","type":"int","value":106},{"name":"y2","type":"int","value":99},{"name":"next","type":"int","value":66},{"name":"prev","type":"int","value":64}],"polyline":[{"x":0,"y":0},{"x":8,"y":-7}]},{"id":1690,"x":-420,"y":99,"visible":true,"properties":[{"name":"layer","type":"int","value":1},{"name":"group","type":"int","value":94},{"name":"id","type":"int","value":66},{"name":"fh_layer","type":"int","value":1},{"name":"fh_group","type":"int","value":94},{"name":"fh_id","type":"int","value":66},{"name":"x1","type":"int","value":-420},{"name":"x2","type":"int","value":-405},{"name":"y1","type":"int","value":99},{"name":"y2","type":"int","value":95},{"name":"next","type":"int","value":67},{"name":"prev","type":"int","value":65}],"polyline":[{"x":0,"y":0},{"x":15,"y":-4}]},{"id":1691,"x":-405,"y":95,"visible":true,"properties":[{"name":"layer","type":"int","value":1},{"name":"group","type":"int","value":94},{"name":"id","type":"int","value":67},{"name":"fh_layer","type":"int","value":1},{"name":"fh_group","type":"int","value":94},{"name":"fh_id","type":"int","value":67},{"name":"x1","type":"int","value":-405},{"name":"x2","type":"int","value":-398},{"name":"y1","type":"int","value":95},{"name":"y2","type":"int","value":96},{"name":"next","type":"int","value":68},{"name":"prev","type":"int","value":66}],"polyline":[{"x":0,"y":0},{"x":7,"y":1}]},{"id":1692,"x":-398,"y":96,"visible":true,"properties":[{"name":"layer","type":"int","value":1},{"name":"group","type":"int","value":94},{"name":"id","type":"int","value":68},{"name":"fh_layer","type":"int","value":1},{"name":"fh_group","type":"int","value":94},{"name":"fh_id","type":"int","value":68},{"name":"x1","type":"int","value":-398},{"name":"x2","type":"int","value":-377},{"name":"y1","type":"int","value":96},{"name":"y2","type":"int","value":109},{"name":"next","type":"int","value":69},{"name":"prev","type":"int","value":67}],"polyline":[{"x":0,"y":0},{"x":21,"y":13}]},{"id":1693,"x":-377,"y":109,"visible":true,"properties":[{"name":"layer","type":"int","value":1},{"name":"group","type":"int","value":94},{"name":"id","type":"int","value":69},{"name":"fh_layer","type":"int","value":1},{"name":"fh_group","type":"int","value":94},{"name":"fh_id","type":"int","value":69},{"name":"x1","type":"int","value":-377},{"name":"x2","type":"int","value":-360},{"name":"y1","type":"int","value":109},{"name":"y2","type":"int","value":110},{"name":"next","type":"int","value":47},{"name":"prev","type":"int","value":68}],"polyline":[{"x":0,"y":0},{"x":17,"y":1}]},{"id":1694,"x":-583,"y":240,"visible":true,"properties":[{"name":"layer","type":"int","value":1},{"name":"group","type":"int","value":94},{"name":"id","type":"int","value":70},{"name":"fh_layer","type":"int","value":1},{"name":"fh_group","type":"int","value":94},{"name":"fh_id","type":"int","value":70},{"name":"x1","type":"int","value":-583},{"name":"x2","type":"int","value":-583},{"name":"y1","type":"int","value":240},{"name":"y2","type":"int","value":188},{"name":"next","type":"int","value":53},{"name":"prev","type":"int","value":54}],"polyline":[{"x":0,"y":0},{"x":0,"y":-52}]},{"id":1695,"x":43,"y":360,"visible":true,"properties":[{"name":"layer","type":"int","value":1},{"name":"group","type":"int","value":94},{"name":"id","type":"int","value":71},{"name":"fh_layer","type":"int","value":1},{"name":"fh_group","type":"int","value":94},{"name":"fh_id","type":"int","value":71},{"name":"x1","type":"int","value":43},{"name":"x2","type":"int","value":43},{"name":"y1","type":"int","value":360},{"name":"y2","type":"int","value":428},{"name":"next","type":"int","value":72},{"name":"prev","type":"int","value":89}],"polyline":[{"x":0,"y":0},{"x":0,"y":68}]},{"id":1696,"x":43,"y":428,"visible":true,"properties":[{"name":"layer","type":"int","value":1},{"name":"group","type":"int","value":94},{"name":"id","type":"int","value":72},{"name":"fh_layer","type":"int","value":1},{"name":"fh_group","type":"int","value":94},{"name":"fh_id","type":"int","value":72},{"name":"x1","type":"int","value":43},{"name":"x2","type":"int","value":43},{"name":"y1","type":"int","value":428},{"name":"y2","type":"int","value":488},{"name":"next","type":"int","value":0},{"name":"prev","type":"int","value":71}],"polyline":[{"x":0,"y":0},{"x":0,"y":60}]},{"id":1697,"x":-583,"y":488,"visible":true,"properties":[{"name":"layer","type":"int","value":1},{"name":"group","type":"int","value":94},{"name":"id","type":"int","value":73},{"name":"fh_layer","type":"int","value":1},{"name":"fh_group","type":"int","value":94},{"name":"fh_id","type":"int","value":73},{"name":"x1","type":"int","value":-583},{"name":"x2","type":"int","value":-583},{"name":"y1","type":"int","value":488},{"name":"y2","type":"int","value":420},{"name":"next","type":"int","value":75},{"name":"prev","type":"int","value":74}],"polyline":[{"x":0,"y":0},{"x":0,"y":-68}]},{"id":1698,"x":-583,"y":548,"visible":true,"properties":[{"name":"layer","type":"int","value":1},{"name":"group","type":"int","value":94},{"name":"id","type":"int","value":74},{"name":"fh_layer","type":"int","value":1},{"name":"fh_group","type":"int","value":94},{"name":"fh_id","type":"int","value":74},{"name":"x1","type":"int","value":-583},{"name":"x2","type":"int","value":-583},{"name":"y1","type":"int","value":548},{"name":"y2","type":"int","value":488},{"name":"next","type":"int","value":73},{"name":"prev","type":"int","value":76}],"polyline":[{"x":0,"y":0},{"x":0,"y":-60}]},{"id":1699,"x":-583,"y":420,"visible":true,"properties":[{"name":"layer","type":"int","value":1},{"name":"group","type":"int","value":94},{"name":"id","type":"int","value":75},{"name":"fh_layer","type":"int","value":1},{"name":"fh_group","type":"int","value":94},{"name":"fh_id","type":"int","value":75},{"name":"x1","type":"int","value":-583},{"name":"x2","type":"int","value":-583},{"name":"y1","type":"int","value":420},{"name":"y2","type":"int","value":368},{"name":"next","type":"int","value":55},{"name":"prev","type":"int","value":73}],"polyline":[{"x":0,"y":0},{"x":0,"y":-52}]},{"id":1700,"x":-583,"y":608,"visible":true,"properties":[{"name":"layer","type":"int","value":1},{"name":"group","type":"int","value":94},{"name":"id","type":"int","value":76},{"name":"fh_layer","type":"int","value":1},{"name":"fh_group","type":"int","value":94},{"name":"fh_id","type":"int","value":76},{"name":"x1","type":"int","value":-583},{"name":"x2","type":"int","value":-583},{"name":"y1","type":"int","value":608},{"name":"y2","type":"int","value":548},{"name":"next","type":"int","value":74},{"name":"prev","type":"int","value":0}],"polyline":[{"x":0,"y":0},{"x":0,"y":-60}]},{"id":1701,"x":-90,"y":230,"visible":true,"properties":[{"name":"layer","type":"int","value":1},{"name":"group","type":"int","value":94},{"name":"id","type":"int","value":77},{"name":"fh_layer","type":"int","value":1},{"name":"fh_group","type":"int","value":94},{"name":"fh_id","type":"int","value":77},{"name":"x1","type":"int","value":-90},{"name":"x2","type":"int","value":-70},{"name":"y1","type":"int","value":230},{"name":"y2","type":"int","value":231},{"name":"next","type":"int","value":78},{"name":"prev","type":"int","value":88}],"polyline":[{"x":0,"y":0},{"x":20,"y":1}]},{"id":1702,"x":-70,"y":231,"visible":true,"properties":[{"name":"layer","type":"int","value":1},{"name":"group","type":"int","value":94},{"name":"id","type":"int","value":78},{"name":"fh_layer","type":"int","value":1},{"name":"fh_group","type":"int","value":94},{"name":"fh_id","type":"int","value":78},{"name":"x1","type":"int","value":-70},{"name":"x2","type":"int","value":-55},{"name":"y1","type":"int","value":231},{"name":"y2","type":"int","value":241},{"name":"next","type":"int","value":79},{"name":"prev","type":"int","value":77}],"polyline":[{"x":0,"y":0},{"x":15,"y":10}]},{"id":1703,"x":-55,"y":241,"visible":true,"properties":[{"name":"layer","type":"int","value":1},{"name":"group","type":"int","value":94},{"name":"id","type":"int","value":79},{"name":"fh_layer","type":"int","value":1},{"name":"fh_group","type":"int","value":94},{"name":"fh_id","type":"int","value":79},{"name":"x1","type":"int","value":-55},{"name":"x2","type":"int","value":-34},{"name":"y1","type":"int","value":241},{"name":"y2","type":"int","value":252},{"name":"next","type":"int","value":80},{"name":"prev","type":"int","value":78}],"polyline":[{"x":0,"y":0},{"x":21,"y":11}]},{"id":1704,"x":-34,"y":252,"visible":true,"properties":[{"name":"layer","type":"int","value":1},{"name":"group","type":"int","value":94},{"name":"id","type":"int","value":80},{"name":"fh_layer","type":"int","value":1},{"name":"fh_group","type":"int","value":94},{"name":"fh_id","type":"int","value":80},{"name":"x1","type":"int","value":-34},{"name":"x2","type":"int","value":-24},{"name":"y1","type":"int","value":252},{"name":"y2","type":"int","value":271},{"name":"next","type":"int","value":81},{"name":"prev","type":"int","value":79}],"polyline":[{"x":0,"y":0},{"x":10,"y":19}]},{"id":1705,"x":-24,"y":271,"visible":true,"properties":[{"name":"layer","type":"int","value":1},{"name":"group","type":"int","value":94},{"name":"id","type":"int","value":81},{"name":"fh_layer","type":"int","value":1},{"name":"fh_group","type":"int","value":94},{"name":"fh_id","type":"int","value":81},{"name":"x1","type":"int","value":-24},{"name":"x2","type":"int","value":0},{"name":"y1","type":"int","value":271},{"name":"y2","type":"int","value":290},{"name":"next","type":"int","value":82},{"name":"prev","type":"int","value":80}],"polyline":[{"x":0,"y":0},{"x":24,"y":19}]},{"id":1706,"x":0,"y":290,"visible":true,"properties":[{"name":"layer","type":"int","value":1},{"name":"group","type":"int","value":94},{"name":"id","type":"int","value":82},{"name":"fh_layer","type":"int","value":1},{"name":"fh_group","type":"int","value":94},{"name":"fh_id","type":"int","value":82},{"name":"x1","type":"int","value":0},{"name":"x2","type":"int","value":27},{"name":"y1","type":"int","value":290},{"name":"y2","type":"int","value":290},{"name":"next","type":"int","value":689},{"name":"prev","type":"int","value":81}],"polyline":[{"x":0,"y":0},{"x":27,"y":0}]},{"id":1707,"x":43,"y":290,"visible":true,"properties":[{"name":"layer","type":"int","value":1},{"name":"group","type":"int","value":94},{"name":"id","type":"int","value":83},{"name":"fh_layer","type":"int","value":1},{"name":"fh_group","type":"int","value":94},{"name":"fh_id","type":"int","value":83},{"name":"x1","type":"int","value":43},{"name":"x2","type":"int","value":43},{"name":"y1","type":"int","value":290},{"name":"y2","type":"int","value":300},{"name":"next","type":"int","value":89},{"name":"prev","type":"int","value":122}],"polyline":[{"x":0,"y":0},{"x":0,"y":10}]},{"id":1708,"x":-180,"y":170,"visible":true,"properties":[{"name":"layer","type":"int","value":1},{"name":"group","type":"int","value":94},{"name":"id","type":"int","value":84},{"name":"fh_layer","type":"int","value":1},{"name":"fh_group","type":"int","value":94},{"name":"fh_id","type":"int","value":84},{"name":"x1","type":"int","value":-180},{"name":"x2","type":"int","value":-160},{"name":"y1","type":"int","value":170},{"name":"y2","type":"int","value":171},{"name":"next","type":"int","value":85},{"name":"prev","type":"int","value":94}],"polyline":[{"x":0,"y":0},{"x":20,"y":1}]},{"id":1709,"x":-160,"y":171,"visible":true,"properties":[{"name":"layer","type":"int","value":1},{"name":"group","type":"int","value":94},{"name":"id","type":"int","value":85},{"name":"fh_layer","type":"int","value":1},{"name":"fh_group","type":"int","value":94},{"name":"fh_id","type":"int","value":85},{"name":"x1","type":"int","value":-160},{"name":"x2","type":"int","value":-145},{"name":"y1","type":"int","value":171},{"name":"y2","type":"int","value":181},{"name":"next","type":"int","value":86},{"name":"prev","type":"int","value":84}],"polyline":[{"x":0,"y":0},{"x":15,"y":10}]},{"id":1710,"x":-145,"y":181,"visible":true,"properties":[{"name":"layer","type":"int","value":1},{"name":"group","type":"int","value":94},{"name":"id","type":"int","value":86},{"name":"fh_layer","type":"int","value":1},{"name":"fh_group","type":"int","value":94},{"name":"fh_id","type":"int","value":86},{"name":"x1","type":"int","value":-145},{"name":"x2","type":"int","value":-124},{"name":"y1","type":"int","value":181},{"name":"y2","type":"int","value":192},{"name":"next","type":"int","value":87},{"name":"prev","type":"int","value":85}],"polyline":[{"x":0,"y":0},{"x":21,"y":11}]},{"id":1711,"x":-124,"y":192,"visible":true,"properties":[{"name":"layer","type":"int","value":1},{"name":"group","type":"int","value":94},{"name":"id","type":"int","value":87},{"name":"fh_layer","type":"int","value":1},{"name":"fh_group","type":"int","value":94},{"name":"fh_id","type":"int","value":87},{"name":"x1","type":"int","value":-124},{"name":"x2","type":"int","value":-114},{"name":"y1","type":"int","value":192},{"name":"y2","type":"int","value":211},{"name":"next","type":"int","value":88},{"name":"prev","type":"int","value":86}],"polyline":[{"x":0,"y":0},{"x":10,"y":19}]},{"id":1712,"x":-114,"y":211,"visible":true,"properties":[{"name":"layer","type":"int","value":1},{"name":"group","type":"int","value":94},{"name":"id","type":"int","value":88},{"name":"fh_layer","type":"int","value":1},{"name":"fh_group","type":"int","value":94},{"name":"fh_id","type":"int","value":88},{"name":"x1","type":"int","value":-114},{"name":"x2","type":"int","value":-90},{"name":"y1","type":"int","value":211},{"name":"y2","type":"int","value":230},{"name":"next","type":"int","value":77},{"name":"prev","type":"int","value":87}],"polyline":[{"x":0,"y":0},{"x":24,"y":19}]},{"id":1713,"x":43,"y":300,"visible":true,"properties":[{"name":"layer","type":"int","value":1},{"name":"group","type":"int","value":94},{"name":"id","type":"int","value":89},{"name":"fh_layer","type":"int","value":1},{"name":"fh_group","type":"int","value":94},{"name":"fh_id","type":"int","value":89},{"name":"x1","type":"int","value":43},{"name":"x2","type":"int","value":43},{"name":"y1","type":"int","value":300},{"name":"y2","type":"int","value":360},{"name":"next","type":"int","value":71},{"name":"prev","type":"int","value":83}],"polyline":[{"x":0,"y":0},{"x":0,"y":60}]},{"id":1714,"x":-270,"y":110,"visible":true,"properties":[{"name":"layer","type":"int","value":1},{"name":"group","type":"int","value":94},{"name":"id","type":"int","value":90},{"name":"fh_layer","type":"int","value":1},{"name":"fh_group","type":"int","value":94},{"name":"fh_id","type":"int","value":90},{"name":"x1","type":"int","value":-270},{"name":"x2","type":"int","value":-268},{"name":"y1","type":"int","value":110},{"name":"y2","type":"int","value":110},{"name":"next","type":"int","value":117},{"name":"prev","type":"int","value":115}],"polyline":[{"x":0,"y":0},{"x":2,"y":0}]},{"id":1715,"x":-250,"y":111,"visible":true,"properties":[{"name":"layer","type":"int","value":1},{"name":"group","type":"int","value":94},{"name":"id","type":"int","value":91},{"name":"fh_layer","type":"int","value":1},{"name":"fh_group","type":"int","value":94},{"name":"fh_id","type":"int","value":91},{"name":"x1","type":"int","value":-250},{"name":"x2","type":"int","value":-244},{"name":"y1","type":"int","value":111},{"name":"y2","type":"int","value":115},{"name":"next","type":"int","value":119},{"name":"prev","type":"int","value":117}],"polyline":[{"x":0,"y":0},{"x":6,"y":4}]},{"id":1716,"x":-235,"y":121,"visible":true,"properties":[{"name":"layer","type":"int","value":1},{"name":"group","type":"int","value":94},{"name":"id","type":"int","value":92},{"name":"fh_layer","type":"int","value":1},{"name":"fh_group","type":"int","value":94},{"name":"fh_id","type":"int","value":92},{"name":"x1","type":"int","value":-235},{"name":"x2","type":"int","value":-233},{"name":"y1","type":"int","value":121},{"name":"y2","type":"int","value":122},{"name":"next","type":"int","value":121},{"name":"prev","type":"int","value":118}],"polyline":[{"x":0,"y":0},{"x":2,"y":1}]},{"id":1717,"x":-214,"y":132,"visible":true,"properties":[{"name":"layer","type":"int","value":1},{"name":"group","type":"int","value":94},{"name":"id","type":"int","value":93},{"name":"fh_layer","type":"int","value":1},{"name":"fh_group","type":"int","value":94},{"name":"fh_id","type":"int","value":93},{"name":"x1","type":"int","value":-214},{"name":"x2","type":"int","value":-204},{"name":"y1","type":"int","value":132},{"name":"y2","type":"int","value":151},{"name":"next","type":"int","value":94},{"name":"prev","type":"int","value":121}],"polyline":[{"x":0,"y":0},{"x":10,"y":19}]},{"id":1718,"x":-204,"y":151,"visible":true,"properties":[{"name":"layer","type":"int","value":1},{"name":"group","type":"int","value":94},{"name":"id","type":"int","value":94},{"name":"fh_layer","type":"int","value":1},{"name":"fh_group","type":"int","value":94},{"name":"fh_id","type":"int","value":94},{"name":"x1","type":"int","value":-204},{"name":"x2","type":"int","value":-180},{"name":"y1","type":"int","value":151},{"name":"y2","type":"int","value":170},{"name":"next","type":"int","value":84},{"name":"prev","type":"int","value":93}],"polyline":[{"x":0,"y":0},{"x":24,"y":19}]},{"id":1719,"x":-489,"y":-199,"visible":true,"properties":[{"name":"layer","type":"int","value":1},{"name":"group","type":"int","value":94},{"name":"id","type":"int","value":95},{"name":"fh_layer","type":"int","value":1},{"name":"fh_group","type":"int","value":94},{"name":"fh_id","type":"int","value":95},{"name":"x1","type":"int","value":-489},{"name":"x2","type":"int","value":-399},{"name":"y1","type":"int","value":-199},{"name":"y2","type":"int","value":-197},{"name":"next","type":"int","value":0},{"name":"prev","type":"int","value":96}],"polyline":[{"x":0,"y":0},{"x":90,"y":2}]},{"id":1720,"x":-504,"y":-197,"visible":true,"properties":[{"name":"layer","type":"int","value":1},{"name":"group","type":"int","value":94},{"name":"id","type":"int","value":96},{"name":"fh_layer","type":"int","value":1},{"name":"fh_group","type":"int","value":94},{"name":"fh_id","type":"int","value":96},{"name":"x1","type":"int","value":-504},{"name":"x2","type":"int","value":-489},{"name":"y1","type":"int","value":-197},{"name":"y2","type":"int","value":-199},{"name":"next","type":"int","value":95},{"name":"prev","type":"int","value":97}],"polyline":[{"x":0,"y":0},{"x":15,"y":-2}]},{"id":1721,"x":-524,"y":-200,"visible":true,"properties":[{"name":"layer","type":"int","value":1},{"name":"group","type":"int","value":94},{"name":"id","type":"int","value":97},{"name":"fh_layer","type":"int","value":1},{"name":"fh_group","type":"int","value":94},{"name":"fh_id","type":"int","value":97},{"name":"x1","type":"int","value":-524},{"name":"x2","type":"int","value":-504},{"name":"y1","type":"int","value":-200},{"name":"y2","type":"int","value":-197},{"name":"next","type":"int","value":96},{"name":"prev","type":"int","value":98}],"polyline":[{"x":0,"y":0},{"x":20,"y":3}]},{"id":1722,"x":-583,"y":-199,"visible":true,"properties":[{"name":"layer","type":"int","value":1},{"name":"group","type":"int","value":94},{"name":"id","type":"int","value":98},{"name":"fh_layer","type":"int","value":1},{"name":"fh_group","type":"int","value":94},{"name":"fh_id","type":"int","value":98},{"name":"x1","type":"int","value":-583},{"name":"x2","type":"int","value":-524},{"name":"y1","type":"int","value":-199},{"name":"y2","type":"int","value":-200},{"name":"next","type":"int","value":97},{"name":"prev","type":"int","value":0}],"polyline":[{"x":0,"y":0},{"x":59,"y":-1}]},{"id":1723,"x":-581,"y":97,"visible":true,"properties":[{"name":"layer","type":"int","value":1},{"name":"group","type":"int","value":94},{"name":"id","type":"int","value":99},{"name":"fh_layer","type":"int","value":1},{"name":"fh_group","type":"int","value":94},{"name":"fh_id","type":"int","value":99},{"name":"x1","type":"int","value":-581},{"name":"x2","type":"int","value":-560},{"name":"y1","type":"int","value":97},{"name":"y2","type":"int","value":63},{"name":"next","type":"int","value":100},{"name":"prev","type":"int","value":0}],"polyline":[{"x":0,"y":0},{"x":21,"y":-34}]},{"id":1724,"x":-560,"y":63,"visible":true,"properties":[{"name":"layer","type":"int","value":1},{"name":"group","type":"int","value":94},{"name":"id","type":"int","value":100},{"name":"fh_layer","type":"int","value":1},{"name":"fh_group","type":"int","value":94},{"name":"fh_id","type":"int","value":100},{"name":"x1","type":"int","value":-560},{"name":"x2","type":"int","value":-545},{"name":"y1","type":"int","value":63},{"name":"y2","type":"int","value":60},{"name":"next","type":"int","value":101},{"name":"prev","type":"int","value":99}],"polyline":[{"x":0,"y":0},{"x":15,"y":-3}]},{"id":1725,"x":-545,"y":60,"visible":true,"properties":[{"name":"layer","type":"int","value":1},{"name":"group","type":"int","value":94},{"name":"id","type":"int","value":101},{"name":"fh_layer","type":"int","value":1},{"name":"fh_group","type":"int","value":94},{"name":"fh_id","type":"int","value":101},{"name":"x1","type":"int","value":-545},{"name":"x2","type":"int","value":-538},{"name":"y1","type":"int","value":60},{"name":"y2","type":"int","value":51},{"name":"next","type":"int","value":102},{"name":"prev","type":"int","value":100}],"polyline":[{"x":0,"y":0},{"x":7,"y":-9}]},{"id":1726,"x":-538,"y":51,"visible":true,"properties":[{"name":"layer","type":"int","value":1},{"name":"group","type":"int","value":94},{"name":"id","type":"int","value":102},{"name":"fh_layer","type":"int","value":1},{"name":"fh_group","type":"int","value":94},{"name":"fh_id","type":"int","value":102},{"name":"x1","type":"int","value":-538},{"name":"x2","type":"int","value":-522},{"name":"y1","type":"int","value":51},{"name":"y2","type":"int","value":45},{"name":"next","type":"int","value":103},{"name":"prev","type":"int","value":101}],"polyline":[{"x":0,"y":0},{"x":16,"y":-6}]},{"id":1727,"x":-522,"y":45,"visible":true,"properties":[{"name":"layer","type":"int","value":1},{"name":"group","type":"int","value":94},{"name":"id","type":"int","value":103},{"name":"fh_layer","type":"int","value":1},{"name":"fh_group","type":"int","value":94},{"name":"fh_id","type":"int","value":103},{"name":"x1","type":"int","value":-522},{"name":"x2","type":"int","value":-521},{"name":"y1","type":"int","value":45},{"name":"y2","type":"int","value":33},{"name":"next","type":"int","value":104},{"name":"prev","type":"int","value":102}],"polyline":[{"x":0,"y":0},{"x":1,"y":-12}]},{"id":1728,"x":-521,"y":33,"visible":true,"properties":[{"name":"layer","type":"int","value":1},{"name":"group","type":"int","value":94},{"name":"id","type":"int","value":104},{"name":"fh_layer","type":"int","value":1},{"name":"fh_group","type":"int","value":94},{"name":"fh_id","type":"int","value":104},{"name":"x1","type":"int","value":-521},{"name":"x2","type":"int","value":-493},{"name":"y1","type":"int","value":33},{"name":"y2","type":"int","value":11},{"name":"next","type":"int","value":105},{"name":"prev","type":"int","value":103}],"polyline":[{"x":0,"y":0},{"x":28,"y":-22}]},{"id":1729,"x":-493,"y":11,"visible":true,"properties":[{"name":"layer","type":"int","value":1},{"name":"group","type":"int","value":94},{"name":"id","type":"int","value":105},{"name":"fh_layer","type":"int","value":1},{"name":"fh_group","type":"int","value":94},{"name":"fh_id","type":"int","value":105},{"name":"x1","type":"int","value":-493},{"name":"x2","type":"int","value":-477},{"name":"y1","type":"int","value":11},{"name":"y2","type":"int","value":24},{"name":"next","type":"int","value":106},{"name":"prev","type":"int","value":104}],"polyline":[{"x":0,"y":0},{"x":16,"y":13}]},{"id":1730,"x":-477,"y":24,"visible":true,"properties":[{"name":"layer","type":"int","value":1},{"name":"group","type":"int","value":94},{"name":"id","type":"int","value":106},{"name":"fh_layer","type":"int","value":1},{"name":"fh_group","type":"int","value":94},{"name":"fh_id","type":"int","value":106},{"name":"x1","type":"int","value":-477},{"name":"x2","type":"int","value":-461},{"name":"y1","type":"int","value":24},{"name":"y2","type":"int","value":27},{"name":"next","type":"int","value":107},{"name":"prev","type":"int","value":105}],"polyline":[{"x":0,"y":0},{"x":16,"y":3}]},{"id":1731,"x":-461,"y":27,"visible":true,"properties":[{"name":"layer","type":"int","value":1},{"name":"group","type":"int","value":94},{"name":"id","type":"int","value":107},{"name":"fh_layer","type":"int","value":1},{"name":"fh_group","type":"int","value":94},{"name":"fh_id","type":"int","value":107},{"name":"x1","type":"int","value":-461},{"name":"x2","type":"int","value":-421},{"name":"y1","type":"int","value":27},{"name":"y2","type":"int","value":14},{"name":"next","type":"int","value":108},{"name":"prev","type":"int","value":106}],"polyline":[{"x":0,"y":0},{"x":40,"y":-13}]},{"id":1732,"x":-421,"y":14,"visible":true,"properties":[{"name":"layer","type":"int","value":1},{"name":"group","type":"int","value":94},{"name":"id","type":"int","value":108},{"name":"fh_layer","type":"int","value":1},{"name":"fh_group","type":"int","value":94},{"name":"fh_id","type":"int","value":108},{"name":"x1","type":"int","value":-421},{"name":"x2","type":"int","value":-400},{"name":"y1","type":"int","value":14},{"name":"y2","type":"int","value":24},{"name":"next","type":"int","value":109},{"name":"prev","type":"int","value":107}],"polyline":[{"x":0,"y":0},{"x":21,"y":10}]},{"id":1733,"x":-400,"y":24,"visible":true,"properties":[{"name":"layer","type":"int","value":1},{"name":"group","type":"int","value":94},{"name":"id","type":"int","value":109},{"name":"fh_layer","type":"int","value":1},{"name":"fh_group","type":"int","value":94},{"name":"fh_id","type":"int","value":109},{"name":"x1","type":"int","value":-400},{"name":"x2","type":"int","value":-381},{"name":"y1","type":"int","value":24},{"name":"y2","type":"int","value":24},{"name":"next","type":"int","value":110},{"name":"prev","type":"int","value":108}],"polyline":[{"x":0,"y":0},{"x":19,"y":0}]},{"id":1734,"x":-381,"y":24,"visible":true,"properties":[{"name":"layer","type":"int","value":1},{"name":"group","type":"int","value":94},{"name":"id","type":"int","value":110},{"name":"fh_layer","type":"int","value":1},{"name":"fh_group","type":"int","value":94},{"name":"fh_id","type":"int","value":110},{"name":"x1","type":"int","value":-381},{"name":"x2","type":"int","value":-365},{"name":"y1","type":"int","value":24},{"name":"y2","type":"int","value":18},{"name":"next","type":"int","value":111},{"name":"prev","type":"int","value":109}],"polyline":[{"x":0,"y":0},{"x":16,"y":-6}]},{"id":1735,"x":-365,"y":18,"visible":true,"properties":[{"name":"layer","type":"int","value":1},{"name":"group","type":"int","value":94},{"name":"id","type":"int","value":111},{"name":"fh_layer","type":"int","value":1},{"name":"fh_group","type":"int","value":94},{"name":"fh_id","type":"int","value":111},{"name":"x1","type":"int","value":-365},{"name":"x2","type":"int","value":-352},{"name":"y1","type":"int","value":18},{"name":"y2","type":"int","value":27},{"name":"next","type":"int","value":112},{"name":"prev","type":"int","value":110}],"polyline":[{"x":0,"y":0},{"x":13,"y":9}]},{"id":1736,"x":-352,"y":27,"visible":true,"properties":[{"name":"layer","type":"int","value":1},{"name":"group","type":"int","value":94},{"name":"id","type":"int","value":112},{"name":"fh_layer","type":"int","value":1},{"name":"fh_group","type":"int","value":94},{"name":"fh_id","type":"int","value":112},{"name":"x1","type":"int","value":-352},{"name":"x2","type":"int","value":-345},{"name":"y1","type":"int","value":27},{"name":"y2","type":"int","value":58},{"name":"next","type":"int","value":113},{"name":"prev","type":"int","value":111}],"polyline":[{"x":0,"y":0},{"x":7,"y":31}]},{"id":1737,"x":-345,"y":58,"visible":true,"properties":[{"name":"layer","type":"int","value":1},{"name":"group","type":"int","value":94},{"name":"id","type":"int","value":113},{"name":"fh_layer","type":"int","value":1},{"name":"fh_group","type":"int","value":94},{"name":"fh_id","type":"int","value":113},{"name":"x1","type":"int","value":-345},{"name":"x2","type":"int","value":-288},{"name":"y1","type":"int","value":58},{"name":"y2","type":"int","value":93},{"name":"next","type":"int","value":0},{"name":"prev","type":"int","value":112}],"polyline":[{"x":0,"y":0},{"x":57,"y":35}]},{"id":1738,"x":-279,"y":109,"visible":true,"properties":[{"name":"layer","type":"int","value":1},{"name":"group","type":"int","value":94},{"name":"id","type":"int","value":114},{"name":"fh_layer","type":"int","value":1},{"name":"fh_group","type":"int","value":94},{"name":"fh_id","type":"int","value":114},{"name":"x1","type":"int","value":-279},{"name":"x2","type":"int","value":-274},{"name":"y1","type":"int","value":109},{"name":"y2","type":"int","value":109},{"name":"next","type":"int","value":116},{"name":"prev","type":"int","value":52}],"polyline":[{"x":0,"y":0},{"x":5,"y":0}]},{"id":1739,"x":-274,"y":109,"visible":true,"properties":[{"name":"layer","type":"int","value":1},{"name":"group","type":"int","value":94},{"name":"id","type":"int","value":115},{"name":"fh_layer","type":"int","value":1},{"name":"fh_group","type":"int","value":94},{"name":"fh_id","type":"int","value":115},{"name":"x1","type":"int","value":-274},{"name":"x2","type":"int","value":-270},{"name":"y1","type":"int","value":109},{"name":"y2","type":"int","value":110},{"name":"next","type":"int","value":90},{"name":"prev","type":"int","value":114}],"polyline":[{"x":0,"y":0},{"x":4,"y":1}]},{"id":1740,"x":-274,"y":109,"visible":true,"properties":[{"name":"layer","type":"int","value":1},{"name":"group","type":"int","value":94},{"name":"id","type":"int","value":116},{"name":"fh_layer","type":"int","value":1},{"name":"fh_group","type":"int","value":94},{"name":"fh_id","type":"int","value":116},{"name":"x1","type":"int","value":-274},{"name":"x2","type":"int","value":-268},{"name":"y1","type":"int","value":109},{"name":"y2","type":"int","value":110},{"name":"next","type":"int","value":117},{"name":"prev","type":"int","value":114}],"polyline":[{"x":0,"y":0},{"x":6,"y":1}]},{"id":1741,"x":-268,"y":110,"visible":true,"properties":[{"name":"layer","type":"int","value":1},{"name":"group","type":"int","value":94},{"name":"id","type":"int","value":117},{"name":"fh_layer","type":"int","value":1},{"name":"fh_group","type":"int","value":94},{"name":"fh_id","type":"int","value":117},{"name":"x1","type":"int","value":-268},{"name":"x2","type":"int","value":-250},{"name":"y1","type":"int","value":110},{"name":"y2","type":"int","value":111},{"name":"next","type":"int","value":91},{"name":"prev","type":"int","value":116}],"polyline":[{"x":0,"y":0},{"x":18,"y":1}]},{"id":1742,"x":-244,"y":115,"visible":true,"properties":[{"name":"layer","type":"int","value":1},{"name":"group","type":"int","value":94},{"name":"id","type":"int","value":118},{"name":"fh_layer","type":"int","value":1},{"name":"fh_group","type":"int","value":94},{"name":"fh_id","type":"int","value":118},{"name":"x1","type":"int","value":-244},{"name":"x2","type":"int","value":-235},{"name":"y1","type":"int","value":115},{"name":"y2","type":"int","value":121},{"name":"next","type":"int","value":92},{"name":"prev","type":"int","value":91}],"polyline":[{"x":0,"y":0},{"x":9,"y":6}]},{"id":1743,"x":-244,"y":115,"visible":true,"properties":[{"name":"layer","type":"int","value":1},{"name":"group","type":"int","value":94},{"name":"id","type":"int","value":119},{"name":"fh_layer","type":"int","value":1},{"name":"fh_group","type":"int","value":94},{"name":"fh_id","type":"int","value":119},{"name":"x1","type":"int","value":-244},{"name":"x2","type":"int","value":-238},{"name":"y1","type":"int","value":115},{"name":"y2","type":"int","value":116},{"name":"next","type":"int","value":120},{"name":"prev","type":"int","value":91}],"polyline":[{"x":0,"y":0},{"x":6,"y":1}]},{"id":1744,"x":-238,"y":116,"visible":true,"properties":[{"name":"layer","type":"int","value":1},{"name":"group","type":"int","value":94},{"name":"id","type":"int","value":120},{"name":"fh_layer","type":"int","value":1},{"name":"fh_group","type":"int","value":94},{"name":"fh_id","type":"int","value":120},{"name":"x1","type":"int","value":-238},{"name":"x2","type":"int","value":-233},{"name":"y1","type":"int","value":116},{"name":"y2","type":"int","value":122},{"name":"next","type":"int","value":121},{"name":"prev","type":"int","value":119}],"polyline":[{"x":0,"y":0},{"x":5,"y":6}]},{"id":1745,"x":-233,"y":122,"visible":true,"properties":[{"name":"layer","type":"int","value":1},{"name":"group","type":"int","value":94},{"name":"id","type":"int","value":121},{"name":"fh_layer","type":"int","value":1},{"name":"fh_group","type":"int","value":94},{"name":"fh_id","type":"int","value":121},{"name":"x1","type":"int","value":-233},{"name":"x2","type":"int","value":-214},{"name":"y1","type":"int","value":122},{"name":"y2","type":"int","value":132},{"name":"next","type":"int","value":93},{"name":"prev","type":"int","value":120}],"polyline":[{"x":0,"y":0},{"x":19,"y":10}]},{"id":1746,"x":27,"y":290,"visible":true,"properties":[{"name":"layer","type":"int","value":1},{"name":"group","type":"int","value":94},{"name":"id","type":"int","value":122},{"name":"fh_layer","type":"int","value":1},{"name":"fh_group","type":"int","value":94},{"name":"fh_id","type":"int","value":122},{"name":"x1","type":"int","value":27},{"name":"x2","type":"int","value":43},{"name":"y1","type":"int","value":290},{"name":"y2","type":"int","value":290},{"name":"next","type":"int","value":83},{"name":"prev","type":"int","value":82}],"polyline":[{"x":0,"y":0},{"x":16,"y":0}]},{"id":1747,"x":171,"y":525,"visible":true,"properties":[{"name":"layer","type":"int","value":1},{"name":"group","type":"int","value":97},{"name":"id","type":"int","value":695},{"name":"fh_layer","type":"int","value":1},{"name":"fh_group","type":"int","value":97},{"name":"fh_id","type":"int","value":695},{"name":"x1","type":"int","value":171},{"name":"x2","type":"int","value":182},{"name":"y1","type":"int","value":525},{"name":"y2","type":"int","value":533},{"name":"next","type":"int","value":0},{"name":"prev","type":"int","value":696}],"polyline":[{"x":0,"y":0},{"x":11,"y":8}]},{"id":1748,"x":157,"y":521,"visible":true,"properties":[{"name":"layer","type":"int","value":1},{"name":"group","type":"int","value":97},{"name":"id","type":"int","value":696},{"name":"fh_layer","type":"int","value":1},{"name":"fh_group","type":"int","value":97},{"name":"fh_id","type":"int","value":696},{"name":"x1","type":"int","value":157},{"name":"x2","type":"int","value":171},{"name":"y1","type":"int","value":521},{"name":"y2","type":"int","value":525},{"name":"next","type":"int","value":695},{"name":"prev","type":"int","value":697}],"polyline":[{"x":0,"y":0},{"x":14,"y":4}]},{"id":1749,"x":149,"y":527,"visible":true,"properties":[{"name":"layer","type":"int","value":1},{"name":"group","type":"int","value":97},{"name":"id","type":"int","value":697},{"name":"fh_layer","type":"int","value":1},{"name":"fh_group","type":"int","value":97},{"name":"fh_id","type":"int","value":697},{"name":"x1","type":"int","value":149},{"name":"x2","type":"int","value":157},{"name":"y1","type":"int","value":527},{"name":"y2","type":"int","value":521},{"name":"next","type":"int","value":696},{"name":"prev","type":"int","value":698}],"polyline":[{"x":0,"y":0},{"x":8,"y":-6}]},{"id":1750,"x":82,"y":522,"visible":true,"properties":[{"name":"layer","type":"int","value":1},{"name":"group","type":"int","value":97},{"name":"id","type":"int","value":698},{"name":"fh_layer","type":"int","value":1},{"name":"fh_group","type":"int","value":97},{"name":"fh_id","type":"int","value":698},{"name":"x1","type":"int","value":82},{"name":"x2","type":"int","value":149},{"name":"y1","type":"int","value":522},{"name":"y2","type":"int","value":527},{"name":"next","type":"int","value":697},{"name":"prev","type":"int","value":699}],"polyline":[{"x":0,"y":0},{"x":67,"y":5}]},{"id":1751,"x":64,"y":527,"visible":true,"properties":[{"name":"layer","type":"int","value":1},{"name":"group","type":"int","value":97},{"name":"id","type":"int","value":699},{"name":"fh_layer","type":"int","value":1},{"name":"fh_group","type":"int","value":97},{"name":"fh_id","type":"int","value":699},{"name":"x1","type":"int","value":64},{"name":"x2","type":"int","value":82},{"name":"y1","type":"int","value":527},{"name":"y2","type":"int","value":522},{"name":"next","type":"int","value":698},{"name":"prev","type":"int","value":700}],"polyline":[{"x":0,"y":0},{"x":18,"y":-5}]},{"id":1752,"x":-2,"y":518,"visible":true,"properties":[{"name":"layer","type":"int","value":1},{"name":"group","type":"int","value":97},{"name":"id","type":"int","value":700},{"name":"fh_layer","type":"int","value":1},{"name":"fh_group","type":"int","value":97},{"name":"fh_id","type":"int","value":700},{"name":"x1","type":"int","value":-2},{"name":"x2","type":"int","value":64},{"name":"y1","type":"int","value":518},{"name":"y2","type":"int","value":527},{"name":"next","type":"int","value":699},{"name":"prev","type":"int","value":0}],"polyline":[{"x":0,"y":0},{"x":66,"y":9}]},{"id":1753,"x":97,"y":576,"visible":true,"properties":[{"name":"layer","type":"int","value":1},{"name":"group","type":"int","value":97},{"name":"id","type":"int","value":701},{"name":"fh_layer","type":"int","value":1},{"name":"fh_group","type":"int","value":97},{"name":"fh_id","type":"int","value":701},{"name":"x1","type":"int","value":97},{"name":"x2","type":"int","value":105},{"name":"y1","type":"int","value":576},{"name":"y2","type":"int","value":582},{"name":"next","type":"int","value":0},{"name":"prev","type":"int","value":702}],"polyline":[{"x":0,"y":0},{"x":8,"y":6}]},{"id":1754,"x":75,"y":576,"visible":true,"properties":[{"name":"layer","type":"int","value":1},{"name":"group","type":"int","value":97},{"name":"id","type":"int","value":702},{"name":"fh_layer","type":"int","value":1},{"name":"fh_group","type":"int","value":97},{"name":"fh_id","type":"int","value":702},{"name":"x1","type":"int","value":75},{"name":"x2","type":"int","value":97},{"name":"y1","type":"int","value":576},{"name":"y2","type":"int","value":576},{"name":"next","type":"int","value":701},{"name":"prev","type":"int","value":703}],"polyline":[{"x":0,"y":0},{"x":22,"y":0}]},{"id":1755,"x":69,"y":572,"visible":true,"properties":[{"name":"layer","type":"int","value":1},{"name":"group","type":"int","value":97},{"name":"id","type":"int","value":703},{"name":"fh_layer","type":"int","value":1},{"name":"fh_group","type":"int","value":97},{"name":"fh_id","type":"int","value":703},{"name":"x1","type":"int","value":69},{"name":"x2","type":"int","value":75},{"name":"y1","type":"int","value":572},{"name":"y2","type":"int","value":576},{"name":"next","type":"int","value":702},{"name":"prev","type":"int","value":704}],"polyline":[{"x":0,"y":0},{"x":6,"y":4}]},{"id":1756,"x":30,"y":571,"visible":true,"properties":[{"name":"layer","type":"int","value":1},{"name":"group","type":"int","value":97},{"name":"id","type":"int","value":704},{"name":"fh_layer","type":"int","value":1},{"name":"fh_group","type":"int","value":97},{"name":"fh_id","type":"int","value":704},{"name":"x1","type":"int","value":30},{"name":"x2","type":"int","value":69},{"name":"y1","type":"int","value":571},{"name":"y2","type":"int","value":572},{"name":"next","type":"int","value":703},{"name":"prev","type":"int","value":705}],"polyline":[{"x":0,"y":0},{"x":39,"y":1}]},{"id":1757,"x":16,"y":576,"visible":true,"properties":[{"name":"layer","type":"int","value":1},{"name":"group","type":"int","value":97},{"name":"id","type":"int","value":705},{"name":"fh_layer","type":"int","value":1},{"name":"fh_group","type":"int","value":97},{"name":"fh_id","type":"int","value":705},{"name":"x1","type":"int","value":16},{"name":"x2","type":"int","value":30},{"name":"y1","type":"int","value":576},{"name":"y2","type":"int","value":571},{"name":"next","type":"int","value":704},{"name":"prev","type":"int","value":706}],"polyline":[{"x":0,"y":0},{"x":14,"y":-5}]},{"id":1758,"x":-4,"y":569,"visible":true,"properties":[{"name":"layer","type":"int","value":1},{"name":"group","type":"int","value":97},{"name":"id","type":"int","value":706},{"name":"fh_layer","type":"int","value":1},{"name":"fh_group","type":"int","value":97},{"name":"fh_id","type":"int","value":706},{"name":"x1","type":"int","value":-4},{"name":"x2","type":"int","value":16},{"name":"y1","type":"int","value":569},{"name":"y2","type":"int","value":576},{"name":"next","type":"int","value":705},{"name":"prev","type":"int","value":707}],"polyline":[{"x":0,"y":0},{"x":20,"y":7}]},{"id":1759,"x":-4,"y":519,"visible":true,"properties":[{"name":"layer","type":"int","value":1},{"name":"group","type":"int","value":97},{"name":"id","type":"int","value":707},{"name":"fh_layer","type":"int","value":1},{"name":"fh_group","type":"int","value":97},{"name":"fh_id","type":"int","value":707},{"name":"x1","type":"int","value":-4},{"name":"x2","type":"int","value":-4},{"name":"y1","type":"int","value":519},{"name":"y2","type":"int","value":569},{"name":"next","type":"int","value":706},{"name":"prev","type":"int","value":0}],"polyline":[{"x":0,"y":0},{"x":0,"y":50}]},{"id":1760,"x":434,"y":541,"visible":true,"properties":[{"name":"layer","type":"int","value":1},{"name":"group","type":"int","value":100},{"name":"id","type":"int","value":742},{"name":"fh_layer","type":"int","value":1},{"name":"fh_group","type":"int","value":100},{"name":"fh_id","type":"int","value":742},{"name":"x1","type":"int","value":434},{"name":"x2","type":"int","value":456},{"name":"y1","type":"int","value":541},{"name":"y2","type":"int","value":539},{"name":"next","type":"int","value":743},{"name":"prev","type":"int","value":0}],"polyline":[{"x":0,"y":0},{"x":22,"y":-2}]},{"id":1761,"x":456,"y":539,"visible":true,"properties":[{"name":"layer","type":"int","value":1},{"name":"group","type":"int","value":100},{"name":"id","type":"int","value":743},{"name":"fh_layer","type":"int","value":1},{"name":"fh_group","type":"int","value":100},{"name":"fh_id","type":"int","value":743},{"name":"x1","type":"int","value":456},{"name":"x2","type":"int","value":469},{"name":"y1","type":"int","value":539},{"name":"y2","type":"int","value":546},{"name":"next","type":"int","value":744},{"name":"prev","type":"int","value":742}],"polyline":[{"x":0,"y":0},{"x":13,"y":7}]},{"id":1762,"x":469,"y":546,"visible":true,"properties":[{"name":"layer","type":"int","value":1},{"name":"group","type":"int","value":100},{"name":"id","type":"int","value":744},{"name":"fh_layer","type":"int","value":1},{"name":"fh_group","type":"int","value":100},{"name":"fh_id","type":"int","value":744},{"name":"x1","type":"int","value":469},{"name":"x2","type":"int","value":524},{"name":"y1","type":"int","value":546},{"name":"y2","type":"int","value":539},{"name":"next","type":"int","value":745},{"name":"prev","type":"int","value":743}],"polyline":[{"x":0,"y":0},{"x":55,"y":-7}]},{"id":1763,"x":524,"y":539,"visible":true,"properties":[{"name":"layer","type":"int","value":1},{"name":"group","type":"int","value":100},{"name":"id","type":"int","value":745},{"name":"fh_layer","type":"int","value":1},{"name":"fh_group","type":"int","value":100},{"name":"fh_id","type":"int","value":745},{"name":"x1","type":"int","value":524},{"name":"x2","type":"int","value":553},{"name":"y1","type":"int","value":539},{"name":"y2","type":"int","value":545},{"name":"next","type":"int","value":746},{"name":"prev","type":"int","value":744}],"polyline":[{"x":0,"y":0},{"x":29,"y":6}]},{"id":1764,"x":553,"y":545,"visible":true,"properties":[{"name":"layer","type":"int","value":1},{"name":"group","type":"int","value":100},{"name":"id","type":"int","value":746},{"name":"fh_layer","type":"int","value":1},{"name":"fh_group","type":"int","value":100},{"name":"fh_id","type":"int","value":746},{"name":"x1","type":"int","value":553},{"name":"x2","type":"int","value":570},{"name":"y1","type":"int","value":545},{"name":"y2","type":"int","value":537},{"name":"next","type":"int","value":747},{"name":"prev","type":"int","value":745}],"polyline":[{"x":0,"y":0},{"x":17,"y":-8}]},{"id":1765,"x":570,"y":537,"visible":true,"properties":[{"name":"layer","type":"int","value":1},{"name":"group","type":"int","value":100},{"name":"id","type":"int","value":747},{"name":"fh_layer","type":"int","value":1},{"name":"fh_group","type":"int","value":100},{"name":"fh_id","type":"int","value":747},{"name":"x1","type":"int","value":570},{"name":"x2","type":"int","value":598},{"name":"y1","type":"int","value":537},{"name":"y2","type":"int","value":542},{"name":"next","type":"int","value":0},{"name":"prev","type":"int","value":746}],"polyline":[{"x":0,"y":0},{"x":28,"y":5}]},{"id":1766,"x":1048,"y":502,"visible":true,"properties":[{"name":"layer","type":"int","value":1},{"name":"group","type":"int","value":101},{"name":"id","type":"int","value":754},{"name":"fh_layer","type":"int","value":1},{"name":"fh_group","type":"int","value":101},{"name":"fh_id","type":"int","value":754},{"name":"x1","type":"int","value":1048},{"name":"x2","type":"int","value":1097},{"name":"y1","type":"int","value":502},{"name":"y2","type":"int","value":487},{"name":"next","type":"int","value":755},{"name":"prev","type":"int","value":0}],"polyline":[{"x":0,"y":0},{"x":49,"y":-15}]},{"id":1767,"x":1097,"y":487,"visible":true,"properties":[{"name":"layer","type":"int","value":1},{"name":"group","type":"int","value":101},{"name":"id","type":"int","value":755},{"name":"fh_layer","type":"int","value":1},{"name":"fh_group","type":"int","value":101},{"name":"fh_id","type":"int","value":755},{"name":"x1","type":"int","value":1097},{"name":"x2","type":"int","value":1189},{"name":"y1","type":"int","value":487},{"name":"y2","type":"int","value":485},{"name":"next","type":"int","value":756},{"name":"prev","type":"int","value":754}],"polyline":[{"x":0,"y":0},{"x":92,"y":-2}]},{"id":1768,"x":1189,"y":485,"visible":true,"properties":[{"name":"layer","type":"int","value":1},{"name":"group","type":"int","value":101},{"name":"id","type":"int","value":756},{"name":"fh_layer","type":"int","value":1},{"name":"fh_group","type":"int","value":101},{"name":"fh_id","type":"int","value":756},{"name":"x1","type":"int","value":1189},{"name":"x2","type":"int","value":1205},{"name":"y1","type":"int","value":485},{"name":"y2","type":"int","value":491},{"name":"next","type":"int","value":757},{"name":"prev","type":"int","value":755}],"polyline":[{"x":0,"y":0},{"x":16,"y":6}]},{"id":1769,"x":1205,"y":491,"visible":true,"properties":[{"name":"layer","type":"int","value":1},{"name":"group","type":"int","value":101},{"name":"id","type":"int","value":757},{"name":"fh_layer","type":"int","value":1},{"name":"fh_group","type":"int","value":101},{"name":"fh_id","type":"int","value":757},{"name":"x1","type":"int","value":1205},{"name":"x2","type":"int","value":1235},{"name":"y1","type":"int","value":491},{"name":"y2","type":"int","value":497},{"name":"next","type":"int","value":758},{"name":"prev","type":"int","value":756}],"polyline":[{"x":0,"y":0},{"x":30,"y":6}]},{"id":1770,"x":1235,"y":497,"visible":true,"properties":[{"name":"layer","type":"int","value":1},{"name":"group","type":"int","value":101},{"name":"id","type":"int","value":758},{"name":"fh_layer","type":"int","value":1},{"name":"fh_group","type":"int","value":101},{"name":"fh_id","type":"int","value":758},{"name":"x1","type":"int","value":1235},{"name":"x2","type":"int","value":1244},{"name":"y1","type":"int","value":497},{"name":"y2","type":"int","value":496},{"name":"next","type":"int","value":759},{"name":"prev","type":"int","value":757}],"polyline":[{"x":0,"y":0},{"x":9,"y":-1}]},{"id":1771,"x":1244,"y":496,"visible":true,"properties":[{"name":"layer","type":"int","value":1},{"name":"group","type":"int","value":101},{"name":"id","type":"int","value":759},{"name":"fh_layer","type":"int","value":1},{"name":"fh_group","type":"int","value":101},{"name":"fh_id","type":"int","value":759},{"name":"x1","type":"int","value":1244},{"name":"x2","type":"int","value":1261},{"name":"y1","type":"int","value":496},{"name":"y2","type":"int","value":503},{"name":"next","type":"int","value":760},{"name":"prev","type":"int","value":758}],"polyline":[{"x":0,"y":0},{"x":17,"y":7}]},{"id":1772,"x":1261,"y":503,"visible":true,"properties":[{"name":"layer","type":"int","value":1},{"name":"group","type":"int","value":101},{"name":"id","type":"int","value":760},{"name":"fh_layer","type":"int","value":1},{"name":"fh_group","type":"int","value":101},{"name":"fh_id","type":"int","value":760},{"name":"x1","type":"int","value":1261},{"name":"x2","type":"int","value":1286},{"name":"y1","type":"int","value":503},{"name":"y2","type":"int","value":502},{"name":"next","type":"int","value":761},{"name":"prev","type":"int","value":759}],"polyline":[{"x":0,"y":0},{"x":25,"y":-1}]},{"id":1773,"x":1286,"y":502,"visible":true,"properties":[{"name":"layer","type":"int","value":1},{"name":"group","type":"int","value":101},{"name":"id","type":"int","value":761},{"name":"fh_layer","type":"int","value":1},{"name":"fh_group","type":"int","value":101},{"name":"fh_id","type":"int","value":761},{"name":"x1","type":"int","value":1286},{"name":"x2","type":"int","value":1300},{"name":"y1","type":"int","value":502},{"name":"y2","type":"int","value":495},{"name":"next","type":"int","value":762},{"name":"prev","type":"int","value":760}],"polyline":[{"x":0,"y":0},{"x":14,"y":-7}]},{"id":1774,"x":1300,"y":495,"visible":true,"properties":[{"name":"layer","type":"int","value":1},{"name":"group","type":"int","value":101},{"name":"id","type":"int","value":762},{"name":"fh_layer","type":"int","value":1},{"name":"fh_group","type":"int","value":101},{"name":"fh_id","type":"int","value":762},{"name":"x1","type":"int","value":1300},{"name":"x2","type":"int","value":1335},{"name":"y1","type":"int","value":495},{"name":"y2","type":"int","value":491},{"name":"next","type":"int","value":763},{"name":"prev","type":"int","value":761}],"polyline":[{"x":0,"y":0},{"x":35,"y":-4}]},{"id":1775,"x":1335,"y":491,"visible":true,"properties":[{"name":"layer","type":"int","value":1},{"name":"group","type":"int","value":101},{"name":"id","type":"int","value":763},{"name":"fh_layer","type":"int","value":1},{"name":"fh_group","type":"int","value":101},{"name":"fh_id","type":"int","value":763},{"name":"x1","type":"int","value":1335},{"name":"x2","type":"int","value":1355},{"name":"y1","type":"int","value":491},{"name":"y2","type":"int","value":499},{"name":"next","type":"int","value":764},{"name":"prev","type":"int","value":762}],"polyline":[{"x":0,"y":0},{"x":20,"y":8}]},{"id":1776,"x":1355,"y":499,"visible":true,"properties":[{"name":"layer","type":"int","value":1},{"name":"group","type":"int","value":101},{"name":"id","type":"int","value":764},{"name":"fh_layer","type":"int","value":1},{"name":"fh_group","type":"int","value":101},{"name":"fh_id","type":"int","value":764},{"name":"x1","type":"int","value":1355},{"name":"x2","type":"int","value":1385},{"name":"y1","type":"int","value":499},{"name":"y2","type":"int","value":491},{"name":"next","type":"int","value":765},{"name":"prev","type":"int","value":763}],"polyline":[{"x":0,"y":0},{"x":30,"y":-8}]},{"id":1777,"x":1385,"y":491,"visible":true,"properties":[{"name":"layer","type":"int","value":1},{"name":"group","type":"int","value":101},{"name":"id","type":"int","value":765},{"name":"fh_layer","type":"int","value":1},{"name":"fh_group","type":"int","value":101},{"name":"fh_id","type":"int","value":765},{"name":"x1","type":"int","value":1385},{"name":"x2","type":"int","value":1387},{"name":"y1","type":"int","value":491},{"name":"y2","type":"int","value":491},{"name":"next","type":"int","value":766},{"name":"prev","type":"int","value":764}],"polyline":[{"x":0,"y":0},{"x":2,"y":0}]},{"id":1778,"x":1387,"y":491,"visible":true,"properties":[{"name":"layer","type":"int","value":1},{"name":"group","type":"int","value":101},{"name":"id","type":"int","value":766},{"name":"fh_layer","type":"int","value":1},{"name":"fh_group","type":"int","value":101},{"name":"fh_id","type":"int","value":766},{"name":"x1","type":"int","value":1387},{"name":"x2","type":"int","value":1431},{"name":"y1","type":"int","value":491},{"name":"y2","type":"int","value":478},{"name":"next","type":"int","value":767},{"name":"prev","type":"int","value":765}],"polyline":[{"x":0,"y":0},{"x":44,"y":-13}]},{"id":1779,"x":1431,"y":478,"visible":true,"properties":[{"name":"layer","type":"int","value":1},{"name":"group","type":"int","value":101},{"name":"id","type":"int","value":767},{"name":"fh_layer","type":"int","value":1},{"name":"fh_group","type":"int","value":101},{"name":"fh_id","type":"int","value":767},{"name":"x1","type":"int","value":1431},{"name":"x2","type":"int","value":1523},{"name":"y1","type":"int","value":478},{"name":"y2","type":"int","value":476},{"name":"next","type":"int","value":768},{"name":"prev","type":"int","value":766}],"polyline":[{"x":0,"y":0},{"x":92,"y":-2}]},{"id":1780,"x":1523,"y":476,"visible":true,"properties":[{"name":"layer","type":"int","value":1},{"name":"group","type":"int","value":101},{"name":"id","type":"int","value":768},{"name":"fh_layer","type":"int","value":1},{"name":"fh_group","type":"int","value":101},{"name":"fh_id","type":"int","value":768},{"name":"x1","type":"int","value":1523},{"name":"x2","type":"int","value":1539},{"name":"y1","type":"int","value":476},{"name":"y2","type":"int","value":482},{"name":"next","type":"int","value":769},{"name":"prev","type":"int","value":767}],"polyline":[{"x":0,"y":0},{"x":16,"y":6}]},{"id":1781,"x":1539,"y":482,"visible":true,"properties":[{"name":"layer","type":"int","value":1},{"name":"group","type":"int","value":101},{"name":"id","type":"int","value":769},{"name":"fh_layer","type":"int","value":1},{"name":"fh_group","type":"int","value":101},{"name":"fh_id","type":"int","value":769},{"name":"x1","type":"int","value":1539},{"name":"x2","type":"int","value":1571},{"name":"y1","type":"int","value":482},{"name":"y2","type":"int","value":489},{"name":"next","type":"int","value":770},{"name":"prev","type":"int","value":768}],"polyline":[{"x":0,"y":0},{"x":32,"y":7}]},{"id":1782,"x":1571,"y":489,"visible":true,"properties":[{"name":"layer","type":"int","value":1},{"name":"group","type":"int","value":101},{"name":"id","type":"int","value":770},{"name":"fh_layer","type":"int","value":1},{"name":"fh_group","type":"int","value":101},{"name":"fh_id","type":"int","value":770},{"name":"x1","type":"int","value":1571},{"name":"x2","type":"int","value":1602},{"name":"y1","type":"int","value":489},{"name":"y2","type":"int","value":497},{"name":"next","type":"int","value":0},{"name":"prev","type":"int","value":769}],"polyline":[{"x":0,"y":0},{"x":31,"y":8}]},{"id":1783,"x":1839,"y":503,"visible":true,"properties":[{"name":"layer","type":"int","value":1},{"name":"group","type":"int","value":104},{"name":"id","type":"int","value":777},{"name":"fh_layer","type":"int","value":1},{"name":"fh_group","type":"int","value":104},{"name":"fh_id","type":"int","value":777},{"name":"x1","type":"int","value":1839},{"name":"x2","type":"int","value":1856},{"name":"y1","type":"int","value":503},{"name":"y2","type":"int","value":504},{"name":"next","type":"int","value":778},{"name":"prev","type":"int","value":0}],"polyline":[{"x":0,"y":0},{"x":17,"y":1}]},{"id":1784,"x":1856,"y":504,"visible":true,"properties":[{"name":"layer","type":"int","value":1},{"name":"group","type":"int","value":104},{"name":"id","type":"int","value":778},{"name":"fh_layer","type":"int","value":1},{"name":"fh_group","type":"int","value":104},{"name":"fh_id","type":"int","value":778},{"name":"x1","type":"int","value":1856},{"name":"x2","type":"int","value":1865},{"name":"y1","type":"int","value":504},{"name":"y2","type":"int","value":501},{"name":"next","type":"int","value":779},{"name":"prev","type":"int","value":777}],"polyline":[{"x":0,"y":0},{"x":9,"y":-3}]},{"id":1785,"x":1865,"y":501,"visible":true,"properties":[{"name":"layer","type":"int","value":1},{"name":"group","type":"int","value":104},{"name":"id","type":"int","value":779},{"name":"fh_layer","type":"int","value":1},{"name":"fh_group","type":"int","value":104},{"name":"fh_id","type":"int","value":779},{"name":"x1","type":"int","value":1865},{"name":"x2","type":"int","value":1899},{"name":"y1","type":"int","value":501},{"name":"y2","type":"int","value":500},{"name":"next","type":"int","value":780},{"name":"prev","type":"int","value":778}],"polyline":[{"x":0,"y":0},{"x":34,"y":-1}]},{"id":1786,"x":1899,"y":500,"visible":true,"properties":[{"name":"layer","type":"int","value":1},{"name":"group","type":"int","value":104},{"name":"id","type":"int","value":780},{"name":"fh_layer","type":"int","value":1},{"name":"fh_group","type":"int","value":104},{"name":"fh_id","type":"int","value":780},{"name":"x1","type":"int","value":1899},{"name":"x2","type":"int","value":1915},{"name":"y1","type":"int","value":500},{"name":"y2","type":"int","value":495},{"name":"next","type":"int","value":781},{"name":"prev","type":"int","value":779}],"polyline":[{"x":0,"y":0},{"x":16,"y":-5}]},{"id":1787,"x":1915,"y":495,"visible":true,"properties":[{"name":"layer","type":"int","value":1},{"name":"group","type":"int","value":104},{"name":"id","type":"int","value":781},{"name":"fh_layer","type":"int","value":1},{"name":"fh_group","type":"int","value":104},{"name":"fh_id","type":"int","value":781},{"name":"x1","type":"int","value":1915},{"name":"x2","type":"int","value":1967},{"name":"y1","type":"int","value":495},{"name":"y2","type":"int","value":496},{"name":"next","type":"int","value":782},{"name":"prev","type":"int","value":780}],"polyline":[{"x":0,"y":0},{"x":52,"y":1}]},{"id":1788,"x":1967,"y":496,"visible":true,"properties":[{"name":"layer","type":"int","value":1},{"name":"group","type":"int","value":104},{"name":"id","type":"int","value":782},{"name":"fh_layer","type":"int","value":1},{"name":"fh_group","type":"int","value":104},{"name":"fh_id","type":"int","value":782},{"name":"x1","type":"int","value":1967},{"name":"x2","type":"int","value":1997},{"name":"y1","type":"int","value":496},{"name":"y2","type":"int","value":501},{"name":"next","type":"int","value":0},{"name":"prev","type":"int","value":781}],"polyline":[{"x":0,"y":0},{"x":30,"y":5}]},{"id":1789,"x":1645,"y":470,"visible":true,"properties":[{"name":"layer","type":"int","value":1},{"name":"group","type":"int","value":108},{"name":"id","type":"int","value":771},{"name":"fh_layer","type":"int","value":1},{"name":"fh_group","type":"int","value":108},{"name":"fh_id","type":"int","value":771},{"name":"x1","type":"int","value":1645},{"name":"x2","type":"int","value":1667},{"name":"y1","type":"int","value":470},{"name":"y2","type":"int","value":468},{"name":"next","type":"int","value":772},{"name":"prev","type":"int","value":0}],"polyline":[{"x":0,"y":0},{"x":22,"y":-2}]},{"id":1790,"x":1667,"y":468,"visible":true,"properties":[{"name":"layer","type":"int","value":1},{"name":"group","type":"int","value":108},{"name":"id","type":"int","value":772},{"name":"fh_layer","type":"int","value":1},{"name":"fh_group","type":"int","value":108},{"name":"fh_id","type":"int","value":772},{"name":"x1","type":"int","value":1667},{"name":"x2","type":"int","value":1680},{"name":"y1","type":"int","value":468},{"name":"y2","type":"int","value":475},{"name":"next","type":"int","value":773},{"name":"prev","type":"int","value":771}],"polyline":[{"x":0,"y":0},{"x":13,"y":7}]},{"id":1791,"x":1680,"y":475,"visible":true,"properties":[{"name":"layer","type":"int","value":1},{"name":"group","type":"int","value":108},{"name":"id","type":"int","value":773},{"name":"fh_layer","type":"int","value":1},{"name":"fh_group","type":"int","value":108},{"name":"fh_id","type":"int","value":773},{"name":"x1","type":"int","value":1680},{"name":"x2","type":"int","value":1735},{"name":"y1","type":"int","value":475},{"name":"y2","type":"int","value":468},{"name":"next","type":"int","value":774},{"name":"prev","type":"int","value":772}],"polyline":[{"x":0,"y":0},{"x":55,"y":-7}]},{"id":1792,"x":1735,"y":468,"visible":true,"properties":[{"name":"layer","type":"int","value":1},{"name":"group","type":"int","value":108},{"name":"id","type":"int","value":774},{"name":"fh_layer","type":"int","value":1},{"name":"fh_group","type":"int","value":108},{"name":"fh_id","type":"int","value":774},{"name":"x1","type":"int","value":1735},{"name":"x2","type":"int","value":1764},{"name":"y1","type":"int","value":468},{"name":"y2","type":"int","value":474},{"name":"next","type":"int","value":775},{"name":"prev","type":"int","value":773}],"polyline":[{"x":0,"y":0},{"x":29,"y":6}]},{"id":1793,"x":1764,"y":474,"visible":true,"properties":[{"name":"layer","type":"int","value":1},{"name":"group","type":"int","value":108},{"name":"id","type":"int","value":775},{"name":"fh_layer","type":"int","value":1},{"name":"fh_group","type":"int","value":108},{"name":"fh_id","type":"int","value":775},{"name":"x1","type":"int","value":1764},{"name":"x2","type":"int","value":1781},{"name":"y1","type":"int","value":474},{"name":"y2","type":"int","value":466},{"name":"next","type":"int","value":776},{"name":"prev","type":"int","value":774}],"polyline":[{"x":0,"y":0},{"x":17,"y":-8}]},{"id":1794,"x":1781,"y":466,"visible":true,"properties":[{"name":"layer","type":"int","value":1},{"name":"group","type":"int","value":108},{"name":"id","type":"int","value":776},{"name":"fh_layer","type":"int","value":1},{"name":"fh_group","type":"int","value":108},{"name":"fh_id","type":"int","value":776},{"name":"x1","type":"int","value":1781},{"name":"x2","type":"int","value":1809},{"name":"y1","type":"int","value":466},{"name":"y2","type":"int","value":471},{"name":"next","type":"int","value":0},{"name":"prev","type":"int","value":775}],"polyline":[{"x":0,"y":0},{"x":28,"y":5}]},{"id":1795,"x":407,"y":300,"visible":true,"properties":[{"name":"layer","type":"int","value":1},{"name":"group","type":"int","value":112},{"name":"id","type":"int","value":520},{"name":"fh_layer","type":"int","value":1},{"name":"fh_group","type":"int","value":112},{"name":"fh_id","type":"int","value":520},{"name":"x1","type":"int","value":407},{"name":"x2","type":"int","value":407},{"name":"y1","type":"int","value":300},{"name":"y2","type":"int","value":290},{"name":"next","type":"int","value":521},{"name":"prev","type":"int","value":0}],"polyline":[{"x":0,"y":0},{"x":0,"y":-10}]},{"id":1796,"x":407,"y":290,"visible":true,"properties":[{"name":"layer","type":"int","value":1},{"name":"group","type":"int","value":112},{"name":"id","type":"int","value":521},{"name":"fh_layer","type":"int","value":1},{"name":"fh_group","type":"int","value":112},{"name":"fh_id","type":"int","value":521},{"name":"x1","type":"int","value":407},{"name":"x2","type":"int","value":450},{"name":"y1","type":"int","value":290},{"name":"y2","type":"int","value":290},{"name":"next","type":"int","value":522},{"name":"prev","type":"int","value":520}],"polyline":[{"x":0,"y":0},{"x":43,"y":0}]},{"id":1797,"x":450,"y":290,"visible":true,"properties":[{"name":"layer","type":"int","value":1},{"name":"group","type":"int","value":112},{"name":"id","type":"int","value":522},{"name":"fh_layer","type":"int","value":1},{"name":"fh_group","type":"int","value":112},{"name":"fh_id","type":"int","value":522},{"name":"x1","type":"int","value":450},{"name":"x2","type":"int","value":474},{"name":"y1","type":"int","value":290},{"name":"y2","type":"int","value":271},{"name":"next","type":"int","value":523},{"name":"prev","type":"int","value":521}],"polyline":[{"x":0,"y":0},{"x":24,"y":-19}]},{"id":1798,"x":474,"y":271,"visible":true,"properties":[{"name":"layer","type":"int","value":1},{"name":"group","type":"int","value":112},{"name":"id","type":"int","value":523},{"name":"fh_layer","type":"int","value":1},{"name":"fh_group","type":"int","value":112},{"name":"fh_id","type":"int","value":523},{"name":"x1","type":"int","value":474},{"name":"x2","type":"int","value":484},{"name":"y1","type":"int","value":271},{"name":"y2","type":"int","value":252},{"name":"next","type":"int","value":524},{"name":"prev","type":"int","value":522}],"polyline":[{"x":0,"y":0},{"x":10,"y":-19}]},{"id":1799,"x":484,"y":252,"visible":true,"properties":[{"name":"layer","type":"int","value":1},{"name":"group","type":"int","value":112},{"name":"id","type":"int","value":524},{"name":"fh_layer","type":"int","value":1},{"name":"fh_group","type":"int","value":112},{"name":"fh_id","type":"int","value":524},{"name":"x1","type":"int","value":484},{"name":"x2","type":"int","value":505},{"name":"y1","type":"int","value":252},{"name":"y2","type":"int","value":241},{"name":"next","type":"int","value":525},{"name":"prev","type":"int","value":523}],"polyline":[{"x":0,"y":0},{"x":21,"y":-11}]},{"id":1800,"x":505,"y":241,"visible":true,"properties":[{"name":"layer","type":"int","value":1},{"name":"group","type":"int","value":112},{"name":"id","type":"int","value":525},{"name":"fh_layer","type":"int","value":1},{"name":"fh_group","type":"int","value":112},{"name":"fh_id","type":"int","value":525},{"name":"x1","type":"int","value":505},{"name":"x2","type":"int","value":520},{"name":"y1","type":"int","value":241},{"name":"y2","type":"int","value":231},{"name":"next","type":"int","value":526},{"name":"prev","type":"int","value":524}],"polyline":[{"x":0,"y":0},{"x":15,"y":-10}]},{"id":1801,"x":520,"y":231,"visible":true,"properties":[{"name":"layer","type":"int","value":1},{"name":"group","type":"int","value":112},{"name":"id","type":"int","value":526},{"name":"fh_layer","type":"int","value":1},{"name":"fh_group","type":"int","value":112},{"name":"fh_id","type":"int","value":526},{"name":"x1","type":"int","value":520},{"name":"x2","type":"int","value":540},{"name":"y1","type":"int","value":231},{"name":"y2","type":"int","value":230},{"name":"next","type":"int","value":546},{"name":"prev","type":"int","value":525}],"polyline":[{"x":0,"y":0},{"x":20,"y":-1}]},{"id":1802,"x":630,"y":230,"visible":true,"properties":[{"name":"layer","type":"int","value":1},{"name":"group","type":"int","value":112},{"name":"id","type":"int","value":527},{"name":"fh_layer","type":"int","value":1},{"name":"fh_group","type":"int","value":112},{"name":"fh_id","type":"int","value":527},{"name":"x1","type":"int","value":630},{"name":"x2","type":"int","value":652},{"name":"y1","type":"int","value":230},{"name":"y2","type":"int","value":226},{"name":"next","type":"int","value":528},{"name":"prev","type":"int","value":551}],"polyline":[{"x":0,"y":0},{"x":22,"y":-4}]},{"id":1803,"x":652,"y":226,"visible":true,"properties":[{"name":"layer","type":"int","value":1},{"name":"group","type":"int","value":112},{"name":"id","type":"int","value":528},{"name":"fh_layer","type":"int","value":1},{"name":"fh_group","type":"int","value":112},{"name":"fh_id","type":"int","value":528},{"name":"x1","type":"int","value":652},{"name":"x2","type":"int","value":660},{"name":"y1","type":"int","value":226},{"name":"y2","type":"int","value":219},{"name":"next","type":"int","value":529},{"name":"prev","type":"int","value":527}],"polyline":[{"x":0,"y":0},{"x":8,"y":-7}]},{"id":1804,"x":660,"y":219,"visible":true,"properties":[{"name":"layer","type":"int","value":1},{"name":"group","type":"int","value":112},{"name":"id","type":"int","value":529},{"name":"fh_layer","type":"int","value":1},{"name":"fh_group","type":"int","value":112},{"name":"fh_id","type":"int","value":529},{"name":"x1","type":"int","value":660},{"name":"x2","type":"int","value":675},{"name":"y1","type":"int","value":219},{"name":"y2","type":"int","value":215},{"name":"next","type":"int","value":530},{"name":"prev","type":"int","value":528}],"polyline":[{"x":0,"y":0},{"x":15,"y":-4}]},{"id":1805,"x":675,"y":215,"visible":true,"properties":[{"name":"layer","type":"int","value":1},{"name":"group","type":"int","value":112},{"name":"id","type":"int","value":530},{"name":"fh_layer","type":"int","value":1},{"name":"fh_group","type":"int","value":112},{"name":"fh_id","type":"int","value":530},{"name":"x1","type":"int","value":675},{"name":"x2","type":"int","value":682},{"name":"y1","type":"int","value":215},{"name":"y2","type":"int","value":216},{"name":"next","type":"int","value":531},{"name":"prev","type":"int","value":529}],"polyline":[{"x":0,"y":0},{"x":7,"y":1}]},{"id":1806,"x":682,"y":216,"visible":true,"properties":[{"name":"layer","type":"int","value":1},{"name":"group","type":"int","value":112},{"name":"id","type":"int","value":531},{"name":"fh_layer","type":"int","value":1},{"name":"fh_group","type":"int","value":112},{"name":"fh_id","type":"int","value":531},{"name":"x1","type":"int","value":682},{"name":"x2","type":"int","value":703},{"name":"y1","type":"int","value":216},{"name":"y2","type":"int","value":229},{"name":"next","type":"int","value":532},{"name":"prev","type":"int","value":530}],"polyline":[{"x":0,"y":0},{"x":21,"y":13}]},{"id":1807,"x":703,"y":229,"visible":true,"properties":[{"name":"layer","type":"int","value":1},{"name":"group","type":"int","value":112},{"name":"id","type":"int","value":532},{"name":"fh_layer","type":"int","value":1},{"name":"fh_group","type":"int","value":112},{"name":"fh_id","type":"int","value":532},{"name":"x1","type":"int","value":703},{"name":"x2","type":"int","value":720},{"name":"y1","type":"int","value":229},{"name":"y2","type":"int","value":230},{"name":"next","type":"int","value":552},{"name":"prev","type":"int","value":531}],"polyline":[{"x":0,"y":0},{"x":17,"y":1}]},{"id":1808,"x":810,"y":230,"visible":true,"properties":[{"name":"layer","type":"int","value":1},{"name":"group","type":"int","value":112},{"name":"id","type":"int","value":533},{"name":"fh_layer","type":"int","value":1},{"name":"fh_group","type":"int","value":112},{"name":"fh_id","type":"int","value":533},{"name":"x1","type":"int","value":810},{"name":"x2","type":"int","value":832},{"name":"y1","type":"int","value":230},{"name":"y2","type":"int","value":226},{"name":"next","type":"int","value":534},{"name":"prev","type":"int","value":557}],"polyline":[{"x":0,"y":0},{"x":22,"y":-4}]},{"id":1809,"x":832,"y":226,"visible":true,"properties":[{"name":"layer","type":"int","value":1},{"name":"group","type":"int","value":112},{"name":"id","type":"int","value":534},{"name":"fh_layer","type":"int","value":1},{"name":"fh_group","type":"int","value":112},{"name":"fh_id","type":"int","value":534},{"name":"x1","type":"int","value":832},{"name":"x2","type":"int","value":840},{"name":"y1","type":"int","value":226},{"name":"y2","type":"int","value":219},{"name":"next","type":"int","value":535},{"name":"prev","type":"int","value":533}],"polyline":[{"x":0,"y":0},{"x":8,"y":-7}]},{"id":1810,"x":840,"y":219,"visible":true,"properties":[{"name":"layer","type":"int","value":1},{"name":"group","type":"int","value":112},{"name":"id","type":"int","value":535},{"name":"fh_layer","type":"int","value":1},{"name":"fh_group","type":"int","value":112},{"name":"fh_id","type":"int","value":535},{"name":"x1","type":"int","value":840},{"name":"x2","type":"int","value":855},{"name":"y1","type":"int","value":219},{"name":"y2","type":"int","value":215},{"name":"next","type":"int","value":536},{"name":"prev","type":"int","value":534}],"polyline":[{"x":0,"y":0},{"x":15,"y":-4}]},{"id":1811,"x":855,"y":215,"visible":true,"properties":[{"name":"layer","type":"int","value":1},{"name":"group","type":"int","value":112},{"name":"id","type":"int","value":536},{"name":"fh_layer","type":"int","value":1},{"name":"fh_group","type":"int","value":112},{"name":"fh_id","type":"int","value":536},{"name":"x1","type":"int","value":855},{"name":"x2","type":"int","value":862},{"name":"y1","type":"int","value":215},{"name":"y2","type":"int","value":216},{"name":"next","type":"int","value":537},{"name":"prev","type":"int","value":535}],"polyline":[{"x":0,"y":0},{"x":7,"y":1}]},{"id":1812,"x":862,"y":216,"visible":true,"properties":[{"name":"layer","type":"int","value":1},{"name":"group","type":"int","value":112},{"name":"id","type":"int","value":537},{"name":"fh_layer","type":"int","value":1},{"name":"fh_group","type":"int","value":112},{"name":"fh_id","type":"int","value":537},{"name":"x1","type":"int","value":862},{"name":"x2","type":"int","value":883},{"name":"y1","type":"int","value":216},{"name":"y2","type":"int","value":229},{"name":"next","type":"int","value":538},{"name":"prev","type":"int","value":536}],"polyline":[{"x":0,"y":0},{"x":21,"y":13}]},{"id":1813,"x":883,"y":229,"visible":true,"properties":[{"name":"layer","type":"int","value":1},{"name":"group","type":"int","value":112},{"name":"id","type":"int","value":538},{"name":"fh_layer","type":"int","value":1},{"name":"fh_group","type":"int","value":112},{"name":"fh_id","type":"int","value":538},{"name":"x1","type":"int","value":883},{"name":"x2","type":"int","value":900},{"name":"y1","type":"int","value":229},{"name":"y2","type":"int","value":230},{"name":"next","type":"int","value":558},{"name":"prev","type":"int","value":537}],"polyline":[{"x":0,"y":0},{"x":17,"y":1}]},{"id":1814,"x":990,"y":230,"visible":true,"properties":[{"name":"layer","type":"int","value":1},{"name":"group","type":"int","value":112},{"name":"id","type":"int","value":539},{"name":"fh_layer","type":"int","value":1},{"name":"fh_group","type":"int","value":112},{"name":"fh_id","type":"int","value":539},{"name":"x1","type":"int","value":990},{"name":"x2","type":"int","value":1010},{"name":"y1","type":"int","value":230},{"name":"y2","type":"int","value":231},{"name":"next","type":"int","value":540},{"name":"prev","type":"int","value":563}],"polyline":[{"x":0,"y":0},{"x":20,"y":1}]},{"id":1815,"x":1010,"y":231,"visible":true,"properties":[{"name":"layer","type":"int","value":1},{"name":"group","type":"int","value":112},{"name":"id","type":"int","value":540},{"name":"fh_layer","type":"int","value":1},{"name":"fh_group","type":"int","value":112},{"name":"fh_id","type":"int","value":540},{"name":"x1","type":"int","value":1010},{"name":"x2","type":"int","value":1025},{"name":"y1","type":"int","value":231},{"name":"y2","type":"int","value":241},{"name":"next","type":"int","value":541},{"name":"prev","type":"int","value":539}],"polyline":[{"x":0,"y":0},{"x":15,"y":10}]},{"id":1816,"x":1025,"y":241,"visible":true,"properties":[{"name":"layer","type":"int","value":1},{"name":"group","type":"int","value":112},{"name":"id","type":"int","value":541},{"name":"fh_layer","type":"int","value":1},{"name":"fh_group","type":"int","value":112},{"name":"fh_id","type":"int","value":541},{"name":"x1","type":"int","value":1025},{"name":"x2","type":"int","value":1046},{"name":"y1","type":"int","value":241},{"name":"y2","type":"int","value":252},{"name":"next","type":"int","value":542},{"name":"prev","type":"int","value":540}],"polyline":[{"x":0,"y":0},{"x":21,"y":11}]},{"id":1817,"x":1046,"y":252,"visible":true,"properties":[{"name":"layer","type":"int","value":1},{"name":"group","type":"int","value":112},{"name":"id","type":"int","value":542},{"name":"fh_layer","type":"int","value":1},{"name":"fh_group","type":"int","value":112},{"name":"fh_id","type":"int","value":542},{"name":"x1","type":"int","value":1046},{"name":"x2","type":"int","value":1056},{"name":"y1","type":"int","value":252},{"name":"y2","type":"int","value":271},{"name":"next","type":"int","value":543},{"name":"prev","type":"int","value":541}],"polyline":[{"x":0,"y":0},{"x":10,"y":19}]},{"id":1818,"x":1056,"y":271,"visible":true,"properties":[{"name":"layer","type":"int","value":1},{"name":"group","type":"int","value":112},{"name":"id","type":"int","value":543},{"name":"fh_layer","type":"int","value":1},{"name":"fh_group","type":"int","value":112},{"name":"fh_id","type":"int","value":543},{"name":"x1","type":"int","value":1056},{"name":"x2","type":"int","value":1080},{"name":"y1","type":"int","value":271},{"name":"y2","type":"int","value":290},{"name":"next","type":"int","value":544},{"name":"prev","type":"int","value":542}],"polyline":[{"x":0,"y":0},{"x":24,"y":19}]},{"id":1819,"x":1080,"y":290,"visible":true,"properties":[{"name":"layer","type":"int","value":1},{"name":"group","type":"int","value":112},{"name":"id","type":"int","value":544},{"name":"fh_layer","type":"int","value":1},{"name":"fh_group","type":"int","value":112},{"name":"fh_id","type":"int","value":544},{"name":"x1","type":"int","value":1080},{"name":"x2","type":"int","value":1123},{"name":"y1","type":"int","value":290},{"name":"y2","type":"int","value":290},{"name":"next","type":"int","value":545},{"name":"prev","type":"int","value":543}],"polyline":[{"x":0,"y":0},{"x":43,"y":0}]},{"id":1820,"x":1123,"y":290,"visible":true,"properties":[{"name":"layer","type":"int","value":1},{"name":"group","type":"int","value":112},{"name":"id","type":"int","value":545},{"name":"fh_layer","type":"int","value":1},{"name":"fh_group","type":"int","value":112},{"name":"fh_id","type":"int","value":545},{"name":"x1","type":"int","value":1123},{"name":"x2","type":"int","value":1123},{"name":"y1","type":"int","value":290},{"name":"y2","type":"int","value":300},{"name":"next","type":"int","value":0},{"name":"prev","type":"int","value":544}],"polyline":[{"x":0,"y":0},{"x":0,"y":10}]},{"id":1821,"x":540,"y":230,"visible":true,"properties":[{"name":"layer","type":"int","value":1},{"name":"group","type":"int","value":112},{"name":"id","type":"int","value":546},{"name":"fh_layer","type":"int","value":1},{"name":"fh_group","type":"int","value":112},{"name":"fh_id","type":"int","value":546},{"name":"x1","type":"int","value":540},{"name":"x2","type":"int","value":562},{"name":"y1","type":"int","value":230},{"name":"y2","type":"int","value":226},{"name":"next","type":"int","value":547},{"name":"prev","type":"int","value":526}],"polyline":[{"x":0,"y":0},{"x":22,"y":-4}]},{"id":1822,"x":562,"y":226,"visible":true,"properties":[{"name":"layer","type":"int","value":1},{"name":"group","type":"int","value":112},{"name":"id","type":"int","value":547},{"name":"fh_layer","type":"int","value":1},{"name":"fh_group","type":"int","value":112},{"name":"fh_id","type":"int","value":547},{"name":"x1","type":"int","value":562},{"name":"x2","type":"int","value":570},{"name":"y1","type":"int","value":226},{"name":"y2","type":"int","value":219},{"name":"next","type":"int","value":548},{"name":"prev","type":"int","value":546}],"polyline":[{"x":0,"y":0},{"x":8,"y":-7}]},{"id":1823,"x":570,"y":219,"visible":true,"properties":[{"name":"layer","type":"int","value":1},{"name":"group","type":"int","value":112},{"name":"id","type":"int","value":548},{"name":"fh_layer","type":"int","value":1},{"name":"fh_group","type":"int","value":112},{"name":"fh_id","type":"int","value":548},{"name":"x1","type":"int","value":570},{"name":"x2","type":"int","value":585},{"name":"y1","type":"int","value":219},{"name":"y2","type":"int","value":215},{"name":"next","type":"int","value":549},{"name":"prev","type":"int","value":547}],"polyline":[{"x":0,"y":0},{"x":15,"y":-4}]},{"id":1824,"x":585,"y":215,"visible":true,"properties":[{"name":"layer","type":"int","value":1},{"name":"group","type":"int","value":112},{"name":"id","type":"int","value":549},{"name":"fh_layer","type":"int","value":1},{"name":"fh_group","type":"int","value":112},{"name":"fh_id","type":"int","value":549},{"name":"x1","type":"int","value":585},{"name":"x2","type":"int","value":592},{"name":"y1","type":"int","value":215},{"name":"y2","type":"int","value":216},{"name":"next","type":"int","value":550},{"name":"prev","type":"int","value":548}],"polyline":[{"x":0,"y":0},{"x":7,"y":1}]},{"id":1825,"x":592,"y":216,"visible":true,"properties":[{"name":"layer","type":"int","value":1},{"name":"group","type":"int","value":112},{"name":"id","type":"int","value":550},{"name":"fh_layer","type":"int","value":1},{"name":"fh_group","type":"int","value":112},{"name":"fh_id","type":"int","value":550},{"name":"x1","type":"int","value":592},{"name":"x2","type":"int","value":613},{"name":"y1","type":"int","value":216},{"name":"y2","type":"int","value":229},{"name":"next","type":"int","value":551},{"name":"prev","type":"int","value":549}],"polyline":[{"x":0,"y":0},{"x":21,"y":13}]},{"id":1826,"x":613,"y":229,"visible":true,"properties":[{"name":"layer","type":"int","value":1},{"name":"group","type":"int","value":112},{"name":"id","type":"int","value":551},{"name":"fh_layer","type":"int","value":1},{"name":"fh_group","type":"int","value":112},{"name":"fh_id","type":"int","value":551},{"name":"x1","type":"int","value":613},{"name":"x2","type":"int","value":630},{"name":"y1","type":"int","value":229},{"name":"y2","type":"int","value":230},{"name":"next","type":"int","value":527},{"name":"prev","type":"int","value":550}],"polyline":[{"x":0,"y":0},{"x":17,"y":1}]},{"id":1827,"x":720,"y":230,"visible":true,"properties":[{"name":"layer","type":"int","value":1},{"name":"group","type":"int","value":112},{"name":"id","type":"int","value":552},{"name":"fh_layer","type":"int","value":1},{"name":"fh_group","type":"int","value":112},{"name":"fh_id","type":"int","value":552},{"name":"x1","type":"int","value":720},{"name":"x2","type":"int","value":742},{"name":"y1","type":"int","value":230},{"name":"y2","type":"int","value":226},{"name":"next","type":"int","value":553},{"name":"prev","type":"int","value":532}],"polyline":[{"x":0,"y":0},{"x":22,"y":-4}]},{"id":1828,"x":742,"y":226,"visible":true,"properties":[{"name":"layer","type":"int","value":1},{"name":"group","type":"int","value":112},{"name":"id","type":"int","value":553},{"name":"fh_layer","type":"int","value":1},{"name":"fh_group","type":"int","value":112},{"name":"fh_id","type":"int","value":553},{"name":"x1","type":"int","value":742},{"name":"x2","type":"int","value":750},{"name":"y1","type":"int","value":226},{"name":"y2","type":"int","value":219},{"name":"next","type":"int","value":554},{"name":"prev","type":"int","value":552}],"polyline":[{"x":0,"y":0},{"x":8,"y":-7}]},{"id":1829,"x":750,"y":219,"visible":true,"properties":[{"name":"layer","type":"int","value":1},{"name":"group","type":"int","value":112},{"name":"id","type":"int","value":554},{"name":"fh_layer","type":"int","value":1},{"name":"fh_group","type":"int","value":112},{"name":"fh_id","type":"int","value":554},{"name":"x1","type":"int","value":750},{"name":"x2","type":"int","value":765},{"name":"y1","type":"int","value":219},{"name":"y2","type":"int","value":215},{"name":"next","type":"int","value":555},{"name":"prev","type":"int","value":553}],"polyline":[{"x":0,"y":0},{"x":15,"y":-4}]},{"id":1830,"x":765,"y":215,"visible":true,"properties":[{"name":"layer","type":"int","value":1},{"name":"group","type":"int","value":112},{"name":"id","type":"int","value":555},{"name":"fh_layer","type":"int","value":1},{"name":"fh_group","type":"int","value":112},{"name":"fh_id","type":"int","value":555},{"name":"x1","type":"int","value":765},{"name":"x2","type":"int","value":772},{"name":"y1","type":"int","value":215},{"name":"y2","type":"int","value":216},{"name":"next","type":"int","value":556},{"name":"prev","type":"int","value":554}],"polyline":[{"x":0,"y":0},{"x":7,"y":1}]},{"id":1831,"x":772,"y":216,"visible":true,"properties":[{"name":"layer","type":"int","value":1},{"name":"group","type":"int","value":112},{"name":"id","type":"int","value":556},{"name":"fh_layer","type":"int","value":1},{"name":"fh_group","type":"int","value":112},{"name":"fh_id","type":"int","value":556},{"name":"x1","type":"int","value":772},{"name":"x2","type":"int","value":793},{"name":"y1","type":"int","value":216},{"name":"y2","type":"int","value":229},{"name":"next","type":"int","value":557},{"name":"prev","type":"int","value":555}],"polyline":[{"x":0,"y":0},{"x":21,"y":13}]},{"id":1832,"x":793,"y":229,"visible":true,"properties":[{"name":"layer","type":"int","value":1},{"name":"group","type":"int","value":112},{"name":"id","type":"int","value":557},{"name":"fh_layer","type":"int","value":1},{"name":"fh_group","type":"int","value":112},{"name":"fh_id","type":"int","value":557},{"name":"x1","type":"int","value":793},{"name":"x2","type":"int","value":810},{"name":"y1","type":"int","value":229},{"name":"y2","type":"int","value":230},{"name":"next","type":"int","value":533},{"name":"prev","type":"int","value":556}],"polyline":[{"x":0,"y":0},{"x":17,"y":1}]},{"id":1833,"x":900,"y":230,"visible":true,"properties":[{"name":"layer","type":"int","value":1},{"name":"group","type":"int","value":112},{"name":"id","type":"int","value":558},{"name":"fh_layer","type":"int","value":1},{"name":"fh_group","type":"int","value":112},{"name":"fh_id","type":"int","value":558},{"name":"x1","type":"int","value":900},{"name":"x2","type":"int","value":922},{"name":"y1","type":"int","value":230},{"name":"y2","type":"int","value":226},{"name":"next","type":"int","value":559},{"name":"prev","type":"int","value":538}],"polyline":[{"x":0,"y":0},{"x":22,"y":-4}]},{"id":1834,"x":922,"y":226,"visible":true,"properties":[{"name":"layer","type":"int","value":1},{"name":"group","type":"int","value":112},{"name":"id","type":"int","value":559},{"name":"fh_layer","type":"int","value":1},{"name":"fh_group","type":"int","value":112},{"name":"fh_id","type":"int","value":559},{"name":"x1","type":"int","value":922},{"name":"x2","type":"int","value":930},{"name":"y1","type":"int","value":226},{"name":"y2","type":"int","value":219},{"name":"next","type":"int","value":560},{"name":"prev","type":"int","value":558}],"polyline":[{"x":0,"y":0},{"x":8,"y":-7}]},{"id":1835,"x":930,"y":219,"visible":true,"properties":[{"name":"layer","type":"int","value":1},{"name":"group","type":"int","value":112},{"name":"id","type":"int","value":560},{"name":"fh_layer","type":"int","value":1},{"name":"fh_group","type":"int","value":112},{"name":"fh_id","type":"int","value":560},{"name":"x1","type":"int","value":930},{"name":"x2","type":"int","value":945},{"name":"y1","type":"int","value":219},{"name":"y2","type":"int","value":215},{"name":"next","type":"int","value":561},{"name":"prev","type":"int","value":559}],"polyline":[{"x":0,"y":0},{"x":15,"y":-4}]},{"id":1836,"x":945,"y":215,"visible":true,"properties":[{"name":"layer","type":"int","value":1},{"name":"group","type":"int","value":112},{"name":"id","type":"int","value":561},{"name":"fh_layer","type":"int","value":1},{"name":"fh_group","type":"int","value":112},{"name":"fh_id","type":"int","value":561},{"name":"x1","type":"int","value":945},{"name":"x2","type":"int","value":952},{"name":"y1","type":"int","value":215},{"name":"y2","type":"int","value":216},{"name":"next","type":"int","value":562},{"name":"prev","type":"int","value":560}],"polyline":[{"x":0,"y":0},{"x":7,"y":1}]},{"id":1837,"x":952,"y":216,"visible":true,"properties":[{"name":"layer","type":"int","value":1},{"name":"group","type":"int","value":112},{"name":"id","type":"int","value":562},{"name":"fh_layer","type":"int","value":1},{"name":"fh_group","type":"int","value":112},{"name":"fh_id","type":"int","value":562},{"name":"x1","type":"int","value":952},{"name":"x2","type":"int","value":973},{"name":"y1","type":"int","value":216},{"name":"y2","type":"int","value":229},{"name":"next","type":"int","value":563},{"name":"prev","type":"int","value":561}],"polyline":[{"x":0,"y":0},{"x":21,"y":13}]},{"id":1838,"x":973,"y":229,"visible":true,"properties":[{"name":"layer","type":"int","value":1},{"name":"group","type":"int","value":112},{"name":"id","type":"int","value":563},{"name":"fh_layer","type":"int","value":1},{"name":"fh_group","type":"int","value":112},{"name":"fh_id","type":"int","value":563},{"name":"x1","type":"int","value":973},{"name":"x2","type":"int","value":990},{"name":"y1","type":"int","value":229},{"name":"y2","type":"int","value":230},{"name":"next","type":"int","value":539},{"name":"prev","type":"int","value":562}],"polyline":[{"x":0,"y":0},{"x":17,"y":1}]},{"id":1839,"x":94,"y":288,"visible":true,"properties":[{"name":"layer","type":"int","value":1},{"name":"group","type":"int","value":116},{"name":"id","type":"int","value":678},{"name":"fh_layer","type":"int","value":1},{"name":"fh_group","type":"int","value":116},{"name":"fh_id","type":"int","value":678},{"name":"x1","type":"int","value":94},{"name":"x2","type":"int","value":94},{"name":"y1","type":"int","value":288},{"name":"y2","type":"int","value":309},{"name":"next","type":"int","value":679},{"name":"prev","type":"int","value":0}],"polyline":[{"x":0,"y":0},{"x":0,"y":21}]},{"id":1840,"x":94,"y":309,"visible":true,"properties":[{"name":"layer","type":"int","value":1},{"name":"group","type":"int","value":116},{"name":"id","type":"int","value":679},{"name":"fh_layer","type":"int","value":1},{"name":"fh_group","type":"int","value":116},{"name":"fh_id","type":"int","value":679},{"name":"x1","type":"int","value":94},{"name":"x2","type":"int","value":113},{"name":"y1","type":"int","value":309},{"name":"y2","type":"int","value":309},{"name":"next","type":"int","value":680},{"name":"prev","type":"int","value":678}],"polyline":[{"x":0,"y":0},{"x":19,"y":0}]},{"id":1841,"x":113,"y":309,"visible":true,"properties":[{"name":"layer","type":"int","value":1},{"name":"group","type":"int","value":116},{"name":"id","type":"int","value":680},{"name":"fh_layer","type":"int","value":1},{"name":"fh_group","type":"int","value":116},{"name":"fh_id","type":"int","value":680},{"name":"x1","type":"int","value":113},{"name":"x2","type":"int","value":123},{"name":"y1","type":"int","value":309},{"name":"y2","type":"int","value":319},{"name":"next","type":"int","value":681},{"name":"prev","type":"int","value":679}],"polyline":[{"x":0,"y":0},{"x":10,"y":10}]},{"id":1842,"x":123,"y":319,"visible":true,"properties":[{"name":"layer","type":"int","value":1},{"name":"group","type":"int","value":116},{"name":"id","type":"int","value":681},{"name":"fh_layer","type":"int","value":1},{"name":"fh_group","type":"int","value":116},{"name":"fh_id","type":"int","value":681},{"name":"x1","type":"int","value":123},{"name":"x2","type":"int","value":141},{"name":"y1","type":"int","value":319},{"name":"y2","type":"int","value":319},{"name":"next","type":"int","value":682},{"name":"prev","type":"int","value":680}],"polyline":[{"x":0,"y":0},{"x":18,"y":0}]},{"id":1843,"x":141,"y":319,"visible":true,"properties":[{"name":"layer","type":"int","value":1},{"name":"group","type":"int","value":116},{"name":"id","type":"int","value":682},{"name":"fh_layer","type":"int","value":1},{"name":"fh_group","type":"int","value":116},{"name":"fh_id","type":"int","value":682},{"name":"x1","type":"int","value":141},{"name":"x2","type":"int","value":171},{"name":"y1","type":"int","value":319},{"name":"y2","type":"int","value":313},{"name":"next","type":"int","value":683},{"name":"prev","type":"int","value":681}],"polyline":[{"x":0,"y":0},{"x":30,"y":-6}]},{"id":1844,"x":171,"y":313,"visible":true,"properties":[{"name":"layer","type":"int","value":1},{"name":"group","type":"int","value":116},{"name":"id","type":"int","value":683},{"name":"fh_layer","type":"int","value":1},{"name":"fh_group","type":"int","value":116},{"name":"fh_id","type":"int","value":683},{"name":"x1","type":"int","value":171},{"name":"x2","type":"int","value":184},{"name":"y1","type":"int","value":313},{"name":"y2","type":"int","value":317},{"name":"next","type":"int","value":684},{"name":"prev","type":"int","value":682}],"polyline":[{"x":0,"y":0},{"x":13,"y":4}]},{"id":1845,"x":184,"y":317,"visible":true,"properties":[{"name":"layer","type":"int","value":1},{"name":"group","type":"int","value":116},{"name":"id","type":"int","value":684},{"name":"fh_layer","type":"int","value":1},{"name":"fh_group","type":"int","value":116},{"name":"fh_id","type":"int","value":684},{"name":"x1","type":"int","value":184},{"name":"x2","type":"int","value":213},{"name":"y1","type":"int","value":317},{"name":"y2","type":"int","value":315},{"name":"next","type":"int","value":685},{"name":"prev","type":"int","value":683}],"polyline":[{"x":0,"y":0},{"x":29,"y":-2}]},{"id":1846,"x":213,"y":315,"visible":true,"properties":[{"name":"layer","type":"int","value":1},{"name":"group","type":"int","value":116},{"name":"id","type":"int","value":685},{"name":"fh_layer","type":"int","value":1},{"name":"fh_group","type":"int","value":116},{"name":"fh_id","type":"int","value":685},{"name":"x1","type":"int","value":213},{"name":"x2","type":"int","value":251},{"name":"y1","type":"int","value":315},{"name":"y2","type":"int","value":312},{"name":"next","type":"int","value":686},{"name":"prev","type":"int","value":684}],"polyline":[{"x":0,"y":0},{"x":38,"y":-3}]},{"id":1847,"x":251,"y":312,"visible":true,"properties":[{"name":"layer","type":"int","value":1},{"name":"group","type":"int","value":116},{"name":"id","type":"int","value":686},{"name":"fh_layer","type":"int","value":1},{"name":"fh_group","type":"int","value":116},{"name":"fh_id","type":"int","value":686},{"name":"x1","type":"int","value":251},{"name":"x2","type":"int","value":265},{"name":"y1","type":"int","value":312},{"name":"y2","type":"int","value":317},{"name":"next","type":"int","value":687},{"name":"prev","type":"int","value":685}],"polyline":[{"x":0,"y":0},{"x":14,"y":5}]},{"id":1848,"x":265,"y":317,"visible":true,"properties":[{"name":"layer","type":"int","value":1},{"name":"group","type":"int","value":116},{"name":"id","type":"int","value":687},{"name":"fh_layer","type":"int","value":1},{"name":"fh_group","type":"int","value":116},{"name":"fh_id","type":"int","value":687},{"name":"x1","type":"int","value":265},{"name":"x2","type":"int","value":286},{"name":"y1","type":"int","value":317},{"name":"y2","type":"int","value":311},{"name":"next","type":"int","value":688},{"name":"prev","type":"int","value":686}],"polyline":[{"x":0,"y":0},{"x":21,"y":-6}]},{"id":1849,"x":286,"y":311,"visible":true,"properties":[{"name":"layer","type":"int","value":1},{"name":"group","type":"int","value":116},{"name":"id","type":"int","value":688},{"name":"fh_layer","type":"int","value":1},{"name":"fh_group","type":"int","value":116},{"name":"fh_id","type":"int","value":688},{"name":"x1","type":"int","value":286},{"name":"x2","type":"int","value":310},{"name":"y1","type":"int","value":311},{"name":"y2","type":"int","value":315},{"name":"next","type":"int","value":0},{"name":"prev","type":"int","value":687}],"polyline":[{"x":0,"y":0},{"x":24,"y":4}]},{"id":1850,"x":27,"y":290,"visible":true,"properties":[{"name":"layer","type":"int","value":1},{"name":"group","type":"int","value":116},{"name":"id","type":"int","value":689},{"name":"fh_layer","type":"int","value":1},{"name":"fh_group","type":"int","value":116},{"name":"fh_id","type":"int","value":689},{"name":"x1","type":"int","value":27},{"name":"x2","type":"int","value":82},{"name":"y1","type":"int","value":290},{"name":"y2","type":"int","value":289},{"name":"next","type":"int","value":690},{"name":"prev","type":"int","value":82}],"polyline":[{"x":0,"y":0},{"x":55,"y":-1}]},{"id":1851,"x":82,"y":289,"visible":true,"properties":[{"name":"layer","type":"int","value":1},{"name":"group","type":"int","value":116},{"name":"id","type":"int","value":690},{"name":"fh_layer","type":"int","value":1},{"name":"fh_group","type":"int","value":116},{"name":"fh_id","type":"int","value":690},{"name":"x1","type":"int","value":82},{"name":"x2","type":"int","value":109},{"name":"y1","type":"int","value":289},{"name":"y2","type":"int","value":284},{"name":"next","type":"int","value":691},{"name":"prev","type":"int","value":689}],"polyline":[{"x":0,"y":0},{"x":27,"y":-5}]},{"id":1852,"x":109,"y":284,"visible":true,"properties":[{"name":"layer","type":"int","value":1},{"name":"group","type":"int","value":116},{"name":"id","type":"int","value":691},{"name":"fh_layer","type":"int","value":1},{"name":"fh_group","type":"int","value":116},{"name":"fh_id","type":"int","value":691},{"name":"x1","type":"int","value":109},{"name":"x2","type":"int","value":138},{"name":"y1","type":"int","value":284},{"name":"y2","type":"int","value":282},{"name":"next","type":"int","value":692},{"name":"prev","type":"int","value":690}],"polyline":[{"x":0,"y":0},{"x":29,"y":-2}]},{"id":1853,"x":138,"y":282,"visible":true,"properties":[{"name":"layer","type":"int","value":1},{"name":"group","type":"int","value":116},{"name":"id","type":"int","value":692},{"name":"fh_layer","type":"int","value":1},{"name":"fh_group","type":"int","value":116},{"name":"fh_id","type":"int","value":692},{"name":"x1","type":"int","value":138},{"name":"x2","type":"int","value":155},{"name":"y1","type":"int","value":282},{"name":"y2","type":"int","value":289},{"name":"next","type":"int","value":693},{"name":"prev","type":"int","value":691}],"polyline":[{"x":0,"y":0},{"x":17,"y":7}]},{"id":1854,"x":155,"y":289,"visible":true,"properties":[{"name":"layer","type":"int","value":1},{"name":"group","type":"int","value":116},{"name":"id","type":"int","value":693},{"name":"fh_layer","type":"int","value":1},{"name":"fh_group","type":"int","value":116},{"name":"fh_id","type":"int","value":693},{"name":"x1","type":"int","value":155},{"name":"x2","type":"int","value":180},{"name":"y1","type":"int","value":289},{"name":"y2","type":"int","value":280},{"name":"next","type":"int","value":694},{"name":"prev","type":"int","value":692}],"polyline":[{"x":0,"y":0},{"x":25,"y":-9}]},{"id":1855,"x":180,"y":280,"visible":true,"properties":[{"name":"layer","type":"int","value":1},{"name":"group","type":"int","value":116},{"name":"id","type":"int","value":694},{"name":"fh_layer","type":"int","value":1},{"name":"fh_group","type":"int","value":116},{"name":"fh_id","type":"int","value":694},{"name":"x1","type":"int","value":180},{"name":"x2","type":"int","value":205},{"name":"y1","type":"int","value":280},{"name":"y2","type":"int","value":286},{"name":"next","type":"int","value":0},{"name":"prev","type":"int","value":693}],"polyline":[{"x":0,"y":0},{"x":25,"y":6}]},{"id":1856,"x":2061,"y":280,"visible":true,"properties":[{"name":"layer","type":"int","value":1},{"name":"group","type":"int","value":119},{"name":"id","type":"int","value":748},{"name":"fh_layer","type":"int","value":1},{"name":"fh_group","type":"int","value":119},{"name":"fh_id","type":"int","value":748},{"name":"x1","type":"int","value":2061},{"name":"x2","type":"int","value":2083},{"name":"y1","type":"int","value":280},{"name":"y2","type":"int","value":278},{"name":"next","type":"int","value":749},{"name":"prev","type":"int","value":0}],"polyline":[{"x":0,"y":0},{"x":22,"y":-2}]},{"id":1857,"x":2083,"y":278,"visible":true,"properties":[{"name":"layer","type":"int","value":1},{"name":"group","type":"int","value":119},{"name":"id","type":"int","value":749},{"name":"fh_layer","type":"int","value":1},{"name":"fh_group","type":"int","value":119},{"name":"fh_id","type":"int","value":749},{"name":"x1","type":"int","value":2083},{"name":"x2","type":"int","value":2096},{"name":"y1","type":"int","value":278},{"name":"y2","type":"int","value":285},{"name":"next","type":"int","value":750},{"name":"prev","type":"int","value":748}],"polyline":[{"x":0,"y":0},{"x":13,"y":7}]},{"id":1858,"x":2096,"y":285,"visible":true,"properties":[{"name":"layer","type":"int","value":1},{"name":"group","type":"int","value":119},{"name":"id","type":"int","value":750},{"name":"fh_layer","type":"int","value":1},{"name":"fh_group","type":"int","value":119},{"name":"fh_id","type":"int","value":750},{"name":"x1","type":"int","value":2096},{"name":"x2","type":"int","value":2151},{"name":"y1","type":"int","value":285},{"name":"y2","type":"int","value":278},{"name":"next","type":"int","value":751},{"name":"prev","type":"int","value":749}],"polyline":[{"x":0,"y":0},{"x":55,"y":-7}]},{"id":1859,"x":2151,"y":278,"visible":true,"properties":[{"name":"layer","type":"int","value":1},{"name":"group","type":"int","value":119},{"name":"id","type":"int","value":751},{"name":"fh_layer","type":"int","value":1},{"name":"fh_group","type":"int","value":119},{"name":"fh_id","type":"int","value":751},{"name":"x1","type":"int","value":2151},{"name":"x2","type":"int","value":2180},{"name":"y1","type":"int","value":278},{"name":"y2","type":"int","value":284},{"name":"next","type":"int","value":752},{"name":"prev","type":"int","value":750}],"polyline":[{"x":0,"y":0},{"x":29,"y":6}]},{"id":1860,"x":2180,"y":284,"visible":true,"properties":[{"name":"layer","type":"int","value":1},{"name":"group","type":"int","value":119},{"name":"id","type":"int","value":752},{"name":"fh_layer","type":"int","value":1},{"name":"fh_group","type":"int","value":119},{"name":"fh_id","type":"int","value":752},{"name":"x1","type":"int","value":2180},{"name":"x2","type":"int","value":2197},{"name":"y1","type":"int","value":284},{"name":"y2","type":"int","value":276},{"name":"next","type":"int","value":753},{"name":"prev","type":"int","value":751}],"polyline":[{"x":0,"y":0},{"x":17,"y":-8}]},{"id":1861,"x":2197,"y":276,"visible":true,"properties":[{"name":"layer","type":"int","value":1},{"name":"group","type":"int","value":119},{"name":"id","type":"int","value":753},{"name":"fh_layer","type":"int","value":1},{"name":"fh_group","type":"int","value":119},{"name":"fh_id","type":"int","value":753},{"name":"x1","type":"int","value":2197},{"name":"x2","type":"int","value":2225},{"name":"y1","type":"int","value":276},{"name":"y2","type":"int","value":281},{"name":"next","type":"int","value":0},{"name":"prev","type":"int","value":752}],"polyline":[{"x":0,"y":0},{"x":28,"y":5}]},{"id":1862,"x":1719,"y":83,"visible":true,"properties":[{"name":"layer","type":"int","value":1},{"name":"group","type":"int","value":132},{"name":"id","type":"int","value":654},{"name":"fh_layer","type":"int","value":1},{"name":"fh_group","type":"int","value":132},{"name":"fh_id","type":"int","value":654},{"name":"x1","type":"int","value":1719},{"name":"x2","type":"int","value":1742},{"name":"y1","type":"int","value":83},{"name":"y2","type":"int","value":79},{"name":"next","type":"int","value":655},{"name":"prev","type":"int","value":0}],"polyline":[{"x":0,"y":0},{"x":23,"y":-4}]},{"id":1863,"x":1742,"y":79,"visible":true,"properties":[{"name":"layer","type":"int","value":1},{"name":"group","type":"int","value":132},{"name":"id","type":"int","value":655},{"name":"fh_layer","type":"int","value":1},{"name":"fh_group","type":"int","value":132},{"name":"fh_id","type":"int","value":655},{"name":"x1","type":"int","value":1742},{"name":"x2","type":"int","value":1759},{"name":"y1","type":"int","value":79},{"name":"y2","type":"int","value":86},{"name":"next","type":"int","value":656},{"name":"prev","type":"int","value":654}],"polyline":[{"x":0,"y":0},{"x":17,"y":7}]},{"id":1864,"x":1759,"y":86,"visible":true,"properties":[{"name":"layer","type":"int","value":1},{"name":"group","type":"int","value":132},{"name":"id","type":"int","value":656},{"name":"fh_layer","type":"int","value":1},{"name":"fh_group","type":"int","value":132},{"name":"fh_id","type":"int","value":656},{"name":"x1","type":"int","value":1759},{"name":"x2","type":"int","value":1784},{"name":"y1","type":"int","value":86},{"name":"y2","type":"int","value":85},{"name":"next","type":"int","value":657},{"name":"prev","type":"int","value":655}],"polyline":[{"x":0,"y":0},{"x":25,"y":-1}]},{"id":1865,"x":1784,"y":85,"visible":true,"properties":[{"name":"layer","type":"int","value":1},{"name":"group","type":"int","value":132},{"name":"id","type":"int","value":657},{"name":"fh_layer","type":"int","value":1},{"name":"fh_group","type":"int","value":132},{"name":"fh_id","type":"int","value":657},{"name":"x1","type":"int","value":1784},{"name":"x2","type":"int","value":1798},{"name":"y1","type":"int","value":85},{"name":"y2","type":"int","value":78},{"name":"next","type":"int","value":658},{"name":"prev","type":"int","value":656}],"polyline":[{"x":0,"y":0},{"x":14,"y":-7}]},{"id":1866,"x":1798,"y":78,"visible":true,"properties":[{"name":"layer","type":"int","value":1},{"name":"group","type":"int","value":132},{"name":"id","type":"int","value":658},{"name":"fh_layer","type":"int","value":1},{"name":"fh_group","type":"int","value":132},{"name":"fh_id","type":"int","value":658},{"name":"x1","type":"int","value":1798},{"name":"x2","type":"int","value":1833},{"name":"y1","type":"int","value":78},{"name":"y2","type":"int","value":74},{"name":"next","type":"int","value":659},{"name":"prev","type":"int","value":657}],"polyline":[{"x":0,"y":0},{"x":35,"y":-4}]},{"id":1867,"x":1833,"y":74,"visible":true,"properties":[{"name":"layer","type":"int","value":1},{"name":"group","type":"int","value":132},{"name":"id","type":"int","value":659},{"name":"fh_layer","type":"int","value":1},{"name":"fh_group","type":"int","value":132},{"name":"fh_id","type":"int","value":659},{"name":"x1","type":"int","value":1833},{"name":"x2","type":"int","value":1853},{"name":"y1","type":"int","value":74},{"name":"y2","type":"int","value":82},{"name":"next","type":"int","value":660},{"name":"prev","type":"int","value":658}],"polyline":[{"x":0,"y":0},{"x":20,"y":8}]},{"id":1868,"x":1853,"y":82,"visible":true,"properties":[{"name":"layer","type":"int","value":1},{"name":"group","type":"int","value":132},{"name":"id","type":"int","value":660},{"name":"fh_layer","type":"int","value":1},{"name":"fh_group","type":"int","value":132},{"name":"fh_id","type":"int","value":660},{"name":"x1","type":"int","value":1853},{"name":"x2","type":"int","value":1883},{"name":"y1","type":"int","value":82},{"name":"y2","type":"int","value":74},{"name":"next","type":"int","value":661},{"name":"prev","type":"int","value":659}],"polyline":[{"x":0,"y":0},{"x":30,"y":-8}]},{"id":1869,"x":1883,"y":74,"visible":true,"properties":[{"name":"layer","type":"int","value":1},{"name":"group","type":"int","value":132},{"name":"id","type":"int","value":661},{"name":"fh_layer","type":"int","value":1},{"name":"fh_group","type":"int","value":132},{"name":"fh_id","type":"int","value":661},{"name":"x1","type":"int","value":1883},{"name":"x2","type":"int","value":1929},{"name":"y1","type":"int","value":74},{"name":"y2","type":"int","value":60},{"name":"next","type":"int","value":662},{"name":"prev","type":"int","value":660}],"polyline":[{"x":0,"y":0},{"x":46,"y":-14}]},{"id":1870,"x":1929,"y":60,"visible":true,"properties":[{"name":"layer","type":"int","value":1},{"name":"group","type":"int","value":132},{"name":"id","type":"int","value":662},{"name":"fh_layer","type":"int","value":1},{"name":"fh_group","type":"int","value":132},{"name":"fh_id","type":"int","value":662},{"name":"x1","type":"int","value":1929},{"name":"x2","type":"int","value":2021},{"name":"y1","type":"int","value":60},{"name":"y2","type":"int","value":58},{"name":"next","type":"int","value":663},{"name":"prev","type":"int","value":661}],"polyline":[{"x":0,"y":0},{"x":92,"y":-2}]},{"id":1871,"x":2021,"y":58,"visible":true,"properties":[{"name":"layer","type":"int","value":1},{"name":"group","type":"int","value":132},{"name":"id","type":"int","value":663},{"name":"fh_layer","type":"int","value":1},{"name":"fh_group","type":"int","value":132},{"name":"fh_id","type":"int","value":663},{"name":"x1","type":"int","value":2021},{"name":"x2","type":"int","value":2037},{"name":"y1","type":"int","value":58},{"name":"y2","type":"int","value":64},{"name":"next","type":"int","value":664},{"name":"prev","type":"int","value":662}],"polyline":[{"x":0,"y":0},{"x":16,"y":6}]},{"id":1872,"x":2037,"y":64,"visible":true,"properties":[{"name":"layer","type":"int","value":1},{"name":"group","type":"int","value":132},{"name":"id","type":"int","value":664},{"name":"fh_layer","type":"int","value":1},{"name":"fh_group","type":"int","value":132},{"name":"fh_id","type":"int","value":664},{"name":"x1","type":"int","value":2037},{"name":"x2","type":"int","value":2069},{"name":"y1","type":"int","value":64},{"name":"y2","type":"int","value":71},{"name":"next","type":"int","value":665},{"name":"prev","type":"int","value":663}],"polyline":[{"x":0,"y":0},{"x":32,"y":7}]},{"id":1873,"x":2069,"y":71,"visible":true,"properties":[{"name":"layer","type":"int","value":1},{"name":"group","type":"int","value":132},{"name":"id","type":"int","value":665},{"name":"fh_layer","type":"int","value":1},{"name":"fh_group","type":"int","value":132},{"name":"fh_id","type":"int","value":665},{"name":"x1","type":"int","value":2069},{"name":"x2","type":"int","value":2084},{"name":"y1","type":"int","value":71},{"name":"y2","type":"int","value":74},{"name":"next","type":"int","value":666},{"name":"prev","type":"int","value":664}],"polyline":[{"x":0,"y":0},{"x":15,"y":3}]},{"id":1874,"x":2084,"y":74,"visible":true,"properties":[{"name":"layer","type":"int","value":1},{"name":"group","type":"int","value":132},{"name":"id","type":"int","value":666},{"name":"fh_layer","type":"int","value":1},{"name":"fh_group","type":"int","value":132},{"name":"fh_id","type":"int","value":666},{"name":"x1","type":"int","value":2084},{"name":"x2","type":"int","value":2085},{"name":"y1","type":"int","value":74},{"name":"y2","type":"int","value":75},{"name":"next","type":"int","value":667},{"name":"prev","type":"int","value":665}],"polyline":[{"x":0,"y":0},{"x":1,"y":1}]},{"id":1875,"x":2085,"y":75,"visible":true,"properties":[{"name":"layer","type":"int","value":1},{"name":"group","type":"int","value":132},{"name":"id","type":"int","value":667},{"name":"fh_layer","type":"int","value":1},{"name":"fh_group","type":"int","value":132},{"name":"fh_id","type":"int","value":667},{"name":"x1","type":"int","value":2085},{"name":"x2","type":"int","value":2102},{"name":"y1","type":"int","value":75},{"name":"y2","type":"int","value":82},{"name":"next","type":"int","value":668},{"name":"prev","type":"int","value":666}],"polyline":[{"x":0,"y":0},{"x":17,"y":7}]},{"id":1876,"x":2102,"y":82,"visible":true,"properties":[{"name":"layer","type":"int","value":1},{"name":"group","type":"int","value":132},{"name":"id","type":"int","value":668},{"name":"fh_layer","type":"int","value":1},{"name":"fh_group","type":"int","value":132},{"name":"fh_id","type":"int","value":668},{"name":"x1","type":"int","value":2102},{"name":"x2","type":"int","value":2127},{"name":"y1","type":"int","value":82},{"name":"y2","type":"int","value":81},{"name":"next","type":"int","value":669},{"name":"prev","type":"int","value":667}],"polyline":[{"x":0,"y":0},{"x":25,"y":-1}]},{"id":1877,"x":2127,"y":81,"visible":true,"properties":[{"name":"layer","type":"int","value":1},{"name":"group","type":"int","value":132},{"name":"id","type":"int","value":669},{"name":"fh_layer","type":"int","value":1},{"name":"fh_group","type":"int","value":132},{"name":"fh_id","type":"int","value":669},{"name":"x1","type":"int","value":2127},{"name":"x2","type":"int","value":2141},{"name":"y1","type":"int","value":81},{"name":"y2","type":"int","value":74},{"name":"next","type":"int","value":670},{"name":"prev","type":"int","value":668}],"polyline":[{"x":0,"y":0},{"x":14,"y":-7}]},{"id":1878,"x":2141,"y":74,"visible":true,"properties":[{"name":"layer","type":"int","value":1},{"name":"group","type":"int","value":132},{"name":"id","type":"int","value":670},{"name":"fh_layer","type":"int","value":1},{"name":"fh_group","type":"int","value":132},{"name":"fh_id","type":"int","value":670},{"name":"x1","type":"int","value":2141},{"name":"x2","type":"int","value":2176},{"name":"y1","type":"int","value":74},{"name":"y2","type":"int","value":70},{"name":"next","type":"int","value":671},{"name":"prev","type":"int","value":669}],"polyline":[{"x":0,"y":0},{"x":35,"y":-4}]},{"id":1879,"x":2176,"y":70,"visible":true,"properties":[{"name":"layer","type":"int","value":1},{"name":"group","type":"int","value":132},{"name":"id","type":"int","value":671},{"name":"fh_layer","type":"int","value":1},{"name":"fh_group","type":"int","value":132},{"name":"fh_id","type":"int","value":671},{"name":"x1","type":"int","value":2176},{"name":"x2","type":"int","value":2196},{"name":"y1","type":"int","value":70},{"name":"y2","type":"int","value":78},{"name":"next","type":"int","value":672},{"name":"prev","type":"int","value":670}],"polyline":[{"x":0,"y":0},{"x":20,"y":8}]},{"id":1880,"x":2196,"y":78,"visible":true,"properties":[{"name":"layer","type":"int","value":1},{"name":"group","type":"int","value":132},{"name":"id","type":"int","value":672},{"name":"fh_layer","type":"int","value":1},{"name":"fh_group","type":"int","value":132},{"name":"fh_id","type":"int","value":672},{"name":"x1","type":"int","value":2196},{"name":"x2","type":"int","value":2226},{"name":"y1","type":"int","value":78},{"name":"y2","type":"int","value":70},{"name":"next","type":"int","value":673},{"name":"prev","type":"int","value":671}],"polyline":[{"x":0,"y":0},{"x":30,"y":-8}]},{"id":1881,"x":2226,"y":70,"visible":true,"properties":[{"name":"layer","type":"int","value":1},{"name":"group","type":"int","value":132},{"name":"id","type":"int","value":673},{"name":"fh_layer","type":"int","value":1},{"name":"fh_group","type":"int","value":132},{"name":"fh_id","type":"int","value":673},{"name":"x1","type":"int","value":2226},{"name":"x2","type":"int","value":2241},{"name":"y1","type":"int","value":70},{"name":"y2","type":"int","value":73},{"name":"next","type":"int","value":674},{"name":"prev","type":"int","value":672}],"polyline":[{"x":0,"y":0},{"x":15,"y":3}]},{"id":1882,"x":2241,"y":73,"visible":true,"properties":[{"name":"layer","type":"int","value":1},{"name":"group","type":"int","value":132},{"name":"id","type":"int","value":674},{"name":"fh_layer","type":"int","value":1},{"name":"fh_group","type":"int","value":132},{"name":"fh_id","type":"int","value":674},{"name":"x1","type":"int","value":2241},{"name":"x2","type":"int","value":2255},{"name":"y1","type":"int","value":73},{"name":"y2","type":"int","value":70},{"name":"next","type":"int","value":675},{"name":"prev","type":"int","value":673}],"polyline":[{"x":0,"y":0},{"x":14,"y":-3}]},{"id":1883,"x":2255,"y":70,"visible":true,"properties":[{"name":"layer","type":"int","value":1},{"name":"group","type":"int","value":132},{"name":"id","type":"int","value":675},{"name":"fh_layer","type":"int","value":1},{"name":"fh_group","type":"int","value":132},{"name":"fh_id","type":"int","value":675},{"name":"x1","type":"int","value":2255},{"name":"x2","type":"int","value":2310},{"name":"y1","type":"int","value":70},{"name":"y2","type":"int","value":73},{"name":"next","type":"int","value":676},{"name":"prev","type":"int","value":674}],"polyline":[{"x":0,"y":0},{"x":55,"y":3}]},{"id":1884,"x":2310,"y":73,"visible":true,"properties":[{"name":"layer","type":"int","value":1},{"name":"group","type":"int","value":132},{"name":"id","type":"int","value":676},{"name":"fh_layer","type":"int","value":1},{"name":"fh_group","type":"int","value":132},{"name":"fh_id","type":"int","value":676},{"name":"x1","type":"int","value":2310},{"name":"x2","type":"int","value":2321},{"name":"y1","type":"int","value":73},{"name":"y2","type":"int","value":77},{"name":"next","type":"int","value":677},{"name":"prev","type":"int","value":675}],"polyline":[{"x":0,"y":0},{"x":11,"y":4}]},{"id":1885,"x":2321,"y":77,"visible":true,"properties":[{"name":"layer","type":"int","value":1},{"name":"group","type":"int","value":132},{"name":"id","type":"int","value":677},{"name":"fh_layer","type":"int","value":1},{"name":"fh_group","type":"int","value":132},{"name":"fh_id","type":"int","value":677},{"name":"x1","type":"int","value":2321},{"name":"x2","type":"int","value":2334},{"name":"y1","type":"int","value":77},{"name":"y2","type":"int","value":80},{"name":"next","type":"int","value":0},{"name":"prev","type":"int","value":676}],"polyline":[{"x":0,"y":0},{"x":13,"y":3}]},{"id":1886,"x":1547,"y":39,"visible":true,"properties":[{"name":"layer","type":"int","value":1},{"name":"group","type":"int","value":139},{"name":"id","type":"int","value":648},{"name":"fh_layer","type":"int","value":1},{"name":"fh_group","type":"int","value":139},{"name":"fh_id","type":"int","value":648},{"name":"x1","type":"int","value":1547},{"name":"x2","type":"int","value":1564},{"name":"y1","type":"int","value":39},{"name":"y2","type":"int","value":40},{"name":"next","type":"int","value":649},{"name":"prev","type":"int","value":0}],"polyline":[{"x":0,"y":0},{"x":17,"y":1}]},{"id":1887,"x":1564,"y":40,"visible":true,"properties":[{"name":"layer","type":"int","value":1},{"name":"group","type":"int","value":139},{"name":"id","type":"int","value":649},{"name":"fh_layer","type":"int","value":1},{"name":"fh_group","type":"int","value":139},{"name":"fh_id","type":"int","value":649},{"name":"x1","type":"int","value":1564},{"name":"x2","type":"int","value":1573},{"name":"y1","type":"int","value":40},{"name":"y2","type":"int","value":37},{"name":"next","type":"int","value":650},{"name":"prev","type":"int","value":648}],"polyline":[{"x":0,"y":0},{"x":9,"y":-3}]},{"id":1888,"x":1573,"y":37,"visible":true,"properties":[{"name":"layer","type":"int","value":1},{"name":"group","type":"int","value":139},{"name":"id","type":"int","value":650},{"name":"fh_layer","type":"int","value":1},{"name":"fh_group","type":"int","value":139},{"name":"fh_id","type":"int","value":650},{"name":"x1","type":"int","value":1573},{"name":"x2","type":"int","value":1607},{"name":"y1","type":"int","value":37},{"name":"y2","type":"int","value":36},{"name":"next","type":"int","value":651},{"name":"prev","type":"int","value":649}],"polyline":[{"x":0,"y":0},{"x":34,"y":-1}]},{"id":1889,"x":1607,"y":36,"visible":true,"properties":[{"name":"layer","type":"int","value":1},{"name":"group","type":"int","value":139},{"name":"id","type":"int","value":651},{"name":"fh_layer","type":"int","value":1},{"name":"fh_group","type":"int","value":139},{"name":"fh_id","type":"int","value":651},{"name":"x1","type":"int","value":1607},{"name":"x2","type":"int","value":1623},{"name":"y1","type":"int","value":36},{"name":"y2","type":"int","value":31},{"name":"next","type":"int","value":652},{"name":"prev","type":"int","value":650}],"polyline":[{"x":0,"y":0},{"x":16,"y":-5}]},{"id":1890,"x":1623,"y":31,"visible":true,"properties":[{"name":"layer","type":"int","value":1},{"name":"group","type":"int","value":139},{"name":"id","type":"int","value":652},{"name":"fh_layer","type":"int","value":1},{"name":"fh_group","type":"int","value":139},{"name":"fh_id","type":"int","value":652},{"name":"x1","type":"int","value":1623},{"name":"x2","type":"int","value":1675},{"name":"y1","type":"int","value":31},{"name":"y2","type":"int","value":32},{"name":"next","type":"int","value":653},{"name":"prev","type":"int","value":651}],"polyline":[{"x":0,"y":0},{"x":52,"y":1}]},{"id":1891,"x":1675,"y":32,"visible":true,"properties":[{"name":"layer","type":"int","value":1},{"name":"group","type":"int","value":139},{"name":"id","type":"int","value":653},{"name":"fh_layer","type":"int","value":1},{"name":"fh_group","type":"int","value":139},{"name":"fh_id","type":"int","value":653},{"name":"x1","type":"int","value":1675},{"name":"x2","type":"int","value":1705},{"name":"y1","type":"int","value":32},{"name":"y2","type":"int","value":37},{"name":"next","type":"int","value":0},{"name":"prev","type":"int","value":652}],"polyline":[{"x":0,"y":0},{"x":30,"y":5}]},{"id":1892,"x":-44,"y":-10,"visible":true,"properties":[{"name":"layer","type":"int","value":1},{"name":"group","type":"int","value":140},{"name":"id","type":"int","value":614},{"name":"fh_layer","type":"int","value":1},{"name":"fh_group","type":"int","value":140},{"name":"fh_id","type":"int","value":614},{"name":"x1","type":"int","value":-44},{"name":"x2","type":"int","value":5},{"name":"y1","type":"int","value":-10},{"name":"y2","type":"int","value":-25},{"name":"next","type":"int","value":615},{"name":"prev","type":"int","value":0}],"polyline":[{"x":0,"y":0},{"x":49,"y":-15}]},{"id":1893,"x":5,"y":-25,"visible":true,"properties":[{"name":"layer","type":"int","value":1},{"name":"group","type":"int","value":140},{"name":"id","type":"int","value":615},{"name":"fh_layer","type":"int","value":1},{"name":"fh_group","type":"int","value":140},{"name":"fh_id","type":"int","value":615},{"name":"x1","type":"int","value":5},{"name":"x2","type":"int","value":97},{"name":"y1","type":"int","value":-25},{"name":"y2","type":"int","value":-27},{"name":"next","type":"int","value":616},{"name":"prev","type":"int","value":614}],"polyline":[{"x":0,"y":0},{"x":92,"y":-2}]},{"id":1894,"x":97,"y":-27,"visible":true,"properties":[{"name":"layer","type":"int","value":1},{"name":"group","type":"int","value":140},{"name":"id","type":"int","value":616},{"name":"fh_layer","type":"int","value":1},{"name":"fh_group","type":"int","value":140},{"name":"fh_id","type":"int","value":616},{"name":"x1","type":"int","value":97},{"name":"x2","type":"int","value":113},{"name":"y1","type":"int","value":-27},{"name":"y2","type":"int","value":-21},{"name":"next","type":"int","value":617},{"name":"prev","type":"int","value":615}],"polyline":[{"x":0,"y":0},{"x":16,"y":6}]},{"id":1895,"x":113,"y":-21,"visible":true,"properties":[{"name":"layer","type":"int","value":1},{"name":"group","type":"int","value":140},{"name":"id","type":"int","value":617},{"name":"fh_layer","type":"int","value":1},{"name":"fh_group","type":"int","value":140},{"name":"fh_id","type":"int","value":617},{"name":"x1","type":"int","value":113},{"name":"x2","type":"int","value":145},{"name":"y1","type":"int","value":-21},{"name":"y2","type":"int","value":-14},{"name":"next","type":"int","value":618},{"name":"prev","type":"int","value":616}],"polyline":[{"x":0,"y":0},{"x":32,"y":7}]},{"id":1896,"x":145,"y":-14,"visible":true,"properties":[{"name":"layer","type":"int","value":1},{"name":"group","type":"int","value":140},{"name":"id","type":"int","value":618},{"name":"fh_layer","type":"int","value":1},{"name":"fh_group","type":"int","value":140},{"name":"fh_id","type":"int","value":618},{"name":"x1","type":"int","value":145},{"name":"x2","type":"int","value":174},{"name":"y1","type":"int","value":-14},{"name":"y2","type":"int","value":-7},{"name":"next","type":"int","value":619},{"name":"prev","type":"int","value":617}],"polyline":[{"x":0,"y":0},{"x":29,"y":7}]},{"id":1897,"x":174,"y":-7,"visible":true,"properties":[{"name":"layer","type":"int","value":1},{"name":"group","type":"int","value":140},{"name":"id","type":"int","value":619},{"name":"fh_layer","type":"int","value":1},{"name":"fh_group","type":"int","value":140},{"name":"fh_id","type":"int","value":619},{"name":"x1","type":"int","value":174},{"name":"x2","type":"int","value":189},{"name":"y1","type":"int","value":-7},{"name":"y2","type":"int","value":-7},{"name":"next","type":"int","value":620},{"name":"prev","type":"int","value":618}],"polyline":[{"x":0,"y":0},{"x":15,"y":0}]},{"id":1898,"x":189,"y":-7,"visible":true,"properties":[{"name":"layer","type":"int","value":1},{"name":"group","type":"int","value":140},{"name":"id","type":"int","value":620},{"name":"fh_layer","type":"int","value":1},{"name":"fh_group","type":"int","value":140},{"name":"fh_id","type":"int","value":620},{"name":"x1","type":"int","value":189},{"name":"x2","type":"int","value":203},{"name":"y1","type":"int","value":-7},{"name":"y2","type":"int","value":-14},{"name":"next","type":"int","value":621},{"name":"prev","type":"int","value":619}],"polyline":[{"x":0,"y":0},{"x":14,"y":-7}]},{"id":1899,"x":203,"y":-14,"visible":true,"properties":[{"name":"layer","type":"int","value":1},{"name":"group","type":"int","value":140},{"name":"id","type":"int","value":621},{"name":"fh_layer","type":"int","value":1},{"name":"fh_group","type":"int","value":140},{"name":"fh_id","type":"int","value":621},{"name":"x1","type":"int","value":203},{"name":"x2","type":"int","value":238},{"name":"y1","type":"int","value":-14},{"name":"y2","type":"int","value":-18},{"name":"next","type":"int","value":622},{"name":"prev","type":"int","value":620}],"polyline":[{"x":0,"y":0},{"x":35,"y":-4}]},{"id":1900,"x":238,"y":-18,"visible":true,"properties":[{"name":"layer","type":"int","value":1},{"name":"group","type":"int","value":140},{"name":"id","type":"int","value":622},{"name":"fh_layer","type":"int","value":1},{"name":"fh_group","type":"int","value":140},{"name":"fh_id","type":"int","value":622},{"name":"x1","type":"int","value":238},{"name":"x2","type":"int","value":258},{"name":"y1","type":"int","value":-18},{"name":"y2","type":"int","value":-10},{"name":"next","type":"int","value":623},{"name":"prev","type":"int","value":621}],"polyline":[{"x":0,"y":0},{"x":20,"y":8}]},{"id":1901,"x":258,"y":-10,"visible":true,"properties":[{"name":"layer","type":"int","value":1},{"name":"group","type":"int","value":140},{"name":"id","type":"int","value":623},{"name":"fh_layer","type":"int","value":1},{"name":"fh_group","type":"int","value":140},{"name":"fh_id","type":"int","value":623},{"name":"x1","type":"int","value":258},{"name":"x2","type":"int","value":280},{"name":"y1","type":"int","value":-10},{"name":"y2","type":"int","value":-15},{"name":"next","type":"int","value":625},{"name":"prev","type":"int","value":622}],"polyline":[{"x":0,"y":0},{"x":22,"y":-5}]},{"id":1902,"x":280,"y":-15,"visible":true,"properties":[{"name":"layer","type":"int","value":1},{"name":"group","type":"int","value":140},{"name":"id","type":"int","value":624},{"name":"fh_layer","type":"int","value":1},{"name":"fh_group","type":"int","value":140},{"name":"fh_id","type":"int","value":624},{"name":"x1","type":"int","value":280},{"name":"x2","type":"int","value":288},{"name":"y1","type":"int","value":-15},{"name":"y2","type":"int","value":-18},{"name":"next","type":"int","value":626},{"name":"prev","type":"int","value":623}],"polyline":[{"x":0,"y":0},{"x":8,"y":-3}]},{"id":1903,"x":280,"y":-15,"visible":true,"properties":[{"name":"layer","type":"int","value":1},{"name":"group","type":"int","value":140},{"name":"id","type":"int","value":625},{"name":"fh_layer","type":"int","value":1},{"name":"fh_group","type":"int","value":140},{"name":"fh_id","type":"int","value":625},{"name":"x1","type":"int","value":280},{"name":"x2","type":"int","value":288},{"name":"y1","type":"int","value":-15},{"name":"y2","type":"int","value":-18},{"name":"next","type":"int","value":626},{"name":"prev","type":"int","value":623}],"polyline":[{"x":0,"y":0},{"x":8,"y":-3}]},{"id":1904,"x":288,"y":-18,"visible":true,"properties":[{"name":"layer","type":"int","value":1},{"name":"group","type":"int","value":140},{"name":"id","type":"int","value":626},{"name":"fh_layer","type":"int","value":1},{"name":"fh_group","type":"int","value":140},{"name":"fh_id","type":"int","value":626},{"name":"x1","type":"int","value":288},{"name":"x2","type":"int","value":323},{"name":"y1","type":"int","value":-18},{"name":"y2","type":"int","value":-29},{"name":"next","type":"int","value":627},{"name":"prev","type":"int","value":624}],"polyline":[{"x":0,"y":0},{"x":35,"y":-11}]},{"id":1905,"x":323,"y":-29,"visible":true,"properties":[{"name":"layer","type":"int","value":1},{"name":"group","type":"int","value":140},{"name":"id","type":"int","value":627},{"name":"fh_layer","type":"int","value":1},{"name":"fh_group","type":"int","value":140},{"name":"fh_id","type":"int","value":627},{"name":"x1","type":"int","value":323},{"name":"x2","type":"int","value":415},{"name":"y1","type":"int","value":-29},{"name":"y2","type":"int","value":-31},{"name":"next","type":"int","value":628},{"name":"prev","type":"int","value":626}],"polyline":[{"x":0,"y":0},{"x":92,"y":-2}]},{"id":1906,"x":415,"y":-31,"visible":true,"properties":[{"name":"layer","type":"int","value":1},{"name":"group","type":"int","value":140},{"name":"id","type":"int","value":628},{"name":"fh_layer","type":"int","value":1},{"name":"fh_group","type":"int","value":140},{"name":"fh_id","type":"int","value":628},{"name":"x1","type":"int","value":415},{"name":"x2","type":"int","value":431},{"name":"y1","type":"int","value":-31},{"name":"y2","type":"int","value":-25},{"name":"next","type":"int","value":629},{"name":"prev","type":"int","value":627}],"polyline":[{"x":0,"y":0},{"x":16,"y":6}]},{"id":1907,"x":431,"y":-25,"visible":true,"properties":[{"name":"layer","type":"int","value":1},{"name":"group","type":"int","value":140},{"name":"id","type":"int","value":629},{"name":"fh_layer","type":"int","value":1},{"name":"fh_group","type":"int","value":140},{"name":"fh_id","type":"int","value":629},{"name":"x1","type":"int","value":431},{"name":"x2","type":"int","value":463},{"name":"y1","type":"int","value":-25},{"name":"y2","type":"int","value":-18},{"name":"next","type":"int","value":630},{"name":"prev","type":"int","value":628}],"polyline":[{"x":0,"y":0},{"x":32,"y":7}]},{"id":1908,"x":463,"y":-18,"visible":true,"properties":[{"name":"layer","type":"int","value":1},{"name":"group","type":"int","value":140},{"name":"id","type":"int","value":630},{"name":"fh_layer","type":"int","value":1},{"name":"fh_group","type":"int","value":140},{"name":"fh_id","type":"int","value":630},{"name":"x1","type":"int","value":463},{"name":"x2","type":"int","value":494},{"name":"y1","type":"int","value":-18},{"name":"y2","type":"int","value":-10},{"name":"next","type":"int","value":0},{"name":"prev","type":"int","value":629}],"polyline":[{"x":0,"y":0},{"x":31,"y":8}]},{"id":1909,"x":968,"y":-10,"visible":true,"properties":[{"name":"layer","type":"int","value":1},{"name":"group","type":"int","value":141},{"name":"id","type":"int","value":631},{"name":"fh_layer","type":"int","value":1},{"name":"fh_group","type":"int","value":141},{"name":"fh_id","type":"int","value":631},{"name":"x1","type":"int","value":968},{"name":"x2","type":"int","value":991},{"name":"y1","type":"int","value":-10},{"name":"y2","type":"int","value":-14},{"name":"next","type":"int","value":632},{"name":"prev","type":"int","value":0}],"polyline":[{"x":0,"y":0},{"x":23,"y":-4}]},{"id":1910,"x":991,"y":-14,"visible":true,"properties":[{"name":"layer","type":"int","value":1},{"name":"group","type":"int","value":141},{"name":"id","type":"int","value":632},{"name":"fh_layer","type":"int","value":1},{"name":"fh_group","type":"int","value":141},{"name":"fh_id","type":"int","value":632},{"name":"x1","type":"int","value":991},{"name":"x2","type":"int","value":1008},{"name":"y1","type":"int","value":-14},{"name":"y2","type":"int","value":-7},{"name":"next","type":"int","value":633},{"name":"prev","type":"int","value":631}],"polyline":[{"x":0,"y":0},{"x":17,"y":7}]},{"id":1911,"x":1008,"y":-7,"visible":true,"properties":[{"name":"layer","type":"int","value":1},{"name":"group","type":"int","value":141},{"name":"id","type":"int","value":633},{"name":"fh_layer","type":"int","value":1},{"name":"fh_group","type":"int","value":141},{"name":"fh_id","type":"int","value":633},{"name":"x1","type":"int","value":1008},{"name":"x2","type":"int","value":1033},{"name":"y1","type":"int","value":-7},{"name":"y2","type":"int","value":-8},{"name":"next","type":"int","value":634},{"name":"prev","type":"int","value":632}],"polyline":[{"x":0,"y":0},{"x":25,"y":-1}]},{"id":1912,"x":1033,"y":-8,"visible":true,"properties":[{"name":"layer","type":"int","value":1},{"name":"group","type":"int","value":141},{"name":"id","type":"int","value":634},{"name":"fh_layer","type":"int","value":1},{"name":"fh_group","type":"int","value":141},{"name":"fh_id","type":"int","value":634},{"name":"x1","type":"int","value":1033},{"name":"x2","type":"int","value":1047},{"name":"y1","type":"int","value":-8},{"name":"y2","type":"int","value":-15},{"name":"next","type":"int","value":635},{"name":"prev","type":"int","value":633}],"polyline":[{"x":0,"y":0},{"x":14,"y":-7}]},{"id":1913,"x":1047,"y":-15,"visible":true,"properties":[{"name":"layer","type":"int","value":1},{"name":"group","type":"int","value":141},{"name":"id","type":"int","value":635},{"name":"fh_layer","type":"int","value":1},{"name":"fh_group","type":"int","value":141},{"name":"fh_id","type":"int","value":635},{"name":"x1","type":"int","value":1047},{"name":"x2","type":"int","value":1082},{"name":"y1","type":"int","value":-15},{"name":"y2","type":"int","value":-19},{"name":"next","type":"int","value":636},{"name":"prev","type":"int","value":634}],"polyline":[{"x":0,"y":0},{"x":35,"y":-4}]},{"id":1914,"x":1082,"y":-19,"visible":true,"properties":[{"name":"layer","type":"int","value":1},{"name":"group","type":"int","value":141},{"name":"id","type":"int","value":636},{"name":"fh_layer","type":"int","value":1},{"name":"fh_group","type":"int","value":141},{"name":"fh_id","type":"int","value":636},{"name":"x1","type":"int","value":1082},{"name":"x2","type":"int","value":1102},{"name":"y1","type":"int","value":-19},{"name":"y2","type":"int","value":-11},{"name":"next","type":"int","value":637},{"name":"prev","type":"int","value":635}],"polyline":[{"x":0,"y":0},{"x":20,"y":8}]},{"id":1915,"x":1102,"y":-11,"visible":true,"properties":[{"name":"layer","type":"int","value":1},{"name":"group","type":"int","value":141},{"name":"id","type":"int","value":637},{"name":"fh_layer","type":"int","value":1},{"name":"fh_group","type":"int","value":141},{"name":"fh_id","type":"int","value":637},{"name":"x1","type":"int","value":1102},{"name":"x2","type":"int","value":1132},{"name":"y1","type":"int","value":-11},{"name":"y2","type":"int","value":-19},{"name":"next","type":"int","value":638},{"name":"prev","type":"int","value":636}],"polyline":[{"x":0,"y":0},{"x":30,"y":-8}]},{"id":1916,"x":1132,"y":-19,"visible":true,"properties":[{"name":"layer","type":"int","value":1},{"name":"group","type":"int","value":141},{"name":"id","type":"int","value":638},{"name":"fh_layer","type":"int","value":1},{"name":"fh_group","type":"int","value":141},{"name":"fh_id","type":"int","value":638},{"name":"x1","type":"int","value":1132},{"name":"x2","type":"int","value":1159},{"name":"y1","type":"int","value":-19},{"name":"y2","type":"int","value":-27},{"name":"next","type":"int","value":639},{"name":"prev","type":"int","value":637}],"polyline":[{"x":0,"y":0},{"x":27,"y":-8}]},{"id":1917,"x":1159,"y":-27,"visible":true,"properties":[{"name":"layer","type":"int","value":1},{"name":"group","type":"int","value":141},{"name":"id","type":"int","value":639},{"name":"fh_layer","type":"int","value":1},{"name":"fh_group","type":"int","value":141},{"name":"fh_id","type":"int","value":639},{"name":"x1","type":"int","value":1159},{"name":"x2","type":"int","value":1251},{"name":"y1","type":"int","value":-27},{"name":"y2","type":"int","value":-29},{"name":"next","type":"int","value":640},{"name":"prev","type":"int","value":638}],"polyline":[{"x":0,"y":0},{"x":92,"y":-2}]},{"id":1918,"x":1251,"y":-29,"visible":true,"properties":[{"name":"layer","type":"int","value":1},{"name":"group","type":"int","value":141},{"name":"id","type":"int","value":640},{"name":"fh_layer","type":"int","value":1},{"name":"fh_group","type":"int","value":141},{"name":"fh_id","type":"int","value":640},{"name":"x1","type":"int","value":1251},{"name":"x2","type":"int","value":1267},{"name":"y1","type":"int","value":-29},{"name":"y2","type":"int","value":-23},{"name":"next","type":"int","value":641},{"name":"prev","type":"int","value":639}],"polyline":[{"x":0,"y":0},{"x":16,"y":6}]},{"id":1919,"x":1267,"y":-23,"visible":true,"properties":[{"name":"layer","type":"int","value":1},{"name":"group","type":"int","value":141},{"name":"id","type":"int","value":641},{"name":"fh_layer","type":"int","value":1},{"name":"fh_group","type":"int","value":141},{"name":"fh_id","type":"int","value":641},{"name":"x1","type":"int","value":1267},{"name":"x2","type":"int","value":1299},{"name":"y1","type":"int","value":-23},{"name":"y2","type":"int","value":-16},{"name":"next","type":"int","value":642},{"name":"prev","type":"int","value":640}],"polyline":[{"x":0,"y":0},{"x":32,"y":7}]},{"id":1920,"x":1299,"y":-16,"visible":true,"properties":[{"name":"layer","type":"int","value":1},{"name":"group","type":"int","value":141},{"name":"id","type":"int","value":642},{"name":"fh_layer","type":"int","value":1},{"name":"fh_group","type":"int","value":141},{"name":"fh_id","type":"int","value":642},{"name":"x1","type":"int","value":1299},{"name":"x2","type":"int","value":1311},{"name":"y1","type":"int","value":-16},{"name":"y2","type":"int","value":-13},{"name":"next","type":"int","value":643},{"name":"prev","type":"int","value":641}],"polyline":[{"x":0,"y":0},{"x":12,"y":3}]},{"id":1921,"x":1311,"y":-13,"visible":true,"properties":[{"name":"layer","type":"int","value":1},{"name":"group","type":"int","value":141},{"name":"id","type":"int","value":643},{"name":"fh_layer","type":"int","value":1},{"name":"fh_group","type":"int","value":141},{"name":"fh_id","type":"int","value":643},{"name":"x1","type":"int","value":1311},{"name":"x2","type":"int","value":1342},{"name":"y1","type":"int","value":-13},{"name":"y2","type":"int","value":-22},{"name":"next","type":"int","value":644},{"name":"prev","type":"int","value":642}],"polyline":[{"x":0,"y":0},{"x":31,"y":-9}]},{"id":1922,"x":1342,"y":-22,"visible":true,"properties":[{"name":"layer","type":"int","value":1},{"name":"group","type":"int","value":141},{"name":"id","type":"int","value":644},{"name":"fh_layer","type":"int","value":1},{"name":"fh_group","type":"int","value":141},{"name":"fh_id","type":"int","value":644},{"name":"x1","type":"int","value":1342},{"name":"x2","type":"int","value":1434},{"name":"y1","type":"int","value":-22},{"name":"y2","type":"int","value":-24},{"name":"next","type":"int","value":645},{"name":"prev","type":"int","value":643}],"polyline":[{"x":0,"y":0},{"x":92,"y":-2}]},{"id":1923,"x":1434,"y":-24,"visible":true,"properties":[{"name":"layer","type":"int","value":1},{"name":"group","type":"int","value":141},{"name":"id","type":"int","value":645},{"name":"fh_layer","type":"int","value":1},{"name":"fh_group","type":"int","value":141},{"name":"fh_id","type":"int","value":645},{"name":"x1","type":"int","value":1434},{"name":"x2","type":"int","value":1450},{"name":"y1","type":"int","value":-24},{"name":"y2","type":"int","value":-18},{"name":"next","type":"int","value":646},{"name":"prev","type":"int","value":644}],"polyline":[{"x":0,"y":0},{"x":16,"y":6}]},{"id":1924,"x":1450,"y":-18,"visible":true,"properties":[{"name":"layer","type":"int","value":1},{"name":"group","type":"int","value":141},{"name":"id","type":"int","value":646},{"name":"fh_layer","type":"int","value":1},{"name":"fh_group","type":"int","value":141},{"name":"fh_id","type":"int","value":646},{"name":"x1","type":"int","value":1450},{"name":"x2","type":"int","value":1482},{"name":"y1","type":"int","value":-18},{"name":"y2","type":"int","value":-11},{"name":"next","type":"int","value":647},{"name":"prev","type":"int","value":645}],"polyline":[{"x":0,"y":0},{"x":32,"y":7}]},{"id":1925,"x":1482,"y":-11,"visible":true,"properties":[{"name":"layer","type":"int","value":1},{"name":"group","type":"int","value":141},{"name":"id","type":"int","value":647},{"name":"fh_layer","type":"int","value":1},{"name":"fh_group","type":"int","value":141},{"name":"fh_id","type":"int","value":647},{"name":"x1","type":"int","value":1482},{"name":"x2","type":"int","value":1513},{"name":"y1","type":"int","value":-11},{"name":"y2","type":"int","value":-3},{"name":"next","type":"int","value":0},{"name":"prev","type":"int","value":646}],"polyline":[{"x":0,"y":0},{"x":31,"y":8}]},{"id":1926,"x":123,"y":-195,"visible":true,"properties":[{"name":"layer","type":"int","value":3},{"name":"group","type":"int","value":148},{"name":"id","type":"int","value":911},{"name":"fh_layer","type":"int","value":3},{"name":"fh_group","type":"int","value":148},{"name":"fh_id","type":"int","value":911},{"name":"x1","type":"int","value":123},{"name":"x2","type":"int","value":146},{"name":"y1","type":"int","value":-195},{"name":"y2","type":"int","value":-199},{"name":"next","type":"int","value":912},{"name":"prev","type":"int","value":0}],"polyline":[{"x":0,"y":0},{"x":23,"y":-4}]},{"id":1927,"x":146,"y":-199,"visible":true,"properties":[{"name":"layer","type":"int","value":3},{"name":"group","type":"int","value":148},{"name":"id","type":"int","value":912},{"name":"fh_layer","type":"int","value":3},{"name":"fh_group","type":"int","value":148},{"name":"fh_id","type":"int","value":912},{"name":"x1","type":"int","value":146},{"name":"x2","type":"int","value":163},{"name":"y1","type":"int","value":-199},{"name":"y2","type":"int","value":-192},{"name":"next","type":"int","value":913},{"name":"prev","type":"int","value":911}],"polyline":[{"x":0,"y":0},{"x":17,"y":7}]},{"id":1928,"x":163,"y":-192,"visible":true,"properties":[{"name":"layer","type":"int","value":3},{"name":"group","type":"int","value":148},{"name":"id","type":"int","value":913},{"name":"fh_layer","type":"int","value":3},{"name":"fh_group","type":"int","value":148},{"name":"fh_id","type":"int","value":913},{"name":"x1","type":"int","value":163},{"name":"x2","type":"int","value":188},{"name":"y1","type":"int","value":-192},{"name":"y2","type":"int","value":-193},{"name":"next","type":"int","value":914},{"name":"prev","type":"int","value":912}],"polyline":[{"x":0,"y":0},{"x":25,"y":-1}]},{"id":1929,"x":188,"y":-193,"visible":true,"properties":[{"name":"layer","type":"int","value":3},{"name":"group","type":"int","value":148},{"name":"id","type":"int","value":914},{"name":"fh_layer","type":"int","value":3},{"name":"fh_group","type":"int","value":148},{"name":"fh_id","type":"int","value":914},{"name":"x1","type":"int","value":188},{"name":"x2","type":"int","value":202},{"name":"y1","type":"int","value":-193},{"name":"y2","type":"int","value":-200},{"name":"next","type":"int","value":915},{"name":"prev","type":"int","value":913}],"polyline":[{"x":0,"y":0},{"x":14,"y":-7}]},{"id":1930,"x":202,"y":-200,"visible":true,"properties":[{"name":"layer","type":"int","value":3},{"name":"group","type":"int","value":148},{"name":"id","type":"int","value":915},{"name":"fh_layer","type":"int","value":3},{"name":"fh_group","type":"int","value":148},{"name":"fh_id","type":"int","value":915},{"name":"x1","type":"int","value":202},{"name":"x2","type":"int","value":237},{"name":"y1","type":"int","value":-200},{"name":"y2","type":"int","value":-204},{"name":"next","type":"int","value":916},{"name":"prev","type":"int","value":914}],"polyline":[{"x":0,"y":0},{"x":35,"y":-4}]},{"id":1931,"x":237,"y":-204,"visible":true,"properties":[{"name":"layer","type":"int","value":3},{"name":"group","type":"int","value":148},{"name":"id","type":"int","value":916},{"name":"fh_layer","type":"int","value":3},{"name":"fh_group","type":"int","value":148},{"name":"fh_id","type":"int","value":916},{"name":"x1","type":"int","value":237},{"name":"x2","type":"int","value":257},{"name":"y1","type":"int","value":-204},{"name":"y2","type":"int","value":-196},{"name":"next","type":"int","value":917},{"name":"prev","type":"int","value":915}],"polyline":[{"x":0,"y":0},{"x":20,"y":8}]},{"id":1932,"x":257,"y":-196,"visible":true,"properties":[{"name":"layer","type":"int","value":3},{"name":"group","type":"int","value":148},{"name":"id","type":"int","value":917},{"name":"fh_layer","type":"int","value":3},{"name":"fh_group","type":"int","value":148},{"name":"fh_id","type":"int","value":917},{"name":"x1","type":"int","value":257},{"name":"x2","type":"int","value":287},{"name":"y1","type":"int","value":-196},{"name":"y2","type":"int","value":-204},{"name":"next","type":"int","value":918},{"name":"prev","type":"int","value":916}],"polyline":[{"x":0,"y":0},{"x":30,"y":-8}]},{"id":1933,"x":287,"y":-204,"visible":true,"properties":[{"name":"layer","type":"int","value":3},{"name":"group","type":"int","value":148},{"name":"id","type":"int","value":918},{"name":"fh_layer","type":"int","value":3},{"name":"fh_group","type":"int","value":148},{"name":"fh_id","type":"int","value":918},{"name":"x1","type":"int","value":287},{"name":"x2","type":"int","value":315},{"name":"y1","type":"int","value":-204},{"name":"y2","type":"int","value":-198},{"name":"next","type":"int","value":0},{"name":"prev","type":"int","value":917}],"polyline":[{"x":0,"y":0},{"x":28,"y":6}]}]},{"id":13,"name":"ladderRope","type":"objectgroup","visible":true,"opacity":1,"objects":[{"id":1934,"x":-443,"y":-195,"visible":true,"properties":[{"name":"ladder_id","type":"int","value":1},{"name":"l","type":"int","value":1},{"name":"x","type":"int","value":-443},{"name":"uf","type":"int","value":1},{"name":"y1","type":"int","value":-195},{"name":"y2","type":"int","value":-50},{"name":"page","type":"int","value":3}],"polyline":[{"x":0,"y":0},{"x":0,"y":145}]},{"id":1935,"x":1025,"y":-5,"visible":true,"properties":[{"name":"ladder_id","type":"int","value":2},{"name":"l","type":"int","value":0},{"name":"x","type":"int","value":1025},{"name":"uf","type":"int","value":1},{"name":"y1","type":"int","value":-5},{"name":"y2","type":"int","value":195},{"name":"page","type":"int","value":3}],"polyline":[{"x":0,"y":0},{"x":0,"y":200}]},{"id":1936,"x":182,"y":-190,"visible":true,"properties":[{"name":"ladder_id","type":"int","value":3},{"name":"l","type":"int","value":0},{"name":"x","type":"int","value":182},{"name":"uf","type":"int","value":1},{"name":"y1","type":"int","value":-190},{"name":"y2","type":"int","value":-52},{"name":"page","type":"int","value":3}],"polyline":[{"x":0,"y":0},{"x":0,"y":138}]},{"id":1937,"x":357,"y":-27,"visible":true,"properties":[{"name":"ladder_id","type":"int","value":4},{"name":"l","type":"int","value":0},{"name":"x","type":"int","value":357},{"name":"uf","type":"int","value":1},{"name":"y1","type":"int","value":-27},{"name":"y2","type":"int","value":352},{"name":"page","type":"int","value":3}],"polyline":[{"x":0,"y":0},{"x":0,"y":379}]},{"id":1938,"x":198,"y":318,"visible":true,"properties":[{"name":"ladder_id","type":"int","value":5},{"name":"l","type":"int","value":0},{"name":"x","type":"int","value":198},{"name":"uf","type":"int","value":1},{"name":"y1","type":"int","value":318},{"name":"y2","type":"int","value":549},{"name":"page","type":"int","value":3}],"polyline":[{"x":0,"y":0},{"x":0,"y":231}]},{"id":1939,"x":490,"y":545,"visible":true,"properties":[{"name":"ladder_id","type":"int","value":6},{"name":"l","type":"int","value":0},{"name":"x","type":"int","value":490},{"name":"uf","type":"int","value":1},{"name":"y1","type":"int","value":545},{"name":"y2","type":"int","value":746},{"name":"page","type":"int","value":3}],"polyline":[{"x":0,"y":0},{"x":0,"y":201}]},{"id":1940,"x":119,"y":526,"visible":true,"properties":[{"name":"ladder_id","type":"int","value":7},{"name":"l","type":"int","value":0},{"name":"x","type":"int","value":119},{"name":"uf","type":"int","value":1},{"name":"y1","type":"int","value":526},{"name":"y2","type":"int","value":728},{"name":"page","type":"int","value":3}],"polyline":[{"x":0,"y":0},{"x":0,"y":202}]},{"id":1941,"x":57,"y":740,"visible":true,"properties":[{"name":"ladder_id","type":"int","value":8},{"name":"l","type":"int","value":0},{"name":"x","type":"int","value":57},{"name":"uf","type":"int","value":1},{"name":"y1","type":"int","value":740},{"name":"y2","type":"int","value":972},{"name":"page","type":"int","value":3}],"polyline":[{"x":0,"y":0},{"x":0,"y":232}]},{"id":1942,"x":116,"y":1035,"visible":true,"properties":[{"name":"ladder_id","type":"int","value":9},{"name":"l","type":"int","value":0},{"name":"x","type":"int","value":116},{"name":"uf","type":"int","value":1},{"name":"y1","type":"int","value":1035},{"name":"y2","type":"int","value":1145},{"name":"page","type":"int","value":3}],"polyline":[{"x":0,"y":0},{"x":0,"y":110}]},{"id":1943,"x":33,"y":1177,"visible":true,"properties":[{"name":"ladder_id","type":"int","value":10},{"name":"l","type":"int","value":0},{"name":"x","type":"int","value":33},{"name":"uf","type":"int","value":1},{"name":"y1","type":"int","value":1177},{"name":"y2","type":"int","value":1378},{"name":"page","type":"int","value":3}],"polyline":[{"x":0,"y":0},{"x":0,"y":201}]},{"id":1944,"x":602,"y":1583,"visible":true,"properties":[{"name":"ladder_id","type":"int","value":11},{"name":"l","type":"int","value":0},{"name":"x","type":"int","value":602},{"name":"uf","type":"int","value":1},{"name":"y1","type":"int","value":1583},{"name":"y2","type":"int","value":1785},{"name":"page","type":"int","value":3}],"polyline":[{"x":0,"y":0},{"x":0,"y":202}]},{"id":1945,"x":469,"y":1285,"visible":true,"properties":[{"name":"ladder_id","type":"int","value":12},{"name":"l","type":"int","value":0},{"name":"x","type":"int","value":469},{"name":"uf","type":"int","value":1},{"name":"y1","type":"int","value":1285},{"name":"y2","type":"int","value":1606},{"name":"page","type":"int","value":3}],"polyline":[{"x":0,"y":0},{"x":0,"y":321}]},{"id":1946,"x":163,"y":1452,"visible":true,"properties":[{"name":"ladder_id","type":"int","value":13},{"name":"l","type":"int","value":0},{"name":"x","type":"int","value":163},{"name":"uf","type":"int","value":1},{"name":"y1","type":"int","value":1452},{"name":"y2","type":"int","value":1683},{"name":"page","type":"int","value":3}],"polyline":[{"x":0,"y":0},{"x":0,"y":231}]},{"id":1947,"x":861,"y":1002,"visible":true,"properties":[{"name":"ladder_id","type":"int","value":14},{"name":"l","type":"int","value":1},{"name":"x","type":"int","value":861},{"name":"uf","type":"int","value":1},{"name":"y1","type":"int","value":1002},{"name":"y2","type":"int","value":1146},{"name":"page","type":"int","value":3}],"polyline":[{"x":0,"y":0},{"x":0,"y":144}]},{"id":1948,"x":1629,"y":986,"visible":true,"properties":[{"name":"ladder_id","type":"int","value":15},{"name":"l","type":"int","value":0},{"name":"x","type":"int","value":1629},{"name":"uf","type":"int","value":1},{"name":"y1","type":"int","value":986},{"name":"y2","type":"int","value":1217},{"name":"page","type":"int","value":3}],"polyline":[{"x":0,"y":0},{"x":0,"y":231}]},{"id":1949,"x":1767,"y":1769,"visible":true,"properties":[{"name":"ladder_id","type":"int","value":16},{"name":"l","type":"int","value":1},{"name":"x","type":"int","value":1767},{"name":"uf","type":"int","value":1},{"name":"y1","type":"int","value":1769},{"name":"y2","type":"int","value":1859},{"name":"page","type":"int","value":3}],"polyline":[{"x":0,"y":0},{"x":0,"y":90}]},{"id":1950,"x":1726,"y":1461,"visible":true,"properties":[{"name":"ladder_id","type":"int","value":17},{"name":"l","type":"int","value":0},{"name":"x","type":"int","value":1726},{"name":"uf","type":"int","value":1},{"name":"y1","type":"int","value":1461},{"name":"y2","type":"int","value":1723},{"name":"page","type":"int","value":3}],"polyline":[{"x":0,"y":0},{"x":0,"y":262}]},{"id":1951,"x":1814,"y":1134,"visible":true,"properties":[{"name":"ladder_id","type":"int","value":18},{"name":"l","type":"int","value":0},{"name":"x","type":"int","value":1814},{"name":"uf","type":"int","value":1},{"name":"y1","type":"int","value":1134},{"name":"y2","type":"int","value":1365},{"name":"page","type":"int","value":3}],"polyline":[{"x":0,"y":0},{"x":0,"y":231}]},{"id":1952,"x":1347,"y":722,"visible":true,"properties":[{"name":"ladder_id","type":"int","value":19},{"name":"l","type":"int","value":0},{"name":"x","type":"int","value":1347},{"name":"uf","type":"int","value":1},{"name":"y1","type":"int","value":722},{"name":"y2","type":"int","value":923},{"name":"page","type":"int","value":3}],"polyline":[{"x":0,"y":0},{"x":0,"y":201}]},{"id":1953,"x":1146,"y":487,"visible":true,"properties":[{"name":"ladder_id","type":"int","value":20},{"name":"l","type":"int","value":0},{"name":"x","type":"int","value":1146},{"name":"uf","type":"int","value":1},{"name":"y1","type":"int","value":487},{"name":"y2","type":"int","value":689},{"name":"page","type":"int","value":3}],"polyline":[{"x":0,"y":0},{"x":0,"y":202}]},{"id":1954,"x":2102,"y":286,"visible":true,"properties":[{"name":"ladder_id","type":"int","value":21},{"name":"l","type":"int","value":0},{"name":"x","type":"int","value":2102},{"name":"uf","type":"int","value":1},{"name":"y1","type":"int","value":286},{"name":"y2","type":"int","value":487},{"name":"page","type":"int","value":3}],"polyline":[{"x":0,"y":0},{"x":0,"y":201}]},{"id":1955,"x":2165,"y":73,"visible":true,"properties":[{"name":"ladder_id","type":"int","value":22},{"name":"l","type":"int","value":0},{"name":"x","type":"int","value":2165},{"name":"uf","type":"int","value":1},{"name":"y1","type":"int","value":73},{"name":"y2","type":"int","value":214},{"name":"page","type":"int","value":3}],"polyline":[{"x":0,"y":0},{"x":0,"y":141}]}]},{"id":14,"name":"miniMap","type":"objectgroup","visible":true,"opacity":1,"objects":[{"id":1956,"x":630,"y":422,"visible":true,"properties":[{"name":"mag","type":"int","value":4},{"name":"centerX","type":"int","value":630},{"name":"centerY","type":"int","value":422},{"name":"canvas_path","type":"string","value":"../../images/30596.png"},{"name":"canvas_width","type":"int","value":196},{"name":"canvas_height","type":"int","value":165},{"name":"canvas_origin_x","type":"int","value":0},{"name":"canvas_origin_y","type":"int","value":0}],"point":true}]}],"tilesets":[{"firstgid":1,"source":"../../tilesets/bg_blueCave.tsj"},{"firstgid":8,"source":"../../tilesets/tile_blueCave.tsj"},{"firstgid":27,"source":"../../tilesets/obj_connect_rope_0.tsj"},{"firstgid":31,"source":"../../tilesets/obj_connect_ladder_0.tsj"},{"firstgid":36,"source":"../../tilesets/obj_dungeon_blueCave_acc.tsj"},{"firstgid":42,"source":"../../tilesets/obj_dungeon_blueCave_foot.tsj"}],"properties":[{"name":"bgm","type":"string","value":"Bgm02/EvilEyes"},{"name":"swim","type":"int","value":0},{"name":"town","type":"int","value":0},{"name":"cloud","type":"int","value":0},{"name":"mapMark","type":"string","value":"PcZone"},{"name":"mobRate","type":"float","value":1.100000023841858},{"name":"version","type":"int","value":10},{"name":"returnMap","type":"int","value":193000000},{"name":"fieldLimit","type":"int","value":8192},{"name":"hideMinimap","type":"int","value":0},{"name":"forcedReturn","type":"int","value":999999999}]}