{"type":"map","orientation":"orthogonal","renderorder":"right-down","infinite":false,"tilewidth":1,"tileheight":1,"width":1498,"height":910,"nextlayerid":18,"nextobjectid":155,"layers":[{"id":1,"name":"layer_4_obj","type":"objectgroup","visible":true,"opacity":1,"objects":[{"id":1,"x":-1623,"y":211,"visible":true,"properties":[{"name":"layer","type":"int","value":4},{"name":"resource_index","type":"int","value":0},{"name":"oS","type":"string","value":"acc2"},{"name":"l0","type":"string","value":"darkSwamp"},{"name":"l1","type":"string","value":"artificiality"},{"name":"l2","type":"string","value":"4"},{"name":"z","type":"int","value":3},{"name":"zM","type":"int","value":9},{"name":"f","type":"int","value":0}],"gid":28,"width":710,"height":457},{"id":2,"x":-293,"y":98,"visible":true,"properties":[{"name":"layer","type":"int","value":4},{"name":"resource_index","type":"int","value":1},{"name":"oS","type":"string","value":"effect"},{"name":"l0","type":"string","value":"quest"},{"name":"l1","type":"string","value":"gate"},{"name":"l2","type":"string","value":"1"},{"name":"z","type":"int","value":5},{"name":"zM","type":"int","value":10},{"name":"f","type":"int","value":0}],"gid":15,"width":146,"height":154},{"id":3,"x":-432,"y":170,"visible":true,"properties":[{"name":"layer","type":"int","value":4},{"name":"resource_index","type":"int","value":2},{"name":"oS","type":"string","value":"acc2"},{"name":"l0","type":"string","value":"darkSwamp"},{"name":"l1","type":"string","value":"artificiality"},{"name":"l2","type":"string","value":"1"},{"name":"z","type":"int","value":3},{"name":"zM","type":"int","value":10},{"name":"f","type":"int","value":0}],"gid":30,"width":324,"height":270},{"id":4,"x":-411,"y":198,"visible":true,"properties":[{"name":"layer","type":"int","value":4},{"name":"resource_index","type":"int","value":3},{"name":"oS","type":"string","value":"acc2"},{"name":"l0","type":"string","value":"darkSwamp"},{"name":"l1","type":"string","value":"nature"},{"name":"l2","type":"string","value":"0"},{"name":"z","type":"int","value":1},{"name":"zM","type":"int","value":10},{"name":"f","type":"int","value":0}],"gid":25,"width":186,"height":175},{"id":5,"x":-1071,"y":-30,"visible":true,"properties":[{"name":"layer","type":"int","value":4},{"name":"resource_index","type":"int","value":4},{"name":"oS","type":"string","value":"acc2"},{"name":"l0","type":"string","value":"darkSwamp"},{"name":"l1","type":"string","value":"foot"},{"name":"l2","type":"string","value":"8"},{"name":"z","type":"int","value":3},{"name":"zM","type":"int","value":9},{"name":"f","type":"int","value":0}],"gid":19,"width":220,"height":138},{"id":6,"x":-877,"y":-29,"visible":true,"properties":[{"name":"layer","type":"int","value":4},{"name":"resource_index","type":"int","value":5},{"name":"oS","type":"string","value":"acc2"},{"name":"l0","type":"string","value":"darkSwamp"},{"name":"l1","type":"string","value":"foot"},{"name":"l2","type":"string","value":"9"},{"name":"z","type":"int","value":2},{"name":"zM","type":"int","value":9},{"name":"f","type":"int","value":0}],"gid":20,"width":206,"height":120},{"id":7,"x":-638,"y":-17,"visible":true,"properties":[{"name":"layer","type":"int","value":4},{"name":"resource_index","type":"int","value":6},{"name":"oS","type":"string","value":"acc2"},{"name":"l0","type":"string","value":"darkSwamp"},{"name":"l1","type":"string","value":"foot"},{"name":"l2","type":"string","value":"8"},{"name":"z","type":"int","value":3},{"name":"zM","type":"int","value":10},{"name":"f","type":"int","value":0}],"gid":19,"width":220,"height":138},{"id":8,"x":-1209,"y":-166,"visible":true,"properties":[{"name":"layer","type":"int","value":4},{"name":"resource_index","type":"int","value":7},{"name":"oS","type":"string","value":"acc2"},{"name":"l0","type":"string","value":"darkSwamp"},{"name":"l1","type":"string","value":"foot"},{"name":"l2","type":"string","value":"6"},{"name":"z","type":"int","value":3},{"name":"zM","type":"int","value":9},{"name":"f","type":"int","value":0}],"gid":23,"width":377,"height":238},{"id":9,"x":-901,"y":-229,"visible":true,"properties":[{"name":"layer","type":"int","value":4},{"name":"resource_index","type":"int","value":8},{"name":"oS","type":"string","value":"acc2"},{"name":"l0","type":"string","value":"darkSwamp"},{"name":"l1","type":"string","value":"foot"},{"name":"l2","type":"string","value":"8"},{"name":"z","type":"int","value":4},{"name":"zM","type":"int","value":9},{"name":"f","type":"int","value":0}],"gid":19,"width":220,"height":138},{"id":10,"x":-711,"y":-226,"visible":true,"properties":[{"name":"layer","type":"int","value":4},{"name":"resource_index","type":"int","value":9},{"name":"oS","type":"string","value":"acc2"},{"name":"l0","type":"string","value":"darkSwamp"},{"name":"l1","type":"string","value":"foot"},{"name":"l2","type":"string","value":"9"},{"name":"z","type":"int","value":3},{"name":"zM","type":"int","value":9},{"name":"f","type":"int","value":0}],"gid":20,"width":206,"height":120},{"id":11,"x":-561,"y":-170,"visible":true,"properties":[{"name":"layer","type":"int","value":4},{"name":"resource_index","type":"int","value":10},{"name":"oS","type":"string","value":"acc2"},{"name":"l0","type":"string","value":"darkSwamp"},{"name":"l1","type":"string","value":"foot"},{"name":"l2","type":"string","value":"5"},{"name":"z","type":"int","value":2},{"name":"zM","type":"int","value":9},{"name":"f","type":"int","value":0}],"gid":18,"width":370,"height":243},{"id":12,"x":-624,"y":169,"visible":true,"properties":[{"name":"layer","type":"int","value":4},{"name":"resource_index","type":"int","value":11},{"name":"oS","type":"string","value":"acc2"},{"name":"l0","type":"string","value":"darkSwamp"},{"name":"l1","type":"string","value":"foot"},{"name":"l2","type":"string","value":"4"},{"name":"z","type":"int","value":1},{"name":"zM","type":"int","value":9},{"name":"f","type":"int","value":0}],"gid":16,"width":224,"height":107},{"id":13,"x":-1052,"y":216,"visible":true,"properties":[{"name":"layer","type":"int","value":4},{"name":"resource_index","type":"int","value":12},{"name":"oS","type":"string","value":"acc2"},{"name":"l0","type":"string","value":"darkSwamp"},{"name":"l1","type":"string","value":"foot"},{"name":"l2","type":"string","value":"3"},{"name":"z","type":"int","value":2},{"name":"zM","type":"int","value":9},{"name":"f","type":"int","value":0}],"gid":17,"width":314,"height":210},{"id":14,"x":-806,"y":177,"visible":true,"properties":[{"name":"layer","type":"int","value":4},{"name":"resource_index","type":"int","value":13},{"name":"oS","type":"string","value":"acc2"},{"name":"l0","type":"string","value":"darkSwamp"},{"name":"l1","type":"string","value":"foot"},{"name":"l2","type":"string","value":"4"},{"name":"z","type":"int","value":2},{"name":"zM","type":"int","value":9},{"name":"f","type":"int","value":0}],"gid":16,"width":224,"height":107}]},{"id":2,"name":"layer_5_obj","type":"objectgroup","visible":true,"opacity":1,"objects":[{"id":15,"x":-132,"y":287,"visible":true,"properties":[{"name":"layer","type":"int","value":5},{"name":"resource_index","type":"int","value":0},{"name":"oS","type":"string","value":"acc2"},{"name":"l0","type":"string","value":"darkSwamp"},{"name":"l1","type":"string","value":"nature"},{"name":"l2","type":"string","value":"4"},{"name":"z","type":"int","value":7},{"name":"zM","type":"int","value":0},{"name":"f","type":"int","value":0}],"gid":26,"width":189,"height":189},{"id":16,"x":-492,"y":32,"visible":true,"properties":[{"name":"layer","type":"int","value":5},{"name":"resource_index","type":"int","value":1},{"name":"oS","type":"string","value":"connect"},{"name":"l0","type":"string","value":"rope"},{"name":"l1","type":"string","value":"7"},{"name":"l2","type":"string","value":"2"},{"name":"z","type":"int","value":3},{"name":"zM","type":"int","value":13},{"name":"f","type":"int","value":0}],"gid":11,"width":24,"height":64},{"id":17,"x":-1455,"y":287,"visible":true,"properties":[{"name":"layer","type":"int","value":5},{"name":"resource_index","type":"int","value":2},{"name":"oS","type":"string","value":"acc2"},{"name":"l0","type":"string","value":"darkSwamp"},{"name":"l1","type":"string","value":"nature"},{"name":"l2","type":"string","value":"4"},{"name":"z","type":"int","value":7},{"name":"zM","type":"int","value":1},{"name":"f","type":"int","value":0}],"gid":26,"width":189,"height":189},{"id":18,"x":-447,"y":-1489,"visible":true,"properties":[{"name":"layer","type":"int","value":5},{"name":"resource_index","type":"int","value":3},{"name":"oS","type":"string","value":"connect"},{"name":"l0","type":"string","value":"rope"},{"name":"l1","type":"string","value":"7"},{"name":"l2","type":"string","value":"0"},{"name":"z","type":"int","value":3},{"name":"zM","type":"int","value":32},{"name":"f","type":"int","value":0}],"gid":12,"width":13,"height":27},{"id":19,"x":-347,"y":-1513,"visible":true,"properties":[{"name":"layer","type":"int","value":5},{"name":"resource_index","type":"int","value":4},{"name":"oS","type":"string","value":"connect"},{"name":"l0","type":"string","value":"rope"},{"name":"l1","type":"string","value":"7"},{"name":"l2","type":"string","value":"0"},{"name":"z","type":"int","value":3},{"name":"zM","type":"int","value":33},{"name":"f","type":"int","value":0}],"gid":12,"width":13,"height":27},{"id":20,"x":-1266,"y":287,"visible":true,"properties":[{"name":"layer","type":"int","value":5},{"name":"resource_index","type":"int","value":5},{"name":"oS","type":"string","value":"acc2"},{"name":"l0","type":"string","value":"darkSwamp"},{"name":"l1","type":"string","value":"nature"},{"name":"l2","type":"string","value":"4"},{"name":"z","type":"int","value":7},{"name":"zM","type":"int","value":2},{"name":"f","type":"int","value":0}],"gid":26,"width":189,"height":189},{"id":21,"x":-1644,"y":287,"visible":true,"properties":[{"name":"layer","type":"int","value":5},{"name":"resource_index","type":"int","value":6},{"name":"oS","type":"string","value":"acc2"},{"name":"l0","type":"string","value":"darkSwamp"},{"name":"l1","type":"string","value":"nature"},{"name":"l2","type":"string","value":"4"},{"name":"z","type":"int","value":7},{"name":"zM","type":"int","value":3},{"name":"f","type":"int","value":0}],"gid":26,"width":189,"height":189},{"id":22,"x":-1078,"y":-1539,"visible":true,"properties":[{"name":"layer","type":"int","value":5},{"name":"resource_index","type":"int","value":7},{"name":"oS","type":"string","value":"connect"},{"name":"l0","type":"string","value":"rope"},{"name":"l1","type":"string","value":"7"},{"name":"l2","type":"string","value":"0"},{"name":"z","type":"int","value":3},{"name":"zM","type":"int","value":34},{"name":"f","type":"int","value":0}],"gid":12,"width":13,"height":27},{"id":23,"x":-321,"y":287,"visible":true,"properties":[{"name":"layer","type":"int","value":5},{"name":"resource_index","type":"int","value":8},{"name":"oS","type":"string","value":"acc2"},{"name":"l0","type":"string","value":"darkSwamp"},{"name":"l1","type":"string","value":"nature"},{"name":"l2","type":"string","value":"4"},{"name":"z","type":"int","value":7},{"name":"zM","type":"int","value":4},{"name":"f","type":"int","value":0}],"gid":26,"width":189,"height":189},{"id":24,"x":-510,"y":287,"visible":true,"properties":[{"name":"layer","type":"int","value":5},{"name":"resource_index","type":"int","value":9},{"name":"oS","type":"string","value":"acc2"},{"name":"l0","type":"string","value":"darkSwamp"},{"name":"l1","type":"string","value":"nature"},{"name":"l2","type":"string","value":"4"},{"name":"z","type":"int","value":7},{"name":"zM","type":"int","value":5},{"name":"f","type":"int","value":0}],"gid":26,"width":189,"height":189},{"id":25,"x":-699,"y":287,"visible":true,"properties":[{"name":"layer","type":"int","value":5},{"name":"resource_index","type":"int","value":10},{"name":"oS","type":"string","value":"acc2"},{"name":"l0","type":"string","value":"darkSwamp"},{"name":"l1","type":"string","value":"nature"},{"name":"l2","type":"string","value":"4"},{"name":"z","type":"int","value":7},{"name":"zM","type":"int","value":6},{"name":"f","type":"int","value":0}],"gid":26,"width":189,"height":189},{"id":26,"x":-888,"y":287,"visible":true,"properties":[{"name":"layer","type":"int","value":5},{"name":"resource_index","type":"int","value":11},{"name":"oS","type":"string","value":"acc2"},{"name":"l0","type":"string","value":"darkSwamp"},{"name":"l1","type":"string","value":"nature"},{"name":"l2","type":"string","value":"4"},{"name":"z","type":"int","value":7},{"name":"zM","type":"int","value":7},{"name":"f","type":"int","value":0}],"gid":26,"width":189,"height":189},{"id":27,"x":-1077,"y":287,"visible":true,"properties":[{"name":"layer","type":"int","value":5},{"name":"resource_index","type":"int","value":12},{"name":"oS","type":"string","value":"acc2"},{"name":"l0","type":"string","value":"darkSwamp"},{"name":"l1","type":"string","value":"nature"},{"name":"l2","type":"string","value":"4"},{"name":"z","type":"int","value":7},{"name":"zM","type":"int","value":8},{"name":"f","type":"int","value":0}],"gid":26,"width":189,"height":189},{"id":28,"x":-730,"y":-246,"visible":true,"properties":[{"name":"layer","type":"int","value":5},{"name":"resource_index","type":"int","value":13},{"name":"oS","type":"string","value":"connect"},{"name":"l0","type":"string","value":"rope"},{"name":"l1","type":"string","value":"7"},{"name":"l2","type":"string","value":"1"},{"name":"z","type":"int","value":3},{"name":"zM","type":"int","value":22},{"name":"f","type":"int","value":0}],"gid":13,"width":28,"height":82},{"id":29,"x":-732,"y":-216,"visible":true,"properties":[{"name":"layer","type":"int","value":5},{"name":"resource_index","type":"int","value":14},{"name":"oS","type":"string","value":"connect"},{"name":"l0","type":"string","value":"rope"},{"name":"l1","type":"string","value":"7"},{"name":"l2","type":"string","value":"3"},{"name":"z","type":"int","value":3},{"name":"zM","type":"int","value":20},{"name":"f","type":"int","value":0}],"gid":10,"width":19,"height":30},{"id":30,"x":-594,"y":-313,"visible":true,"properties":[{"name":"layer","type":"int","value":5},{"name":"resource_index","type":"int","value":15},{"name":"oS","type":"string","value":"connect"},{"name":"l0","type":"string","value":"rope"},{"name":"l1","type":"string","value":"7"},{"name":"l2","type":"string","value":"0"},{"name":"z","type":"int","value":3},{"name":"zM","type":"int","value":23},{"name":"f","type":"int","value":0}],"gid":12,"width":13,"height":27},{"id":31,"x":-492,"y":-32,"visible":true,"properties":[{"name":"layer","type":"int","value":5},{"name":"resource_index","type":"int","value":16},{"name":"oS","type":"string","value":"connect"},{"name":"l0","type":"string","value":"rope"},{"name":"l1","type":"string","value":"7"},{"name":"l2","type":"string","value":"1"},{"name":"z","type":"int","value":3},{"name":"zM","type":"int","value":15},{"name":"f","type":"int","value":0}],"gid":13,"width":28,"height":82},{"id":32,"x":-597,"y":-201,"visible":true,"properties":[{"name":"layer","type":"int","value":5},{"name":"resource_index","type":"int","value":17},{"name":"oS","type":"string","value":"connect"},{"name":"l0","type":"string","value":"rope"},{"name":"l1","type":"string","value":"7"},{"name":"l2","type":"string","value":"3"},{"name":"z","type":"int","value":3},{"name":"zM","type":"int","value":19},{"name":"f","type":"int","value":0}],"gid":10,"width":19,"height":30},{"id":33,"x":-729,"y":-328,"visible":true,"properties":[{"name":"layer","type":"int","value":5},{"name":"resource_index","type":"int","value":18},{"name":"oS","type":"string","value":"connect"},{"name":"l0","type":"string","value":"rope"},{"name":"l1","type":"string","value":"7"},{"name":"l2","type":"string","value":"0"},{"name":"z","type":"int","value":3},{"name":"zM","type":"int","value":24},{"name":"f","type":"int","value":0}],"gid":12,"width":13,"height":27},{"id":34,"x":-491,"y":-114,"visible":true,"properties":[{"name":"layer","type":"int","value":5},{"name":"resource_index","type":"int","value":19},{"name":"oS","type":"string","value":"connect"},{"name":"l0","type":"string","value":"rope"},{"name":"l1","type":"string","value":"7"},{"name":"l2","type":"string","value":"0"},{"name":"z","type":"int","value":3},{"name":"zM","type":"int","value":17},{"name":"f","type":"int","value":0}],"gid":12,"width":13,"height":27},{"id":35,"x":-595,"y":-231,"visible":true,"properties":[{"name":"layer","type":"int","value":5},{"name":"resource_index","type":"int","value":20},{"name":"oS","type":"string","value":"connect"},{"name":"l0","type":"string","value":"rope"},{"name":"l1","type":"string","value":"7"},{"name":"l2","type":"string","value":"1"},{"name":"z","type":"int","value":3},{"name":"zM","type":"int","value":21},{"name":"f","type":"int","value":0}],"gid":13,"width":28,"height":82},{"id":36,"x":-494,"y":62,"visible":true,"properties":[{"name":"layer","type":"int","value":5},{"name":"resource_index","type":"int","value":21},{"name":"oS","type":"string","value":"connect"},{"name":"l0","type":"string","value":"rope"},{"name":"l1","type":"string","value":"7"},{"name":"l2","type":"string","value":"3"},{"name":"z","type":"int","value":3},{"name":"zM","type":"int","value":11},{"name":"f","type":"int","value":0}],"gid":10,"width":19,"height":30},{"id":37,"x":-763,"y":-116,"visible":true,"properties":[{"name":"layer","type":"int","value":5},{"name":"resource_index","type":"int","value":22},{"name":"oS","type":"string","value":"connect"},{"name":"l0","type":"string","value":"rope"},{"name":"l1","type":"string","value":"7"},{"name":"l2","type":"string","value":"0"},{"name":"z","type":"int","value":3},{"name":"zM","type":"int","value":18},{"name":"f","type":"int","value":0}],"gid":12,"width":13,"height":27},{"id":38,"x":-764,"y":-52,"visible":true,"properties":[{"name":"layer","type":"int","value":5},{"name":"resource_index","type":"int","value":23},{"name":"oS","type":"string","value":"connect"},{"name":"l0","type":"string","value":"rope"},{"name":"l1","type":"string","value":"7"},{"name":"l2","type":"string","value":"2"},{"name":"z","type":"int","value":3},{"name":"zM","type":"int","value":16},{"name":"f","type":"int","value":0}],"gid":11,"width":24,"height":64},{"id":39,"x":-764,"y":30,"visible":true,"properties":[{"name":"layer","type":"int","value":5},{"name":"resource_index","type":"int","value":24},{"name":"oS","type":"string","value":"connect"},{"name":"l0","type":"string","value":"rope"},{"name":"l1","type":"string","value":"7"},{"name":"l2","type":"string","value":"1"},{"name":"z","type":"int","value":3},{"name":"zM","type":"int","value":14},{"name":"f","type":"int","value":0}],"gid":13,"width":28,"height":82},{"id":40,"x":-766,"y":60,"visible":true,"properties":[{"name":"layer","type":"int","value":5},{"name":"resource_index","type":"int","value":25},{"name":"oS","type":"string","value":"connect"},{"name":"l0","type":"string","value":"rope"},{"name":"l1","type":"string","value":"7"},{"name":"l2","type":"string","value":"3"},{"name":"z","type":"int","value":3},{"name":"zM","type":"int","value":12},{"name":"f","type":"int","value":0}],"gid":10,"width":19,"height":30}]},{"id":3,"name":"layer_6_obj","type":"objectgroup","visible":true,"opacity":1,"objects":[{"id":41,"x":-1708,"y":-1339,"visible":true,"properties":[{"name":"layer","type":"int","value":6},{"name":"resource_index","type":"int","value":0},{"name":"oS","type":"string","value":"acc2"},{"name":"l0","type":"string","value":"darkSwamp"},{"name":"l1","type":"string","value":"nature"},{"name":"l2","type":"string","value":"5"},{"name":"z","type":"int","value":3},{"name":"zM","type":"int","value":25},{"name":"f","type":"int","value":0}],"gid":27,"width":251,"height":252},{"id":42,"x":-1457,"y":-1339,"visible":true,"properties":[{"name":"layer","type":"int","value":6},{"name":"resource_index","type":"int","value":1},{"name":"oS","type":"string","value":"acc2"},{"name":"l0","type":"string","value":"darkSwamp"},{"name":"l1","type":"string","value":"nature"},{"name":"l2","type":"string","value":"5"},{"name":"z","type":"int","value":3},{"name":"zM","type":"int","value":26},{"name":"f","type":"int","value":0}],"gid":27,"width":251,"height":252},{"id":43,"x":-1206,"y":-1339,"visible":true,"properties":[{"name":"layer","type":"int","value":6},{"name":"resource_index","type":"int","value":2},{"name":"oS","type":"string","value":"acc2"},{"name":"l0","type":"string","value":"darkSwamp"},{"name":"l1","type":"string","value":"nature"},{"name":"l2","type":"string","value":"5"},{"name":"z","type":"int","value":3},{"name":"zM","type":"int","value":27},{"name":"f","type":"int","value":0}],"gid":27,"width":251,"height":252},{"id":44,"x":-955,"y":-1339,"visible":true,"properties":[{"name":"layer","type":"int","value":6},{"name":"resource_index","type":"int","value":3},{"name":"oS","type":"string","value":"acc2"},{"name":"l0","type":"string","value":"darkSwamp"},{"name":"l1","type":"string","value":"nature"},{"name":"l2","type":"string","value":"5"},{"name":"z","type":"int","value":3},{"name":"zM","type":"int","value":28},{"name":"f","type":"int","value":0}],"gid":27,"width":251,"height":252},{"id":45,"x":-704,"y":-1339,"visible":true,"properties":[{"name":"layer","type":"int","value":6},{"name":"resource_index","type":"int","value":4},{"name":"oS","type":"string","value":"acc2"},{"name":"l0","type":"string","value":"darkSwamp"},{"name":"l1","type":"string","value":"nature"},{"name":"l2","type":"string","value":"5"},{"name":"z","type":"int","value":3},{"name":"zM","type":"int","value":29},{"name":"f","type":"int","value":0}],"gid":27,"width":251,"height":252},{"id":46,"x":-453,"y":-1339,"visible":true,"properties":[{"name":"layer","type":"int","value":6},{"name":"resource_index","type":"int","value":5},{"name":"oS","type":"string","value":"acc2"},{"name":"l0","type":"string","value":"darkSwamp"},{"name":"l1","type":"string","value":"nature"},{"name":"l2","type":"string","value":"5"},{"name":"z","type":"int","value":3},{"name":"zM","type":"int","value":30},{"name":"f","type":"int","value":0}],"gid":27,"width":251,"height":252},{"id":47,"x":-202,"y":-1339,"visible":true,"properties":[{"name":"layer","type":"int","value":6},{"name":"resource_index","type":"int","value":6},{"name":"oS","type":"string","value":"acc2"},{"name":"l0","type":"string","value":"darkSwamp"},{"name":"l1","type":"string","value":"nature"},{"name":"l2","type":"string","value":"5"},{"name":"z","type":"int","value":3},{"name":"zM","type":"int","value":31},{"name":"f","type":"int","value":0}],"gid":27,"width":251,"height":252}]},{"id":4,"name":"background_back_0","type":"imagelayer","visible":true,"opacity":1,"image":"../../images/27152.png","imagewidth":218,"imageheight":173,"offsetx":-109,"offsety":-86,"repeatx":true,"repeaty":true,"parallaxx":1,"parallaxy":1,"properties":[{"name":"a","type":"int","value":255},{"name":"f","type":"int","value":0},{"name":"x","type":"int","value":0},{"name":"y","type":"int","value":0},{"name":"bS","type":"string","value":"darkSwamp"},{"name":"cx","type":"int","value":0},{"name":"cy","type":"int","value":0},{"name":"no","type":"int","value":0},{"name":"rx","type":"int","value":-2},{"name":"ry","type":"int","value":-2},{"name":"ani","type":"int","value":0},{"name":"type","type":"int","value":3},{"name":"front","type":"int","value":0}]},{"id":5,"name":"background_back_1","type":"imagelayer","visible":true,"opacity":1,"image":"../../images/27153.png","imagewidth":194,"imageheight":580,"offsetx":205,"offsety":-190,"repeatx":true,"repeaty":false,"parallaxx":1,"parallaxy":1,"properties":[{"name":"a","type":"int","value":255},{"name":"f","type":"int","value":0},{"name":"x","type":"int","value":302},{"name":"y","type":"int","value":100},{"name":"bS","type":"string","value":"darkSwamp"},{"name":"cx","type":"int","value":0},{"name":"cy","type":"int","value":0},{"name":"no","type":"int","value":1},{"name":"rx","type":"int","value":0},{"name":"ry","type":"int","value":-4},{"name":"ani","type":"int","value":0},{"name":"type","type":"int","value":1},{"name":"front","type":"int","value":0}]},{"id":6,"name":"background_back_2","type":"imagelayer","visible":true,"opacity":1,"image":"../../images/27154.png","imagewidth":319,"imageheight":553,"offsetx":-192,"offsety":-568,"repeatx":true,"repeaty":false,"parallaxx":1,"parallaxy":1,"properties":[{"name":"a","type":"int","value":255},{"name":"f","type":"int","value":0},{"name":"x","type":"int","value":-33},{"name":"y","type":"int","value":-292},{"name":"bS","type":"string","value":"darkSwamp"},{"name":"cx","type":"int","value":0},{"name":"cy","type":"int","value":0},{"name":"no","type":"int","value":2},{"name":"rx","type":"int","value":-10},{"name":"ry","type":"int","value":-6},{"name":"ani","type":"int","value":0},{"name":"type","type":"int","value":1},{"name":"front","type":"int","value":0}]},{"id":7,"name":"background_back_3","type":"imagelayer","visible":true,"opacity":1,"image":"../../images/27155.png","imagewidth":274,"imageheight":131,"offsetx":-416,"offsety":-156,"repeatx":true,"repeaty":false,"parallaxx":1,"parallaxy":1,"properties":[{"name":"a","type":"int","value":255},{"name":"f","type":"int","value":0},{"name":"x","type":"int","value":-279},{"name":"y","type":"int","value":-91},{"name":"bS","type":"string","value":"darkSwamp"},{"name":"cx","type":"int","value":400},{"name":"cy","type":"int","value":0},{"name":"no","type":"int","value":3},{"name":"rx","type":"int","value":-14},{"name":"ry","type":"int","value":-10},{"name":"ani","type":"int","value":0},{"name":"type","type":"int","value":1},{"name":"front","type":"int","value":0}]},{"id":8,"name":"background_back_4","type":"imagelayer","visible":true,"opacity":1,"image":"../../images/27157.png","imagewidth":146,"imageheight":77,"offsetx":138,"offsety":-92,"repeatx":true,"repeaty":false,"parallaxx":1,"parallaxy":1,"properties":[{"name":"a","type":"int","value":255},{"name":"f","type":"int","value":0},{"name":"x","type":"int","value":211},{"name":"y","type":"int","value":-54},{"name":"bS","type":"string","value":"darkSwamp"},{"name":"cx","type":"int","value":680},{"name":"cy","type":"int","value":0},{"name":"no","type":"int","value":5},{"name":"rx","type":"int","value":-17},{"name":"ry","type":"int","value":-13},{"name":"ani","type":"int","value":0},{"name":"type","type":"int","value":1},{"name":"front","type":"int","value":0}]},{"id":9,"name":"background_back_5","type":"imagelayer","visible":true,"opacity":1,"image":"../../images/27156.png","imagewidth":380,"imageheight":137,"offsetx":-202,"offsety":-132,"repeatx":true,"repeaty":false,"parallaxx":1,"parallaxy":1,"properties":[{"name":"a","type":"int","value":255},{"name":"f","type":"int","value":0},{"name":"x","type":"int","value":-12},{"name":"y","type":"int","value":-64},{"name":"bS","type":"string","value":"darkSwamp"},{"name":"cx","type":"int","value":800},{"name":"cy","type":"int","value":0},{"name":"no","type":"int","value":4},{"name":"rx","type":"int","value":-18},{"name":"ry","type":"int","value":-15},{"name":"ani","type":"int","value":0},{"name":"type","type":"int","value":1},{"name":"front","type":"int","value":0}]},{"id":10,"name":"background_back_6","type":"imagelayer","visible":true,"opacity":1,"image":"../../images/27158.png","imagewidth":226,"imageheight":119,"offsetx":285,"offsety":-30,"repeatx":true,"repeaty":false,"parallaxx":1,"parallaxy":1,"properties":[{"name":"a","type":"int","value":255},{"name":"f","type":"int","value":0},{"name":"x","type":"int","value":398},{"name":"y","type":"int","value":29},{"name":"bS","type":"string","value":"darkSwamp"},{"name":"cx","type":"int","value":1200},{"name":"cy","type":"int","value":0},{"name":"no","type":"int","value":6},{"name":"rx","type":"int","value":-20},{"name":"ry","type":"int","value":-18},{"name":"ani","type":"int","value":0},{"name":"type","type":"int","value":1},{"name":"front","type":"int","value":0}]},{"id":11,"name":"background_back_7","type":"imagelayer","visible":true,"opacity":1,"image":"../../images/27159.png","imagewidth":562,"imageheight":735,"offsetx":-244,"offsety":-599,"repeatx":true,"repeaty":false,"parallaxx":1,"parallaxy":1,"properties":[{"name":"a","type":"int","value":255},{"name":"f","type":"int","value":0},{"name":"x","type":"int","value":37},{"name":"y","type":"int","value":-232},{"name":"bS","type":"string","value":"darkSwamp"},{"name":"cx","type":"int","value":1200},{"name":"cy","type":"int","value":0},{"name":"no","type":"int","value":7},{"name":"rx","type":"int","value":-25},{"name":"ry","type":"int","value":-22},{"name":"ani","type":"int","value":0},{"name":"type","type":"int","value":1},{"name":"front","type":"int","value":0}]},{"id":12,"name":"background_back_8","type":"imagelayer","visible":true,"opacity":1,"image":"../../images/27160.png","imagewidth":519,"imageheight":712,"offsetx":558,"offsety":-601,"repeatx":true,"repeaty":false,"parallaxx":1,"parallaxy":1,"properties":[{"name":"a","type":"int","value":255},{"name":"f","type":"int","value":0},{"name":"x","type":"int","value":817},{"name":"y","type":"int","value":-245},{"name":"bS","type":"string","value":"darkSwamp"},{"name":"cx","type":"int","value":1400},{"name":"cy","type":"int","value":0},{"name":"no","type":"int","value":8},{"name":"rx","type":"int","value":-30},{"name":"ry","type":"int","value":-25},{"name":"ani","type":"int","value":0},{"name":"type","type":"int","value":1},{"name":"front","type":"int","value":0}]},{"id":13,"name":"portal","type":"objectgroup","visible":true,"opacity":1,"objects":[{"id":48,"x":-607,"y":32,"visible":true,"properties":[{"name":"x","type":"int","value":-607},{"name":"y","type":"int","value":32},{"name":"pn","type":"string","value":"sp"},{"name":"pt","type":"int","value":0},{"name":"tm","type":"int","value":999999999},{"name":"tn","type":"string","value":""}],"point":true},{"id":49,"x":-1295,"y":102,"visible":true,"properties":[{"name":"x","type":"int","value":-1295},{"name":"y","type":"int","value":102},{"name":"pn","type":"string","value":"st00"},{"name":"pt","type":"int","value":1},{"name":"tm","type":"int","value":999999999},{"name":"tn","type":"string","value":""}],"point":true},{"id":50,"x":-218,"y":91,"visible":true,"properties":[{"name":"x","type":"int","value":-218},{"name":"y","type":"int","value":91},{"name":"pn","type":"string","value":"next00"},{"name":"pt","type":"int","value":5},{"name":"tm","type":"int","value":103000802},{"name":"tn","type":"string","value":"st00"}],"point":true}]},{"id":14,"name":"life","type":"objectgroup","visible":true,"opacity":1,"objects":[{"id":51,"x":-1373,"y":103,"visible":true,"properties":[{"name":"f","type":"int","value":1},{"name":"x","type":"int","value":-1373},{"name":"y","type":"int","value":103},{"name":"cy","type":"int","value":105},{"name":"fh","type":"int","value":8},{"name":"id","type":"int","value":9020002},{"name":"rx0","type":"int","value":-1423},{"name":"rx1","type":"int","value":-1323},{"name":"type","type":"string","value":"n"},{"name":"mobTime","type":"int","value":0}],"point":true},{"id":52,"x":-348,"y":89,"visible":true,"properties":[{"name":"f","type":"int","value":0},{"name":"x","type":"int","value":-348},{"name":"y","type":"int","value":89},{"name":"cy","type":"int","value":90},{"name":"fh","type":"int","value":82},{"name":"id","type":"int","value":9020001},{"name":"rx0","type":"int","value":-398},{"name":"rx1","type":"int","value":-298},{"name":"type","type":"string","value":"n"},{"name":"mobTime","type":"int","value":0}],"point":true}]},{"id":15,"name":"foothold","type":"objectgroup","visible":true,"opacity":1,"objects":[{"id":53,"x":-1617,"y":191,"visible":true,"properties":[{"name":"layer","type":"int","value":4},{"name":"group","type":"int","value":9},{"name":"id","type":"int","value":1},{"name":"fh_layer","type":"int","value":4},{"name":"fh_group","type":"int","value":9},{"name":"fh_id","type":"int","value":1},{"name":"x1","type":"int","value":-1617},{"name":"x2","type":"int","value":-1617},{"name":"y1","type":"int","value":191},{"name":"y2","type":"int","value":124},{"name":"next","type":"int","value":2},{"name":"prev","type":"int","value":0}],"polyline":[{"x":0,"y":0},{"x":0,"y":-67}]},{"id":54,"x":-1617,"y":124,"visible":true,"properties":[{"name":"layer","type":"int","value":4},{"name":"group","type":"int","value":9},{"name":"id","type":"int","value":2},{"name":"fh_layer","type":"int","value":4},{"name":"fh_group","type":"int","value":9},{"name":"fh_id","type":"int","value":2},{"name":"x1","type":"int","value":-1617},{"name":"x2","type":"int","value":-1523},{"name":"y1","type":"int","value":124},{"name":"y2","type":"int","value":126},{"name":"next","type":"int","value":3},{"name":"prev","type":"int","value":1}],"polyline":[{"x":0,"y":0},{"x":94,"y":2}]},{"id":55,"x":-1523,"y":126,"visible":true,"properties":[{"name":"layer","type":"int","value":4},{"name":"group","type":"int","value":9},{"name":"id","type":"int","value":3},{"name":"fh_layer","type":"int","value":4},{"name":"fh_group","type":"int","value":9},{"name":"fh_id","type":"int","value":3},{"name":"x1","type":"int","value":-1523},{"name":"x2","type":"int","value":-1501},{"name":"y1","type":"int","value":126},{"name":"y2","type":"int","value":119},{"name":"next","type":"int","value":4},{"name":"prev","type":"int","value":2}],"polyline":[{"x":0,"y":0},{"x":22,"y":-7}]},{"id":56,"x":-1501,"y":119,"visible":true,"properties":[{"name":"layer","type":"int","value":4},{"name":"group","type":"int","value":9},{"name":"id","type":"int","value":4},{"name":"fh_layer","type":"int","value":4},{"name":"fh_group","type":"int","value":9},{"name":"fh_id","type":"int","value":4},{"name":"x1","type":"int","value":-1501},{"name":"x2","type":"int","value":-1467},{"name":"y1","type":"int","value":119},{"name":"y2","type":"int","value":120},{"name":"next","type":"int","value":5},{"name":"prev","type":"int","value":3}],"polyline":[{"x":0,"y":0},{"x":34,"y":1}]},{"id":57,"x":-1467,"y":120,"visible":true,"properties":[{"name":"layer","type":"int","value":4},{"name":"group","type":"int","value":9},{"name":"id","type":"int","value":5},{"name":"fh_layer","type":"int","value":4},{"name":"fh_group","type":"int","value":9},{"name":"fh_id","type":"int","value":5},{"name":"x1","type":"int","value":-1467},{"name":"x2","type":"int","value":-1433},{"name":"y1","type":"int","value":120},{"name":"y2","type":"int","value":112},{"name":"next","type":"int","value":6},{"name":"prev","type":"int","value":4}],"polyline":[{"x":0,"y":0},{"x":34,"y":-8}]},{"id":58,"x":-1433,"y":112,"visible":true,"properties":[{"name":"layer","type":"int","value":4},{"name":"group","type":"int","value":9},{"name":"id","type":"int","value":6},{"name":"fh_layer","type":"int","value":4},{"name":"fh_group","type":"int","value":9},{"name":"fh_id","type":"int","value":6},{"name":"x1","type":"int","value":-1433},{"name":"x2","type":"int","value":-1409},{"name":"y1","type":"int","value":112},{"name":"y2","type":"int","value":110},{"name":"next","type":"int","value":7},{"name":"prev","type":"int","value":5}],"polyline":[{"x":0,"y":0},{"x":24,"y":-2}]},{"id":59,"x":-1409,"y":110,"visible":true,"properties":[{"name":"layer","type":"int","value":4},{"name":"group","type":"int","value":9},{"name":"id","type":"int","value":7},{"name":"fh_layer","type":"int","value":4},{"name":"fh_group","type":"int","value":9},{"name":"fh_id","type":"int","value":7},{"name":"x1","type":"int","value":-1409},{"name":"x2","type":"int","value":-1383},{"name":"y1","type":"int","value":110},{"name":"y2","type":"int","value":105},{"name":"next","type":"int","value":8},{"name":"prev","type":"int","value":6}],"polyline":[{"x":0,"y":0},{"x":26,"y":-5}]},{"id":60,"x":-1383,"y":105,"visible":true,"properties":[{"name":"layer","type":"int","value":4},{"name":"group","type":"int","value":9},{"name":"id","type":"int","value":8},{"name":"fh_layer","type":"int","value":4},{"name":"fh_group","type":"int","value":9},{"name":"fh_id","type":"int","value":8},{"name":"x1","type":"int","value":-1383},{"name":"x2","type":"int","value":-1261},{"name":"y1","type":"int","value":105},{"name":"y2","type":"int","value":108},{"name":"next","type":"int","value":9},{"name":"prev","type":"int","value":7}],"polyline":[{"x":0,"y":0},{"x":122,"y":3}]},{"id":61,"x":-1261,"y":108,"visible":true,"properties":[{"name":"layer","type":"int","value":4},{"name":"group","type":"int","value":9},{"name":"id","type":"int","value":9},{"name":"fh_layer","type":"int","value":4},{"name":"fh_group","type":"int","value":9},{"name":"fh_id","type":"int","value":9},{"name":"x1","type":"int","value":-1261},{"name":"x2","type":"int","value":-1171},{"name":"y1","type":"int","value":108},{"name":"y2","type":"int","value":107},{"name":"next","type":"int","value":10},{"name":"prev","type":"int","value":8}],"polyline":[{"x":0,"y":0},{"x":90,"y":-1}]},{"id":62,"x":-1171,"y":107,"visible":true,"properties":[{"name":"layer","type":"int","value":4},{"name":"group","type":"int","value":9},{"name":"id","type":"int","value":10},{"name":"fh_layer","type":"int","value":4},{"name":"fh_group","type":"int","value":9},{"name":"fh_id","type":"int","value":10},{"name":"x1","type":"int","value":-1171},{"name":"x2","type":"int","value":-1092},{"name":"y1","type":"int","value":107},{"name":"y2","type":"int","value":104},{"name":"next","type":"int","value":11},{"name":"prev","type":"int","value":9}],"polyline":[{"x":0,"y":0},{"x":79,"y":-3}]},{"id":63,"x":-1092,"y":104,"visible":true,"properties":[{"name":"layer","type":"int","value":4},{"name":"group","type":"int","value":9},{"name":"id","type":"int","value":11},{"name":"fh_layer","type":"int","value":4},{"name":"fh_group","type":"int","value":9},{"name":"fh_id","type":"int","value":11},{"name":"x1","type":"int","value":-1092},{"name":"x2","type":"int","value":-1065},{"name":"y1","type":"int","value":104},{"name":"y2","type":"int","value":134},{"name":"next","type":"int","value":12},{"name":"prev","type":"int","value":10}],"polyline":[{"x":0,"y":0},{"x":27,"y":30}]},{"id":64,"x":-1065,"y":134,"visible":true,"properties":[{"name":"layer","type":"int","value":4},{"name":"group","type":"int","value":9},{"name":"id","type":"int","value":12},{"name":"fh_layer","type":"int","value":4},{"name":"fh_group","type":"int","value":9},{"name":"fh_id","type":"int","value":12},{"name":"x1","type":"int","value":-1065},{"name":"x2","type":"int","value":-1041},{"name":"y1","type":"int","value":134},{"name":"y2","type":"int","value":139},{"name":"next","type":"int","value":13},{"name":"prev","type":"int","value":11}],"polyline":[{"x":0,"y":0},{"x":24,"y":5}]},{"id":65,"x":-1041,"y":139,"visible":true,"properties":[{"name":"layer","type":"int","value":4},{"name":"group","type":"int","value":9},{"name":"id","type":"int","value":13},{"name":"fh_layer","type":"int","value":4},{"name":"fh_group","type":"int","value":9},{"name":"fh_id","type":"int","value":13},{"name":"x1","type":"int","value":-1041},{"name":"x2","type":"int","value":-1015},{"name":"y1","type":"int","value":139},{"name":"y2","type":"int","value":141},{"name":"next","type":"int","value":14},{"name":"prev","type":"int","value":12}],"polyline":[{"x":0,"y":0},{"x":26,"y":2}]},{"id":66,"x":-1015,"y":141,"visible":true,"properties":[{"name":"layer","type":"int","value":4},{"name":"group","type":"int","value":9},{"name":"id","type":"int","value":14},{"name":"fh_layer","type":"int","value":4},{"name":"fh_group","type":"int","value":9},{"name":"fh_id","type":"int","value":14},{"name":"x1","type":"int","value":-1015},{"name":"x2","type":"int","value":-986},{"name":"y1","type":"int","value":141},{"name":"y2","type":"int","value":144},{"name":"next","type":"int","value":15},{"name":"prev","type":"int","value":13}],"polyline":[{"x":0,"y":0},{"x":29,"y":3}]},{"id":67,"x":-986,"y":144,"visible":true,"properties":[{"name":"layer","type":"int","value":4},{"name":"group","type":"int","value":9},{"name":"id","type":"int","value":15},{"name":"fh_layer","type":"int","value":4},{"name":"fh_group","type":"int","value":9},{"name":"fh_id","type":"int","value":15},{"name":"x1","type":"int","value":-986},{"name":"x2","type":"int","value":-980},{"name":"y1","type":"int","value":144},{"name":"y2","type":"int","value":147},{"name":"next","type":"int","value":61},{"name":"prev","type":"int","value":14}],"polyline":[{"x":0,"y":0},{"x":6,"y":3}]},{"id":68,"x":-1485,"y":105,"visible":true,"properties":[{"name":"layer","type":"int","value":4},{"name":"group","type":"int","value":9},{"name":"id","type":"int","value":16},{"name":"fh_layer","type":"int","value":4},{"name":"fh_group","type":"int","value":9},{"name":"fh_id","type":"int","value":16},{"name":"x1","type":"int","value":-1485},{"name":"x2","type":"int","value":-1461},{"name":"y1","type":"int","value":105},{"name":"y2","type":"int","value":106},{"name":"next","type":"int","value":17},{"name":"prev","type":"int","value":0}],"polyline":[{"x":0,"y":0},{"x":24,"y":1}]},{"id":69,"x":-1461,"y":106,"visible":true,"properties":[{"name":"layer","type":"int","value":4},{"name":"group","type":"int","value":9},{"name":"id","type":"int","value":17},{"name":"fh_layer","type":"int","value":4},{"name":"fh_group","type":"int","value":9},{"name":"fh_id","type":"int","value":17},{"name":"x1","type":"int","value":-1461},{"name":"x2","type":"int","value":-1432},{"name":"y1","type":"int","value":106},{"name":"y2","type":"int","value":106},{"name":"next","type":"int","value":18},{"name":"prev","type":"int","value":16}],"polyline":[{"x":0,"y":0},{"x":29,"y":0}]},{"id":70,"x":-1432,"y":106,"visible":true,"properties":[{"name":"layer","type":"int","value":4},{"name":"group","type":"int","value":9},{"name":"id","type":"int","value":18},{"name":"fh_layer","type":"int","value":4},{"name":"fh_group","type":"int","value":9},{"name":"fh_id","type":"int","value":18},{"name":"x1","type":"int","value":-1432},{"name":"x2","type":"int","value":-1414},{"name":"y1","type":"int","value":106},{"name":"y2","type":"int","value":105},{"name":"next","type":"int","value":19},{"name":"prev","type":"int","value":17}],"polyline":[{"x":0,"y":0},{"x":18,"y":-1}]},{"id":71,"x":-1414,"y":105,"visible":true,"properties":[{"name":"layer","type":"int","value":4},{"name":"group","type":"int","value":9},{"name":"id","type":"int","value":19},{"name":"fh_layer","type":"int","value":4},{"name":"fh_group","type":"int","value":9},{"name":"fh_id","type":"int","value":19},{"name":"x1","type":"int","value":-1414},{"name":"x2","type":"int","value":-1397},{"name":"y1","type":"int","value":105},{"name":"y2","type":"int","value":105},{"name":"next","type":"int","value":0},{"name":"prev","type":"int","value":18}],"polyline":[{"x":0,"y":0},{"x":17,"y":0}]},{"id":72,"x":-1072,"y":-136,"visible":true,"properties":[{"name":"layer","type":"int","value":4},{"name":"group","type":"int","value":9},{"name":"id","type":"int","value":20},{"name":"fh_layer","type":"int","value":4},{"name":"fh_group","type":"int","value":9},{"name":"fh_id","type":"int","value":20},{"name":"x1","type":"int","value":-1072},{"name":"x2","type":"int","value":-1029},{"name":"y1","type":"int","value":-136},{"name":"y2","type":"int","value":-149},{"name":"next","type":"int","value":21},{"name":"prev","type":"int","value":0}],"polyline":[{"x":0,"y":0},{"x":43,"y":-13}]},{"id":73,"x":-1029,"y":-149,"visible":true,"properties":[{"name":"layer","type":"int","value":4},{"name":"group","type":"int","value":9},{"name":"id","type":"int","value":21},{"name":"fh_layer","type":"int","value":4},{"name":"fh_group","type":"int","value":9},{"name":"fh_id","type":"int","value":21},{"name":"x1","type":"int","value":-1029},{"name":"x2","type":"int","value":-994},{"name":"y1","type":"int","value":-149},{"name":"y2","type":"int","value":-150},{"name":"next","type":"int","value":22},{"name":"prev","type":"int","value":20}],"polyline":[{"x":0,"y":0},{"x":35,"y":-1}]},{"id":74,"x":-994,"y":-150,"visible":true,"properties":[{"name":"layer","type":"int","value":4},{"name":"group","type":"int","value":9},{"name":"id","type":"int","value":22},{"name":"fh_layer","type":"int","value":4},{"name":"fh_group","type":"int","value":9},{"name":"fh_id","type":"int","value":22},{"name":"x1","type":"int","value":-994},{"name":"x2","type":"int","value":-966},{"name":"y1","type":"int","value":-150},{"name":"y2","type":"int","value":-148},{"name":"next","type":"int","value":23},{"name":"prev","type":"int","value":21}],"polyline":[{"x":0,"y":0},{"x":28,"y":2}]},{"id":75,"x":-966,"y":-148,"visible":true,"properties":[{"name":"layer","type":"int","value":4},{"name":"group","type":"int","value":9},{"name":"id","type":"int","value":23},{"name":"fh_layer","type":"int","value":4},{"name":"fh_group","type":"int","value":9},{"name":"fh_id","type":"int","value":23},{"name":"x1","type":"int","value":-966},{"name":"x2","type":"int","value":-942},{"name":"y1","type":"int","value":-148},{"name":"y2","type":"int","value":-145},{"name":"next","type":"int","value":24},{"name":"prev","type":"int","value":22}],"polyline":[{"x":0,"y":0},{"x":24,"y":3}]},{"id":76,"x":-942,"y":-145,"visible":true,"properties":[{"name":"layer","type":"int","value":4},{"name":"group","type":"int","value":9},{"name":"id","type":"int","value":24},{"name":"fh_layer","type":"int","value":4},{"name":"fh_group","type":"int","value":9},{"name":"fh_id","type":"int","value":24},{"name":"x1","type":"int","value":-942},{"name":"x2","type":"int","value":-923},{"name":"y1","type":"int","value":-145},{"name":"y2","type":"int","value":-146},{"name":"next","type":"int","value":25},{"name":"prev","type":"int","value":23}],"polyline":[{"x":0,"y":0},{"x":19,"y":-1}]},{"id":77,"x":-923,"y":-146,"visible":true,"properties":[{"name":"layer","type":"int","value":4},{"name":"group","type":"int","value":9},{"name":"id","type":"int","value":25},{"name":"fh_layer","type":"int","value":4},{"name":"fh_group","type":"int","value":9},{"name":"fh_id","type":"int","value":25},{"name":"x1","type":"int","value":-923},{"name":"x2","type":"int","value":-901},{"name":"y1","type":"int","value":-146},{"name":"y2","type":"int","value":-147},{"name":"next","type":"int","value":26},{"name":"prev","type":"int","value":24}],"polyline":[{"x":0,"y":0},{"x":22,"y":-1}]},{"id":78,"x":-901,"y":-147,"visible":true,"properties":[{"name":"layer","type":"int","value":4},{"name":"group","type":"int","value":9},{"name":"id","type":"int","value":26},{"name":"fh_layer","type":"int","value":4},{"name":"fh_group","type":"int","value":9},{"name":"fh_id","type":"int","value":26},{"name":"x1","type":"int","value":-901},{"name":"x2","type":"int","value":-874},{"name":"y1","type":"int","value":-147},{"name":"y2","type":"int","value":-145},{"name":"next","type":"int","value":27},{"name":"prev","type":"int","value":25}],"polyline":[{"x":0,"y":0},{"x":27,"y":2}]},{"id":79,"x":-874,"y":-145,"visible":true,"properties":[{"name":"layer","type":"int","value":4},{"name":"group","type":"int","value":9},{"name":"id","type":"int","value":27},{"name":"fh_layer","type":"int","value":4},{"name":"fh_group","type":"int","value":9},{"name":"fh_id","type":"int","value":27},{"name":"x1","type":"int","value":-874},{"name":"x2","type":"int","value":-865},{"name":"y1","type":"int","value":-145},{"name":"y2","type":"int","value":-142},{"name":"next","type":"int","value":28},{"name":"prev","type":"int","value":26}],"polyline":[{"x":0,"y":0},{"x":9,"y":3}]},{"id":80,"x":-865,"y":-142,"visible":true,"properties":[{"name":"layer","type":"int","value":4},{"name":"group","type":"int","value":9},{"name":"id","type":"int","value":28},{"name":"fh_layer","type":"int","value":4},{"name":"fh_group","type":"int","value":9},{"name":"fh_id","type":"int","value":28},{"name":"x1","type":"int","value":-865},{"name":"x2","type":"int","value":-840},{"name":"y1","type":"int","value":-142},{"name":"y2","type":"int","value":-138},{"name":"next","type":"int","value":29},{"name":"prev","type":"int","value":27}],"polyline":[{"x":0,"y":0},{"x":25,"y":4}]},{"id":81,"x":-840,"y":-138,"visible":true,"properties":[{"name":"layer","type":"int","value":4},{"name":"group","type":"int","value":9},{"name":"id","type":"int","value":29},{"name":"fh_layer","type":"int","value":4},{"name":"fh_group","type":"int","value":9},{"name":"fh_id","type":"int","value":29},{"name":"x1","type":"int","value":-840},{"name":"x2","type":"int","value":-811},{"name":"y1","type":"int","value":-138},{"name":"y2","type":"int","value":-141},{"name":"next","type":"int","value":30},{"name":"prev","type":"int","value":28}],"polyline":[{"x":0,"y":0},{"x":29,"y":-3}]},{"id":82,"x":-811,"y":-141,"visible":true,"properties":[{"name":"layer","type":"int","value":4},{"name":"group","type":"int","value":9},{"name":"id","type":"int","value":30},{"name":"fh_layer","type":"int","value":4},{"name":"fh_group","type":"int","value":9},{"name":"fh_id","type":"int","value":30},{"name":"x1","type":"int","value":-811},{"name":"x2","type":"int","value":-787},{"name":"y1","type":"int","value":-141},{"name":"y2","type":"int","value":-142},{"name":"next","type":"int","value":31},{"name":"prev","type":"int","value":29}],"polyline":[{"x":0,"y":0},{"x":24,"y":-1}]},{"id":83,"x":-787,"y":-142,"visible":true,"properties":[{"name":"layer","type":"int","value":4},{"name":"group","type":"int","value":9},{"name":"id","type":"int","value":31},{"name":"fh_layer","type":"int","value":4},{"name":"fh_group","type":"int","value":9},{"name":"fh_id","type":"int","value":31},{"name":"x1","type":"int","value":-787},{"name":"x2","type":"int","value":-761},{"name":"y1","type":"int","value":-142},{"name":"y2","type":"int","value":-137},{"name":"next","type":"int","value":32},{"name":"prev","type":"int","value":30}],"polyline":[{"x":0,"y":0},{"x":26,"y":5}]},{"id":84,"x":-761,"y":-137,"visible":true,"properties":[{"name":"layer","type":"int","value":4},{"name":"group","type":"int","value":9},{"name":"id","type":"int","value":32},{"name":"fh_layer","type":"int","value":4},{"name":"fh_group","type":"int","value":9},{"name":"fh_id","type":"int","value":32},{"name":"x1","type":"int","value":-761},{"name":"x2","type":"int","value":-672},{"name":"y1","type":"int","value":-137},{"name":"y2","type":"int","value":-137},{"name":"next","type":"int","value":0},{"name":"prev","type":"int","value":31}],"polyline":[{"x":0,"y":0},{"x":89,"y":0}]},{"id":85,"x":-1209,"y":-371,"visible":true,"properties":[{"name":"layer","type":"int","value":4},{"name":"group","type":"int","value":9},{"name":"id","type":"int","value":33},{"name":"fh_layer","type":"int","value":4},{"name":"fh_group","type":"int","value":9},{"name":"fh_id","type":"int","value":33},{"name":"x1","type":"int","value":-1209},{"name":"x2","type":"int","value":-1145},{"name":"y1","type":"int","value":-371},{"name":"y2","type":"int","value":-375},{"name":"next","type":"int","value":34},{"name":"prev","type":"int","value":0}],"polyline":[{"x":0,"y":0},{"x":64,"y":-4}]},{"id":86,"x":-1145,"y":-375,"visible":true,"properties":[{"name":"layer","type":"int","value":4},{"name":"group","type":"int","value":9},{"name":"id","type":"int","value":34},{"name":"fh_layer","type":"int","value":4},{"name":"fh_group","type":"int","value":9},{"name":"fh_id","type":"int","value":34},{"name":"x1","type":"int","value":-1145},{"name":"x2","type":"int","value":-1104},{"name":"y1","type":"int","value":-375},{"name":"y2","type":"int","value":-369},{"name":"next","type":"int","value":35},{"name":"prev","type":"int","value":33}],"polyline":[{"x":0,"y":0},{"x":41,"y":6}]},{"id":87,"x":-1104,"y":-369,"visible":true,"properties":[{"name":"layer","type":"int","value":4},{"name":"group","type":"int","value":9},{"name":"id","type":"int","value":35},{"name":"fh_layer","type":"int","value":4},{"name":"fh_group","type":"int","value":9},{"name":"fh_id","type":"int","value":35},{"name":"x1","type":"int","value":-1104},{"name":"x2","type":"int","value":-1064},{"name":"y1","type":"int","value":-369},{"name":"y2","type":"int","value":-351},{"name":"next","type":"int","value":36},{"name":"prev","type":"int","value":34}],"polyline":[{"x":0,"y":0},{"x":40,"y":18}]},{"id":88,"x":-1064,"y":-351,"visible":true,"properties":[{"name":"layer","type":"int","value":4},{"name":"group","type":"int","value":9},{"name":"id","type":"int","value":36},{"name":"fh_layer","type":"int","value":4},{"name":"fh_group","type":"int","value":9},{"name":"fh_id","type":"int","value":36},{"name":"x1","type":"int","value":-1064},{"name":"x2","type":"int","value":-1017},{"name":"y1","type":"int","value":-351},{"name":"y2","type":"int","value":-338},{"name":"next","type":"int","value":37},{"name":"prev","type":"int","value":35}],"polyline":[{"x":0,"y":0},{"x":47,"y":13}]},{"id":89,"x":-1017,"y":-338,"visible":true,"properties":[{"name":"layer","type":"int","value":4},{"name":"group","type":"int","value":9},{"name":"id","type":"int","value":37},{"name":"fh_layer","type":"int","value":4},{"name":"fh_group","type":"int","value":9},{"name":"fh_id","type":"int","value":37},{"name":"x1","type":"int","value":-1017},{"name":"x2","type":"int","value":-970},{"name":"y1","type":"int","value":-338},{"name":"y2","type":"int","value":-337},{"name":"next","type":"int","value":38},{"name":"prev","type":"int","value":36}],"polyline":[{"x":0,"y":0},{"x":47,"y":1}]},{"id":90,"x":-970,"y":-337,"visible":true,"properties":[{"name":"layer","type":"int","value":4},{"name":"group","type":"int","value":9},{"name":"id","type":"int","value":38},{"name":"fh_layer","type":"int","value":4},{"name":"fh_group","type":"int","value":9},{"name":"fh_id","type":"int","value":38},{"name":"x1","type":"int","value":-970},{"name":"x2","type":"int","value":-923},{"name":"y1","type":"int","value":-337},{"name":"y2","type":"int","value":-334},{"name":"next","type":"int","value":39},{"name":"prev","type":"int","value":37}],"polyline":[{"x":0,"y":0},{"x":47,"y":3}]},{"id":91,"x":-923,"y":-334,"visible":true,"properties":[{"name":"layer","type":"int","value":4},{"name":"group","type":"int","value":9},{"name":"id","type":"int","value":39},{"name":"fh_layer","type":"int","value":4},{"name":"fh_group","type":"int","value":9},{"name":"fh_id","type":"int","value":39},{"name":"x1","type":"int","value":-923},{"name":"x2","type":"int","value":-899},{"name":"y1","type":"int","value":-334},{"name":"y2","type":"int","value":-335},{"name":"next","type":"int","value":40},{"name":"prev","type":"int","value":38}],"polyline":[{"x":0,"y":0},{"x":24,"y":-1}]},{"id":92,"x":-899,"y":-335,"visible":true,"properties":[{"name":"layer","type":"int","value":4},{"name":"group","type":"int","value":9},{"name":"id","type":"int","value":40},{"name":"fh_layer","type":"int","value":4},{"name":"fh_group","type":"int","value":9},{"name":"fh_id","type":"int","value":40},{"name":"x1","type":"int","value":-899},{"name":"x2","type":"int","value":-859},{"name":"y1","type":"int","value":-335},{"name":"y2","type":"int","value":-348},{"name":"next","type":"int","value":41},{"name":"prev","type":"int","value":39}],"polyline":[{"x":0,"y":0},{"x":40,"y":-13}]},{"id":93,"x":-859,"y":-348,"visible":true,"properties":[{"name":"layer","type":"int","value":4},{"name":"group","type":"int","value":9},{"name":"id","type":"int","value":41},{"name":"fh_layer","type":"int","value":4},{"name":"fh_group","type":"int","value":9},{"name":"fh_id","type":"int","value":41},{"name":"x1","type":"int","value":-859},{"name":"x2","type":"int","value":-824},{"name":"y1","type":"int","value":-348},{"name":"y2","type":"int","value":-349},{"name":"next","type":"int","value":42},{"name":"prev","type":"int","value":40}],"polyline":[{"x":0,"y":0},{"x":35,"y":-1}]},{"id":94,"x":-824,"y":-349,"visible":true,"properties":[{"name":"layer","type":"int","value":4},{"name":"group","type":"int","value":9},{"name":"id","type":"int","value":42},{"name":"fh_layer","type":"int","value":4},{"name":"fh_group","type":"int","value":9},{"name":"fh_id","type":"int","value":42},{"name":"x1","type":"int","value":-824},{"name":"x2","type":"int","value":-796},{"name":"y1","type":"int","value":-349},{"name":"y2","type":"int","value":-347},{"name":"next","type":"int","value":43},{"name":"prev","type":"int","value":41}],"polyline":[{"x":0,"y":0},{"x":28,"y":2}]},{"id":95,"x":-796,"y":-347,"visible":true,"properties":[{"name":"layer","type":"int","value":4},{"name":"group","type":"int","value":9},{"name":"id","type":"int","value":43},{"name":"fh_layer","type":"int","value":4},{"name":"fh_group","type":"int","value":9},{"name":"fh_id","type":"int","value":43},{"name":"x1","type":"int","value":-796},{"name":"x2","type":"int","value":-772},{"name":"y1","type":"int","value":-347},{"name":"y2","type":"int","value":-344},{"name":"next","type":"int","value":44},{"name":"prev","type":"int","value":42}],"polyline":[{"x":0,"y":0},{"x":24,"y":3}]},{"id":96,"x":-772,"y":-344,"visible":true,"properties":[{"name":"layer","type":"int","value":4},{"name":"group","type":"int","value":9},{"name":"id","type":"int","value":44},{"name":"fh_layer","type":"int","value":4},{"name":"fh_group","type":"int","value":9},{"name":"fh_id","type":"int","value":44},{"name":"x1","type":"int","value":-772},{"name":"x2","type":"int","value":-753},{"name":"y1","type":"int","value":-344},{"name":"y2","type":"int","value":-345},{"name":"next","type":"int","value":45},{"name":"prev","type":"int","value":43}],"polyline":[{"x":0,"y":0},{"x":19,"y":-1}]},{"id":97,"x":-753,"y":-345,"visible":true,"properties":[{"name":"layer","type":"int","value":4},{"name":"group","type":"int","value":9},{"name":"id","type":"int","value":45},{"name":"fh_layer","type":"int","value":4},{"name":"fh_group","type":"int","value":9},{"name":"fh_id","type":"int","value":45},{"name":"x1","type":"int","value":-753},{"name":"x2","type":"int","value":-731},{"name":"y1","type":"int","value":-345},{"name":"y2","type":"int","value":-346},{"name":"next","type":"int","value":46},{"name":"prev","type":"int","value":44}],"polyline":[{"x":0,"y":0},{"x":22,"y":-1}]},{"id":98,"x":-731,"y":-346,"visible":true,"properties":[{"name":"layer","type":"int","value":4},{"name":"group","type":"int","value":9},{"name":"id","type":"int","value":46},{"name":"fh_layer","type":"int","value":4},{"name":"fh_group","type":"int","value":9},{"name":"fh_id","type":"int","value":46},{"name":"x1","type":"int","value":-731},{"name":"x2","type":"int","value":-704},{"name":"y1","type":"int","value":-346},{"name":"y2","type":"int","value":-344},{"name":"next","type":"int","value":47},{"name":"prev","type":"int","value":45}],"polyline":[{"x":0,"y":0},{"x":27,"y":2}]},{"id":99,"x":-704,"y":-344,"visible":true,"properties":[{"name":"layer","type":"int","value":4},{"name":"group","type":"int","value":9},{"name":"id","type":"int","value":47},{"name":"fh_layer","type":"int","value":4},{"name":"fh_group","type":"int","value":9},{"name":"fh_id","type":"int","value":47},{"name":"x1","type":"int","value":-704},{"name":"x2","type":"int","value":-682},{"name":"y1","type":"int","value":-344},{"name":"y2","type":"int","value":-337},{"name":"next","type":"int","value":48},{"name":"prev","type":"int","value":46}],"polyline":[{"x":0,"y":0},{"x":22,"y":7}]},{"id":100,"x":-682,"y":-337,"visible":true,"properties":[{"name":"layer","type":"int","value":4},{"name":"group","type":"int","value":9},{"name":"id","type":"int","value":48},{"name":"fh_layer","type":"int","value":4},{"name":"fh_group","type":"int","value":9},{"name":"fh_id","type":"int","value":48},{"name":"x1","type":"int","value":-682},{"name":"x2","type":"int","value":-674},{"name":"y1","type":"int","value":-337},{"name":"y2","type":"int","value":-335},{"name":"next","type":"int","value":49},{"name":"prev","type":"int","value":47}],"polyline":[{"x":0,"y":0},{"x":8,"y":2}]},{"id":101,"x":-674,"y":-335,"visible":true,"properties":[{"name":"layer","type":"int","value":4},{"name":"group","type":"int","value":9},{"name":"id","type":"int","value":49},{"name":"fh_layer","type":"int","value":4},{"name":"fh_group","type":"int","value":9},{"name":"fh_id","type":"int","value":49},{"name":"x1","type":"int","value":-674},{"name":"x2","type":"int","value":-645},{"name":"y1","type":"int","value":-335},{"name":"y2","type":"int","value":-338},{"name":"next","type":"int","value":50},{"name":"prev","type":"int","value":48}],"polyline":[{"x":0,"y":0},{"x":29,"y":-3}]},{"id":102,"x":-645,"y":-338,"visible":true,"properties":[{"name":"layer","type":"int","value":4},{"name":"group","type":"int","value":9},{"name":"id","type":"int","value":50},{"name":"fh_layer","type":"int","value":4},{"name":"fh_group","type":"int","value":9},{"name":"fh_id","type":"int","value":50},{"name":"x1","type":"int","value":-645},{"name":"x2","type":"int","value":-621},{"name":"y1","type":"int","value":-338},{"name":"y2","type":"int","value":-339},{"name":"next","type":"int","value":51},{"name":"prev","type":"int","value":49}],"polyline":[{"x":0,"y":0},{"x":24,"y":-1}]},{"id":103,"x":-621,"y":-339,"visible":true,"properties":[{"name":"layer","type":"int","value":4},{"name":"group","type":"int","value":9},{"name":"id","type":"int","value":51},{"name":"fh_layer","type":"int","value":4},{"name":"fh_group","type":"int","value":9},{"name":"fh_id","type":"int","value":51},{"name":"x1","type":"int","value":-621},{"name":"x2","type":"int","value":-595},{"name":"y1","type":"int","value":-339},{"name":"y2","type":"int","value":-334},{"name":"next","type":"int","value":52},{"name":"prev","type":"int","value":50}],"polyline":[{"x":0,"y":0},{"x":26,"y":5}]},{"id":104,"x":-595,"y":-334,"visible":true,"properties":[{"name":"layer","type":"int","value":4},{"name":"group","type":"int","value":9},{"name":"id","type":"int","value":52},{"name":"fh_layer","type":"int","value":4},{"name":"fh_group","type":"int","value":9},{"name":"fh_id","type":"int","value":52},{"name":"x1","type":"int","value":-595},{"name":"x2","type":"int","value":-561},{"name":"y1","type":"int","value":-334},{"name":"y2","type":"int","value":-334},{"name":"next","type":"int","value":53},{"name":"prev","type":"int","value":51}],"polyline":[{"x":0,"y":0},{"x":34,"y":0}]},{"id":105,"x":-561,"y":-334,"visible":true,"properties":[{"name":"layer","type":"int","value":4},{"name":"group","type":"int","value":9},{"name":"id","type":"int","value":53},{"name":"fh_layer","type":"int","value":4},{"name":"fh_group","type":"int","value":9},{"name":"fh_id","type":"int","value":53},{"name":"x1","type":"int","value":-561},{"name":"x2","type":"int","value":-446},{"name":"y1","type":"int","value":-334},{"name":"y2","type":"int","value":-335},{"name":"next","type":"int","value":54},{"name":"prev","type":"int","value":52}],"polyline":[{"x":0,"y":0},{"x":115,"y":-1}]},{"id":106,"x":-446,"y":-335,"visible":true,"properties":[{"name":"layer","type":"int","value":4},{"name":"group","type":"int","value":9},{"name":"id","type":"int","value":54},{"name":"fh_layer","type":"int","value":4},{"name":"fh_group","type":"int","value":9},{"name":"fh_id","type":"int","value":54},{"name":"x1","type":"int","value":-446},{"name":"x2","type":"int","value":-381},{"name":"y1","type":"int","value":-335},{"name":"y2","type":"int","value":-338},{"name":"next","type":"int","value":55},{"name":"prev","type":"int","value":53}],"polyline":[{"x":0,"y":0},{"x":65,"y":-3}]},{"id":107,"x":-381,"y":-338,"visible":true,"properties":[{"name":"layer","type":"int","value":4},{"name":"group","type":"int","value":9},{"name":"id","type":"int","value":55},{"name":"fh_layer","type":"int","value":4},{"name":"fh_group","type":"int","value":9},{"name":"fh_id","type":"int","value":55},{"name":"x1","type":"int","value":-381},{"name":"x2","type":"int","value":-343},{"name":"y1","type":"int","value":-338},{"name":"y2","type":"int","value":-349},{"name":"next","type":"int","value":56},{"name":"prev","type":"int","value":54}],"polyline":[{"x":0,"y":0},{"x":38,"y":-11}]},{"id":108,"x":-343,"y":-349,"visible":true,"properties":[{"name":"layer","type":"int","value":4},{"name":"group","type":"int","value":9},{"name":"id","type":"int","value":56},{"name":"fh_layer","type":"int","value":4},{"name":"fh_group","type":"int","value":9},{"name":"fh_id","type":"int","value":56},{"name":"x1","type":"int","value":-343},{"name":"x2","type":"int","value":-314},{"name":"y1","type":"int","value":-349},{"name":"y2","type":"int","value":-367},{"name":"next","type":"int","value":57},{"name":"prev","type":"int","value":55}],"polyline":[{"x":0,"y":0},{"x":29,"y":-18}]},{"id":109,"x":-314,"y":-367,"visible":true,"properties":[{"name":"layer","type":"int","value":4},{"name":"group","type":"int","value":9},{"name":"id","type":"int","value":57},{"name":"fh_layer","type":"int","value":4},{"name":"fh_group","type":"int","value":9},{"name":"fh_id","type":"int","value":57},{"name":"x1","type":"int","value":-314},{"name":"x2","type":"int","value":-282},{"name":"y1","type":"int","value":-367},{"name":"y2","type":"int","value":-385},{"name":"next","type":"int","value":58},{"name":"prev","type":"int","value":56}],"polyline":[{"x":0,"y":0},{"x":32,"y":-18}]},{"id":110,"x":-282,"y":-385,"visible":true,"properties":[{"name":"layer","type":"int","value":4},{"name":"group","type":"int","value":9},{"name":"id","type":"int","value":58},{"name":"fh_layer","type":"int","value":4},{"name":"fh_group","type":"int","value":9},{"name":"fh_id","type":"int","value":58},{"name":"x1","type":"int","value":-282},{"name":"x2","type":"int","value":-245},{"name":"y1","type":"int","value":-385},{"name":"y2","type":"int","value":-390},{"name":"next","type":"int","value":59},{"name":"prev","type":"int","value":57}],"polyline":[{"x":0,"y":0},{"x":37,"y":-5}]},{"id":111,"x":-245,"y":-390,"visible":true,"properties":[{"name":"layer","type":"int","value":4},{"name":"group","type":"int","value":9},{"name":"id","type":"int","value":59},{"name":"fh_layer","type":"int","value":4},{"name":"fh_group","type":"int","value":9},{"name":"fh_id","type":"int","value":59},{"name":"x1","type":"int","value":-245},{"name":"x2","type":"int","value":-191},{"name":"y1","type":"int","value":-390},{"name":"y2","type":"int","value":-374},{"name":"next","type":"int","value":0},{"name":"prev","type":"int","value":58}],"polyline":[{"x":0,"y":0},{"x":54,"y":16}]},{"id":112,"x":-575,"y":119,"visible":true,"properties":[{"name":"layer","type":"int","value":4},{"name":"group","type":"int","value":9},{"name":"id","type":"int","value":60},{"name":"fh_layer","type":"int","value":4},{"name":"fh_group","type":"int","value":9},{"name":"fh_id","type":"int","value":60},{"name":"x1","type":"int","value":-575},{"name":"x2","type":"int","value":-420},{"name":"y1","type":"int","value":119},{"name":"y2","type":"int","value":98},{"name":"next","type":"int","value":81},{"name":"prev","type":"int","value":73}],"polyline":[{"x":0,"y":0},{"x":155,"y":-21}]},{"id":113,"x":-980,"y":147,"visible":true,"properties":[{"name":"layer","type":"int","value":4},{"name":"group","type":"int","value":9},{"name":"id","type":"int","value":61},{"name":"fh_layer","type":"int","value":4},{"name":"fh_group","type":"int","value":9},{"name":"fh_id","type":"int","value":61},{"name":"x1","type":"int","value":-980},{"name":"x2","type":"int","value":-969},{"name":"y1","type":"int","value":147},{"name":"y2","type":"int","value":139},{"name":"next","type":"int","value":62},{"name":"prev","type":"int","value":15}],"polyline":[{"x":0,"y":0},{"x":11,"y":-8}]},{"id":114,"x":-969,"y":139,"visible":true,"properties":[{"name":"layer","type":"int","value":4},{"name":"group","type":"int","value":9},{"name":"id","type":"int","value":62},{"name":"fh_layer","type":"int","value":4},{"name":"fh_group","type":"int","value":9},{"name":"fh_id","type":"int","value":62},{"name":"x1","type":"int","value":-969},{"name":"x2","type":"int","value":-918},{"name":"y1","type":"int","value":139},{"name":"y2","type":"int","value":119},{"name":"next","type":"int","value":63},{"name":"prev","type":"int","value":61}],"polyline":[{"x":0,"y":0},{"x":51,"y":-20}]},{"id":115,"x":-918,"y":119,"visible":true,"properties":[{"name":"layer","type":"int","value":4},{"name":"group","type":"int","value":9},{"name":"id","type":"int","value":63},{"name":"fh_layer","type":"int","value":4},{"name":"fh_group","type":"int","value":9},{"name":"fh_id","type":"int","value":63},{"name":"x1","type":"int","value":-918},{"name":"x2","type":"int","value":-894},{"name":"y1","type":"int","value":119},{"name":"y2","type":"int","value":108},{"name":"next","type":"int","value":64},{"name":"prev","type":"int","value":62}],"polyline":[{"x":0,"y":0},{"x":24,"y":-11}]},{"id":116,"x":-894,"y":108,"visible":true,"properties":[{"name":"layer","type":"int","value":4},{"name":"group","type":"int","value":9},{"name":"id","type":"int","value":64},{"name":"fh_layer","type":"int","value":4},{"name":"fh_group","type":"int","value":9},{"name":"fh_id","type":"int","value":64},{"name":"x1","type":"int","value":-894},{"name":"x2","type":"int","value":-863},{"name":"y1","type":"int","value":108},{"name":"y2","type":"int","value":108},{"name":"next","type":"int","value":65},{"name":"prev","type":"int","value":63}],"polyline":[{"x":0,"y":0},{"x":31,"y":0}]},{"id":117,"x":-863,"y":108,"visible":true,"properties":[{"name":"layer","type":"int","value":4},{"name":"group","type":"int","value":9},{"name":"id","type":"int","value":65},{"name":"fh_layer","type":"int","value":4},{"name":"fh_group","type":"int","value":9},{"name":"fh_id","type":"int","value":65},{"name":"x1","type":"int","value":-863},{"name":"x2","type":"int","value":-844},{"name":"y1","type":"int","value":108},{"name":"y2","type":"int","value":105},{"name":"next","type":"int","value":66},{"name":"prev","type":"int","value":64}],"polyline":[{"x":0,"y":0},{"x":19,"y":-3}]},{"id":118,"x":-844,"y":105,"visible":true,"properties":[{"name":"layer","type":"int","value":4},{"name":"group","type":"int","value":9},{"name":"id","type":"int","value":66},{"name":"fh_layer","type":"int","value":4},{"name":"fh_group","type":"int","value":9},{"name":"fh_id","type":"int","value":66},{"name":"x1","type":"int","value":-844},{"name":"x2","type":"int","value":-825},{"name":"y1","type":"int","value":105},{"name":"y2","type":"int","value":109},{"name":"next","type":"int","value":67},{"name":"prev","type":"int","value":65}],"polyline":[{"x":0,"y":0},{"x":19,"y":4}]},{"id":119,"x":-825,"y":109,"visible":true,"properties":[{"name":"layer","type":"int","value":4},{"name":"group","type":"int","value":9},{"name":"id","type":"int","value":67},{"name":"fh_layer","type":"int","value":4},{"name":"fh_group","type":"int","value":9},{"name":"fh_id","type":"int","value":67},{"name":"x1","type":"int","value":-825},{"name":"x2","type":"int","value":-807},{"name":"y1","type":"int","value":109},{"name":"y2","type":"int","value":120},{"name":"next","type":"int","value":68},{"name":"prev","type":"int","value":66}],"polyline":[{"x":0,"y":0},{"x":18,"y":11}]},{"id":120,"x":-807,"y":120,"visible":true,"properties":[{"name":"layer","type":"int","value":4},{"name":"group","type":"int","value":9},{"name":"id","type":"int","value":68},{"name":"fh_layer","type":"int","value":4},{"name":"fh_group","type":"int","value":9},{"name":"fh_id","type":"int","value":68},{"name":"x1","type":"int","value":-807},{"name":"x2","type":"int","value":-791},{"name":"y1","type":"int","value":120},{"name":"y2","type":"int","value":136},{"name":"next","type":"int","value":69},{"name":"prev","type":"int","value":67}],"polyline":[{"x":0,"y":0},{"x":16,"y":16}]},{"id":121,"x":-791,"y":136,"visible":true,"properties":[{"name":"layer","type":"int","value":4},{"name":"group","type":"int","value":9},{"name":"id","type":"int","value":69},{"name":"fh_layer","type":"int","value":4},{"name":"fh_group","type":"int","value":9},{"name":"fh_id","type":"int","value":69},{"name":"x1","type":"int","value":-791},{"name":"x2","type":"int","value":-773},{"name":"y1","type":"int","value":136},{"name":"y2","type":"int","value":132},{"name":"next","type":"int","value":70},{"name":"prev","type":"int","value":68}],"polyline":[{"x":0,"y":0},{"x":18,"y":-4}]},{"id":122,"x":-773,"y":132,"visible":true,"properties":[{"name":"layer","type":"int","value":4},{"name":"group","type":"int","value":9},{"name":"id","type":"int","value":70},{"name":"fh_layer","type":"int","value":4},{"name":"fh_group","type":"int","value":9},{"name":"fh_id","type":"int","value":70},{"name":"x1","type":"int","value":-773},{"name":"x2","type":"int","value":-757},{"name":"y1","type":"int","value":132},{"name":"y2","type":"int","value":127},{"name":"next","type":"int","value":71},{"name":"prev","type":"int","value":69}],"polyline":[{"x":0,"y":0},{"x":16,"y":-5}]},{"id":123,"x":-757,"y":127,"visible":true,"properties":[{"name":"layer","type":"int","value":4},{"name":"group","type":"int","value":9},{"name":"id","type":"int","value":71},{"name":"fh_layer","type":"int","value":4},{"name":"fh_group","type":"int","value":9},{"name":"fh_id","type":"int","value":71},{"name":"x1","type":"int","value":-757},{"name":"x2","type":"int","value":-599},{"name":"y1","type":"int","value":127},{"name":"y2","type":"int","value":116},{"name":"next","type":"int","value":72},{"name":"prev","type":"int","value":70}],"polyline":[{"x":0,"y":0},{"x":158,"y":-11}]},{"id":124,"x":-599,"y":116,"visible":true,"properties":[{"name":"layer","type":"int","value":4},{"name":"group","type":"int","value":9},{"name":"id","type":"int","value":72},{"name":"fh_layer","type":"int","value":4},{"name":"fh_group","type":"int","value":9},{"name":"fh_id","type":"int","value":72},{"name":"x1","type":"int","value":-599},{"name":"x2","type":"int","value":-590},{"name":"y1","type":"int","value":116},{"name":"y2","type":"int","value":124},{"name":"next","type":"int","value":73},{"name":"prev","type":"int","value":71}],"polyline":[{"x":0,"y":0},{"x":9,"y":8}]},{"id":125,"x":-590,"y":124,"visible":true,"properties":[{"name":"layer","type":"int","value":4},{"name":"group","type":"int","value":9},{"name":"id","type":"int","value":73},{"name":"fh_layer","type":"int","value":4},{"name":"fh_group","type":"int","value":9},{"name":"fh_id","type":"int","value":73},{"name":"x1","type":"int","value":-590},{"name":"x2","type":"int","value":-575},{"name":"y1","type":"int","value":124},{"name":"y2","type":"int","value":119},{"name":"next","type":"int","value":60},{"name":"prev","type":"int","value":72}],"polyline":[{"x":0,"y":0},{"x":15,"y":-5}]},{"id":126,"x":-340,"y":-87,"visible":true,"properties":[{"name":"layer","type":"int","value":4},{"name":"group","type":"int","value":10},{"name":"id","type":"int","value":74},{"name":"fh_layer","type":"int","value":4},{"name":"fh_group","type":"int","value":10},{"name":"fh_id","type":"int","value":74},{"name":"x1","type":"int","value":-340},{"name":"x2","type":"int","value":-330},{"name":"y1","type":"int","value":-87},{"name":"y2","type":"int","value":-93},{"name":"next","type":"int","value":75},{"name":"prev","type":"int","value":0}],"polyline":[{"x":0,"y":0},{"x":10,"y":-6}]},{"id":127,"x":-330,"y":-93,"visible":true,"properties":[{"name":"layer","type":"int","value":4},{"name":"group","type":"int","value":10},{"name":"id","type":"int","value":75},{"name":"fh_layer","type":"int","value":4},{"name":"fh_group","type":"int","value":10},{"name":"fh_id","type":"int","value":75},{"name":"x1","type":"int","value":-330},{"name":"x2","type":"int","value":-317},{"name":"y1","type":"int","value":-93},{"name":"y2","type":"int","value":-93},{"name":"next","type":"int","value":76},{"name":"prev","type":"int","value":74}],"polyline":[{"x":0,"y":0},{"x":13,"y":0}]},{"id":128,"x":-317,"y":-93,"visible":true,"properties":[{"name":"layer","type":"int","value":4},{"name":"group","type":"int","value":10},{"name":"id","type":"int","value":76},{"name":"fh_layer","type":"int","value":4},{"name":"fh_group","type":"int","value":10},{"name":"fh_id","type":"int","value":76},{"name":"x1","type":"int","value":-317},{"name":"x2","type":"int","value":-310},{"name":"y1","type":"int","value":-93},{"name":"y2","type":"int","value":-99},{"name":"next","type":"int","value":77},{"name":"prev","type":"int","value":75}],"polyline":[{"x":0,"y":0},{"x":7,"y":-6}]},{"id":129,"x":-310,"y":-99,"visible":true,"properties":[{"name":"layer","type":"int","value":4},{"name":"group","type":"int","value":10},{"name":"id","type":"int","value":77},{"name":"fh_layer","type":"int","value":4},{"name":"fh_group","type":"int","value":10},{"name":"fh_id","type":"int","value":77},{"name":"x1","type":"int","value":-310},{"name":"x2","type":"int","value":-256},{"name":"y1","type":"int","value":-99},{"name":"y2","type":"int","value":-99},{"name":"next","type":"int","value":78},{"name":"prev","type":"int","value":76}],"polyline":[{"x":0,"y":0},{"x":54,"y":0}]},{"id":130,"x":-256,"y":-99,"visible":true,"properties":[{"name":"layer","type":"int","value":4},{"name":"group","type":"int","value":10},{"name":"id","type":"int","value":78},{"name":"fh_layer","type":"int","value":4},{"name":"fh_group","type":"int","value":10},{"name":"fh_id","type":"int","value":78},{"name":"x1","type":"int","value":-256},{"name":"x2","type":"int","value":-243},{"name":"y1","type":"int","value":-99},{"name":"y2","type":"int","value":-97},{"name":"next","type":"int","value":79},{"name":"prev","type":"int","value":77}],"polyline":[{"x":0,"y":0},{"x":13,"y":2}]},{"id":131,"x":-243,"y":-97,"visible":true,"properties":[{"name":"layer","type":"int","value":4},{"name":"group","type":"int","value":10},{"name":"id","type":"int","value":79},{"name":"fh_layer","type":"int","value":4},{"name":"fh_group","type":"int","value":10},{"name":"fh_id","type":"int","value":79},{"name":"x1","type":"int","value":-243},{"name":"x2","type":"int","value":-118},{"name":"y1","type":"int","value":-97},{"name":"y2","type":"int","value":-97},{"name":"next","type":"int","value":0},{"name":"prev","type":"int","value":78}],"polyline":[{"x":0,"y":0},{"x":125,"y":0}]},{"id":132,"x":-358,"y":-69,"visible":true,"properties":[{"name":"layer","type":"int","value":4},{"name":"group","type":"int","value":10},{"name":"id","type":"int","value":80},{"name":"fh_layer","type":"int","value":4},{"name":"fh_group","type":"int","value":10},{"name":"fh_id","type":"int","value":80},{"name":"x1","type":"int","value":-358},{"name":"x2","type":"int","value":-311},{"name":"y1","type":"int","value":-69},{"name":"y2","type":"int","value":-69},{"name":"next","type":"int","value":0},{"name":"prev","type":"int","value":0}],"polyline":[{"x":0,"y":0},{"x":47,"y":0}]},{"id":133,"x":-420,"y":98,"visible":true,"properties":[{"name":"layer","type":"int","value":4},{"name":"group","type":"int","value":10},{"name":"id","type":"int","value":81},{"name":"fh_layer","type":"int","value":4},{"name":"fh_group","type":"int","value":10},{"name":"fh_id","type":"int","value":81},{"name":"x1","type":"int","value":-420},{"name":"x2","type":"int","value":-409},{"name":"y1","type":"int","value":98},{"name":"y2","type":"int","value":90},{"name":"next","type":"int","value":82},{"name":"prev","type":"int","value":60}],"polyline":[{"x":0,"y":0},{"x":11,"y":-8}]},{"id":134,"x":-409,"y":90,"visible":true,"properties":[{"name":"layer","type":"int","value":4},{"name":"group","type":"int","value":10},{"name":"id","type":"int","value":82},{"name":"fh_layer","type":"int","value":4},{"name":"fh_group","type":"int","value":10},{"name":"fh_id","type":"int","value":82},{"name":"x1","type":"int","value":-409},{"name":"x2","type":"int","value":-253},{"name":"y1","type":"int","value":90},{"name":"y2","type":"int","value":91},{"name":"next","type":"int","value":83},{"name":"prev","type":"int","value":81}],"polyline":[{"x":0,"y":0},{"x":156,"y":1}]},{"id":135,"x":-253,"y":91,"visible":true,"properties":[{"name":"layer","type":"int","value":4},{"name":"group","type":"int","value":10},{"name":"id","type":"int","value":83},{"name":"fh_layer","type":"int","value":4},{"name":"fh_group","type":"int","value":10},{"name":"fh_id","type":"int","value":83},{"name":"x1","type":"int","value":-253},{"name":"x2","type":"int","value":-241},{"name":"y1","type":"int","value":91},{"name":"y2","type":"int","value":99},{"name":"next","type":"int","value":84},{"name":"prev","type":"int","value":82}],"polyline":[{"x":0,"y":0},{"x":12,"y":8}]},{"id":136,"x":-241,"y":99,"visible":true,"properties":[{"name":"layer","type":"int","value":4},{"name":"group","type":"int","value":10},{"name":"id","type":"int","value":84},{"name":"fh_layer","type":"int","value":4},{"name":"fh_group","type":"int","value":10},{"name":"fh_id","type":"int","value":84},{"name":"x1","type":"int","value":-241},{"name":"x2","type":"int","value":-180},{"name":"y1","type":"int","value":99},{"name":"y2","type":"int","value":99},{"name":"next","type":"int","value":85},{"name":"prev","type":"int","value":83}],"polyline":[{"x":0,"y":0},{"x":61,"y":0}]},{"id":137,"x":-180,"y":99,"visible":true,"properties":[{"name":"layer","type":"int","value":4},{"name":"group","type":"int","value":10},{"name":"id","type":"int","value":85},{"name":"fh_layer","type":"int","value":4},{"name":"fh_group","type":"int","value":10},{"name":"fh_id","type":"int","value":85},{"name":"x1","type":"int","value":-180},{"name":"x2","type":"int","value":-167},{"name":"y1","type":"int","value":99},{"name":"y2","type":"int","value":105},{"name":"next","type":"int","value":86},{"name":"prev","type":"int","value":84}],"polyline":[{"x":0,"y":0},{"x":13,"y":6}]},{"id":138,"x":-167,"y":105,"visible":true,"properties":[{"name":"layer","type":"int","value":4},{"name":"group","type":"int","value":10},{"name":"id","type":"int","value":86},{"name":"fh_layer","type":"int","value":4},{"name":"fh_group","type":"int","value":10},{"name":"fh_id","type":"int","value":86},{"name":"x1","type":"int","value":-167},{"name":"x2","type":"int","value":-167},{"name":"y1","type":"int","value":105},{"name":"y2","type":"int","value":-64},{"name":"next","type":"int","value":0},{"name":"prev","type":"int","value":85}],"polyline":[{"x":0,"y":0},{"x":0,"y":-169}]},{"id":139,"x":-639,"y":-123,"visible":true,"properties":[{"name":"layer","type":"int","value":4},{"name":"group","type":"int","value":10},{"name":"id","type":"int","value":87},{"name":"fh_layer","type":"int","value":4},{"name":"fh_group","type":"int","value":10},{"name":"fh_id","type":"int","value":87},{"name":"x1","type":"int","value":-639},{"name":"x2","type":"int","value":-596},{"name":"y1","type":"int","value":-123},{"name":"y2","type":"int","value":-136},{"name":"next","type":"int","value":88},{"name":"prev","type":"int","value":0}],"polyline":[{"x":0,"y":0},{"x":43,"y":-13}]},{"id":140,"x":-596,"y":-136,"visible":true,"properties":[{"name":"layer","type":"int","value":4},{"name":"group","type":"int","value":10},{"name":"id","type":"int","value":88},{"name":"fh_layer","type":"int","value":4},{"name":"fh_group","type":"int","value":10},{"name":"fh_id","type":"int","value":88},{"name":"x1","type":"int","value":-596},{"name":"x2","type":"int","value":-561},{"name":"y1","type":"int","value":-136},{"name":"y2","type":"int","value":-137},{"name":"next","type":"int","value":89},{"name":"prev","type":"int","value":87}],"polyline":[{"x":0,"y":0},{"x":35,"y":-1}]},{"id":141,"x":-561,"y":-137,"visible":true,"properties":[{"name":"layer","type":"int","value":4},{"name":"group","type":"int","value":10},{"name":"id","type":"int","value":89},{"name":"fh_layer","type":"int","value":4},{"name":"fh_group","type":"int","value":10},{"name":"fh_id","type":"int","value":89},{"name":"x1","type":"int","value":-561},{"name":"x2","type":"int","value":-533},{"name":"y1","type":"int","value":-137},{"name":"y2","type":"int","value":-135},{"name":"next","type":"int","value":90},{"name":"prev","type":"int","value":88}],"polyline":[{"x":0,"y":0},{"x":28,"y":2}]},{"id":142,"x":-533,"y":-135,"visible":true,"properties":[{"name":"layer","type":"int","value":4},{"name":"group","type":"int","value":10},{"name":"id","type":"int","value":90},{"name":"fh_layer","type":"int","value":4},{"name":"fh_group","type":"int","value":10},{"name":"fh_id","type":"int","value":90},{"name":"x1","type":"int","value":-533},{"name":"x2","type":"int","value":-509},{"name":"y1","type":"int","value":-135},{"name":"y2","type":"int","value":-132},{"name":"next","type":"int","value":91},{"name":"prev","type":"int","value":89}],"polyline":[{"x":0,"y":0},{"x":24,"y":3}]},{"id":143,"x":-509,"y":-132,"visible":true,"properties":[{"name":"layer","type":"int","value":4},{"name":"group","type":"int","value":10},{"name":"id","type":"int","value":91},{"name":"fh_layer","type":"int","value":4},{"name":"fh_group","type":"int","value":10},{"name":"fh_id","type":"int","value":91},{"name":"x1","type":"int","value":-509},{"name":"x2","type":"int","value":-490},{"name":"y1","type":"int","value":-132},{"name":"y2","type":"int","value":-133},{"name":"next","type":"int","value":92},{"name":"prev","type":"int","value":90}],"polyline":[{"x":0,"y":0},{"x":19,"y":-1}]},{"id":144,"x":-490,"y":-133,"visible":true,"properties":[{"name":"layer","type":"int","value":4},{"name":"group","type":"int","value":10},{"name":"id","type":"int","value":92},{"name":"fh_layer","type":"int","value":4},{"name":"fh_group","type":"int","value":10},{"name":"fh_id","type":"int","value":92},{"name":"x1","type":"int","value":-490},{"name":"x2","type":"int","value":-468},{"name":"y1","type":"int","value":-133},{"name":"y2","type":"int","value":-134},{"name":"next","type":"int","value":93},{"name":"prev","type":"int","value":91}],"polyline":[{"x":0,"y":0},{"x":22,"y":-1}]},{"id":145,"x":-468,"y":-134,"visible":true,"properties":[{"name":"layer","type":"int","value":4},{"name":"group","type":"int","value":10},{"name":"id","type":"int","value":93},{"name":"fh_layer","type":"int","value":4},{"name":"fh_group","type":"int","value":10},{"name":"fh_id","type":"int","value":93},{"name":"x1","type":"int","value":-468},{"name":"x2","type":"int","value":-441},{"name":"y1","type":"int","value":-134},{"name":"y2","type":"int","value":-132},{"name":"next","type":"int","value":94},{"name":"prev","type":"int","value":92}],"polyline":[{"x":0,"y":0},{"x":27,"y":2}]},{"id":146,"x":-441,"y":-132,"visible":true,"properties":[{"name":"layer","type":"int","value":4},{"name":"group","type":"int","value":10},{"name":"id","type":"int","value":94},{"name":"fh_layer","type":"int","value":4},{"name":"fh_group","type":"int","value":10},{"name":"fh_id","type":"int","value":94},{"name":"x1","type":"int","value":-441},{"name":"x2","type":"int","value":-416},{"name":"y1","type":"int","value":-132},{"name":"y2","type":"int","value":-123},{"name":"next","type":"int","value":0},{"name":"prev","type":"int","value":93}],"polyline":[{"x":0,"y":0},{"x":25,"y":9}]}]},{"id":16,"name":"ladderRope","type":"objectgroup","visible":true,"opacity":1,"objects":[{"id":147,"x":-437,"y":-1471,"visible":true,"properties":[{"name":"ladder_id","type":"int","value":1},{"name":"l","type":"int","value":0},{"name":"x","type":"int","value":-437},{"name":"uf","type":"int","value":0},{"name":"y1","type":"int","value":-1471},{"name":"y2","type":"int","value":-1434},{"name":"page","type":"int","value":5}],"polyline":[{"x":0,"y":0},{"x":0,"y":37}]},{"id":148,"x":-337,"y":-1495,"visible":true,"properties":[{"name":"ladder_id","type":"int","value":2},{"name":"l","type":"int","value":0},{"name":"x","type":"int","value":-337},{"name":"uf","type":"int","value":0},{"name":"y1","type":"int","value":-1495},{"name":"y2","type":"int","value":-1458},{"name":"page","type":"int","value":5}],"polyline":[{"x":0,"y":0},{"x":0,"y":37}]},{"id":149,"x":-1068,"y":-1521,"visible":true,"properties":[{"name":"ladder_id","type":"int","value":3},{"name":"l","type":"int","value":0},{"name":"x","type":"int","value":-1068},{"name":"uf","type":"int","value":0},{"name":"y1","type":"int","value":-1521},{"name":"y2","type":"int","value":-1484},{"name":"page","type":"int","value":5}],"polyline":[{"x":0,"y":0},{"x":0,"y":37}]},{"id":150,"x":-719,"y":-343,"visible":true,"properties":[{"name":"ladder_id","type":"int","value":4},{"name":"l","type":"int","value":0},{"name":"x","type":"int","value":-719},{"name":"uf","type":"int","value":1},{"name":"y1","type":"int","value":-343},{"name":"y2","type":"int","value":-187},{"name":"page","type":"int","value":5}],"polyline":[{"x":0,"y":0},{"x":0,"y":156}]},{"id":151,"x":-584,"y":-332,"visible":true,"properties":[{"name":"ladder_id","type":"int","value":5},{"name":"l","type":"int","value":0},{"name":"x","type":"int","value":-584},{"name":"uf","type":"int","value":1},{"name":"y1","type":"int","value":-332},{"name":"y2","type":"int","value":-172},{"name":"page","type":"int","value":5}],"polyline":[{"x":0,"y":0},{"x":0,"y":160}]},{"id":152,"x":-481,"y":-131,"visible":true,"properties":[{"name":"ladder_id","type":"int","value":6},{"name":"l","type":"int","value":0},{"name":"x","type":"int","value":-481},{"name":"uf","type":"int","value":1},{"name":"y1","type":"int","value":-131},{"name":"y2","type":"int","value":91},{"name":"page","type":"int","value":5}],"polyline":[{"x":0,"y":0},{"x":0,"y":222}]},{"id":153,"x":-753,"y":-135,"visible":true,"properties":[{"name":"ladder_id","type":"int","value":7},{"name":"l","type":"int","value":0},{"name":"x","type":"int","value":-753},{"name":"uf","type":"int","value":1},{"name":"y1","type":"int","value":-135},{"name":"y2","type":"int","value":89},{"name":"page","type":"int","value":5}],"polyline":[{"x":0,"y":0},{"x":0,"y":224}]}]},{"id":17,"name":"miniMap","type":"objectgroup","visible":true,"opacity":1,"objects":[{"id":154,"x":1756,"y":1741,"visible":true,"properties":[{"name":"mag","type":"int","value":4},{"name":"centerX","type":"int","value":1756},{"name":"centerY","type":"int","value":1741},{"name":"canvas_path","type":"string","value":"../../images/30549.png"},{"name":"canvas_width","type":"int","value":116},{"name":"canvas_height","type":"int","value":129},{"name":"canvas_origin_x","type":"int","value":0},{"name":"canvas_origin_y","type":"int","value":0}],"point":true}]}],"tilesets":[{"firstgid":1,"source":"../../tilesets/bg_darkSwamp.tsj"},{"firstgid":10,"source":"../../tilesets/obj_connect_rope_7.tsj"},{"firstgid":15,"source":"../../tilesets/obj_effect_quest_gate.tsj"},{"firstgid":16,"source":"../../tilesets/obj_acc2_darkSwamp_foot.tsj"},{"firstgid":24,"source":"../../tilesets/obj_acc2_darkSwamp_nature.tsj"},{"firstgid":28,"source":"../../tilesets/obj_acc2_darkSwamp_artificiality.tsj"}],"properties":[{"name":"bgm","type":"string","value":"Bgm02/JungleBook"},{"name":"fly","type":"int","value":0},{"name":"swim","type":"int","value":0},{"name":"town","type":"int","value":0},{"name":"VRTop","type":"int","value":-630},{"name":"cloud","type":"int","value":0},{"name":"VRLeft","type":"int","value":-1618},{"name":"VRRight","type":"int","value":-120},{"name":"mapDesc","type":"string","value":""},{"name":"mapMark","type":"string","value":"KerningParty"},{"name":"mobRate","type":"float","value":0.7999999523162842},{"name":"version","type":"int","value":10},{"name":"VRBottom","type":"int","value":280},{"name":"returnMap","type":"int","value":103000890},{"name":"fieldLimit","type":"int","value":270460},{"name":"hideMinimap","type":"int","value":0},{"name":"onUserEnter","type":"string","value":""},{"name":"forcedReturn","type":"int","value":103000890},{"name":"onFirstUserEnter","type":"string","value":"StageMsg_together"}]}