{"type":"map","orientation":"orthogonal","renderorder":"right-down","infinite":false,"tilewidth":1,"tileheight":1,"width":1693,"height":1105,"nextlayerid":1,"nextobjectid":1,"layers":[],"tilesets":[],"properties":[{"name":"bgm","type":"string","value":"Bgm19/MushCatle"},{"name":"fly","type":"int","value":0},{"name":"link","type":"int","value":106021600},{"name":"swim","type":"int","value":0},{"name":"town","type":"int","value":0},{"name":"VRTop","type":"int","value":-780},{"name":"cloud","type":"int","value":0},{"name":"VRLeft","type":"int","value":-845},{"name":"VRRight","type":"int","value":848},{"name":"lvLimit","type":"int","value":30},{"name":"mapMark","type":"string","value":"MushCatle"},{"name":"mobRate","type":"float","value":1.5},{"name":"version","type":"int","value":10},{"name":"VRBottom","type":"int","value":325},{"name":"noMapCmd","type":"int","value":0},{"name":"returnMap","type":"int","value":106021400},{"name":"fieldLimit","type":"int","value":271096},{"name":"hideMinimap","type":"int","value":0},{"name":"lvForceMove","type":"int","value":39},{"name":"onUserEnter","type":"string","value":"findvioleta"},{"name":"forcedReturn","type":"int","value":106021402},{"name":"onFirstUserEnter","type":"string","value":""}]}