{"type":"map","orientation":"orthogonal","renderorder":"right-down","infinite":false,"tilewidth":1,"tileheight":1,"width":800,"height":825,"nextlayerid":14,"nextobjectid":38,"layers":[{"id":1,"name":"layer_3_obj","type":"objectgroup","visible":true,"opacity":1,"objects":[{"id":1,"x":-399,"y":-39,"visible":true,"properties":[{"name":"layer","type":"int","value":3},{"name":"resource_index","type":"int","value":0},{"name":"oS","type":"string","value":"acc9"},{"name":"l0","type":"string","value":"inside"},{"name":"l1","type":"string","value":"power"},{"name":"l2","type":"string","value":"0"},{"name":"z","type":"int","value":9},{"name":"zM","type":"int","value":4},{"name":"f","type":"int","value":0}],"gid":27,"width":800,"height":260},{"id":2,"x":-399,"y":375,"visible":true,"properties":[{"name":"layer","type":"int","value":3},{"name":"resource_index","type":"int","value":1},{"name":"oS","type":"string","value":"acc9"},{"name":"l0","type":"string","value":"inside"},{"name":"l1","type":"string","value":"power"},{"name":"l2","type":"string","value":"1"},{"name":"z","type":"int","value":9},{"name":"zM","type":"int","value":2},{"name":"f","type":"int","value":0}],"gid":28,"width":400,"height":414},{"id":3,"x":1,"y":375,"visible":true,"properties":[{"name":"layer","type":"int","value":3},{"name":"resource_index","type":"int","value":2},{"name":"oS","type":"string","value":"acc9"},{"name":"l0","type":"string","value":"inside"},{"name":"l1","type":"string","value":"power"},{"name":"l2","type":"string","value":"2"},{"name":"z","type":"int","value":9},{"name":"zM","type":"int","value":3},{"name":"f","type":"int","value":0}],"gid":29,"width":400,"height":414},{"id":4,"x":-245,"y":323,"visible":true,"properties":[{"name":"layer","type":"int","value":3},{"name":"resource_index","type":"int","value":3},{"name":"oS","type":"string","value":"acc9"},{"name":"l0","type":"string","value":"inside"},{"name":"l1","type":"string","value":"power"},{"name":"l2","type":"string","value":"3"},{"name":"z","type":"int","value":10},{"name":"zM","type":"int","value":2},{"name":"f","type":"int","value":0}],"gid":30,"width":112,"height":285},{"id":5,"x":-365,"y":-203,"visible":true,"properties":[{"name":"layer","type":"int","value":3},{"name":"resource_index","type":"int","value":4},{"name":"oS","type":"string","value":"acc9"},{"name":"l0","type":"string","value":"inside"},{"name":"l1","type":"string","value":"power"},{"name":"l2","type":"string","value":"4"},{"name":"z","type":"int","value":10},{"name":"zM","type":"int","value":4},{"name":"f","type":"int","value":0}],"gid":31,"width":218,"height":91},{"id":6,"x":213,"y":-188,"visible":true,"properties":[{"name":"layer","type":"int","value":3},{"name":"resource_index","type":"int","value":5},{"name":"oS","type":"string","value":"acc9"},{"name":"l0","type":"string","value":"inside"},{"name":"l1","type":"string","value":"power"},{"name":"l2","type":"string","value":"5"},{"name":"z","type":"int","value":10},{"name":"zM","type":"int","value":4},{"name":"f","type":"int","value":0}],"gid":32,"width":188,"height":70},{"id":7,"x":121,"y":273,"visible":true,"properties":[{"name":"layer","type":"int","value":3},{"name":"resource_index","type":"int","value":6},{"name":"oS","type":"string","value":"acc9"},{"name":"l0","type":"string","value":"inside"},{"name":"l1","type":"string","value":"power"},{"name":"l2","type":"string","value":"6"},{"name":"z","type":"int","value":10},{"name":"zM","type":"int","value":3},{"name":"f","type":"int","value":0}],"gid":33,"width":280,"height":195},{"id":8,"x":-120,"y":288,"visible":true,"properties":[{"name":"layer","type":"int","value":3},{"name":"resource_index","type":"int","value":7},{"name":"oS","type":"string","value":"acc9"},{"name":"l0","type":"string","value":"inside"},{"name":"l1","type":"string","value":"power"},{"name":"l2","type":"string","value":"7"},{"name":"z","type":"int","value":10},{"name":"zM","type":"int","value":2},{"name":"f","type":"int","value":0}],"gid":34,"width":349,"height":266},{"id":9,"x":-225,"y":268,"visible":true,"properties":[{"name":"layer","type":"int","value":3},{"name":"resource_index","type":"int","value":8},{"name":"oS","type":"string","value":"acc9"},{"name":"l0","type":"string","value":"inside"},{"name":"l1","type":"string","value":"power"},{"name":"l2","type":"string","value":"8"},{"name":"z","type":"int","value":10},{"name":"zM","type":"int","value":2},{"name":"f","type":"int","value":0}],"gid":35,"width":470,"height":210},{"id":10,"x":-350,"y":-116,"visible":true,"properties":[{"name":"layer","type":"int","value":3},{"name":"resource_index","type":"int","value":9},{"name":"oS","type":"string","value":"connect"},{"name":"l0","type":"string","value":"ladder"},{"name":"l1","type":"string","value":"57"},{"name":"l2","type":"string","value":"0"},{"name":"z","type":"int","value":10},{"name":"zM","type":"int","value":4},{"name":"f","type":"int","value":0}],"gid":36,"width":45,"height":27},{"id":11,"x":-350,"y":-78,"visible":true,"properties":[{"name":"layer","type":"int","value":3},{"name":"resource_index","type":"int","value":10},{"name":"oS","type":"string","value":"connect"},{"name":"l0","type":"string","value":"ladder"},{"name":"l1","type":"string","value":"57"},{"name":"l2","type":"string","value":"1"},{"name":"z","type":"int","value":10},{"name":"zM","type":"int","value":4},{"name":"f","type":"int","value":0}],"gid":39,"width":40,"height":61},{"id":12,"x":-351,"y":-48,"visible":true,"properties":[{"name":"layer","type":"int","value":3},{"name":"resource_index","type":"int","value":11},{"name":"oS","type":"string","value":"connect"},{"name":"l0","type":"string","value":"ladder"},{"name":"l1","type":"string","value":"57"},{"name":"l2","type":"string","value":"2"},{"name":"z","type":"int","value":10},{"name":"zM","type":"int","value":4},{"name":"f","type":"int","value":0}],"gid":38,"width":42,"height":30}]},{"id":2,"name":"layer_5_obj","type":"objectgroup","visible":true,"opacity":1,"objects":[{"id":13,"x":-398,"y":526,"visible":true,"properties":[{"name":"layer","type":"int","value":5},{"name":"resource_index","type":"int","value":0},{"name":"oS","type":"string","value":"acc9"},{"name":"l0","type":"string","value":"inside"},{"name":"l1","type":"string","value":"etc"},{"name":"l2","type":"string","value":"0"},{"name":"z","type":"int","value":9},{"name":"zM","type":"int","value":0},{"name":"f","type":"int","value":0}],"gid":19,"width":150,"height":150},{"id":14,"x":198,"y":526,"visible":true,"properties":[{"name":"layer","type":"int","value":5},{"name":"resource_index","type":"int","value":1},{"name":"oS","type":"string","value":"acc9"},{"name":"l0","type":"string","value":"inside"},{"name":"l1","type":"string","value":"etc"},{"name":"l2","type":"string","value":"0"},{"name":"z","type":"int","value":9},{"name":"zM","type":"int","value":1},{"name":"f","type":"int","value":0}],"gid":19,"width":150,"height":150},{"id":15,"x":-249,"y":526,"visible":true,"properties":[{"name":"layer","type":"int","value":5},{"name":"resource_index","type":"int","value":2},{"name":"oS","type":"string","value":"acc9"},{"name":"l0","type":"string","value":"inside"},{"name":"l1","type":"string","value":"etc"},{"name":"l2","type":"string","value":"0"},{"name":"z","type":"int","value":9},{"name":"zM","type":"int","value":0},{"name":"f","type":"int","value":0}],"gid":19,"width":150,"height":150},{"id":16,"x":-100,"y":526,"visible":true,"properties":[{"name":"layer","type":"int","value":5},{"name":"resource_index","type":"int","value":3},{"name":"oS","type":"string","value":"acc9"},{"name":"l0","type":"string","value":"inside"},{"name":"l1","type":"string","value":"etc"},{"name":"l2","type":"string","value":"0"},{"name":"z","type":"int","value":9},{"name":"zM","type":"int","value":0},{"name":"f","type":"int","value":0}],"gid":19,"width":150,"height":150},{"id":17,"x":49,"y":526,"visible":true,"properties":[{"name":"layer","type":"int","value":5},{"name":"resource_index","type":"int","value":4},{"name":"oS","type":"string","value":"acc9"},{"name":"l0","type":"string","value":"inside"},{"name":"l1","type":"string","value":"etc"},{"name":"l2","type":"string","value":"0"},{"name":"z","type":"int","value":9},{"name":"zM","type":"int","value":0},{"name":"f","type":"int","value":0}],"gid":19,"width":150,"height":150},{"id":18,"x":251,"y":526,"visible":true,"properties":[{"name":"layer","type":"int","value":5},{"name":"resource_index","type":"int","value":5},{"name":"oS","type":"string","value":"acc9"},{"name":"l0","type":"string","value":"inside"},{"name":"l1","type":"string","value":"etc"},{"name":"l2","type":"string","value":"0"},{"name":"z","type":"int","value":9},{"name":"zM","type":"int","value":1},{"name":"f","type":"int","value":0}],"gid":19,"width":150,"height":150}]},{"id":7,"name":"background_front","type":"objectgroup","visible":true,"opacity":1,"objects":[{"id":19,"x":-175,"y":9,"visible":true,"properties":[{"name":"image_layer_name","type":"string","value":"background_front_7"},{"name":"a","type":"int","value":255},{"name":"f","type":"int","value":0},{"name":"x","type":"int","value":-175},{"name":"y","type":"int","value":9},{"name":"bS","type":"string","value":"nautilusPort"},{"name":"cx","type":"int","value":0},{"name":"cy","type":"int","value":0},{"name":"no","type":"int","value":15},{"name":"rx","type":"int","value":3},{"name":"ry","type":"int","value":-100},{"name":"ani","type":"int","value":0},{"name":"type","type":"int","value":4},{"name":"front","type":"int","value":1}],"point":true},{"id":20,"x":-177,"y":29,"visible":true,"properties":[{"name":"image_layer_name","type":"string","value":"background_front_8"},{"name":"a","type":"int","value":255},{"name":"f","type":"int","value":0},{"name":"x","type":"int","value":-177},{"name":"y","type":"int","value":29},{"name":"bS","type":"string","value":"nautilusPort"},{"name":"cx","type":"int","value":0},{"name":"cy","type":"int","value":0},{"name":"no","type":"int","value":16},{"name":"rx","type":"int","value":-2},{"name":"ry","type":"int","value":-100},{"name":"ani","type":"int","value":0},{"name":"type","type":"int","value":4},{"name":"front","type":"int","value":1}],"point":true}]},{"id":3,"name":"background_front_6","type":"imagelayer","visible":true,"opacity":1,"image":"../../images/26731.png","imagewidth":800,"imageheight":413,"offsetx":-399,"offsety":-36,"repeatx":false,"repeaty":false,"parallaxx":1,"parallaxy":1,"properties":[{"name":"a","type":"int","value":255},{"name":"f","type":"int","value":0},{"name":"x","type":"int","value":1},{"name":"y","type":"int","value":170},{"name":"bS","type":"string","value":"nautilusPort"},{"name":"cx","type":"int","value":0},{"name":"cy","type":"int","value":0},{"name":"no","type":"int","value":14},{"name":"rx","type":"int","value":-100},{"name":"ry","type":"int","value":-100},{"name":"ani","type":"int","value":0},{"name":"type","type":"int","value":0},{"name":"front","type":"int","value":1}]},{"id":4,"name":"background_front_7","type":"imagelayer","visible":true,"opacity":1,"image":"../../images/26732.png","imagewidth":400,"imageheight":123,"offsetx":-375,"offsety":-52,"repeatx":true,"repeaty":false,"parallaxx":1,"parallaxy":1,"properties":[{"name":"a","type":"int","value":255},{"name":"f","type":"int","value":0},{"name":"x","type":"int","value":-175},{"name":"y","type":"int","value":9},{"name":"bS","type":"string","value":"nautilusPort"},{"name":"cx","type":"int","value":0},{"name":"cy","type":"int","value":0},{"name":"no","type":"int","value":15},{"name":"rx","type":"int","value":3},{"name":"ry","type":"int","value":-100},{"name":"ani","type":"int","value":0},{"name":"type","type":"int","value":4},{"name":"front","type":"int","value":1}]},{"id":5,"name":"background_front_8","type":"imagelayer","visible":true,"opacity":1,"image":"../../images/26733.png","imagewidth":400,"imageheight":125,"offsetx":-377,"offsety":-33,"repeatx":true,"repeaty":false,"parallaxx":1,"parallaxy":1,"properties":[{"name":"a","type":"int","value":255},{"name":"f","type":"int","value":0},{"name":"x","type":"int","value":-177},{"name":"y","type":"int","value":29},{"name":"bS","type":"string","value":"nautilusPort"},{"name":"cx","type":"int","value":0},{"name":"cy","type":"int","value":0},{"name":"no","type":"int","value":16},{"name":"rx","type":"int","value":-2},{"name":"ry","type":"int","value":-100},{"name":"ani","type":"int","value":0},{"name":"type","type":"int","value":4},{"name":"front","type":"int","value":1}]},{"id":6,"name":"background_front_9","type":"imagelayer","visible":true,"opacity":1,"image":"../../images/26735.png","imagewidth":376,"imageheight":52,"offsetx":-206,"offsety":-44,"repeatx":true,"repeaty":false,"parallaxx":1,"parallaxy":1,"properties":[{"name":"a","type":"int","value":255},{"name":"f","type":"int","value":0},{"name":"x","type":"int","value":-18},{"name":"y","type":"int","value":-18},{"name":"bS","type":"string","value":"nautilusPort"},{"name":"cx","type":"int","value":0},{"name":"cy","type":"int","value":0},{"name":"no","type":"int","value":1},{"name":"rx","type":"int","value":0},{"name":"ry","type":"int","value":-100},{"name":"ani","type":"int","value":1},{"name":"type","type":"int","value":1},{"name":"front","type":"int","value":1}]},{"id":8,"name":"portal","type":"objectgroup","visible":true,"opacity":1,"objects":[{"id":21,"x":281,"y":-113,"visible":true,"properties":[{"name":"x","type":"int","value":281},{"name":"y","type":"int","value":-113},{"name":"pn","type":"string","value":"sp"},{"name":"pt","type":"int","value":0},{"name":"tm","type":"int","value":999999999},{"name":"tn","type":"string","value":""}],"point":true},{"id":22,"x":58,"y":-141,"visible":true,"properties":[{"name":"x","type":"int","value":58},{"name":"y","type":"int","value":-141},{"name":"pn","type":"string","value":"co00"},{"name":"pt","type":"int","value":2},{"name":"tm","type":"int","value":120000300},{"name":"tn","type":"string","value":"ci00"}],"point":true}]},{"id":9,"name":"life","type":"objectgroup","visible":true,"opacity":1,"objects":[{"id":23,"x":46,"y":360,"visible":true,"properties":[{"name":"f","type":"int","value":0},{"name":"x","type":"int","value":46},{"name":"y","type":"int","value":360},{"name":"cy","type":"int","value":377},{"name":"fh","type":"int","value":6},{"name":"id","type":"int","value":1092016},{"name":"rx0","type":"int","value":-4},{"name":"rx1","type":"int","value":96},{"name":"hide","type":"int","value":1},{"name":"type","type":"string","value":"n"},{"name":"mobTime","type":"int","value":0}],"point":true},{"id":24,"x":-124,"y":-144,"visible":true,"properties":[{"name":"f","type":"int","value":0},{"name":"x","type":"int","value":-124},{"name":"y","type":"int","value":-144},{"name":"cy","type":"int","value":-138},{"name":"fh","type":"int","value":1},{"name":"id","type":"int","value":1092013},{"name":"rx0","type":"int","value":-174},{"name":"rx1","type":"int","value":-74},{"name":"hide","type":"int","value":0},{"name":"type","type":"string","value":"n"},{"name":"mobTime","type":"int","value":0}],"point":true}]},{"id":10,"name":"reactor","type":"objectgroup","visible":true,"opacity":1,"objects":[{"id":25,"x":300,"y":375,"visible":true,"properties":[{"name":"f","type":"int","value":0},{"name":"x","type":"int","value":300},{"name":"y","type":"int","value":375},{"name":"id","type":"int","value":1202002},{"name":"name","type":"int","value":0},{"name":"reactorTime","type":"int","value":1}],"point":true},{"id":26,"x":-259,"y":376,"visible":true,"properties":[{"name":"f","type":"int","value":0},{"name":"x","type":"int","value":-259},{"name":"y","type":"int","value":376},{"name":"id","type":"int","value":1202002},{"name":"name","type":"int","value":1},{"name":"reactorTime","type":"int","value":1}],"point":true}]},{"id":11,"name":"foothold","type":"objectgroup","visible":true,"opacity":1,"objects":[{"id":27,"x":-399,"y":-139,"visible":true,"properties":[{"name":"layer","type":"int","value":3},{"name":"group","type":"int","value":4},{"name":"id","type":"int","value":1},{"name":"fh_layer","type":"int","value":3},{"name":"fh_group","type":"int","value":4},{"name":"fh_id","type":"int","value":1},{"name":"x1","type":"int","value":-399},{"name":"x2","type":"int","value":125},{"name":"y1","type":"int","value":-139},{"name":"y2","type":"int","value":-137},{"name":"next","type":"int","value":2},{"name":"prev","type":"int","value":0}],"polyline":[{"x":0,"y":0},{"x":524,"y":2}]},{"id":28,"x":125,"y":-137,"visible":true,"properties":[{"name":"layer","type":"int","value":3},{"name":"group","type":"int","value":4},{"name":"id","type":"int","value":2},{"name":"fh_layer","type":"int","value":3},{"name":"fh_group","type":"int","value":4},{"name":"fh_id","type":"int","value":2},{"name":"x1","type":"int","value":125},{"name":"x2","type":"int","value":168},{"name":"y1","type":"int","value":-137},{"name":"y2","type":"int","value":-83},{"name":"next","type":"int","value":3},{"name":"prev","type":"int","value":1}],"polyline":[{"x":0,"y":0},{"x":43,"y":54}]},{"id":29,"x":168,"y":-83,"visible":true,"properties":[{"name":"layer","type":"int","value":3},{"name":"group","type":"int","value":4},{"name":"id","type":"int","value":3},{"name":"fh_layer","type":"int","value":3},{"name":"fh_group","type":"int","value":4},{"name":"fh_id","type":"int","value":3},{"name":"x1","type":"int","value":168},{"name":"x2","type":"int","value":407},{"name":"y1","type":"int","value":-83},{"name":"y2","type":"int","value":-82},{"name":"next","type":"int","value":0},{"name":"prev","type":"int","value":2}],"polyline":[{"x":0,"y":0},{"x":239,"y":1}]},{"id":30,"x":-399,"y":377,"visible":true,"properties":[{"name":"layer","type":"int","value":5},{"name":"group","type":"int","value":0},{"name":"id","type":"int","value":4},{"name":"fh_layer","type":"int","value":5},{"name":"fh_group","type":"int","value":0},{"name":"fh_id","type":"int","value":4},{"name":"x1","type":"int","value":-399},{"name":"x2","type":"int","value":-246},{"name":"y1","type":"int","value":377},{"name":"y2","type":"int","value":377},{"name":"next","type":"int","value":5},{"name":"prev","type":"int","value":0}],"polyline":[{"x":0,"y":0},{"x":153,"y":0}]},{"id":31,"x":-246,"y":377,"visible":true,"properties":[{"name":"layer","type":"int","value":5},{"name":"group","type":"int","value":0},{"name":"id","type":"int","value":5},{"name":"fh_layer","type":"int","value":5},{"name":"fh_group","type":"int","value":0},{"name":"fh_id","type":"int","value":5},{"name":"x1","type":"int","value":-246},{"name":"x2","type":"int","value":-97},{"name":"y1","type":"int","value":377},{"name":"y2","type":"int","value":377},{"name":"next","type":"int","value":6},{"name":"prev","type":"int","value":4}],"polyline":[{"x":0,"y":0},{"x":149,"y":0}]},{"id":32,"x":-97,"y":377,"visible":true,"properties":[{"name":"layer","type":"int","value":5},{"name":"group","type":"int","value":0},{"name":"id","type":"int","value":6},{"name":"fh_layer","type":"int","value":5},{"name":"fh_group","type":"int","value":0},{"name":"fh_id","type":"int","value":6},{"name":"x1","type":"int","value":-97},{"name":"x2","type":"int","value":52},{"name":"y1","type":"int","value":377},{"name":"y2","type":"int","value":377},{"name":"next","type":"int","value":7},{"name":"prev","type":"int","value":5}],"polyline":[{"x":0,"y":0},{"x":149,"y":0}]},{"id":33,"x":52,"y":377,"visible":true,"properties":[{"name":"layer","type":"int","value":5},{"name":"group","type":"int","value":0},{"name":"id","type":"int","value":7},{"name":"fh_layer","type":"int","value":5},{"name":"fh_group","type":"int","value":0},{"name":"fh_id","type":"int","value":7},{"name":"x1","type":"int","value":52},{"name":"x2","type":"int","value":197},{"name":"y1","type":"int","value":377},{"name":"y2","type":"int","value":377},{"name":"next","type":"int","value":8},{"name":"prev","type":"int","value":6}],"polyline":[{"x":0,"y":0},{"x":145,"y":0}]},{"id":34,"x":197,"y":377,"visible":true,"properties":[{"name":"layer","type":"int","value":5},{"name":"group","type":"int","value":1},{"name":"id","type":"int","value":8},{"name":"fh_layer","type":"int","value":5},{"name":"fh_group","type":"int","value":1},{"name":"fh_id","type":"int","value":8},{"name":"x1","type":"int","value":197},{"name":"x2","type":"int","value":350},{"name":"y1","type":"int","value":377},{"name":"y2","type":"int","value":377},{"name":"next","type":"int","value":9},{"name":"prev","type":"int","value":7}],"polyline":[{"x":0,"y":0},{"x":153,"y":0}]},{"id":35,"x":350,"y":377,"visible":true,"properties":[{"name":"layer","type":"int","value":5},{"name":"group","type":"int","value":1},{"name":"id","type":"int","value":9},{"name":"fh_layer","type":"int","value":5},{"name":"fh_group","type":"int","value":1},{"name":"fh_id","type":"int","value":9},{"name":"x1","type":"int","value":350},{"name":"x2","type":"int","value":403},{"name":"y1","type":"int","value":377},{"name":"y2","type":"int","value":377},{"name":"next","type":"int","value":0},{"name":"prev","type":"int","value":8}],"polyline":[{"x":0,"y":0},{"x":53,"y":0}]}]},{"id":12,"name":"ladderRope","type":"objectgroup","visible":true,"opacity":1,"objects":[{"id":36,"x":-330,"y":-136,"visible":true,"properties":[{"name":"ladder_id","type":"int","value":1},{"name":"l","type":"int","value":1},{"name":"x","type":"int","value":-330},{"name":"uf","type":"int","value":1},{"name":"y1","type":"int","value":-136},{"name":"y2","type":"int","value":-56},{"name":"page","type":"int","value":3}],"polyline":[{"x":0,"y":0},{"x":0,"y":80}]}]},{"id":13,"name":"miniMap","type":"objectgroup","visible":true,"opacity":1,"objects":[{"id":37,"x":447,"y":449,"visible":true,"properties":[{"name":"mag","type":"int","value":4},{"name":"centerX","type":"int","value":447},{"name":"centerY","type":"int","value":449},{"name":"canvas_path","type":"string","value":"../../images/30857.png"},{"name":"canvas_width","type":"int","value":56},{"name":"canvas_height","type":"int","value":63},{"name":"canvas_origin_x","type":"int","value":0},{"name":"canvas_origin_y","type":"int","value":0}],"point":true}]}],"tilesets":[{"firstgid":1,"source":"../../tilesets/bg_nautilusPort.tsj"},{"firstgid":18,"source":"../../tilesets/obj_acc9_inside_etc.tsj"},{"firstgid":27,"source":"../../tilesets/obj_acc9_inside_power.tsj"},{"firstgid":36,"source":"../../tilesets/obj_connect_ladder_57.tsj"}],"properties":[{"name":"bgm","type":"string","value":"Bgm15/inNautilus"},{"name":"swim","type":"int","value":0},{"name":"town","type":"int","value":1},{"name":"VRTop","type":"int","value":-300},{"name":"cloud","type":"int","value":0},{"name":"VRLeft","type":"int","value":-402},{"name":"VRRight","type":"int","value":398},{"name":"mapMark","type":"string","value":"Nautilus"},{"name":"mobRate","type":"float","value":1},{"name":"version","type":"int","value":10},{"name":"VRBottom","type":"int","value":525},{"name":"returnMap","type":"int","value":120000000},{"name":"fieldLimit","type":"int","value":8},{"name":"hideMinimap","type":"int","value":0},{"name":"forcedReturn","type":"int","value":999999999}]}