{"type":"map","orientation":"orthogonal","renderorder":"right-down","infinite":false,"tilewidth":1,"tileheight":1,"width":800,"height":600,"nextlayerid":7,"nextobjectid":57,"layers":[{"id":1,"name":"layer_1_obj","type":"objectgroup","visible":true,"opacity":1,"objects":[{"id":1,"x":-400,"y":300,"visible":true,"properties":[{"name":"layer","type":"int","value":1},{"name":"resource_index","type":"int","value":0},{"name":"oS","type":"string","value":"insideGS"},{"name":"l0","type":"string","value":"house0"},{"name":"l1","type":"string","value":"basic"},{"name":"l2","type":"string","value":"0"},{"name":"z","type":"int","value":0},{"name":"zM","type":"int","value":0},{"name":"f","type":"int","value":0}],"gid":18,"width":800,"height":600},{"id":2,"x":-350,"y":101,"visible":true,"properties":[{"name":"layer","type":"int","value":1},{"name":"resource_index","type":"int","value":1},{"name":"oS","type":"string","value":"shop"},{"name":"l0","type":"string","value":"shop"},{"name":"l1","type":"string","value":"grocery"},{"name":"l2","type":"string","value":"0"},{"name":"z","type":"int","value":1},{"name":"zM","type":"int","value":0},{"name":"f","type":"int","value":0}],"gid":1,"width":708,"height":244},{"id":3,"x":-339,"y":-97,"visible":true,"properties":[{"name":"layer","type":"int","value":1},{"name":"resource_index","type":"int","value":2},{"name":"oS","type":"string","value":"shop"},{"name":"l0","type":"string","value":"shop"},{"name":"l1","type":"string","value":"grocery"},{"name":"l2","type":"string","value":"10"},{"name":"z","type":"int","value":2},{"name":"zM","type":"int","value":0},{"name":"f","type":"int","value":0}],"gid":2,"width":674,"height":41},{"id":4,"x":-356,"y":182,"visible":true,"properties":[{"name":"layer","type":"int","value":1},{"name":"resource_index","type":"int","value":3},{"name":"oS","type":"string","value":"shop"},{"name":"l0","type":"string","value":"shop"},{"name":"l1","type":"string","value":"grocery"},{"name":"l2","type":"string","value":"12"},{"name":"z","type":"int","value":2},{"name":"zM","type":"int","value":0},{"name":"f","type":"int","value":0}],"gid":3,"width":166,"height":194},{"id":5,"x":61,"y":182,"visible":true,"properties":[{"name":"layer","type":"int","value":1},{"name":"resource_index","type":"int","value":4},{"name":"oS","type":"string","value":"shop"},{"name":"l0","type":"string","value":"shop"},{"name":"l1","type":"string","value":"grocery"},{"name":"l2","type":"string","value":"15"},{"name":"z","type":"int","value":5},{"name":"zM","type":"int","value":0},{"name":"f","type":"int","value":0}],"gid":4,"width":261,"height":410},{"id":6,"x":-178,"y":48,"visible":true,"properties":[{"name":"layer","type":"int","value":1},{"name":"resource_index","type":"int","value":5},{"name":"oS","type":"string","value":"shop"},{"name":"l0","type":"string","value":"shop"},{"name":"l1","type":"string","value":"grocery"},{"name":"l2","type":"string","value":"1"},{"name":"z","type":"int","value":2},{"name":"zM","type":"int","value":0},{"name":"f","type":"int","value":0}],"gid":5,"width":142,"height":112},{"id":7,"x":58,"y":144,"visible":true,"properties":[{"name":"layer","type":"int","value":1},{"name":"resource_index","type":"int","value":6},{"name":"oS","type":"string","value":"shop"},{"name":"l0","type":"string","value":"shop"},{"name":"l1","type":"string","value":"grocery"},{"name":"l2","type":"string","value":"2"},{"name":"z","type":"int","value":2},{"name":"zM","type":"int","value":0},{"name":"f","type":"int","value":0}],"gid":6,"width":52,"height":150},{"id":8,"x":-118,"y":183,"visible":true,"properties":[{"name":"layer","type":"int","value":1},{"name":"resource_index","type":"int","value":7},{"name":"oS","type":"string","value":"shop"},{"name":"l0","type":"string","value":"shop"},{"name":"l1","type":"string","value":"grocery"},{"name":"l2","type":"string","value":"4"},{"name":"z","type":"int","value":3},{"name":"zM","type":"int","value":0},{"name":"f","type":"int","value":0}],"gid":7,"width":165,"height":124},{"id":9,"x":-146,"y":-24,"visible":true,"properties":[{"name":"layer","type":"int","value":1},{"name":"resource_index","type":"int","value":8},{"name":"oS","type":"string","value":"shop"},{"name":"l0","type":"string","value":"shop"},{"name":"l1","type":"string","value":"grocery"},{"name":"l2","type":"string","value":"6"},{"name":"z","type":"int","value":3},{"name":"zM","type":"int","value":0},{"name":"f","type":"int","value":0}],"gid":8,"width":28,"height":20},{"id":10,"x":-109,"y":4,"visible":true,"properties":[{"name":"layer","type":"int","value":1},{"name":"resource_index","type":"int","value":9},{"name":"oS","type":"string","value":"shop"},{"name":"l0","type":"string","value":"shop"},{"name":"l1","type":"string","value":"grocery"},{"name":"l2","type":"string","value":"7"},{"name":"z","type":"int","value":3},{"name":"zM","type":"int","value":0},{"name":"f","type":"int","value":0}],"gid":9,"width":28,"height":20},{"id":11,"x":-118,"y":-24,"visible":true,"properties":[{"name":"layer","type":"int","value":1},{"name":"resource_index","type":"int","value":10},{"name":"oS","type":"string","value":"shop"},{"name":"l0","type":"string","value":"shop"},{"name":"l1","type":"string","value":"grocery"},{"name":"l2","type":"string","value":"7"},{"name":"z","type":"int","value":3},{"name":"zM","type":"int","value":0},{"name":"f","type":"int","value":0}],"gid":9,"width":28,"height":20},{"id":12,"x":264,"y":186,"visible":true,"properties":[{"name":"layer","type":"int","value":1},{"name":"resource_index","type":"int","value":11},{"name":"oS","type":"string","value":"shop"},{"name":"l0","type":"string","value":"shop"},{"name":"l1","type":"string","value":"grocery"},{"name":"l2","type":"string","value":"3"},{"name":"z","type":"int","value":3},{"name":"zM","type":"int","value":0},{"name":"f","type":"int","value":0}],"gid":10,"width":104,"height":144},{"id":13,"x":153,"y":128,"visible":true,"properties":[{"name":"layer","type":"int","value":1},{"name":"resource_index","type":"int","value":12},{"name":"oS","type":"string","value":"shop"},{"name":"l0","type":"string","value":"shop"},{"name":"l1","type":"string","value":"grocery"},{"name":"l2","type":"string","value":"14"},{"name":"z","type":"int","value":3},{"name":"zM","type":"int","value":0},{"name":"f","type":"int","value":0}],"gid":11,"width":100,"height":116},{"id":14,"x":234,"y":4,"visible":true,"properties":[{"name":"layer","type":"int","value":1},{"name":"resource_index","type":"int","value":13},{"name":"oS","type":"string","value":"shop"},{"name":"l0","type":"string","value":"shop"},{"name":"l1","type":"string","value":"grocery"},{"name":"l2","type":"string","value":"16"},{"name":"z","type":"int","value":3},{"name":"zM","type":"int","value":0},{"name":"f","type":"int","value":0}],"gid":12,"width":124,"height":32},{"id":15,"x":279,"y":-28,"visible":true,"properties":[{"name":"layer","type":"int","value":1},{"name":"resource_index","type":"int","value":14},{"name":"oS","type":"string","value":"shop"},{"name":"l0","type":"string","value":"shop"},{"name":"l1","type":"string","value":"grocery"},{"name":"l2","type":"string","value":"19"},{"name":"z","type":"int","value":3},{"name":"zM","type":"int","value":0},{"name":"f","type":"int","value":0}],"gid":13,"width":70,"height":34},{"id":16,"x":-196,"y":201,"visible":true,"properties":[{"name":"layer","type":"int","value":1},{"name":"resource_index","type":"int","value":15},{"name":"oS","type":"string","value":"shop"},{"name":"l0","type":"string","value":"shop"},{"name":"l1","type":"string","value":"grocery"},{"name":"l2","type":"string","value":"11"},{"name":"z","type":"int","value":6},{"name":"zM","type":"int","value":0},{"name":"f","type":"int","value":0}],"gid":16,"width":108,"height":126},{"id":17,"x":-267,"y":-58,"visible":true,"properties":[{"name":"layer","type":"int","value":1},{"name":"resource_index","type":"int","value":16},{"name":"oS","type":"string","value":"shop"},{"name":"l0","type":"string","value":"shop"},{"name":"l1","type":"string","value":"grocery"},{"name":"l2","type":"string","value":"18"},{"name":"z","type":"int","value":5},{"name":"zM","type":"int","value":0},{"name":"f","type":"int","value":0}],"gid":17,"width":27,"height":87}]},{"id":2,"name":"layer_2_obj","type":"objectgroup","visible":true,"opacity":1,"objects":[{"id":18,"x":-334,"y":183,"visible":true,"properties":[{"name":"layer","type":"int","value":2},{"name":"resource_index","type":"int","value":0},{"name":"oS","type":"string","value":"shop"},{"name":"l0","type":"string","value":"shop"},{"name":"l1","type":"string","value":"grocery"},{"name":"l2","type":"string","value":"13"},{"name":"z","type":"int","value":3},{"name":"zM","type":"int","value":1},{"name":"f","type":"int","value":0}],"gid":15,"width":154,"height":336},{"id":19,"x":-400,"y":207,"visible":true,"properties":[{"name":"layer","type":"int","value":2},{"name":"resource_index","type":"int","value":1},{"name":"oS","type":"string","value":"insideGS"},{"name":"l0","type":"string","value":"house0"},{"name":"l1","type":"string","value":"basic"},{"name":"l2","type":"string","value":"2"},{"name":"z","type":"int","value":3},{"name":"zM","type":"int","value":1},{"name":"f","type":"int","value":0}],"gid":20,"width":800,"height":27}]},{"id":3,"name":"layer_3_obj","type":"objectgroup","visible":true,"opacity":1,"objects":[{"id":20,"x":-400,"y":183,"visible":true,"properties":[{"name":"layer","type":"int","value":3},{"name":"resource_index","type":"int","value":0},{"name":"oS","type":"string","value":"insideGS"},{"name":"l0","type":"string","value":"house0"},{"name":"l1","type":"string","value":"basic"},{"name":"l2","type":"string","value":"1"},{"name":"z","type":"int","value":3},{"name":"zM","type":"int","value":2},{"name":"f","type":"int","value":0}],"gid":19,"width":800,"height":483}]},{"id":4,"name":"portal","type":"objectgroup","visible":true,"opacity":1,"objects":[{"id":21,"x":-114,"y":115,"visible":true,"properties":[{"name":"x","type":"int","value":-114},{"name":"y","type":"int","value":115},{"name":"pn","type":"string","value":"sp"},{"name":"pt","type":"int","value":0},{"name":"tm","type":"int","value":999999999},{"name":"tn","type":"string","value":""}],"point":true},{"id":22,"x":126,"y":28,"visible":true,"properties":[{"name":"x","type":"int","value":126},{"name":"y","type":"int","value":28},{"name":"pn","type":"string","value":"sp"},{"name":"pt","type":"int","value":0},{"name":"tm","type":"int","value":999999999},{"name":"tn","type":"string","value":""}],"point":true},{"id":23,"x":300,"y":182,"visible":true,"properties":[{"name":"x","type":"int","value":300},{"name":"y","type":"int","value":182},{"name":"pn","type":"string","value":"out01"},{"name":"pt","type":"int","value":2},{"name":"tm","type":"int","value":101000000},{"name":"tn","type":"string","value":"in01"}],"point":true}]},{"id":5,"name":"life","type":"objectgroup","visible":true,"opacity":1,"objects":[{"id":24,"x":-258,"y":84,"visible":true,"properties":[{"name":"f","type":"int","value":1},{"name":"x","type":"int","value":-258},{"name":"y","type":"int","value":84},{"name":"cy","type":"int","value":84},{"name":"fh","type":"int","value":4},{"name":"id","type":"int","value":1031100},{"name":"rx0","type":"int","value":-308},{"name":"rx1","type":"int","value":-208},{"name":"type","type":"string","value":"n"}],"point":true}]},{"id":6,"name":"foothold","type":"objectgroup","visible":true,"opacity":1,"objects":[{"id":25,"x":-128,"y":-127,"visible":true,"properties":[{"name":"layer","type":"int","value":1},{"name":"group","type":"int","value":0},{"name":"id","type":"int","value":1},{"name":"fh_layer","type":"int","value":1},{"name":"fh_group","type":"int","value":0},{"name":"fh_id","type":"int","value":1},{"name":"x1","type":"int","value":-128},{"name":"x2","type":"int","value":193},{"name":"y1","type":"int","value":-127},{"name":"y2","type":"int","value":-127},{"name":"next","type":"int","value":2},{"name":"prev","type":"int","value":0}],"polyline":[{"x":0,"y":0},{"x":321,"y":0}]},{"id":26,"x":193,"y":-127,"visible":true,"properties":[{"name":"layer","type":"int","value":1},{"name":"group","type":"int","value":0},{"name":"id","type":"int","value":2},{"name":"fh_layer","type":"int","value":1},{"name":"fh_group","type":"int","value":0},{"name":"fh_id","type":"int","value":2},{"name":"x1","type":"int","value":193},{"name":"x2","type":"int","value":197},{"name":"y1","type":"int","value":-127},{"name":"y2","type":"int","value":-129},{"name":"next","type":"int","value":3},{"name":"prev","type":"int","value":1}],"polyline":[{"x":0,"y":0},{"x":4,"y":-2}]},{"id":27,"x":197,"y":-129,"visible":true,"properties":[{"name":"layer","type":"int","value":1},{"name":"group","type":"int","value":0},{"name":"id","type":"int","value":3},{"name":"fh_layer","type":"int","value":1},{"name":"fh_group","type":"int","value":0},{"name":"fh_id","type":"int","value":3},{"name":"x1","type":"int","value":197},{"name":"x2","type":"int","value":305},{"name":"y1","type":"int","value":-129},{"name":"y2","type":"int","value":-129},{"name":"next","type":"int","value":0},{"name":"prev","type":"int","value":2}],"polyline":[{"x":0,"y":0},{"x":108,"y":0}]},{"id":28,"x":-333,"y":84,"visible":true,"properties":[{"name":"layer","type":"int","value":1},{"name":"group","type":"int","value":0},{"name":"id","type":"int","value":4},{"name":"fh_layer","type":"int","value":1},{"name":"fh_group","type":"int","value":0},{"name":"fh_id","type":"int","value":4},{"name":"x1","type":"int","value":-333},{"name":"x2","type":"int","value":-213},{"name":"y1","type":"int","value":84},{"name":"y2","type":"int","value":84},{"name":"next","type":"int","value":5},{"name":"prev","type":"int","value":7}],"polyline":[{"x":0,"y":0},{"x":120,"y":0}]},{"id":29,"x":-213,"y":84,"visible":true,"properties":[{"name":"layer","type":"int","value":1},{"name":"group","type":"int","value":0},{"name":"id","type":"int","value":5},{"name":"fh_layer","type":"int","value":1},{"name":"fh_group","type":"int","value":0},{"name":"fh_id","type":"int","value":5},{"name":"x1","type":"int","value":-213},{"name":"x2","type":"int","value":-213},{"name":"y1","type":"int","value":84},{"name":"y2","type":"int","value":-12},{"name":"next","type":"int","value":6},{"name":"prev","type":"int","value":4}],"polyline":[{"x":0,"y":0},{"x":0,"y":-96}]},{"id":30,"x":-213,"y":-12,"visible":true,"properties":[{"name":"layer","type":"int","value":1},{"name":"group","type":"int","value":0},{"name":"id","type":"int","value":6},{"name":"fh_layer","type":"int","value":1},{"name":"fh_group","type":"int","value":0},{"name":"fh_id","type":"int","value":6},{"name":"x1","type":"int","value":-213},{"name":"x2","type":"int","value":-333},{"name":"y1","type":"int","value":-12},{"name":"y2","type":"int","value":-12},{"name":"next","type":"int","value":7},{"name":"prev","type":"int","value":5}],"polyline":[{"x":0,"y":0},{"x":-120,"y":0}]},{"id":31,"x":-333,"y":-12,"visible":true,"properties":[{"name":"layer","type":"int","value":1},{"name":"group","type":"int","value":0},{"name":"id","type":"int","value":7},{"name":"fh_layer","type":"int","value":1},{"name":"fh_group","type":"int","value":0},{"name":"fh_id","type":"int","value":7},{"name":"x1","type":"int","value":-333},{"name":"x2","type":"int","value":-333},{"name":"y1","type":"int","value":-12},{"name":"y2","type":"int","value":84},{"name":"next","type":"int","value":4},{"name":"prev","type":"int","value":6}],"polyline":[{"x":0,"y":0},{"x":0,"y":96}]},{"id":32,"x":79,"y":145,"visible":true,"properties":[{"name":"layer","type":"int","value":1},{"name":"group","type":"int","value":0},{"name":"id","type":"int","value":8},{"name":"fh_layer","type":"int","value":1},{"name":"fh_group","type":"int","value":0},{"name":"fh_id","type":"int","value":8},{"name":"x1","type":"int","value":79},{"name":"x2","type":"int","value":232},{"name":"y1","type":"int","value":145},{"name":"y2","type":"int","value":145},{"name":"next","type":"int","value":0},{"name":"prev","type":"int","value":0}],"polyline":[{"x":0,"y":0},{"x":153,"y":0}]},{"id":33,"x":108,"y":103,"visible":true,"properties":[{"name":"layer","type":"int","value":1},{"name":"group","type":"int","value":0},{"name":"id","type":"int","value":9},{"name":"fh_layer","type":"int","value":1},{"name":"fh_group","type":"int","value":0},{"name":"fh_id","type":"int","value":9},{"name":"x1","type":"int","value":108},{"name":"x2","type":"int","value":220},{"name":"y1","type":"int","value":103},{"name":"y2","type":"int","value":103},{"name":"next","type":"int","value":0},{"name":"prev","type":"int","value":0}],"polyline":[{"x":0,"y":0},{"x":112,"y":0}]},{"id":34,"x":91,"y":57,"visible":true,"properties":[{"name":"layer","type":"int","value":1},{"name":"group","type":"int","value":0},{"name":"id","type":"int","value":10},{"name":"fh_layer","type":"int","value":1},{"name":"fh_group","type":"int","value":0},{"name":"fh_id","type":"int","value":10},{"name":"x1","type":"int","value":91},{"name":"x2","type":"int","value":174},{"name":"y1","type":"int","value":57},{"name":"y2","type":"int","value":57},{"name":"next","type":"int","value":0},{"name":"prev","type":"int","value":0}],"polyline":[{"x":0,"y":0},{"x":83,"y":0}]},{"id":35,"x":163,"y":7,"visible":true,"properties":[{"name":"layer","type":"int","value":1},{"name":"group","type":"int","value":0},{"name":"id","type":"int","value":11},{"name":"fh_layer","type":"int","value":1},{"name":"fh_group","type":"int","value":0},{"name":"fh_id","type":"int","value":11},{"name":"x1","type":"int","value":163},{"name":"x2","type":"int","value":259},{"name":"y1","type":"int","value":7},{"name":"y2","type":"int","value":7},{"name":"next","type":"int","value":0},{"name":"prev","type":"int","value":0}],"polyline":[{"x":0,"y":0},{"x":96,"y":0}]},{"id":36,"x":65,"y":-43,"visible":true,"properties":[{"name":"layer","type":"int","value":1},{"name":"group","type":"int","value":0},{"name":"id","type":"int","value":12},{"name":"fh_layer","type":"int","value":1},{"name":"fh_group","type":"int","value":0},{"name":"fh_id","type":"int","value":12},{"name":"x1","type":"int","value":65},{"name":"x2","type":"int","value":220},{"name":"y1","type":"int","value":-43},{"name":"y2","type":"int","value":-43},{"name":"next","type":"int","value":0},{"name":"prev","type":"int","value":0}],"polyline":[{"x":0,"y":0},{"x":155,"y":0}]},{"id":37,"x":-153,"y":31,"visible":true,"properties":[{"name":"layer","type":"int","value":1},{"name":"group","type":"int","value":0},{"name":"id","type":"int","value":13},{"name":"fh_layer","type":"int","value":1},{"name":"fh_group","type":"int","value":0},{"name":"fh_id","type":"int","value":13},{"name":"x1","type":"int","value":-153},{"name":"x2","type":"int","value":-56},{"name":"y1","type":"int","value":31},{"name":"y2","type":"int","value":31},{"name":"next","type":"int","value":0},{"name":"prev","type":"int","value":0}],"polyline":[{"x":0,"y":0},{"x":97,"y":0}]},{"id":38,"x":-159,"y":3,"visible":true,"properties":[{"name":"layer","type":"int","value":1},{"name":"group","type":"int","value":0},{"name":"id","type":"int","value":14},{"name":"fh_layer","type":"int","value":1},{"name":"fh_group","type":"int","value":0},{"name":"fh_id","type":"int","value":14},{"name":"x1","type":"int","value":-159},{"name":"x2","type":"int","value":-51},{"name":"y1","type":"int","value":3},{"name":"y2","type":"int","value":3},{"name":"next","type":"int","value":0},{"name":"prev","type":"int","value":0}],"polyline":[{"x":0,"y":0},{"x":108,"y":0}]},{"id":39,"x":-162,"y":-25,"visible":true,"properties":[{"name":"layer","type":"int","value":1},{"name":"group","type":"int","value":0},{"name":"id","type":"int","value":15},{"name":"fh_layer","type":"int","value":1},{"name":"fh_group","type":"int","value":0},{"name":"fh_id","type":"int","value":15},{"name":"x1","type":"int","value":-162},{"name":"x2","type":"int","value":-51},{"name":"y1","type":"int","value":-25},{"name":"y2","type":"int","value":-25},{"name":"next","type":"int","value":0},{"name":"prev","type":"int","value":0}],"polyline":[{"x":0,"y":0},{"x":111,"y":0}]},{"id":40,"x":61,"y":120,"visible":true,"properties":[{"name":"layer","type":"int","value":1},{"name":"group","type":"int","value":0},{"name":"id","type":"int","value":16},{"name":"fh_layer","type":"int","value":1},{"name":"fh_group","type":"int","value":0},{"name":"fh_id","type":"int","value":16},{"name":"x1","type":"int","value":61},{"name":"x2","type":"int","value":108},{"name":"y1","type":"int","value":120},{"name":"y2","type":"int","value":120},{"name":"next","type":"int","value":0},{"name":"prev","type":"int","value":0}],"polyline":[{"x":0,"y":0},{"x":47,"y":0}]},{"id":41,"x":59,"y":72,"visible":true,"properties":[{"name":"layer","type":"int","value":1},{"name":"group","type":"int","value":0},{"name":"id","type":"int","value":17},{"name":"fh_layer","type":"int","value":1},{"name":"fh_group","type":"int","value":0},{"name":"fh_id","type":"int","value":17},{"name":"x1","type":"int","value":59},{"name":"x2","type":"int","value":109},{"name":"y1","type":"int","value":72},{"name":"y2","type":"int","value":73},{"name":"next","type":"int","value":0},{"name":"prev","type":"int","value":0}],"polyline":[{"x":0,"y":0},{"x":50,"y":1}]},{"id":42,"x":62,"y":22,"visible":true,"properties":[{"name":"layer","type":"int","value":1},{"name":"group","type":"int","value":0},{"name":"id","type":"int","value":18},{"name":"fh_layer","type":"int","value":1},{"name":"fh_group","type":"int","value":0},{"name":"fh_id","type":"int","value":18},{"name":"x1","type":"int","value":62},{"name":"x2","type":"int","value":108},{"name":"y1","type":"int","value":22},{"name":"y2","type":"int","value":22},{"name":"next","type":"int","value":0},{"name":"prev","type":"int","value":0}],"polyline":[{"x":0,"y":0},{"x":46,"y":0}]},{"id":43,"x":-111,"y":147,"visible":true,"properties":[{"name":"layer","type":"int","value":1},{"name":"group","type":"int","value":0},{"name":"id","type":"int","value":19},{"name":"fh_layer","type":"int","value":1},{"name":"fh_group","type":"int","value":0},{"name":"fh_id","type":"int","value":19},{"name":"x1","type":"int","value":-111},{"name":"x2","type":"int","value":27},{"name":"y1","type":"int","value":147},{"name":"y2","type":"int","value":147},{"name":"next","type":"int","value":0},{"name":"prev","type":"int","value":0}],"polyline":[{"x":0,"y":0},{"x":138,"y":0}]},{"id":44,"x":-101,"y":103,"visible":true,"properties":[{"name":"layer","type":"int","value":1},{"name":"group","type":"int","value":0},{"name":"id","type":"int","value":20},{"name":"fh_layer","type":"int","value":1},{"name":"fh_group","type":"int","value":0},{"name":"fh_id","type":"int","value":20},{"name":"x1","type":"int","value":-101},{"name":"x2","type":"int","value":41},{"name":"y1","type":"int","value":103},{"name":"y2","type":"int","value":103},{"name":"next","type":"int","value":0},{"name":"prev","type":"int","value":0}],"polyline":[{"x":0,"y":0},{"x":142,"y":0}]},{"id":45,"x":-87,"y":59,"visible":true,"properties":[{"name":"layer","type":"int","value":1},{"name":"group","type":"int","value":0},{"name":"id","type":"int","value":21},{"name":"fh_layer","type":"int","value":1},{"name":"fh_group","type":"int","value":0},{"name":"fh_id","type":"int","value":21},{"name":"x1","type":"int","value":-87},{"name":"x2","type":"int","value":3},{"name":"y1","type":"int","value":59},{"name":"y2","type":"int","value":59},{"name":"next","type":"int","value":0},{"name":"prev","type":"int","value":0}],"polyline":[{"x":0,"y":0},{"x":90,"y":0}]},{"id":46,"x":234,"y":-28,"visible":true,"properties":[{"name":"layer","type":"int","value":1},{"name":"group","type":"int","value":0},{"name":"id","type":"int","value":22},{"name":"fh_layer","type":"int","value":1},{"name":"fh_group","type":"int","value":0},{"name":"fh_id","type":"int","value":22},{"name":"x1","type":"int","value":234},{"name":"x2","type":"int","value":358},{"name":"y1","type":"int","value":-28},{"name":"y2","type":"int","value":-28},{"name":"next","type":"int","value":0},{"name":"prev","type":"int","value":0}],"polyline":[{"x":0,"y":0},{"x":124,"y":0}]},{"id":47,"x":288,"y":-62,"visible":true,"properties":[{"name":"layer","type":"int","value":1},{"name":"group","type":"int","value":0},{"name":"id","type":"int","value":23},{"name":"fh_layer","type":"int","value":1},{"name":"fh_group","type":"int","value":0},{"name":"fh_id","type":"int","value":23},{"name":"x1","type":"int","value":288},{"name":"x2","type":"int","value":294},{"name":"y1","type":"int","value":-62},{"name":"y2","type":"int","value":-62},{"name":"next","type":"int","value":24},{"name":"prev","type":"int","value":0}],"polyline":[{"x":0,"y":0},{"x":6,"y":0}]},{"id":48,"x":294,"y":-62,"visible":true,"properties":[{"name":"layer","type":"int","value":1},{"name":"group","type":"int","value":0},{"name":"id","type":"int","value":24},{"name":"fh_layer","type":"int","value":1},{"name":"fh_group","type":"int","value":0},{"name":"fh_id","type":"int","value":24},{"name":"x1","type":"int","value":294},{"name":"x2","type":"int","value":296},{"name":"y1","type":"int","value":-62},{"name":"y2","type":"int","value":-60},{"name":"next","type":"int","value":25},{"name":"prev","type":"int","value":23}],"polyline":[{"x":0,"y":0},{"x":2,"y":2}]},{"id":49,"x":296,"y":-60,"visible":true,"properties":[{"name":"layer","type":"int","value":1},{"name":"group","type":"int","value":0},{"name":"id","type":"int","value":25},{"name":"fh_layer","type":"int","value":1},{"name":"fh_group","type":"int","value":0},{"name":"fh_id","type":"int","value":25},{"name":"x1","type":"int","value":296},{"name":"x2","type":"int","value":321},{"name":"y1","type":"int","value":-60},{"name":"y2","type":"int","value":-60},{"name":"next","type":"int","value":26},{"name":"prev","type":"int","value":24}],"polyline":[{"x":0,"y":0},{"x":25,"y":0}]},{"id":50,"x":321,"y":-60,"visible":true,"properties":[{"name":"layer","type":"int","value":1},{"name":"group","type":"int","value":0},{"name":"id","type":"int","value":26},{"name":"fh_layer","type":"int","value":1},{"name":"fh_group","type":"int","value":0},{"name":"fh_id","type":"int","value":26},{"name":"x1","type":"int","value":321},{"name":"x2","type":"int","value":324},{"name":"y1","type":"int","value":-60},{"name":"y2","type":"int","value":-62},{"name":"next","type":"int","value":27},{"name":"prev","type":"int","value":25}],"polyline":[{"x":0,"y":0},{"x":3,"y":-2}]},{"id":51,"x":324,"y":-62,"visible":true,"properties":[{"name":"layer","type":"int","value":1},{"name":"group","type":"int","value":0},{"name":"id","type":"int","value":27},{"name":"fh_layer","type":"int","value":1},{"name":"fh_group","type":"int","value":0},{"name":"fh_id","type":"int","value":27},{"name":"x1","type":"int","value":324},{"name":"x2","type":"int","value":335},{"name":"y1","type":"int","value":-62},{"name":"y2","type":"int","value":-62},{"name":"next","type":"int","value":0},{"name":"prev","type":"int","value":26}],"polyline":[{"x":0,"y":0},{"x":11,"y":0}]},{"id":52,"x":-345,"y":87,"visible":true,"properties":[{"name":"layer","type":"int","value":2},{"name":"group","type":"int","value":1},{"name":"id","type":"int","value":28},{"name":"fh_layer","type":"int","value":2},{"name":"fh_group","type":"int","value":1},{"name":"fh_id","type":"int","value":28},{"name":"x1","type":"int","value":-345},{"name":"x2","type":"int","value":-345},{"name":"y1","type":"int","value":87},{"name":"y2","type":"int","value":-32},{"name":"next","type":"int","value":29},{"name":"prev","type":"int","value":31}],"polyline":[{"x":0,"y":0},{"x":0,"y":-119}]},{"id":53,"x":-345,"y":-32,"visible":true,"properties":[{"name":"layer","type":"int","value":2},{"name":"group","type":"int","value":1},{"name":"id","type":"int","value":29},{"name":"fh_layer","type":"int","value":2},{"name":"fh_group","type":"int","value":1},{"name":"fh_id","type":"int","value":29},{"name":"x1","type":"int","value":-345},{"name":"x2","type":"int","value":-195},{"name":"y1","type":"int","value":-32},{"name":"y2","type":"int","value":-32},{"name":"next","type":"int","value":30},{"name":"prev","type":"int","value":28}],"polyline":[{"x":0,"y":0},{"x":150,"y":0}]},{"id":54,"x":-195,"y":-32,"visible":true,"properties":[{"name":"layer","type":"int","value":2},{"name":"group","type":"int","value":1},{"name":"id","type":"int","value":30},{"name":"fh_layer","type":"int","value":2},{"name":"fh_group","type":"int","value":1},{"name":"fh_id","type":"int","value":30},{"name":"x1","type":"int","value":-195},{"name":"x2","type":"int","value":-195},{"name":"y1","type":"int","value":-32},{"name":"y2","type":"int","value":87},{"name":"next","type":"int","value":31},{"name":"prev","type":"int","value":29}],"polyline":[{"x":0,"y":0},{"x":0,"y":119}]},{"id":55,"x":-195,"y":87,"visible":true,"properties":[{"name":"layer","type":"int","value":2},{"name":"group","type":"int","value":1},{"name":"id","type":"int","value":31},{"name":"fh_layer","type":"int","value":2},{"name":"fh_group","type":"int","value":1},{"name":"fh_id","type":"int","value":31},{"name":"x1","type":"int","value":-195},{"name":"x2","type":"int","value":-345},{"name":"y1","type":"int","value":87},{"name":"y2","type":"int","value":87},{"name":"next","type":"int","value":28},{"name":"prev","type":"int","value":30}],"polyline":[{"x":0,"y":0},{"x":-150,"y":0}]},{"id":56,"x":-400,"y":182,"visible":true,"properties":[{"name":"layer","type":"int","value":2},{"name":"group","type":"int","value":1},{"name":"id","type":"int","value":32},{"name":"fh_layer","type":"int","value":2},{"name":"fh_group","type":"int","value":1},{"name":"fh_id","type":"int","value":32},{"name":"x1","type":"int","value":-400},{"name":"x2","type":"int","value":400},{"name":"y1","type":"int","value":182},{"name":"y2","type":"int","value":182},{"name":"next","type":"int","value":0},{"name":"prev","type":"int","value":0}],"polyline":[{"x":0,"y":0},{"x":800,"y":0}]}]}],"tilesets":[{"firstgid":1,"source":"../../tilesets/obj_shop_shop_grocery.tsj"},{"firstgid":18,"source":"../../tilesets/obj_insideGS_house0_basic.tsj"}],"properties":[{"name":"bgm","type":"string","value":"Bgm02/WhenTheMorningComes"},{"name":"town","type":"int","value":1},{"name":"VRTop","type":"int","value":-300},{"name":"cloud","type":"int","value":0},{"name":"VRLeft","type":"int","value":-400},{"name":"VRRight","type":"int","value":400},{"name":"mapDesc","type":"string","value":""},{"name":"mapMark","type":"string","value":"Ellinia"},{"name":"mobRate","type":"float","value":1},{"name":"version","type":"int","value":10},{"name":"VRBottom","type":"int","value":300},{"name":"moveLimit","type":"int","value":0},{"name":"returnMap","type":"int","value":101000002},{"name":"fieldLimit","type":"int","value":0},{"name":"hideMinimap","type":"int","value":0},{"name":"forcedReturn","type":"int","value":999999999}]}