{"type":"map","orientation":"orthogonal","renderorder":"right-down","infinite":false,"tilewidth":1,"tileheight":1,"width":798,"height":325,"nextlayerid":6,"nextobjectid":40,"layers":[{"id":1,"name":"background_back_0","type":"imagelayer","visible":true,"opacity":1,"image":"../../images/29106.png","imagewidth":200,"imageheight":200,"offsetx":-100,"offsety":-100,"repeatx":true,"repeaty":true,"parallaxx":1,"parallaxy":1,"properties":[{"name":"a","type":"int","value":255},{"name":"f","type":"int","value":0},{"name":"x","type":"int","value":0},{"name":"y","type":"int","value":0},{"name":"bS","type":"string","value":"grassySoil"},{"name":"cx","type":"int","value":0},{"name":"cy","type":"int","value":0},{"name":"no","type":"int","value":8},{"name":"rx","type":"int","value":0},{"name":"ry","type":"int","value":0},{"name":"ani","type":"int","value":0},{"name":"type","type":"int","value":3},{"name":"front","type":"int","value":0}]},{"id":2,"name":"portal","type":"objectgroup","visible":true,"opacity":1,"objects":[{"id":1,"x":0,"y":0,"visible":true,"properties":[{"name":"x","type":"int","value":0},{"name":"y","type":"int","value":0},{"name":"pn","type":"string","value":"sp"},{"name":"pt","type":"int","value":0},{"name":"tm","type":"int","value":999999999},{"name":"tn","type":"string","value":""}],"point":true}]},{"id":3,"name":"life","type":"objectgroup","visible":true,"opacity":1,"objects":[{"id":2,"x":283,"y":-90,"visible":true,"properties":[{"name":"f","type":"int","value":0},{"name":"x","type":"int","value":283},{"name":"y","type":"int","value":-90},{"name":"cy","type":"int","value":-85},{"name":"fh","type":"int","value":26},{"name":"id","type":"int","value":9900001},{"name":"rx0","type":"int","value":233},{"name":"rx1","type":"int","value":289},{"name":"type","type":"string","value":"n"},{"name":"mobTime","type":"int","value":0}],"point":true},{"id":3,"x":374,"y":89,"visible":true,"properties":[{"name":"f","type":"int","value":0},{"name":"x","type":"int","value":374},{"name":"y","type":"int","value":89},{"name":"cy","type":"int","value":95},{"name":"fh","type":"int","value":23},{"name":"id","type":"int","value":9900000},{"name":"rx0","type":"int","value":324},{"name":"rx1","type":"int","value":379},{"name":"type","type":"string","value":"n"},{"name":"mobTime","type":"int","value":0}],"point":true}]},{"id":4,"name":"foothold","type":"objectgroup","visible":true,"opacity":1,"objects":[{"id":4,"x":-399,"y":120,"visible":true,"properties":[{"name":"layer","type":"int","value":1},{"name":"group","type":"int","value":0},{"name":"id","type":"int","value":14},{"name":"fh_layer","type":"int","value":1},{"name":"fh_group","type":"int","value":0},{"name":"fh_id","type":"int","value":14},{"name":"x1","type":"int","value":-399},{"name":"x2","type":"int","value":-399},{"name":"y1","type":"int","value":120},{"name":"y2","type":"int","value":95},{"name":"next","type":"int","value":15},{"name":"prev","type":"int","value":0}],"polyline":[{"x":0,"y":0},{"x":0,"y":-25}]},{"id":5,"x":-399,"y":95,"visible":true,"properties":[{"name":"layer","type":"int","value":1},{"name":"group","type":"int","value":0},{"name":"id","type":"int","value":15},{"name":"fh_layer","type":"int","value":1},{"name":"fh_group","type":"int","value":0},{"name":"fh_id","type":"int","value":15},{"name":"x1","type":"int","value":-399},{"name":"x2","type":"int","value":-321},{"name":"y1","type":"int","value":95},{"name":"y2","type":"int","value":95},{"name":"next","type":"int","value":16},{"name":"prev","type":"int","value":14}],"polyline":[{"x":0,"y":0},{"x":78,"y":0}]},{"id":6,"x":-321,"y":95,"visible":true,"properties":[{"name":"layer","type":"int","value":1},{"name":"group","type":"int","value":0},{"name":"id","type":"int","value":16},{"name":"fh_layer","type":"int","value":1},{"name":"fh_group","type":"int","value":0},{"name":"fh_id","type":"int","value":16},{"name":"x1","type":"int","value":-321},{"name":"x2","type":"int","value":-270},{"name":"y1","type":"int","value":95},{"name":"y2","type":"int","value":95},{"name":"next","type":"int","value":17},{"name":"prev","type":"int","value":15}],"polyline":[{"x":0,"y":0},{"x":51,"y":0}]},{"id":7,"x":-270,"y":95,"visible":true,"properties":[{"name":"layer","type":"int","value":1},{"name":"group","type":"int","value":0},{"name":"id","type":"int","value":17},{"name":"fh_layer","type":"int","value":1},{"name":"fh_group","type":"int","value":0},{"name":"fh_id","type":"int","value":17},{"name":"x1","type":"int","value":-270},{"name":"x2","type":"int","value":-180},{"name":"y1","type":"int","value":95},{"name":"y2","type":"int","value":95},{"name":"next","type":"int","value":18},{"name":"prev","type":"int","value":16}],"polyline":[{"x":0,"y":0},{"x":90,"y":0}]},{"id":8,"x":-180,"y":95,"visible":true,"properties":[{"name":"layer","type":"int","value":1},{"name":"group","type":"int","value":0},{"name":"id","type":"int","value":18},{"name":"fh_layer","type":"int","value":1},{"name":"fh_group","type":"int","value":0},{"name":"fh_id","type":"int","value":18},{"name":"x1","type":"int","value":-180},{"name":"x2","type":"int","value":-90},{"name":"y1","type":"int","value":95},{"name":"y2","type":"int","value":95},{"name":"next","type":"int","value":20},{"name":"prev","type":"int","value":17}],"polyline":[{"x":0,"y":0},{"x":90,"y":0}]},{"id":9,"x":0,"y":95,"visible":true,"properties":[{"name":"layer","type":"int","value":1},{"name":"group","type":"int","value":0},{"name":"id","type":"int","value":19},{"name":"fh_layer","type":"int","value":1},{"name":"fh_group","type":"int","value":0},{"name":"fh_id","type":"int","value":19},{"name":"x1","type":"int","value":0},{"name":"x2","type":"int","value":90},{"name":"y1","type":"int","value":95},{"name":"y2","type":"int","value":95},{"name":"next","type":"int","value":21},{"name":"prev","type":"int","value":20}],"polyline":[{"x":0,"y":0},{"x":90,"y":0}]},{"id":10,"x":-90,"y":95,"visible":true,"properties":[{"name":"layer","type":"int","value":1},{"name":"group","type":"int","value":0},{"name":"id","type":"int","value":20},{"name":"fh_layer","type":"int","value":1},{"name":"fh_group","type":"int","value":0},{"name":"fh_id","type":"int","value":20},{"name":"x1","type":"int","value":-90},{"name":"x2","type":"int","value":0},{"name":"y1","type":"int","value":95},{"name":"y2","type":"int","value":95},{"name":"next","type":"int","value":19},{"name":"prev","type":"int","value":18}],"polyline":[{"x":0,"y":0},{"x":90,"y":0}]},{"id":11,"x":90,"y":95,"visible":true,"properties":[{"name":"layer","type":"int","value":1},{"name":"group","type":"int","value":0},{"name":"id","type":"int","value":21},{"name":"fh_layer","type":"int","value":1},{"name":"fh_group","type":"int","value":0},{"name":"fh_id","type":"int","value":21},{"name":"x1","type":"int","value":90},{"name":"x2","type":"int","value":180},{"name":"y1","type":"int","value":95},{"name":"y2","type":"int","value":95},{"name":"next","type":"int","value":22},{"name":"prev","type":"int","value":19}],"polyline":[{"x":0,"y":0},{"x":90,"y":0}]},{"id":12,"x":180,"y":95,"visible":true,"properties":[{"name":"layer","type":"int","value":1},{"name":"group","type":"int","value":0},{"name":"id","type":"int","value":22},{"name":"fh_layer","type":"int","value":1},{"name":"fh_group","type":"int","value":0},{"name":"fh_id","type":"int","value":22},{"name":"x1","type":"int","value":180},{"name":"x2","type":"int","value":270},{"name":"y1","type":"int","value":95},{"name":"y2","type":"int","value":95},{"name":"next","type":"int","value":25},{"name":"prev","type":"int","value":21}],"polyline":[{"x":0,"y":0},{"x":90,"y":0}]},{"id":13,"x":321,"y":95,"visible":true,"properties":[{"name":"layer","type":"int","value":1},{"name":"group","type":"int","value":0},{"name":"id","type":"int","value":23},{"name":"fh_layer","type":"int","value":1},{"name":"fh_group","type":"int","value":0},{"name":"fh_id","type":"int","value":23},{"name":"x1","type":"int","value":321},{"name":"x2","type":"int","value":399},{"name":"y1","type":"int","value":95},{"name":"y2","type":"int","value":95},{"name":"next","type":"int","value":24},{"name":"prev","type":"int","value":25}],"polyline":[{"x":0,"y":0},{"x":78,"y":0}]},{"id":14,"x":399,"y":95,"visible":true,"properties":[{"name":"layer","type":"int","value":1},{"name":"group","type":"int","value":0},{"name":"id","type":"int","value":24},{"name":"fh_layer","type":"int","value":1},{"name":"fh_group","type":"int","value":0},{"name":"fh_id","type":"int","value":24},{"name":"x1","type":"int","value":399},{"name":"x2","type":"int","value":399},{"name":"y1","type":"int","value":95},{"name":"y2","type":"int","value":120},{"name":"next","type":"int","value":0},{"name":"prev","type":"int","value":23}],"polyline":[{"x":0,"y":0},{"x":0,"y":25}]},{"id":15,"x":270,"y":95,"visible":true,"properties":[{"name":"layer","type":"int","value":1},{"name":"group","type":"int","value":0},{"name":"id","type":"int","value":25},{"name":"fh_layer","type":"int","value":1},{"name":"fh_group","type":"int","value":0},{"name":"fh_id","type":"int","value":25},{"name":"x1","type":"int","value":270},{"name":"x2","type":"int","value":321},{"name":"y1","type":"int","value":95},{"name":"y2","type":"int","value":95},{"name":"next","type":"int","value":23},{"name":"prev","type":"int","value":22}],"polyline":[{"x":0,"y":0},{"x":51,"y":0}]},{"id":16,"x":231,"y":-85,"visible":true,"properties":[{"name":"layer","type":"int","value":1},{"name":"group","type":"int","value":5},{"name":"id","type":"int","value":26},{"name":"fh_layer","type":"int","value":1},{"name":"fh_group","type":"int","value":5},{"name":"fh_id","type":"int","value":26},{"name":"x1","type":"int","value":231},{"name":"x2","type":"int","value":309},{"name":"y1","type":"int","value":-85},{"name":"y2","type":"int","value":-85},{"name":"next","type":"int","value":27},{"name":"prev","type":"int","value":28}],"polyline":[{"x":0,"y":0},{"x":78,"y":0}]},{"id":17,"x":309,"y":-85,"visible":true,"properties":[{"name":"layer","type":"int","value":1},{"name":"group","type":"int","value":5},{"name":"id","type":"int","value":27},{"name":"fh_layer","type":"int","value":1},{"name":"fh_group","type":"int","value":5},{"name":"fh_id","type":"int","value":27},{"name":"x1","type":"int","value":309},{"name":"x2","type":"int","value":309},{"name":"y1","type":"int","value":-85},{"name":"y2","type":"int","value":-60},{"name":"next","type":"int","value":0},{"name":"prev","type":"int","value":26}],"polyline":[{"x":0,"y":0},{"x":0,"y":25}]},{"id":18,"x":180,"y":-85,"visible":true,"properties":[{"name":"layer","type":"int","value":1},{"name":"group","type":"int","value":5},{"name":"id","type":"int","value":28},{"name":"fh_layer","type":"int","value":1},{"name":"fh_group","type":"int","value":5},{"name":"fh_id","type":"int","value":28},{"name":"x1","type":"int","value":180},{"name":"x2","type":"int","value":231},{"name":"y1","type":"int","value":-85},{"name":"y2","type":"int","value":-85},{"name":"next","type":"int","value":26},{"name":"prev","type":"int","value":29}],"polyline":[{"x":0,"y":0},{"x":51,"y":0}]},{"id":19,"x":90,"y":-85,"visible":true,"properties":[{"name":"layer","type":"int","value":1},{"name":"group","type":"int","value":5},{"name":"id","type":"int","value":29},{"name":"fh_layer","type":"int","value":1},{"name":"fh_group","type":"int","value":5},{"name":"fh_id","type":"int","value":29},{"name":"x1","type":"int","value":90},{"name":"x2","type":"int","value":180},{"name":"y1","type":"int","value":-85},{"name":"y2","type":"int","value":-85},{"name":"next","type":"int","value":28},{"name":"prev","type":"int","value":30}],"polyline":[{"x":0,"y":0},{"x":90,"y":0}]},{"id":20,"x":0,"y":-85,"visible":true,"properties":[{"name":"layer","type":"int","value":1},{"name":"group","type":"int","value":5},{"name":"id","type":"int","value":30},{"name":"fh_layer","type":"int","value":1},{"name":"fh_group","type":"int","value":5},{"name":"fh_id","type":"int","value":30},{"name":"x1","type":"int","value":0},{"name":"x2","type":"int","value":90},{"name":"y1","type":"int","value":-85},{"name":"y2","type":"int","value":-85},{"name":"next","type":"int","value":29},{"name":"prev","type":"int","value":31}],"polyline":[{"x":0,"y":0},{"x":90,"y":0}]},{"id":21,"x":-90,"y":-85,"visible":true,"properties":[{"name":"layer","type":"int","value":1},{"name":"group","type":"int","value":5},{"name":"id","type":"int","value":31},{"name":"fh_layer","type":"int","value":1},{"name":"fh_group","type":"int","value":5},{"name":"fh_id","type":"int","value":31},{"name":"x1","type":"int","value":-90},{"name":"x2","type":"int","value":0},{"name":"y1","type":"int","value":-85},{"name":"y2","type":"int","value":-85},{"name":"next","type":"int","value":30},{"name":"prev","type":"int","value":34}],"polyline":[{"x":0,"y":0},{"x":90,"y":0}]},{"id":22,"x":-219,"y":-60,"visible":true,"properties":[{"name":"layer","type":"int","value":1},{"name":"group","type":"int","value":5},{"name":"id","type":"int","value":32},{"name":"fh_layer","type":"int","value":1},{"name":"fh_group","type":"int","value":5},{"name":"fh_id","type":"int","value":32},{"name":"x1","type":"int","value":-219},{"name":"x2","type":"int","value":-219},{"name":"y1","type":"int","value":-60},{"name":"y2","type":"int","value":-85},{"name":"next","type":"int","value":33},{"name":"prev","type":"int","value":0}],"polyline":[{"x":0,"y":0},{"x":0,"y":-25}]},{"id":23,"x":-219,"y":-85,"visible":true,"properties":[{"name":"layer","type":"int","value":1},{"name":"group","type":"int","value":5},{"name":"id","type":"int","value":33},{"name":"fh_layer","type":"int","value":1},{"name":"fh_group","type":"int","value":5},{"name":"fh_id","type":"int","value":33},{"name":"x1","type":"int","value":-219},{"name":"x2","type":"int","value":-141},{"name":"y1","type":"int","value":-85},{"name":"y2","type":"int","value":-85},{"name":"next","type":"int","value":34},{"name":"prev","type":"int","value":32}],"polyline":[{"x":0,"y":0},{"x":78,"y":0}]},{"id":24,"x":-141,"y":-85,"visible":true,"properties":[{"name":"layer","type":"int","value":1},{"name":"group","type":"int","value":5},{"name":"id","type":"int","value":34},{"name":"fh_layer","type":"int","value":1},{"name":"fh_group","type":"int","value":5},{"name":"fh_id","type":"int","value":34},{"name":"x1","type":"int","value":-141},{"name":"x2","type":"int","value":-90},{"name":"y1","type":"int","value":-85},{"name":"y2","type":"int","value":-85},{"name":"next","type":"int","value":31},{"name":"prev","type":"int","value":33}],"polyline":[{"x":0,"y":0},{"x":51,"y":0}]},{"id":25,"x":-270,"y":-205,"visible":true,"properties":[{"name":"layer","type":"int","value":1},{"name":"group","type":"int","value":7},{"name":"id","type":"int","value":1},{"name":"fh_layer","type":"int","value":1},{"name":"fh_group","type":"int","value":7},{"name":"fh_id","type":"int","value":1},{"name":"x1","type":"int","value":-270},{"name":"x2","type":"int","value":-180},{"name":"y1","type":"int","value":-205},{"name":"y2","type":"int","value":-205},{"name":"next","type":"int","value":6},{"name":"prev","type":"int","value":4}],"polyline":[{"x":0,"y":0},{"x":90,"y":0}]},{"id":26,"x":-399,"y":-180,"visible":true,"properties":[{"name":"layer","type":"int","value":1},{"name":"group","type":"int","value":7},{"name":"id","type":"int","value":2},{"name":"fh_layer","type":"int","value":1},{"name":"fh_group","type":"int","value":7},{"name":"fh_id","type":"int","value":2},{"name":"x1","type":"int","value":-399},{"name":"x2","type":"int","value":-399},{"name":"y1","type":"int","value":-180},{"name":"y2","type":"int","value":-205},{"name":"next","type":"int","value":3},{"name":"prev","type":"int","value":0}],"polyline":[{"x":0,"y":0},{"x":0,"y":-25}]},{"id":27,"x":-399,"y":-205,"visible":true,"properties":[{"name":"layer","type":"int","value":1},{"name":"group","type":"int","value":7},{"name":"id","type":"int","value":3},{"name":"fh_layer","type":"int","value":1},{"name":"fh_group","type":"int","value":7},{"name":"fh_id","type":"int","value":3},{"name":"x1","type":"int","value":-399},{"name":"x2","type":"int","value":-321},{"name":"y1","type":"int","value":-205},{"name":"y2","type":"int","value":-205},{"name":"next","type":"int","value":4},{"name":"prev","type":"int","value":2}],"polyline":[{"x":0,"y":0},{"x":78,"y":0}]},{"id":28,"x":-321,"y":-205,"visible":true,"properties":[{"name":"layer","type":"int","value":1},{"name":"group","type":"int","value":7},{"name":"id","type":"int","value":4},{"name":"fh_layer","type":"int","value":1},{"name":"fh_group","type":"int","value":7},{"name":"fh_id","type":"int","value":4},{"name":"x1","type":"int","value":-321},{"name":"x2","type":"int","value":-270},{"name":"y1","type":"int","value":-205},{"name":"y2","type":"int","value":-205},{"name":"next","type":"int","value":1},{"name":"prev","type":"int","value":3}],"polyline":[{"x":0,"y":0},{"x":51,"y":0}]},{"id":29,"x":270,"y":-205,"visible":true,"properties":[{"name":"layer","type":"int","value":1},{"name":"group","type":"int","value":7},{"name":"id","type":"int","value":5},{"name":"fh_layer","type":"int","value":1},{"name":"fh_group","type":"int","value":7},{"name":"fh_id","type":"int","value":5},{"name":"x1","type":"int","value":270},{"name":"x2","type":"int","value":321},{"name":"y1","type":"int","value":-205},{"name":"y2","type":"int","value":-205},{"name":"next","type":"int","value":11},{"name":"prev","type":"int","value":10}],"polyline":[{"x":0,"y":0},{"x":51,"y":0}]},{"id":30,"x":-180,"y":-205,"visible":true,"properties":[{"name":"layer","type":"int","value":1},{"name":"group","type":"int","value":7},{"name":"id","type":"int","value":6},{"name":"fh_layer","type":"int","value":1},{"name":"fh_group","type":"int","value":7},{"name":"fh_id","type":"int","value":6},{"name":"x1","type":"int","value":-180},{"name":"x2","type":"int","value":-90},{"name":"y1","type":"int","value":-205},{"name":"y2","type":"int","value":-205},{"name":"next","type":"int","value":7},{"name":"prev","type":"int","value":1}],"polyline":[{"x":0,"y":0},{"x":90,"y":0}]},{"id":31,"x":-90,"y":-205,"visible":true,"properties":[{"name":"layer","type":"int","value":1},{"name":"group","type":"int","value":7},{"name":"id","type":"int","value":7},{"name":"fh_layer","type":"int","value":1},{"name":"fh_group","type":"int","value":7},{"name":"fh_id","type":"int","value":7},{"name":"x1","type":"int","value":-90},{"name":"x2","type":"int","value":0},{"name":"y1","type":"int","value":-205},{"name":"y2","type":"int","value":-205},{"name":"next","type":"int","value":8},{"name":"prev","type":"int","value":6}],"polyline":[{"x":0,"y":0},{"x":90,"y":0}]},{"id":32,"x":0,"y":-205,"visible":true,"properties":[{"name":"layer","type":"int","value":1},{"name":"group","type":"int","value":7},{"name":"id","type":"int","value":8},{"name":"fh_layer","type":"int","value":1},{"name":"fh_group","type":"int","value":7},{"name":"fh_id","type":"int","value":8},{"name":"x1","type":"int","value":0},{"name":"x2","type":"int","value":90},{"name":"y1","type":"int","value":-205},{"name":"y2","type":"int","value":-205},{"name":"next","type":"int","value":9},{"name":"prev","type":"int","value":7}],"polyline":[{"x":0,"y":0},{"x":90,"y":0}]},{"id":33,"x":90,"y":-205,"visible":true,"properties":[{"name":"layer","type":"int","value":1},{"name":"group","type":"int","value":7},{"name":"id","type":"int","value":9},{"name":"fh_layer","type":"int","value":1},{"name":"fh_group","type":"int","value":7},{"name":"fh_id","type":"int","value":9},{"name":"x1","type":"int","value":90},{"name":"x2","type":"int","value":180},{"name":"y1","type":"int","value":-205},{"name":"y2","type":"int","value":-205},{"name":"next","type":"int","value":10},{"name":"prev","type":"int","value":8}],"polyline":[{"x":0,"y":0},{"x":90,"y":0}]},{"id":34,"x":180,"y":-205,"visible":true,"properties":[{"name":"layer","type":"int","value":1},{"name":"group","type":"int","value":7},{"name":"id","type":"int","value":10},{"name":"fh_layer","type":"int","value":1},{"name":"fh_group","type":"int","value":7},{"name":"fh_id","type":"int","value":10},{"name":"x1","type":"int","value":180},{"name":"x2","type":"int","value":270},{"name":"y1","type":"int","value":-205},{"name":"y2","type":"int","value":-205},{"name":"next","type":"int","value":5},{"name":"prev","type":"int","value":9}],"polyline":[{"x":0,"y":0},{"x":90,"y":0}]},{"id":35,"x":321,"y":-205,"visible":true,"properties":[{"name":"layer","type":"int","value":1},{"name":"group","type":"int","value":7},{"name":"id","type":"int","value":11},{"name":"fh_layer","type":"int","value":1},{"name":"fh_group","type":"int","value":7},{"name":"fh_id","type":"int","value":11},{"name":"x1","type":"int","value":321},{"name":"x2","type":"int","value":360},{"name":"y1","type":"int","value":-205},{"name":"y2","type":"int","value":-205},{"name":"next","type":"int","value":12},{"name":"prev","type":"int","value":5}],"polyline":[{"x":0,"y":0},{"x":39,"y":0}]},{"id":36,"x":360,"y":-205,"visible":true,"properties":[{"name":"layer","type":"int","value":1},{"name":"group","type":"int","value":7},{"name":"id","type":"int","value":12},{"name":"fh_layer","type":"int","value":1},{"name":"fh_group","type":"int","value":7},{"name":"fh_id","type":"int","value":12},{"name":"x1","type":"int","value":360},{"name":"x2","type":"int","value":399},{"name":"y1","type":"int","value":-205},{"name":"y2","type":"int","value":-205},{"name":"next","type":"int","value":13},{"name":"prev","type":"int","value":11}],"polyline":[{"x":0,"y":0},{"x":39,"y":0}]},{"id":37,"x":399,"y":-205,"visible":true,"properties":[{"name":"layer","type":"int","value":1},{"name":"group","type":"int","value":7},{"name":"id","type":"int","value":13},{"name":"fh_layer","type":"int","value":1},{"name":"fh_group","type":"int","value":7},{"name":"fh_id","type":"int","value":13},{"name":"x1","type":"int","value":399},{"name":"x2","type":"int","value":399},{"name":"y1","type":"int","value":-205},{"name":"y2","type":"int","value":-180},{"name":"next","type":"int","value":0},{"name":"prev","type":"int","value":12}],"polyline":[{"x":0,"y":0},{"x":0,"y":25}]}]},{"id":5,"name":"ladderRope","type":"objectgroup","visible":true,"opacity":1,"objects":[{"id":38,"x":-292,"y":-203,"visible":true,"properties":[{"name":"ladder_id","type":"int","value":1},{"name":"l","type":"int","value":1},{"name":"x","type":"int","value":-292},{"name":"uf","type":"int","value":1},{"name":"y1","type":"int","value":-203},{"name":"y2","type":"int","value":93},{"name":"page","type":"int","value":2}],"polyline":[{"x":0,"y":0},{"x":0,"y":296}]},{"id":39,"x":-364,"y":-203,"visible":true,"properties":[{"name":"ladder_id","type":"int","value":2},{"name":"l","type":"int","value":0},{"name":"x","type":"int","value":-364},{"name":"uf","type":"int","value":1},{"name":"y1","type":"int","value":-203},{"name":"y2","type":"int","value":85},{"name":"page","type":"int","value":2}],"polyline":[{"x":0,"y":0},{"x":0,"y":288}]}]}],"tilesets":[{"firstgid":1,"source":"../../tilesets/bg_grassySoil.tsj"}],"properties":[{"name":"bgm","type":"string","value":"Bgm02/AboveTheTreetops"},{"name":"town","type":"int","value":1},{"name":"cloud","type":"int","value":0},{"name":"mapMark","type":"string","value":"None"},{"name":"mobRate","type":"float","value":1.5000001192092896},{"name":"version","type":"int","value":10},{"name":"returnMap","type":"int","value":100000000},{"name":"fieldLimit","type":"int","value":0},{"name":"hideMinimap","type":"int","value":0},{"name":"forcedReturn","type":"int","value":100000000}]}