{"type":"map","orientation":"orthogonal","renderorder":"right-down","infinite":false,"tilewidth":1,"tileheight":1,"width":911,"height":630,"nextlayerid":16,"nextobjectid":75,"layers":[{"id":1,"name":"layer_4_obj","type":"objectgroup","visible":true,"opacity":1,"objects":[{"id":9,"x":-1199,"y":192,"visible":true,"properties":[{"name":"layer","type":"int","value":4},{"name":"resource_index","type":"int","value":0},{"name":"oS","type":"string","value":"acc2"},{"name":"l0","type":"string","value":"darkSwamp"},{"name":"l1","type":"string","value":"artificiality"},{"name":"l2","type":"string","value":"2"},{"name":"z","type":"int","value":3},{"name":"zM","type":"int","value":5},{"name":"f","type":"int","value":0}],"gid":29,"width":223,"height":319},{"id":10,"x":-939,"y":258,"visible":true,"properties":[{"name":"layer","type":"int","value":4},{"name":"resource_index","type":"int","value":1},{"name":"oS","type":"string","value":"acc2"},{"name":"l0","type":"string","value":"darkSwamp"},{"name":"l1","type":"string","value":"artificiality"},{"name":"l2","type":"string","value":"4"},{"name":"z","type":"int","value":3},{"name":"zM","type":"int","value":6},{"name":"f","type":"int","value":0}],"gid":28,"width":710,"height":457},{"id":11,"x":-801,"y":188,"visible":true,"properties":[{"name":"layer","type":"int","value":4},{"name":"resource_index","type":"int","value":2},{"name":"oS","type":"string","value":"acc2"},{"name":"l0","type":"string","value":"darkSwamp"},{"name":"l1","type":"string","value":"nature"},{"name":"l2","type":"string","value":"2"},{"name":"z","type":"int","value":1},{"name":"zM","type":"int","value":6},{"name":"f","type":"int","value":0}],"gid":24,"width":256,"height":178},{"id":12,"x":-1164,"y":204,"visible":true,"properties":[{"name":"layer","type":"int","value":4},{"name":"resource_index","type":"int","value":3},{"name":"oS","type":"string","value":"acc2"},{"name":"l0","type":"string","value":"darkSwamp"},{"name":"l1","type":"string","value":"foot"},{"name":"l2","type":"string","value":"4"},{"name":"z","type":"int","value":3},{"name":"zM","type":"int","value":5},{"name":"f","type":"int","value":0}],"gid":16,"width":224,"height":107},{"id":13,"x":-962,"y":169,"visible":true,"properties":[{"name":"layer","type":"int","value":4},{"name":"resource_index","type":"int","value":4},{"name":"oS","type":"string","value":"acc2"},{"name":"l0","type":"string","value":"darkSwamp"},{"name":"l1","type":"string","value":"nature"},{"name":"l2","type":"string","value":"0"},{"name":"z","type":"int","value":1},{"name":"zM","type":"int","value":5},{"name":"f","type":"int","value":0}],"gid":25,"width":186,"height":175}]},{"id":2,"name":"layer_4_tile","type":"objectgroup","visible":true,"opacity":1,"objects":[{"id":1,"x":-1215,"y":272,"visible":true,"properties":[{"name":"layer","type":"int","value":4},{"name":"resource_index","type":"int","value":0},{"name":"u","type":"string","value":"enH1"},{"name":"no","type":"int","value":1},{"name":"zM","type":"int","value":5}],"gid":1,"width":90,"height":62},{"id":2,"x":-1215,"y":210,"visible":true,"properties":[{"name":"layer","type":"int","value":4},{"name":"resource_index","type":"int","value":1},{"name":"u","type":"string","value":"enH0"},{"name":"no","type":"int","value":1},{"name":"zM","type":"int","value":5}],"gid":2,"width":90,"height":39},{"id":3,"x":-1125,"y":271,"visible":true,"properties":[{"name":"layer","type":"int","value":4},{"name":"resource_index","type":"int","value":2},{"name":"u","type":"string","value":"enH1"},{"name":"no","type":"int","value":0},{"name":"zM","type":"int","value":5}],"gid":3,"width":90,"height":61},{"id":4,"x":-1125,"y":210,"visible":true,"properties":[{"name":"layer","type":"int","value":4},{"name":"resource_index","type":"int","value":3},{"name":"u","type":"string","value":"enH0"},{"name":"no","type":"int","value":1},{"name":"zM","type":"int","value":5}],"gid":2,"width":90,"height":39},{"id":5,"x":-1035,"y":272,"visible":true,"properties":[{"name":"layer","type":"int","value":4},{"name":"resource_index","type":"int","value":4},{"name":"u","type":"string","value":"enH1"},{"name":"no","type":"int","value":1},{"name":"zM","type":"int","value":5}],"gid":1,"width":90,"height":62},{"id":6,"x":-1035,"y":210,"visible":true,"properties":[{"name":"layer","type":"int","value":4},{"name":"resource_index","type":"int","value":5},{"name":"u","type":"string","value":"enH0"},{"name":"no","type":"int","value":2},{"name":"zM","type":"int","value":5}],"gid":4,"width":90,"height":39},{"id":7,"x":-985,"y":210,"visible":true,"properties":[{"name":"layer","type":"int","value":4},{"name":"resource_index","type":"int","value":6},{"name":"u","type":"string","value":"edU"},{"name":"no","type":"int","value":0},{"name":"zM","type":"int","value":5}],"gid":5,"width":83,"height":36},{"id":8,"x":-968,"y":248,"visible":true,"properties":[{"name":"layer","type":"int","value":4},{"name":"resource_index","type":"int","value":7},{"name":"u","type":"string","value":"edD"},{"name":"no","type":"int","value":0},{"name":"zM","type":"int","value":5}],"gid":6,"width":46,"height":38}]},{"id":3,"name":"layer_5_obj","type":"objectgroup","visible":true,"opacity":1,"objects":[{"id":14,"x":-1051,"y":287,"visible":true,"properties":[{"name":"layer","type":"int","value":5},{"name":"resource_index","type":"int","value":0},{"name":"oS","type":"string","value":"acc2"},{"name":"l0","type":"string","value":"darkSwamp"},{"name":"l1","type":"string","value":"nature"},{"name":"l2","type":"string","value":"4"},{"name":"z","type":"int","value":7},{"name":"zM","type":"int","value":0},{"name":"f","type":"int","value":0}],"gid":26,"width":189,"height":189},{"id":15,"x":-1240,"y":287,"visible":true,"properties":[{"name":"layer","type":"int","value":5},{"name":"resource_index","type":"int","value":1},{"name":"oS","type":"string","value":"acc2"},{"name":"l0","type":"string","value":"darkSwamp"},{"name":"l1","type":"string","value":"nature"},{"name":"l2","type":"string","value":"4"},{"name":"z","type":"int","value":7},{"name":"zM","type":"int","value":1},{"name":"f","type":"int","value":0}],"gid":26,"width":189,"height":189},{"id":16,"x":-862,"y":287,"visible":true,"properties":[{"name":"layer","type":"int","value":5},{"name":"resource_index","type":"int","value":2},{"name":"oS","type":"string","value":"acc2"},{"name":"l0","type":"string","value":"darkSwamp"},{"name":"l1","type":"string","value":"nature"},{"name":"l2","type":"string","value":"4"},{"name":"z","type":"int","value":7},{"name":"zM","type":"int","value":2},{"name":"f","type":"int","value":0}],"gid":26,"width":189,"height":189},{"id":17,"x":-484,"y":287,"visible":true,"properties":[{"name":"layer","type":"int","value":5},{"name":"resource_index","type":"int","value":3},{"name":"oS","type":"string","value":"acc2"},{"name":"l0","type":"string","value":"darkSwamp"},{"name":"l1","type":"string","value":"nature"},{"name":"l2","type":"string","value":"4"},{"name":"z","type":"int","value":7},{"name":"zM","type":"int","value":3},{"name":"f","type":"int","value":0}],"gid":26,"width":189,"height":189},{"id":18,"x":-673,"y":287,"visible":true,"properties":[{"name":"layer","type":"int","value":5},{"name":"resource_index","type":"int","value":4},{"name":"oS","type":"string","value":"acc2"},{"name":"l0","type":"string","value":"darkSwamp"},{"name":"l1","type":"string","value":"nature"},{"name":"l2","type":"string","value":"4"},{"name":"z","type":"int","value":7},{"name":"zM","type":"int","value":4},{"name":"f","type":"int","value":0}],"gid":26,"width":189,"height":189}]},{"id":4,"name":"background_back_0","type":"imagelayer","visible":true,"opacity":1,"image":"../../images/27152.png","imagewidth":218,"imageheight":173,"offsetx":-109,"offsety":-86,"repeatx":true,"repeaty":true,"parallaxx":1,"parallaxy":1,"properties":[{"name":"a","type":"int","value":255},{"name":"f","type":"int","value":0},{"name":"x","type":"int","value":0},{"name":"y","type":"int","value":0},{"name":"bS","type":"string","value":"darkSwamp"},{"name":"cx","type":"int","value":0},{"name":"cy","type":"int","value":0},{"name":"no","type":"int","value":0},{"name":"rx","type":"int","value":-2},{"name":"ry","type":"int","value":-2},{"name":"ani","type":"int","value":0},{"name":"type","type":"int","value":3},{"name":"front","type":"int","value":0}]},{"id":5,"name":"background_back_1","type":"imagelayer","visible":true,"opacity":1,"image":"../../images/27153.png","imagewidth":194,"imageheight":580,"offsetx":205,"offsety":-190,"repeatx":true,"repeaty":false,"parallaxx":1,"parallaxy":1,"properties":[{"name":"a","type":"int","value":255},{"name":"f","type":"int","value":0},{"name":"x","type":"int","value":302},{"name":"y","type":"int","value":100},{"name":"bS","type":"string","value":"darkSwamp"},{"name":"cx","type":"int","value":0},{"name":"cy","type":"int","value":0},{"name":"no","type":"int","value":1},{"name":"rx","type":"int","value":0},{"name":"ry","type":"int","value":-4},{"name":"ani","type":"int","value":0},{"name":"type","type":"int","value":1},{"name":"front","type":"int","value":0}]},{"id":6,"name":"background_back_2","type":"imagelayer","visible":true,"opacity":1,"image":"../../images/27154.png","imagewidth":319,"imageheight":553,"offsetx":-192,"offsety":-568,"repeatx":true,"repeaty":false,"parallaxx":1,"parallaxy":1,"properties":[{"name":"a","type":"int","value":255},{"name":"f","type":"int","value":0},{"name":"x","type":"int","value":-33},{"name":"y","type":"int","value":-292},{"name":"bS","type":"string","value":"darkSwamp"},{"name":"cx","type":"int","value":0},{"name":"cy","type":"int","value":0},{"name":"no","type":"int","value":2},{"name":"rx","type":"int","value":-10},{"name":"ry","type":"int","value":-6},{"name":"ani","type":"int","value":0},{"name":"type","type":"int","value":1},{"name":"front","type":"int","value":0}]},{"id":7,"name":"background_back_3","type":"imagelayer","visible":true,"opacity":1,"image":"../../images/27155.png","imagewidth":274,"imageheight":131,"offsetx":-416,"offsety":-156,"repeatx":true,"repeaty":false,"parallaxx":1,"parallaxy":1,"properties":[{"name":"a","type":"int","value":255},{"name":"f","type":"int","value":0},{"name":"x","type":"int","value":-279},{"name":"y","type":"int","value":-91},{"name":"bS","type":"string","value":"darkSwamp"},{"name":"cx","type":"int","value":400},{"name":"cy","type":"int","value":0},{"name":"no","type":"int","value":3},{"name":"rx","type":"int","value":-14},{"name":"ry","type":"int","value":-10},{"name":"ani","type":"int","value":0},{"name":"type","type":"int","value":1},{"name":"front","type":"int","value":0}]},{"id":8,"name":"background_back_4","type":"imagelayer","visible":true,"opacity":1,"image":"../../images/27157.png","imagewidth":146,"imageheight":77,"offsetx":138,"offsety":-92,"repeatx":true,"repeaty":false,"parallaxx":1,"parallaxy":1,"properties":[{"name":"a","type":"int","value":255},{"name":"f","type":"int","value":0},{"name":"x","type":"int","value":211},{"name":"y","type":"int","value":-54},{"name":"bS","type":"string","value":"darkSwamp"},{"name":"cx","type":"int","value":680},{"name":"cy","type":"int","value":0},{"name":"no","type":"int","value":5},{"name":"rx","type":"int","value":-17},{"name":"ry","type":"int","value":-13},{"name":"ani","type":"int","value":0},{"name":"type","type":"int","value":1},{"name":"front","type":"int","value":0}]},{"id":9,"name":"background_back_5","type":"imagelayer","visible":true,"opacity":1,"image":"../../images/27156.png","imagewidth":380,"imageheight":137,"offsetx":-202,"offsety":-132,"repeatx":true,"repeaty":false,"parallaxx":1,"parallaxy":1,"properties":[{"name":"a","type":"int","value":255},{"name":"f","type":"int","value":0},{"name":"x","type":"int","value":-12},{"name":"y","type":"int","value":-64},{"name":"bS","type":"string","value":"darkSwamp"},{"name":"cx","type":"int","value":800},{"name":"cy","type":"int","value":0},{"name":"no","type":"int","value":4},{"name":"rx","type":"int","value":-18},{"name":"ry","type":"int","value":-15},{"name":"ani","type":"int","value":0},{"name":"type","type":"int","value":1},{"name":"front","type":"int","value":0}]},{"id":10,"name":"background_back_6","type":"imagelayer","visible":true,"opacity":1,"image":"../../images/27158.png","imagewidth":226,"imageheight":119,"offsetx":285,"offsety":-30,"repeatx":true,"repeaty":false,"parallaxx":1,"parallaxy":1,"properties":[{"name":"a","type":"int","value":255},{"name":"f","type":"int","value":0},{"name":"x","type":"int","value":398},{"name":"y","type":"int","value":29},{"name":"bS","type":"string","value":"darkSwamp"},{"name":"cx","type":"int","value":1200},{"name":"cy","type":"int","value":0},{"name":"no","type":"int","value":6},{"name":"rx","type":"int","value":-20},{"name":"ry","type":"int","value":-18},{"name":"ani","type":"int","value":0},{"name":"type","type":"int","value":1},{"name":"front","type":"int","value":0}]},{"id":11,"name":"background_back_7","type":"imagelayer","visible":true,"opacity":1,"image":"../../images/27159.png","imagewidth":562,"imageheight":735,"offsetx":-244,"offsety":-599,"repeatx":true,"repeaty":false,"parallaxx":1,"parallaxy":1,"properties":[{"name":"a","type":"int","value":255},{"name":"f","type":"int","value":0},{"name":"x","type":"int","value":37},{"name":"y","type":"int","value":-232},{"name":"bS","type":"string","value":"darkSwamp"},{"name":"cx","type":"int","value":1200},{"name":"cy","type":"int","value":0},{"name":"no","type":"int","value":7},{"name":"rx","type":"int","value":-25},{"name":"ry","type":"int","value":-22},{"name":"ani","type":"int","value":0},{"name":"type","type":"int","value":1},{"name":"front","type":"int","value":0}]},{"id":12,"name":"background_back_8","type":"imagelayer","visible":true,"opacity":1,"image":"../../images/27160.png","imagewidth":519,"imageheight":712,"offsetx":558,"offsety":-601,"repeatx":true,"repeaty":false,"parallaxx":1,"parallaxy":1,"properties":[{"name":"a","type":"int","value":255},{"name":"f","type":"int","value":0},{"name":"x","type":"int","value":817},{"name":"y","type":"int","value":-245},{"name":"bS","type":"string","value":"darkSwamp"},{"name":"cx","type":"int","value":1400},{"name":"cy","type":"int","value":0},{"name":"no","type":"int","value":8},{"name":"rx","type":"int","value":-30},{"name":"ry","type":"int","value":-25},{"name":"ani","type":"int","value":0},{"name":"type","type":"int","value":1},{"name":"front","type":"int","value":0}]},{"id":13,"name":"portal","type":"objectgroup","visible":true,"opacity":1,"objects":[{"id":19,"x":-667,"y":103,"visible":true,"properties":[{"name":"x","type":"int","value":-667},{"name":"y","type":"int","value":103},{"name":"pn","type":"string","value":"sp"},{"name":"pt","type":"int","value":0},{"name":"tm","type":"int","value":999999999},{"name":"tn","type":"string","value":""}],"point":true},{"id":20,"x":-671,"y":147,"visible":true,"properties":[{"name":"x","type":"int","value":-671},{"name":"y","type":"int","value":147},{"name":"pn","type":"string","value":"st00"},{"name":"pt","type":"int","value":1},{"name":"tm","type":"int","value":999999999},{"name":"tn","type":"string","value":""}],"point":true}]},{"id":14,"name":"life","type":"objectgroup","visible":true,"opacity":1,"objects":[{"id":21,"x":-1030,"y":-100,"visible":true,"properties":[{"name":"f","type":"int","value":1},{"name":"x","type":"int","value":-1030},{"name":"y","type":"int","value":-100},{"name":"cy","type":"int","value":-99},{"name":"fh","type":"int","value":34},{"name":"id","type":"int","value":9020002},{"name":"rx0","type":"int","value":-1080},{"name":"rx1","type":"int","value":-980},{"name":"type","type":"string","value":"n"},{"name":"mobTime","type":"int","value":0}],"point":true}]},{"id":15,"name":"foothold","type":"objectgroup","visible":true,"opacity":1,"objects":[{"id":22,"x":-1215,"y":185,"visible":true,"properties":[{"name":"layer","type":"int","value":4},{"name":"group","type":"int","value":5},{"name":"id","type":"int","value":1},{"name":"fh_layer","type":"int","value":4},{"name":"fh_group","type":"int","value":5},{"name":"fh_id","type":"int","value":1},{"name":"x1","type":"int","value":-1215},{"name":"x2","type":"int","value":-1206},{"name":"y1","type":"int","value":185},{"name":"y2","type":"int","value":184},{"name":"next","type":"int","value":2},{"name":"prev","type":"int","value":0}],"polyline":[{"x":0,"y":0},{"x":9,"y":-1}]},{"id":23,"x":-1206,"y":184,"visible":true,"properties":[{"name":"layer","type":"int","value":4},{"name":"group","type":"int","value":5},{"name":"id","type":"int","value":2},{"name":"fh_layer","type":"int","value":4},{"name":"fh_group","type":"int","value":5},{"name":"fh_id","type":"int","value":2},{"name":"x1","type":"int","value":-1206},{"name":"x2","type":"int","value":-1196},{"name":"y1","type":"int","value":184},{"name":"y2","type":"int","value":181},{"name":"next","type":"int","value":3},{"name":"prev","type":"int","value":1}],"polyline":[{"x":0,"y":0},{"x":10,"y":-3}]},{"id":24,"x":-1196,"y":181,"visible":true,"properties":[{"name":"layer","type":"int","value":4},{"name":"group","type":"int","value":5},{"name":"id","type":"int","value":3},{"name":"fh_layer","type":"int","value":4},{"name":"fh_group","type":"int","value":5},{"name":"fh_id","type":"int","value":3},{"name":"x1","type":"int","value":-1196},{"name":"x2","type":"int","value":-1183},{"name":"y1","type":"int","value":181},{"name":"y2","type":"int","value":178},{"name":"next","type":"int","value":4},{"name":"prev","type":"int","value":2}],"polyline":[{"x":0,"y":0},{"x":13,"y":-3}]},{"id":25,"x":-1183,"y":178,"visible":true,"properties":[{"name":"layer","type":"int","value":4},{"name":"group","type":"int","value":5},{"name":"id","type":"int","value":4},{"name":"fh_layer","type":"int","value":4},{"name":"fh_group","type":"int","value":5},{"name":"fh_id","type":"int","value":4},{"name":"x1","type":"int","value":-1183},{"name":"x2","type":"int","value":-1172},{"name":"y1","type":"int","value":178},{"name":"y2","type":"int","value":179},{"name":"next","type":"int","value":5},{"name":"prev","type":"int","value":3}],"polyline":[{"x":0,"y":0},{"x":11,"y":1}]},{"id":26,"x":-1172,"y":179,"visible":true,"properties":[{"name":"layer","type":"int","value":4},{"name":"group","type":"int","value":5},{"name":"id","type":"int","value":5},{"name":"fh_layer","type":"int","value":4},{"name":"fh_group","type":"int","value":5},{"name":"fh_id","type":"int","value":5},{"name":"x1","type":"int","value":-1172},{"name":"x2","type":"int","value":-1156},{"name":"y1","type":"int","value":179},{"name":"y2","type":"int","value":179},{"name":"next","type":"int","value":6},{"name":"prev","type":"int","value":4}],"polyline":[{"x":0,"y":0},{"x":16,"y":0}]},{"id":27,"x":-1156,"y":179,"visible":true,"properties":[{"name":"layer","type":"int","value":4},{"name":"group","type":"int","value":5},{"name":"id","type":"int","value":6},{"name":"fh_layer","type":"int","value":4},{"name":"fh_group","type":"int","value":5},{"name":"fh_id","type":"int","value":6},{"name":"x1","type":"int","value":-1156},{"name":"x2","type":"int","value":-1147},{"name":"y1","type":"int","value":179},{"name":"y2","type":"int","value":182},{"name":"next","type":"int","value":7},{"name":"prev","type":"int","value":5}],"polyline":[{"x":0,"y":0},{"x":9,"y":3}]},{"id":28,"x":-1147,"y":182,"visible":true,"properties":[{"name":"layer","type":"int","value":4},{"name":"group","type":"int","value":5},{"name":"id","type":"int","value":7},{"name":"fh_layer","type":"int","value":4},{"name":"fh_group","type":"int","value":5},{"name":"fh_id","type":"int","value":7},{"name":"x1","type":"int","value":-1147},{"name":"x2","type":"int","value":-1136},{"name":"y1","type":"int","value":182},{"name":"y2","type":"int","value":180},{"name":"next","type":"int","value":8},{"name":"prev","type":"int","value":6}],"polyline":[{"x":0,"y":0},{"x":11,"y":-2}]},{"id":29,"x":-1136,"y":180,"visible":true,"properties":[{"name":"layer","type":"int","value":4},{"name":"group","type":"int","value":5},{"name":"id","type":"int","value":8},{"name":"fh_layer","type":"int","value":4},{"name":"fh_group","type":"int","value":5},{"name":"fh_id","type":"int","value":8},{"name":"x1","type":"int","value":-1136},{"name":"x2","type":"int","value":-1125},{"name":"y1","type":"int","value":180},{"name":"y2","type":"int","value":185},{"name":"next","type":"int","value":9},{"name":"prev","type":"int","value":7}],"polyline":[{"x":0,"y":0},{"x":11,"y":5}]},{"id":30,"x":-1125,"y":185,"visible":true,"properties":[{"name":"layer","type":"int","value":4},{"name":"group","type":"int","value":5},{"name":"id","type":"int","value":9},{"name":"fh_layer","type":"int","value":4},{"name":"fh_group","type":"int","value":5},{"name":"fh_id","type":"int","value":9},{"name":"x1","type":"int","value":-1125},{"name":"x2","type":"int","value":-1116},{"name":"y1","type":"int","value":185},{"name":"y2","type":"int","value":184},{"name":"next","type":"int","value":10},{"name":"prev","type":"int","value":8}],"polyline":[{"x":0,"y":0},{"x":9,"y":-1}]},{"id":31,"x":-1116,"y":184,"visible":true,"properties":[{"name":"layer","type":"int","value":4},{"name":"group","type":"int","value":5},{"name":"id","type":"int","value":10},{"name":"fh_layer","type":"int","value":4},{"name":"fh_group","type":"int","value":5},{"name":"fh_id","type":"int","value":10},{"name":"x1","type":"int","value":-1116},{"name":"x2","type":"int","value":-1106},{"name":"y1","type":"int","value":184},{"name":"y2","type":"int","value":181},{"name":"next","type":"int","value":11},{"name":"prev","type":"int","value":9}],"polyline":[{"x":0,"y":0},{"x":10,"y":-3}]},{"id":32,"x":-1106,"y":181,"visible":true,"properties":[{"name":"layer","type":"int","value":4},{"name":"group","type":"int","value":5},{"name":"id","type":"int","value":11},{"name":"fh_layer","type":"int","value":4},{"name":"fh_group","type":"int","value":5},{"name":"fh_id","type":"int","value":11},{"name":"x1","type":"int","value":-1106},{"name":"x2","type":"int","value":-1093},{"name":"y1","type":"int","value":181},{"name":"y2","type":"int","value":178},{"name":"next","type":"int","value":12},{"name":"prev","type":"int","value":10}],"polyline":[{"x":0,"y":0},{"x":13,"y":-3}]},{"id":33,"x":-1093,"y":178,"visible":true,"properties":[{"name":"layer","type":"int","value":4},{"name":"group","type":"int","value":5},{"name":"id","type":"int","value":12},{"name":"fh_layer","type":"int","value":4},{"name":"fh_group","type":"int","value":5},{"name":"fh_id","type":"int","value":12},{"name":"x1","type":"int","value":-1093},{"name":"x2","type":"int","value":-1082},{"name":"y1","type":"int","value":178},{"name":"y2","type":"int","value":179},{"name":"next","type":"int","value":13},{"name":"prev","type":"int","value":11}],"polyline":[{"x":0,"y":0},{"x":11,"y":1}]},{"id":34,"x":-1082,"y":179,"visible":true,"properties":[{"name":"layer","type":"int","value":4},{"name":"group","type":"int","value":5},{"name":"id","type":"int","value":13},{"name":"fh_layer","type":"int","value":4},{"name":"fh_group","type":"int","value":5},{"name":"fh_id","type":"int","value":13},{"name":"x1","type":"int","value":-1082},{"name":"x2","type":"int","value":-1066},{"name":"y1","type":"int","value":179},{"name":"y2","type":"int","value":179},{"name":"next","type":"int","value":14},{"name":"prev","type":"int","value":12}],"polyline":[{"x":0,"y":0},{"x":16,"y":0}]},{"id":35,"x":-1066,"y":179,"visible":true,"properties":[{"name":"layer","type":"int","value":4},{"name":"group","type":"int","value":5},{"name":"id","type":"int","value":14},{"name":"fh_layer","type":"int","value":4},{"name":"fh_group","type":"int","value":5},{"name":"fh_id","type":"int","value":14},{"name":"x1","type":"int","value":-1066},{"name":"x2","type":"int","value":-1057},{"name":"y1","type":"int","value":179},{"name":"y2","type":"int","value":182},{"name":"next","type":"int","value":15},{"name":"prev","type":"int","value":13}],"polyline":[{"x":0,"y":0},{"x":9,"y":3}]},{"id":36,"x":-1057,"y":182,"visible":true,"properties":[{"name":"layer","type":"int","value":4},{"name":"group","type":"int","value":5},{"name":"id","type":"int","value":15},{"name":"fh_layer","type":"int","value":4},{"name":"fh_group","type":"int","value":5},{"name":"fh_id","type":"int","value":15},{"name":"x1","type":"int","value":-1057},{"name":"x2","type":"int","value":-1046},{"name":"y1","type":"int","value":182},{"name":"y2","type":"int","value":180},{"name":"next","type":"int","value":16},{"name":"prev","type":"int","value":14}],"polyline":[{"x":0,"y":0},{"x":11,"y":-2}]},{"id":37,"x":-1046,"y":180,"visible":true,"properties":[{"name":"layer","type":"int","value":4},{"name":"group","type":"int","value":5},{"name":"id","type":"int","value":16},{"name":"fh_layer","type":"int","value":4},{"name":"fh_group","type":"int","value":5},{"name":"fh_id","type":"int","value":16},{"name":"x1","type":"int","value":-1046},{"name":"x2","type":"int","value":-1035},{"name":"y1","type":"int","value":180},{"name":"y2","type":"int","value":185},{"name":"next","type":"int","value":17},{"name":"prev","type":"int","value":15}],"polyline":[{"x":0,"y":0},{"x":11,"y":5}]},{"id":38,"x":-1035,"y":185,"visible":true,"properties":[{"name":"layer","type":"int","value":4},{"name":"group","type":"int","value":5},{"name":"id","type":"int","value":17},{"name":"fh_layer","type":"int","value":4},{"name":"fh_group","type":"int","value":5},{"name":"fh_id","type":"int","value":17},{"name":"x1","type":"int","value":-1035},{"name":"x2","type":"int","value":-1027},{"name":"y1","type":"int","value":185},{"name":"y2","type":"int","value":182},{"name":"next","type":"int","value":18},{"name":"prev","type":"int","value":16}],"polyline":[{"x":0,"y":0},{"x":8,"y":-3}]},{"id":39,"x":-1027,"y":182,"visible":true,"properties":[{"name":"layer","type":"int","value":4},{"name":"group","type":"int","value":5},{"name":"id","type":"int","value":18},{"name":"fh_layer","type":"int","value":4},{"name":"fh_group","type":"int","value":5},{"name":"fh_id","type":"int","value":18},{"name":"x1","type":"int","value":-1027},{"name":"x2","type":"int","value":-1014},{"name":"y1","type":"int","value":182},{"name":"y2","type":"int","value":180},{"name":"next","type":"int","value":19},{"name":"prev","type":"int","value":17}],"polyline":[{"x":0,"y":0},{"x":13,"y":-2}]},{"id":40,"x":-1014,"y":180,"visible":true,"properties":[{"name":"layer","type":"int","value":4},{"name":"group","type":"int","value":5},{"name":"id","type":"int","value":19},{"name":"fh_layer","type":"int","value":4},{"name":"fh_group","type":"int","value":5},{"name":"fh_id","type":"int","value":19},{"name":"x1","type":"int","value":-1014},{"name":"x2","type":"int","value":-1001},{"name":"y1","type":"int","value":180},{"name":"y2","type":"int","value":181},{"name":"next","type":"int","value":20},{"name":"prev","type":"int","value":18}],"polyline":[{"x":0,"y":0},{"x":13,"y":1}]},{"id":41,"x":-1001,"y":181,"visible":true,"properties":[{"name":"layer","type":"int","value":4},{"name":"group","type":"int","value":5},{"name":"id","type":"int","value":20},{"name":"fh_layer","type":"int","value":4},{"name":"fh_group","type":"int","value":5},{"name":"fh_id","type":"int","value":20},{"name":"x1","type":"int","value":-1001},{"name":"x2","type":"int","value":-985},{"name":"y1","type":"int","value":181},{"name":"y2","type":"int","value":177},{"name":"next","type":"int","value":21},{"name":"prev","type":"int","value":19}],"polyline":[{"x":0,"y":0},{"x":16,"y":-4}]},{"id":42,"x":-985,"y":177,"visible":true,"properties":[{"name":"layer","type":"int","value":4},{"name":"group","type":"int","value":5},{"name":"id","type":"int","value":21},{"name":"fh_layer","type":"int","value":4},{"name":"fh_group","type":"int","value":5},{"name":"fh_id","type":"int","value":21},{"name":"x1","type":"int","value":-985},{"name":"x2","type":"int","value":-979},{"name":"y1","type":"int","value":177},{"name":"y2","type":"int","value":181},{"name":"next","type":"int","value":22},{"name":"prev","type":"int","value":20}],"polyline":[{"x":0,"y":0},{"x":6,"y":4}]},{"id":43,"x":-979,"y":181,"visible":true,"properties":[{"name":"layer","type":"int","value":4},{"name":"group","type":"int","value":5},{"name":"id","type":"int","value":22},{"name":"fh_layer","type":"int","value":4},{"name":"fh_group","type":"int","value":5},{"name":"fh_id","type":"int","value":22},{"name":"x1","type":"int","value":-979},{"name":"x2","type":"int","value":-966},{"name":"y1","type":"int","value":181},{"name":"y2","type":"int","value":182},{"name":"next","type":"int","value":26},{"name":"prev","type":"int","value":21}],"polyline":[{"x":0,"y":0},{"x":13,"y":1}]},{"id":44,"x":-962,"y":183,"visible":true,"properties":[{"name":"layer","type":"int","value":4},{"name":"group","type":"int","value":5},{"name":"id","type":"int","value":23},{"name":"fh_layer","type":"int","value":4},{"name":"fh_group","type":"int","value":5},{"name":"fh_id","type":"int","value":23},{"name":"x1","type":"int","value":-962},{"name":"x2","type":"int","value":-960},{"name":"y1","type":"int","value":183},{"name":"y2","type":"int","value":183},{"name":"next","type":"int","value":28},{"name":"prev","type":"int","value":25}],"polyline":[{"x":0,"y":0},{"x":2,"y":0}]},{"id":45,"x":-951,"y":182,"visible":true,"properties":[{"name":"layer","type":"int","value":4},{"name":"group","type":"int","value":5},{"name":"id","type":"int","value":24},{"name":"fh_layer","type":"int","value":4},{"name":"fh_group","type":"int","value":5},{"name":"fh_id","type":"int","value":24},{"name":"x1","type":"int","value":-951},{"name":"x2","type":"int","value":-949},{"name":"y1","type":"int","value":182},{"name":"y2","type":"int","value":183},{"name":"next","type":"int","value":31},{"name":"prev","type":"int","value":28}],"polyline":[{"x":0,"y":0},{"x":2,"y":1}]},{"id":46,"x":-966,"y":182,"visible":true,"properties":[{"name":"layer","type":"int","value":4},{"name":"group","type":"int","value":5},{"name":"id","type":"int","value":25},{"name":"fh_layer","type":"int","value":4},{"name":"fh_group","type":"int","value":5},{"name":"fh_id","type":"int","value":25},{"name":"x1","type":"int","value":-966},{"name":"x2","type":"int","value":-962},{"name":"y1","type":"int","value":182},{"name":"y2","type":"int","value":183},{"name":"next","type":"int","value":23},{"name":"prev","type":"int","value":22}],"polyline":[{"x":0,"y":0},{"x":4,"y":1}]},{"id":47,"x":-966,"y":182,"visible":true,"properties":[{"name":"layer","type":"int","value":4},{"name":"group","type":"int","value":5},{"name":"id","type":"int","value":26},{"name":"fh_layer","type":"int","value":4},{"name":"fh_group","type":"int","value":5},{"name":"fh_id","type":"int","value":26},{"name":"x1","type":"int","value":-966},{"name":"x2","type":"int","value":-965},{"name":"y1","type":"int","value":182},{"name":"y2","type":"int","value":182},{"name":"next","type":"int","value":27},{"name":"prev","type":"int","value":22}],"polyline":[{"x":0,"y":0},{"x":1,"y":0}]},{"id":48,"x":-965,"y":182,"visible":true,"properties":[{"name":"layer","type":"int","value":4},{"name":"group","type":"int","value":5},{"name":"id","type":"int","value":27},{"name":"fh_layer","type":"int","value":4},{"name":"fh_group","type":"int","value":5},{"name":"fh_id","type":"int","value":27},{"name":"x1","type":"int","value":-965},{"name":"x2","type":"int","value":-960},{"name":"y1","type":"int","value":182},{"name":"y2","type":"int","value":183},{"name":"next","type":"int","value":28},{"name":"prev","type":"int","value":26}],"polyline":[{"x":0,"y":0},{"x":5,"y":1}]},{"id":49,"x":-960,"y":183,"visible":true,"properties":[{"name":"layer","type":"int","value":4},{"name":"group","type":"int","value":5},{"name":"id","type":"int","value":28},{"name":"fh_layer","type":"int","value":4},{"name":"fh_group","type":"int","value":5},{"name":"fh_id","type":"int","value":28},{"name":"x1","type":"int","value":-960},{"name":"x2","type":"int","value":-951},{"name":"y1","type":"int","value":183},{"name":"y2","type":"int","value":182},{"name":"next","type":"int","value":24},{"name":"prev","type":"int","value":27}],"polyline":[{"x":0,"y":0},{"x":9,"y":-1}]},{"id":50,"x":-960,"y":183,"visible":true,"properties":[{"name":"layer","type":"int","value":4},{"name":"group","type":"int","value":5},{"name":"id","type":"int","value":29},{"name":"fh_layer","type":"int","value":4},{"name":"fh_group","type":"int","value":5},{"name":"fh_id","type":"int","value":29},{"name":"x1","type":"int","value":-960},{"name":"x2","type":"int","value":-954},{"name":"y1","type":"int","value":183},{"name":"y2","type":"int","value":184},{"name":"next","type":"int","value":30},{"name":"prev","type":"int","value":27}],"polyline":[{"x":0,"y":0},{"x":6,"y":1}]},{"id":51,"x":-954,"y":184,"visible":true,"properties":[{"name":"layer","type":"int","value":4},{"name":"group","type":"int","value":5},{"name":"id","type":"int","value":30},{"name":"fh_layer","type":"int","value":4},{"name":"fh_group","type":"int","value":5},{"name":"fh_id","type":"int","value":30},{"name":"x1","type":"int","value":-954},{"name":"x2","type":"int","value":-949},{"name":"y1","type":"int","value":184},{"name":"y2","type":"int","value":183},{"name":"next","type":"int","value":31},{"name":"prev","type":"int","value":29}],"polyline":[{"x":0,"y":0},{"x":5,"y":-1}]},{"id":52,"x":-949,"y":183,"visible":true,"properties":[{"name":"layer","type":"int","value":4},{"name":"group","type":"int","value":5},{"name":"id","type":"int","value":31},{"name":"fh_layer","type":"int","value":4},{"name":"fh_group","type":"int","value":5},{"name":"fh_id","type":"int","value":31},{"name":"x1","type":"int","value":-949},{"name":"x2","type":"int","value":-944},{"name":"y1","type":"int","value":183},{"name":"y2","type":"int","value":181},{"name":"next","type":"int","value":32},{"name":"prev","type":"int","value":24}],"polyline":[{"x":0,"y":0},{"x":5,"y":-2}]},{"id":53,"x":-944,"y":181,"visible":true,"properties":[{"name":"layer","type":"int","value":4},{"name":"group","type":"int","value":5},{"name":"id","type":"int","value":32},{"name":"fh_layer","type":"int","value":4},{"name":"fh_group","type":"int","value":5},{"name":"fh_id","type":"int","value":32},{"name":"x1","type":"int","value":-944},{"name":"x2","type":"int","value":-940},{"name":"y1","type":"int","value":181},{"name":"y2","type":"int","value":181},{"name":"next","type":"int","value":36},{"name":"prev","type":"int","value":31}],"polyline":[{"x":0,"y":0},{"x":4,"y":0}]},{"id":54,"x":-1124,"y":112,"visible":true,"properties":[{"name":"layer","type":"int","value":4},{"name":"group","type":"int","value":5},{"name":"id","type":"int","value":33},{"name":"fh_layer","type":"int","value":4},{"name":"fh_group","type":"int","value":5},{"name":"fh_id","type":"int","value":33},{"name":"x1","type":"int","value":-1124},{"name":"x2","type":"int","value":-1035},{"name":"y1","type":"int","value":112},{"name":"y2","type":"int","value":112},{"name":"next","type":"int","value":0},{"name":"prev","type":"int","value":0}],"polyline":[{"x":0,"y":0},{"x":89,"y":0}]},{"id":55,"x":-1169,"y":-99,"visible":true,"properties":[{"name":"layer","type":"int","value":4},{"name":"group","type":"int","value":5},{"name":"id","type":"int","value":34},{"name":"fh_layer","type":"int","value":4},{"name":"fh_group","type":"int","value":5},{"name":"fh_id","type":"int","value":34},{"name":"x1","type":"int","value":-1169},{"name":"x2","type":"int","value":-995},{"name":"y1","type":"int","value":-99},{"name":"y2","type":"int","value":-98},{"name":"next","type":"int","value":0},{"name":"prev","type":"int","value":0}],"polyline":[{"x":0,"y":0},{"x":174,"y":1}]},{"id":56,"x":-1106,"y":-121,"visible":true,"properties":[{"name":"layer","type":"int","value":4},{"name":"group","type":"int","value":5},{"name":"id","type":"int","value":35},{"name":"fh_layer","type":"int","value":4},{"name":"fh_group","type":"int","value":5},{"name":"fh_id","type":"int","value":35},{"name":"x1","type":"int","value":-1106},{"name":"x2","type":"int","value":-1053},{"name":"y1","type":"int","value":-121},{"name":"y2","type":"int","value":-120},{"name":"next","type":"int","value":0},{"name":"prev","type":"int","value":0}],"polyline":[{"x":0,"y":0},{"x":53,"y":1}]},{"id":57,"x":-940,"y":181,"visible":true,"properties":[{"name":"layer","type":"int","value":4},{"name":"group","type":"int","value":6},{"name":"id","type":"int","value":36},{"name":"fh_layer","type":"int","value":4},{"name":"fh_group","type":"int","value":6},{"name":"fh_id","type":"int","value":36},{"name":"x1","type":"int","value":-940},{"name":"x2","type":"int","value":-929},{"name":"y1","type":"int","value":181},{"name":"y2","type":"int","value":171},{"name":"next","type":"int","value":37},{"name":"prev","type":"int","value":32}],"polyline":[{"x":0,"y":0},{"x":11,"y":-10}]},{"id":58,"x":-929,"y":171,"visible":true,"properties":[{"name":"layer","type":"int","value":4},{"name":"group","type":"int","value":6},{"name":"id","type":"int","value":37},{"name":"fh_layer","type":"int","value":4},{"name":"fh_group","type":"int","value":6},{"name":"fh_id","type":"int","value":37},{"name":"x1","type":"int","value":-929},{"name":"x2","type":"int","value":-839},{"name":"y1","type":"int","value":171},{"name":"y2","type":"int","value":173},{"name":"next","type":"int","value":38},{"name":"prev","type":"int","value":36}],"polyline":[{"x":0,"y":0},{"x":90,"y":2}]},{"id":59,"x":-839,"y":173,"visible":true,"properties":[{"name":"layer","type":"int","value":4},{"name":"group","type":"int","value":6},{"name":"id","type":"int","value":38},{"name":"fh_layer","type":"int","value":4},{"name":"fh_group","type":"int","value":6},{"name":"fh_id","type":"int","value":38},{"name":"x1","type":"int","value":-839},{"name":"x2","type":"int","value":-817},{"name":"y1","type":"int","value":173},{"name":"y2","type":"int","value":166},{"name":"next","type":"int","value":39},{"name":"prev","type":"int","value":37}],"polyline":[{"x":0,"y":0},{"x":22,"y":-7}]},{"id":60,"x":-817,"y":166,"visible":true,"properties":[{"name":"layer","type":"int","value":4},{"name":"group","type":"int","value":6},{"name":"id","type":"int","value":39},{"name":"fh_layer","type":"int","value":4},{"name":"fh_group","type":"int","value":6},{"name":"fh_id","type":"int","value":39},{"name":"x1","type":"int","value":-817},{"name":"x2","type":"int","value":-783},{"name":"y1","type":"int","value":166},{"name":"y2","type":"int","value":167},{"name":"next","type":"int","value":40},{"name":"prev","type":"int","value":38}],"polyline":[{"x":0,"y":0},{"x":34,"y":1}]},{"id":61,"x":-783,"y":167,"visible":true,"properties":[{"name":"layer","type":"int","value":4},{"name":"group","type":"int","value":6},{"name":"id","type":"int","value":40},{"name":"fh_layer","type":"int","value":4},{"name":"fh_group","type":"int","value":6},{"name":"fh_id","type":"int","value":40},{"name":"x1","type":"int","value":-783},{"name":"x2","type":"int","value":-749},{"name":"y1","type":"int","value":167},{"name":"y2","type":"int","value":159},{"name":"next","type":"int","value":41},{"name":"prev","type":"int","value":39}],"polyline":[{"x":0,"y":0},{"x":34,"y":-8}]},{"id":62,"x":-749,"y":159,"visible":true,"properties":[{"name":"layer","type":"int","value":4},{"name":"group","type":"int","value":6},{"name":"id","type":"int","value":41},{"name":"fh_layer","type":"int","value":4},{"name":"fh_group","type":"int","value":6},{"name":"fh_id","type":"int","value":41},{"name":"x1","type":"int","value":-749},{"name":"x2","type":"int","value":-725},{"name":"y1","type":"int","value":159},{"name":"y2","type":"int","value":157},{"name":"next","type":"int","value":42},{"name":"prev","type":"int","value":40}],"polyline":[{"x":0,"y":0},{"x":24,"y":-2}]},{"id":63,"x":-725,"y":157,"visible":true,"properties":[{"name":"layer","type":"int","value":4},{"name":"group","type":"int","value":6},{"name":"id","type":"int","value":42},{"name":"fh_layer","type":"int","value":4},{"name":"fh_group","type":"int","value":6},{"name":"fh_id","type":"int","value":42},{"name":"x1","type":"int","value":-725},{"name":"x2","type":"int","value":-699},{"name":"y1","type":"int","value":157},{"name":"y2","type":"int","value":152},{"name":"next","type":"int","value":43},{"name":"prev","type":"int","value":41}],"polyline":[{"x":0,"y":0},{"x":26,"y":-5}]},{"id":64,"x":-699,"y":152,"visible":true,"properties":[{"name":"layer","type":"int","value":4},{"name":"group","type":"int","value":6},{"name":"id","type":"int","value":43},{"name":"fh_layer","type":"int","value":4},{"name":"fh_group","type":"int","value":6},{"name":"fh_id","type":"int","value":43},{"name":"x1","type":"int","value":-699},{"name":"x2","type":"int","value":-577},{"name":"y1","type":"int","value":152},{"name":"y2","type":"int","value":155},{"name":"next","type":"int","value":44},{"name":"prev","type":"int","value":42}],"polyline":[{"x":0,"y":0},{"x":122,"y":3}]},{"id":65,"x":-577,"y":155,"visible":true,"properties":[{"name":"layer","type":"int","value":4},{"name":"group","type":"int","value":6},{"name":"id","type":"int","value":44},{"name":"fh_layer","type":"int","value":4},{"name":"fh_group","type":"int","value":6},{"name":"fh_id","type":"int","value":44},{"name":"x1","type":"int","value":-577},{"name":"x2","type":"int","value":-487},{"name":"y1","type":"int","value":155},{"name":"y2","type":"int","value":154},{"name":"next","type":"int","value":45},{"name":"prev","type":"int","value":43}],"polyline":[{"x":0,"y":0},{"x":90,"y":-1}]},{"id":66,"x":-487,"y":154,"visible":true,"properties":[{"name":"layer","type":"int","value":4},{"name":"group","type":"int","value":6},{"name":"id","type":"int","value":45},{"name":"fh_layer","type":"int","value":4},{"name":"fh_group","type":"int","value":6},{"name":"fh_id","type":"int","value":45},{"name":"x1","type":"int","value":-487},{"name":"x2","type":"int","value":-408},{"name":"y1","type":"int","value":154},{"name":"y2","type":"int","value":151},{"name":"next","type":"int","value":46},{"name":"prev","type":"int","value":44}],"polyline":[{"x":0,"y":0},{"x":79,"y":-3}]},{"id":67,"x":-408,"y":151,"visible":true,"properties":[{"name":"layer","type":"int","value":4},{"name":"group","type":"int","value":6},{"name":"id","type":"int","value":46},{"name":"fh_layer","type":"int","value":4},{"name":"fh_group","type":"int","value":6},{"name":"fh_id","type":"int","value":46},{"name":"x1","type":"int","value":-408},{"name":"x2","type":"int","value":-381},{"name":"y1","type":"int","value":151},{"name":"y2","type":"int","value":181},{"name":"next","type":"int","value":47},{"name":"prev","type":"int","value":45}],"polyline":[{"x":0,"y":0},{"x":27,"y":30}]},{"id":68,"x":-381,"y":181,"visible":true,"properties":[{"name":"layer","type":"int","value":4},{"name":"group","type":"int","value":6},{"name":"id","type":"int","value":47},{"name":"fh_layer","type":"int","value":4},{"name":"fh_group","type":"int","value":6},{"name":"fh_id","type":"int","value":47},{"name":"x1","type":"int","value":-381},{"name":"x2","type":"int","value":-357},{"name":"y1","type":"int","value":181},{"name":"y2","type":"int","value":186},{"name":"next","type":"int","value":48},{"name":"prev","type":"int","value":46}],"polyline":[{"x":0,"y":0},{"x":24,"y":5}]},{"id":69,"x":-357,"y":186,"visible":true,"properties":[{"name":"layer","type":"int","value":4},{"name":"group","type":"int","value":6},{"name":"id","type":"int","value":48},{"name":"fh_layer","type":"int","value":4},{"name":"fh_group","type":"int","value":6},{"name":"fh_id","type":"int","value":48},{"name":"x1","type":"int","value":-357},{"name":"x2","type":"int","value":-331},{"name":"y1","type":"int","value":186},{"name":"y2","type":"int","value":188},{"name":"next","type":"int","value":49},{"name":"prev","type":"int","value":47}],"polyline":[{"x":0,"y":0},{"x":26,"y":2}]},{"id":70,"x":-331,"y":188,"visible":true,"properties":[{"name":"layer","type":"int","value":4},{"name":"group","type":"int","value":6},{"name":"id","type":"int","value":49},{"name":"fh_layer","type":"int","value":4},{"name":"fh_group","type":"int","value":6},{"name":"fh_id","type":"int","value":49},{"name":"x1","type":"int","value":-331},{"name":"x2","type":"int","value":-305},{"name":"y1","type":"int","value":188},{"name":"y2","type":"int","value":188},{"name":"next","type":"int","value":0},{"name":"prev","type":"int","value":48}],"polyline":[{"x":0,"y":0},{"x":26,"y":0}]},{"id":71,"x":-801,"y":152,"visible":true,"properties":[{"name":"layer","type":"int","value":4},{"name":"group","type":"int","value":6},{"name":"id","type":"int","value":50},{"name":"fh_layer","type":"int","value":4},{"name":"fh_group","type":"int","value":6},{"name":"fh_id","type":"int","value":50},{"name":"x1","type":"int","value":-801},{"name":"x2","type":"int","value":-777},{"name":"y1","type":"int","value":152},{"name":"y2","type":"int","value":153},{"name":"next","type":"int","value":51},{"name":"prev","type":"int","value":0}],"polyline":[{"x":0,"y":0},{"x":24,"y":1}]},{"id":72,"x":-777,"y":153,"visible":true,"properties":[{"name":"layer","type":"int","value":4},{"name":"group","type":"int","value":6},{"name":"id","type":"int","value":51},{"name":"fh_layer","type":"int","value":4},{"name":"fh_group","type":"int","value":6},{"name":"fh_id","type":"int","value":51},{"name":"x1","type":"int","value":-777},{"name":"x2","type":"int","value":-748},{"name":"y1","type":"int","value":153},{"name":"y2","type":"int","value":153},{"name":"next","type":"int","value":52},{"name":"prev","type":"int","value":50}],"polyline":[{"x":0,"y":0},{"x":29,"y":0}]},{"id":73,"x":-748,"y":153,"visible":true,"properties":[{"name":"layer","type":"int","value":4},{"name":"group","type":"int","value":6},{"name":"id","type":"int","value":52},{"name":"fh_layer","type":"int","value":4},{"name":"fh_group","type":"int","value":6},{"name":"fh_id","type":"int","value":52},{"name":"x1","type":"int","value":-748},{"name":"x2","type":"int","value":-730},{"name":"y1","type":"int","value":153},{"name":"y2","type":"int","value":152},{"name":"next","type":"int","value":53},{"name":"prev","type":"int","value":51}],"polyline":[{"x":0,"y":0},{"x":18,"y":-1}]},{"id":74,"x":-730,"y":152,"visible":true,"properties":[{"name":"layer","type":"int","value":4},{"name":"group","type":"int","value":6},{"name":"id","type":"int","value":53},{"name":"fh_layer","type":"int","value":4},{"name":"fh_group","type":"int","value":6},{"name":"fh_id","type":"int","value":53},{"name":"x1","type":"int","value":-730},{"name":"x2","type":"int","value":-713},{"name":"y1","type":"int","value":152},{"name":"y2","type":"int","value":152},{"name":"next","type":"int","value":0},{"name":"prev","type":"int","value":52}],"polyline":[{"x":0,"y":0},{"x":17,"y":0}]}]}],"tilesets":[{"firstgid":1,"source":"../../tilesets/tile_swamp.tsj"},{"firstgid":7,"source":"../../tilesets/bg_darkSwamp.tsj"},{"firstgid":16,"source":"../../tilesets/obj_acc2_darkSwamp_foot.tsj"},{"firstgid":24,"source":"../../tilesets/obj_acc2_darkSwamp_nature.tsj"},{"firstgid":28,"source":"../../tilesets/obj_acc2_darkSwamp_artificiality.tsj"}],"properties":[{"name":"bgm","type":"string","value":"Bgm02/JungleBook"},{"name":"swim","type":"int","value":0},{"name":"town","type":"int","value":0},{"name":"VRTop","type":"int","value":-350},{"name":"cloud","type":"int","value":0},{"name":"VRLeft","type":"int","value":-1218},{"name":"VRRight","type":"int","value":-307},{"name":"mapDesc","type":"string","value":""},{"name":"mapMark","type":"string","value":"KerningParty"},{"name":"mobRate","type":"float","value":0.7999999523162842},{"name":"version","type":"int","value":10},{"name":"VRBottom","type":"int","value":280},{"name":"returnMap","type":"int","value":103000890},{"name":"fieldLimit","type":"int","value":8316},{"name":"hideMinimap","type":"int","value":0},{"name":"forcedReturn","type":"int","value":103000890}]}