{"type":"map","orientation":"orthogonal","renderorder":"right-down","infinite":false,"tilewidth":1,"tileheight":1,"width":1600,"height":1450,"nextlayerid":27,"nextobjectid":70,"layers":[{"id":1,"name":"layer_0_obj","type":"objectgroup","visible":true,"opacity":1,"objects":[{"id":1,"x":1991,"y":561,"visible":true,"properties":[{"name":"layer","type":"int","value":0},{"name":"resource_index","type":"int","value":0},{"name":"oS","type":"string","value":"vehicle"},{"name":"l0","type":"string","value":"ship"},{"name":"l1","type":"string","value":"ossyria"},{"name":"l2","type":"string","value":"0"},{"name":"z","type":"int","value":3},{"name":"zM","type":"int","value":0},{"name":"f","type":"int","value":0}],"gid":27,"width":142,"height":296},{"id":2,"x":1633,"y":209,"visible":true,"properties":[{"name":"layer","type":"int","value":0},{"name":"resource_index","type":"int","value":1},{"name":"oS","type":"string","value":"vehicle"},{"name":"l0","type":"string","value":"ship"},{"name":"l1","type":"string","value":"ossyria"},{"name":"l2","type":"string","value":"2"},{"name":"z","type":"int","value":1},{"name":"zM","type":"int","value":3},{"name":"f","type":"int","value":0}],"gid":28,"width":1068,"height":359},{"id":3,"x":1804,"y":-8,"visible":true,"properties":[{"name":"layer","type":"int","value":0},{"name":"resource_index","type":"int","value":2},{"name":"oS","type":"string","value":"vehicle"},{"name":"l0","type":"string","value":"ship"},{"name":"l1","type":"string","value":"ossyria"},{"name":"l2","type":"string","value":"3"},{"name":"z","type":"int","value":0},{"name":"zM","type":"int","value":3},{"name":"f","type":"int","value":0}],"gid":29,"width":478,"height":694},{"id":4,"x":1589,"y":389,"visible":true,"properties":[{"name":"layer","type":"int","value":0},{"name":"resource_index","type":"int","value":3},{"name":"oS","type":"string","value":"vehicle"},{"name":"l0","type":"string","value":"ship"},{"name":"l1","type":"string","value":"ossyria"},{"name":"l2","type":"string","value":"5"},{"name":"z","type":"int","value":2},{"name":"zM","type":"int","value":3},{"name":"f","type":"int","value":0}],"gid":30,"width":239,"height":230},{"id":5,"x":1638,"y":-11,"visible":true,"properties":[{"name":"layer","type":"int","value":0},{"name":"resource_index","type":"int","value":4},{"name":"oS","type":"string","value":"vehicle"},{"name":"l0","type":"string","value":"ship"},{"name":"l1","type":"string","value":"ossyria"},{"name":"l2","type":"string","value":"7"},{"name":"z","type":"int","value":4},{"name":"zM","type":"int","value":3},{"name":"f","type":"int","value":0}],"gid":31,"width":773,"height":618}]},{"id":2,"name":"layer_1_obj","type":"objectgroup","visible":true,"opacity":1,"objects":[{"id":6,"x":1367,"y":-100,"visible":true,"properties":[{"name":"layer","type":"int","value":1},{"name":"resource_index","type":"int","value":0},{"name":"oS","type":"string","value":"vehicle"},{"name":"l0","type":"string","value":"ship"},{"name":"l1","type":"string","value":"ossyria"},{"name":"l2","type":"string","value":"8"},{"name":"z","type":"int","value":1},{"name":"zM","type":"int","value":2},{"name":"f","type":"int","value":0}],"gid":32,"width":398,"height":320},{"id":7,"x":1164,"y":101,"visible":true,"properties":[{"name":"layer","type":"int","value":1},{"name":"resource_index","type":"int","value":1},{"name":"oS","type":"string","value":"acc1"},{"name":"l0","type":"string","value":"portTown"},{"name":"l1","type":"string","value":"artificiality"},{"name":"l2","type":"string","value":"18"},{"name":"z","type":"int","value":2},{"name":"zM","type":"int","value":2},{"name":"f","type":"int","value":0}],"gid":74,"width":396,"height":241},{"id":8,"x":1471,"y":212,"visible":true,"properties":[{"name":"layer","type":"int","value":1},{"name":"resource_index","type":"int","value":2},{"name":"oS","type":"string","value":"vehicle"},{"name":"l0","type":"string","value":"ship"},{"name":"l1","type":"string","value":"ossyria"},{"name":"l2","type":"string","value":"9"},{"name":"z","type":"int","value":3},{"name":"zM","type":"int","value":2},{"name":"f","type":"int","value":0}],"gid":33,"width":1056,"height":379},{"id":9,"x":1697,"y":406,"visible":true,"properties":[{"name":"layer","type":"int","value":1},{"name":"resource_index","type":"int","value":3},{"name":"oS","type":"string","value":"vehicle"},{"name":"l0","type":"string","value":"ship"},{"name":"l1","type":"string","value":"ossyria"},{"name":"l2","type":"string","value":"10"},{"name":"z","type":"int","value":4},{"name":"zM","type":"int","value":2},{"name":"f","type":"int","value":0}],"gid":34,"width":243,"height":299},{"id":10,"x":2005,"y":-676,"visible":true,"properties":[{"name":"layer","type":"int","value":1},{"name":"resource_index","type":"int","value":4},{"name":"oS","type":"string","value":"vehicle"},{"name":"l0","type":"string","value":"ship"},{"name":"l1","type":"string","value":"ossyria"},{"name":"l2","type":"string","value":"4"},{"name":"z","type":"int","value":3},{"name":"zM","type":"int","value":6},{"name":"f","type":"int","value":0}],"gid":35,"width":67,"height":32},{"id":11,"x":1921,"y":252,"visible":true,"properties":[{"name":"layer","type":"int","value":1},{"name":"resource_index","type":"int","value":5},{"name":"oS","type":"string","value":"vehicle"},{"name":"l0","type":"string","value":"ship"},{"name":"l1","type":"string","value":"ossyria"},{"name":"l2","type":"string","value":"12"},{"name":"z","type":"int","value":5},{"name":"zM","type":"int","value":2},{"name":"f","type":"int","value":0}],"gid":36,"width":314,"height":197},{"id":12,"x":2284,"y":399,"visible":true,"properties":[{"name":"layer","type":"int","value":1},{"name":"resource_index","type":"int","value":6},{"name":"oS","type":"string","value":"vehicle"},{"name":"l0","type":"string","value":"ship"},{"name":"l1","type":"string","value":"ossyria"},{"name":"l2","type":"string","value":"6"},{"name":"z","type":"int","value":1},{"name":"zM","type":"int","value":2},{"name":"f","type":"int","value":0}],"gid":37,"width":425,"height":394},{"id":13,"x":1911,"y":406,"visible":true,"properties":[{"name":"layer","type":"int","value":1},{"name":"resource_index","type":"int","value":7},{"name":"oS","type":"string","value":"vehicle"},{"name":"l0","type":"string","value":"ship"},{"name":"l1","type":"string","value":"ossyria"},{"name":"l2","type":"string","value":"1"},{"name":"z","type":"int","value":3},{"name":"zM","type":"int","value":2},{"name":"f","type":"int","value":0}],"gid":38,"width":296,"height":197},{"id":14,"x":2258,"y":207,"visible":true,"properties":[{"name":"layer","type":"int","value":1},{"name":"resource_index","type":"int","value":8},{"name":"oS","type":"string","value":"vehicle"},{"name":"l0","type":"string","value":"ship"},{"name":"l1","type":"string","value":"ossyria"},{"name":"l2","type":"string","value":"14"},{"name":"z","type":"int","value":5},{"name":"zM","type":"int","value":2},{"name":"f","type":"int","value":0}],"gid":39,"width":256,"height":256}]},{"id":3,"name":"layer_5_obj","type":"objectgroup","visible":true,"opacity":1,"objects":[{"id":15,"x":1210,"y":203,"visible":true,"properties":[{"name":"layer","type":"int","value":5},{"name":"resource_index","type":"int","value":0},{"name":"oS","type":"string","value":"acc2"},{"name":"l0","type":"string","value":"shineWood"},{"name":"l1","type":"string","value":"station"},{"name":"l2","type":"string","value":"8"},{"name":"z","type":"int","value":5},{"name":"zM","type":"int","value":5},{"name":"f","type":"int","value":0}],"gid":65,"width":475,"height":131},{"id":16,"x":1208,"y":318,"visible":true,"properties":[{"name":"layer","type":"int","value":5},{"name":"resource_index","type":"int","value":1},{"name":"oS","type":"string","value":"acc2"},{"name":"l0","type":"string","value":"shineWood"},{"name":"l1","type":"string","value":"station"},{"name":"l2","type":"string","value":"8"},{"name":"z","type":"int","value":6},{"name":"zM","type":"int","value":0},{"name":"f","type":"int","value":0}],"gid":65,"width":475,"height":131},{"id":17,"x":1206,"y":434,"visible":true,"properties":[{"name":"layer","type":"int","value":5},{"name":"resource_index","type":"int","value":2},{"name":"oS","type":"string","value":"acc2"},{"name":"l0","type":"string","value":"shineWood"},{"name":"l1","type":"string","value":"station"},{"name":"l2","type":"string","value":"8"},{"name":"z","type":"int","value":7},{"name":"zM","type":"int","value":0},{"name":"f","type":"int","value":0}],"gid":65,"width":475,"height":131},{"id":18,"x":1204,"y":551,"visible":true,"properties":[{"name":"layer","type":"int","value":5},{"name":"resource_index","type":"int","value":3},{"name":"oS","type":"string","value":"acc2"},{"name":"l0","type":"string","value":"shineWood"},{"name":"l1","type":"string","value":"station"},{"name":"l2","type":"string","value":"8"},{"name":"z","type":"int","value":3},{"name":"zM","type":"int","value":0},{"name":"f","type":"int","value":0}],"gid":65,"width":475,"height":131}]},{"id":4,"name":"background_back_0","type":"imagelayer","visible":true,"opacity":1,"image":"../../images/29708.png","imagewidth":135,"imageheight":135,"offsetx":-67,"offsety":-67,"repeatx":true,"repeaty":true,"parallaxx":1,"parallaxy":1,"properties":[{"name":"a","type":"int","value":255},{"name":"f","type":"int","value":0},{"name":"x","type":"int","value":0},{"name":"y","type":"int","value":0},{"name":"bS","type":"string","value":"shineWood3"},{"name":"cx","type":"int","value":0},{"name":"cy","type":"int","value":0},{"name":"no","type":"int","value":0},{"name":"rx","type":"int","value":0},{"name":"ry","type":"int","value":0},{"name":"ani","type":"int","value":0},{"name":"type","type":"int","value":3},{"name":"front","type":"int","value":0}]},{"id":5,"name":"background_back_1","type":"imagelayer","visible":true,"opacity":1,"image":"../../images/29790.png","imagewidth":397,"imageheight":182,"offsetx":-153,"offsety":46,"repeatx":true,"repeaty":false,"parallaxx":1,"parallaxy":1,"properties":[{"name":"a","type":"int","value":255},{"name":"f","type":"int","value":0},{"name":"x","type":"int","value":45},{"name":"y","type":"int","value":137},{"name":"bS","type":"string","value":"portTown"},{"name":"cx","type":"int","value":600},{"name":"cy","type":"int","value":0},{"name":"no","type":"int","value":2},{"name":"rx","type":"int","value":-2},{"name":"ry","type":"int","value":-15},{"name":"ani","type":"int","value":0},{"name":"type","type":"int","value":4},{"name":"front","type":"int","value":0}]},{"id":6,"name":"background_back_2","type":"imagelayer","visible":true,"opacity":1,"image":"../../images/29790.png","imagewidth":397,"imageheight":182,"offsetx":-13,"offsety":-17,"repeatx":true,"repeaty":false,"parallaxx":1,"parallaxy":1,"properties":[{"name":"a","type":"int","value":255},{"name":"f","type":"int","value":0},{"name":"x","type":"int","value":185},{"name":"y","type":"int","value":74},{"name":"bS","type":"string","value":"portTown"},{"name":"cx","type":"int","value":700},{"name":"cy","type":"int","value":0},{"name":"no","type":"int","value":2},{"name":"rx","type":"int","value":-3},{"name":"ry","type":"int","value":-15},{"name":"ani","type":"int","value":0},{"name":"type","type":"int","value":4},{"name":"front","type":"int","value":0}]},{"id":7,"name":"background_back_3","type":"imagelayer","visible":true,"opacity":1,"image":"../../images/29791.png","imagewidth":281,"imageheight":102,"offsetx":99,"offsety":-252,"repeatx":true,"repeaty":false,"parallaxx":1,"parallaxy":1,"properties":[{"name":"a","type":"int","value":255},{"name":"f","type":"int","value":0},{"name":"x","type":"int","value":239},{"name":"y","type":"int","value":-201},{"name":"bS","type":"string","value":"portTown"},{"name":"cx","type":"int","value":750},{"name":"cy","type":"int","value":0},{"name":"no","type":"int","value":3},{"name":"rx","type":"int","value":-3},{"name":"ry","type":"int","value":-15},{"name":"ani","type":"int","value":0},{"name":"type","type":"int","value":4},{"name":"front","type":"int","value":0}]},{"id":8,"name":"background_back_4","type":"imagelayer","visible":true,"opacity":1,"image":"../../images/29459.png","imagewidth":473,"imageheight":205,"offsetx":-622,"offsety":-53,"repeatx":true,"repeaty":false,"parallaxx":1,"parallaxy":1,"properties":[{"name":"a","type":"int","value":255},{"name":"f","type":"int","value":0},{"name":"x","type":"int","value":-381},{"name":"y","type":"int","value":95},{"name":"bS","type":"string","value":"login"},{"name":"cx","type":"int","value":900},{"name":"cy","type":"int","value":0},{"name":"no","type":"int","value":5},{"name":"rx","type":"int","value":-4},{"name":"ry","type":"int","value":-17},{"name":"ani","type":"int","value":0},{"name":"type","type":"int","value":4},{"name":"front","type":"int","value":0}]},{"id":9,"name":"background_back_5","type":"imagelayer","visible":true,"opacity":1,"image":"../../images/29794.png","imagewidth":649,"imageheight":293,"offsetx":-290,"offsety":-61,"repeatx":true,"repeaty":false,"parallaxx":1,"parallaxy":1,"properties":[{"name":"a","type":"int","value":255},{"name":"f","type":"int","value":0},{"name":"x","type":"int","value":34},{"name":"y","type":"int","value":85},{"name":"bS","type":"string","value":"portTown"},{"name":"cx","type":"int","value":500},{"name":"cy","type":"int","value":0},{"name":"no","type":"int","value":6},{"name":"rx","type":"int","value":-5},{"name":"ry","type":"int","value":-19},{"name":"ani","type":"int","value":0},{"name":"type","type":"int","value":4},{"name":"front","type":"int","value":0}]},{"id":10,"name":"background_back_6","type":"imagelayer","visible":true,"opacity":1,"image":"../../images/29794.png","imagewidth":649,"imageheight":293,"offsetx":-172,"offsety":-12,"repeatx":true,"repeaty":false,"parallaxx":1,"parallaxy":1,"properties":[{"name":"a","type":"int","value":255},{"name":"f","type":"int","value":0},{"name":"x","type":"int","value":152},{"name":"y","type":"int","value":134},{"name":"bS","type":"string","value":"portTown"},{"name":"cx","type":"int","value":750},{"name":"cy","type":"int","value":0},{"name":"no","type":"int","value":6},{"name":"rx","type":"int","value":-6},{"name":"ry","type":"int","value":-20},{"name":"ani","type":"int","value":0},{"name":"type","type":"int","value":4},{"name":"front","type":"int","value":0}]},{"id":11,"name":"background_back_7","type":"imagelayer","visible":true,"opacity":1,"image":"../../images/29793.png","imagewidth":358,"imageheight":275,"offsetx":-54,"offsety":-353,"repeatx":true,"repeaty":false,"parallaxx":1,"parallaxy":1,"properties":[{"name":"a","type":"int","value":255},{"name":"f","type":"int","value":0},{"name":"x","type":"int","value":125},{"name":"y","type":"int","value":-216},{"name":"bS","type":"string","value":"portTown"},{"name":"cx","type":"int","value":1200},{"name":"cy","type":"int","value":0},{"name":"no","type":"int","value":5},{"name":"rx","type":"int","value":-5},{"name":"ry","type":"int","value":-20},{"name":"ani","type":"int","value":0},{"name":"type","type":"int","value":4},{"name":"front","type":"int","value":0}]},{"id":12,"name":"background_back_8","type":"imagelayer","visible":true,"opacity":1,"image":"../../images/29792.png","imagewidth":291,"imageheight":165,"offsetx":197,"offsety":-122,"repeatx":true,"repeaty":false,"parallaxx":1,"parallaxy":1,"properties":[{"name":"a","type":"int","value":255},{"name":"f","type":"int","value":0},{"name":"x","type":"int","value":342},{"name":"y","type":"int","value":-40},{"name":"bS","type":"string","value":"portTown"},{"name":"cx","type":"int","value":1000},{"name":"cy","type":"int","value":0},{"name":"no","type":"int","value":4},{"name":"rx","type":"int","value":-6},{"name":"ry","type":"int","value":-20},{"name":"ani","type":"int","value":0},{"name":"type","type":"int","value":4},{"name":"front","type":"int","value":0}]},{"id":13,"name":"background_back_9","type":"imagelayer","visible":true,"opacity":1,"image":"../../images/29488.png","imagewidth":10,"imageheight":7,"offsetx":-302,"offsety":-208,"repeatx":true,"repeaty":false,"parallaxx":1,"parallaxy":1,"properties":[{"name":"a","type":"int","value":255},{"name":"f","type":"int","value":0},{"name":"x","type":"int","value":-298},{"name":"y","type":"int","value":-211},{"name":"bS","type":"string","value":"login"},{"name":"cx","type":"int","value":1400},{"name":"cy","type":"int","value":0},{"name":"no","type":"int","value":0},{"name":"rx","type":"int","value":12},{"name":"ry","type":"int","value":-80},{"name":"ani","type":"int","value":1},{"name":"type","type":"int","value":4},{"name":"front","type":"int","value":0}]},{"id":14,"name":"background_back_10","type":"imagelayer","visible":true,"opacity":1,"image":"../../images/29491.png","imagewidth":10,"imageheight":7,"offsetx":-319,"offsety":-196,"repeatx":true,"repeaty":false,"parallaxx":1,"parallaxy":1,"properties":[{"name":"a","type":"int","value":255},{"name":"f","type":"int","value":0},{"name":"x","type":"int","value":-315},{"name":"y","type":"int","value":-199},{"name":"bS","type":"string","value":"login"},{"name":"cx","type":"int","value":1400},{"name":"cy","type":"int","value":0},{"name":"no","type":"int","value":1},{"name":"rx","type":"int","value":12},{"name":"ry","type":"int","value":-80},{"name":"ani","type":"int","value":1},{"name":"type","type":"int","value":4},{"name":"front","type":"int","value":0}]},{"id":15,"name":"background_back_11","type":"imagelayer","visible":true,"opacity":1,"image":"../../images/29494.png","imagewidth":12,"imageheight":9,"offsetx":-338,"offsety":-207,"repeatx":true,"repeaty":false,"parallaxx":1,"parallaxy":1,"properties":[{"name":"a","type":"int","value":255},{"name":"f","type":"int","value":0},{"name":"x","type":"int","value":-333},{"name":"y","type":"int","value":-210},{"name":"bS","type":"string","value":"login"},{"name":"cx","type":"int","value":1400},{"name":"cy","type":"int","value":0},{"name":"no","type":"int","value":2},{"name":"rx","type":"int","value":12},{"name":"ry","type":"int","value":-80},{"name":"ani","type":"int","value":1},{"name":"type","type":"int","value":4},{"name":"front","type":"int","value":0}]},{"id":16,"name":"background_back_12","type":"imagelayer","visible":true,"opacity":1,"image":"../../images/29491.png","imagewidth":10,"imageheight":7,"offsetx":-352,"offsety":-215,"repeatx":true,"repeaty":false,"parallaxx":1,"parallaxy":1,"properties":[{"name":"a","type":"int","value":255},{"name":"f","type":"int","value":0},{"name":"x","type":"int","value":-348},{"name":"y","type":"int","value":-218},{"name":"bS","type":"string","value":"login"},{"name":"cx","type":"int","value":1400},{"name":"cy","type":"int","value":0},{"name":"no","type":"int","value":1},{"name":"rx","type":"int","value":12},{"name":"ry","type":"int","value":-80},{"name":"ani","type":"int","value":1},{"name":"type","type":"int","value":4},{"name":"front","type":"int","value":0}]},{"id":17,"name":"background_back_13","type":"imagelayer","visible":true,"opacity":1,"image":"../../images/29488.png","imagewidth":10,"imageheight":7,"offsetx":-341,"offsety":-188,"repeatx":true,"repeaty":false,"parallaxx":1,"parallaxy":1,"properties":[{"name":"a","type":"int","value":255},{"name":"f","type":"int","value":0},{"name":"x","type":"int","value":-337},{"name":"y","type":"int","value":-191},{"name":"bS","type":"string","value":"login"},{"name":"cx","type":"int","value":1400},{"name":"cy","type":"int","value":0},{"name":"no","type":"int","value":0},{"name":"rx","type":"int","value":12},{"name":"ry","type":"int","value":-80},{"name":"ani","type":"int","value":1},{"name":"type","type":"int","value":4},{"name":"front","type":"int","value":0}]},{"id":18,"name":"background_back_14","type":"imagelayer","visible":true,"opacity":1,"image":"../../images/29494.png","imagewidth":12,"imageheight":9,"offsetx":-371,"offsety":-202,"repeatx":true,"repeaty":false,"parallaxx":1,"parallaxy":1,"properties":[{"name":"a","type":"int","value":255},{"name":"f","type":"int","value":0},{"name":"x","type":"int","value":-366},{"name":"y","type":"int","value":-205},{"name":"bS","type":"string","value":"login"},{"name":"cx","type":"int","value":1400},{"name":"cy","type":"int","value":0},{"name":"no","type":"int","value":2},{"name":"rx","type":"int","value":12},{"name":"ry","type":"int","value":-80},{"name":"ani","type":"int","value":1},{"name":"type","type":"int","value":4},{"name":"front","type":"int","value":0}]},{"id":19,"name":"background_back_15","type":"imagelayer","visible":true,"opacity":1,"image":"../../images/29491.png","imagewidth":10,"imageheight":7,"offsetx":-392,"offsety":-190,"repeatx":true,"repeaty":false,"parallaxx":1,"parallaxy":1,"properties":[{"name":"a","type":"int","value":255},{"name":"f","type":"int","value":0},{"name":"x","type":"int","value":-388},{"name":"y","type":"int","value":-193},{"name":"bS","type":"string","value":"login"},{"name":"cx","type":"int","value":1400},{"name":"cy","type":"int","value":0},{"name":"no","type":"int","value":1},{"name":"rx","type":"int","value":12},{"name":"ry","type":"int","value":-80},{"name":"ani","type":"int","value":1},{"name":"type","type":"int","value":4},{"name":"front","type":"int","value":0}]},{"id":20,"name":"background_back_16","type":"imagelayer","visible":true,"opacity":1,"image":"../../images/29491.png","imagewidth":10,"imageheight":7,"offsetx":-407,"offsety":-203,"repeatx":true,"repeaty":false,"parallaxx":1,"parallaxy":1,"properties":[{"name":"a","type":"int","value":255},{"name":"f","type":"int","value":0},{"name":"x","type":"int","value":-403},{"name":"y","type":"int","value":-206},{"name":"bS","type":"string","value":"login"},{"name":"cx","type":"int","value":1400},{"name":"cy","type":"int","value":0},{"name":"no","type":"int","value":1},{"name":"rx","type":"int","value":12},{"name":"ry","type":"int","value":-80},{"name":"ani","type":"int","value":1},{"name":"type","type":"int","value":4},{"name":"front","type":"int","value":0}]},{"id":21,"name":"background_back_17","type":"imagelayer","visible":true,"opacity":1,"image":"../../images/29488.png","imagewidth":10,"imageheight":7,"offsetx":-383,"offsety":-209,"repeatx":true,"repeaty":false,"parallaxx":1,"parallaxy":1,"properties":[{"name":"a","type":"int","value":255},{"name":"f","type":"int","value":0},{"name":"x","type":"int","value":-379},{"name":"y","type":"int","value":-212},{"name":"bS","type":"string","value":"login"},{"name":"cx","type":"int","value":1400},{"name":"cy","type":"int","value":0},{"name":"no","type":"int","value":0},{"name":"rx","type":"int","value":12},{"name":"ry","type":"int","value":-80},{"name":"ani","type":"int","value":1},{"name":"type","type":"int","value":4},{"name":"front","type":"int","value":0}]},{"id":22,"name":"background_back","type":"objectgroup","visible":true,"opacity":1,"objects":[{"id":19,"x":45,"y":137,"visible":true,"properties":[{"name":"image_layer_name","type":"string","value":"background_back_1"},{"name":"a","type":"int","value":255},{"name":"f","type":"int","value":0},{"name":"x","type":"int","value":45},{"name":"y","type":"int","value":137},{"name":"bS","type":"string","value":"portTown"},{"name":"cx","type":"int","value":600},{"name":"cy","type":"int","value":0},{"name":"no","type":"int","value":2},{"name":"rx","type":"int","value":-2},{"name":"ry","type":"int","value":-15},{"name":"ani","type":"int","value":0},{"name":"type","type":"int","value":4},{"name":"front","type":"int","value":0}],"point":true},{"id":20,"x":185,"y":74,"visible":true,"properties":[{"name":"image_layer_name","type":"string","value":"background_back_2"},{"name":"a","type":"int","value":255},{"name":"f","type":"int","value":0},{"name":"x","type":"int","value":185},{"name":"y","type":"int","value":74},{"name":"bS","type":"string","value":"portTown"},{"name":"cx","type":"int","value":700},{"name":"cy","type":"int","value":0},{"name":"no","type":"int","value":2},{"name":"rx","type":"int","value":-3},{"name":"ry","type":"int","value":-15},{"name":"ani","type":"int","value":0},{"name":"type","type":"int","value":4},{"name":"front","type":"int","value":0}],"point":true},{"id":21,"x":239,"y":-201,"visible":true,"properties":[{"name":"image_layer_name","type":"string","value":"background_back_3"},{"name":"a","type":"int","value":255},{"name":"f","type":"int","value":0},{"name":"x","type":"int","value":239},{"name":"y","type":"int","value":-201},{"name":"bS","type":"string","value":"portTown"},{"name":"cx","type":"int","value":750},{"name":"cy","type":"int","value":0},{"name":"no","type":"int","value":3},{"name":"rx","type":"int","value":-3},{"name":"ry","type":"int","value":-15},{"name":"ani","type":"int","value":0},{"name":"type","type":"int","value":4},{"name":"front","type":"int","value":0}],"point":true},{"id":22,"x":-381,"y":95,"visible":true,"properties":[{"name":"image_layer_name","type":"string","value":"background_back_4"},{"name":"a","type":"int","value":255},{"name":"f","type":"int","value":0},{"name":"x","type":"int","value":-381},{"name":"y","type":"int","value":95},{"name":"bS","type":"string","value":"login"},{"name":"cx","type":"int","value":900},{"name":"cy","type":"int","value":0},{"name":"no","type":"int","value":5},{"name":"rx","type":"int","value":-4},{"name":"ry","type":"int","value":-17},{"name":"ani","type":"int","value":0},{"name":"type","type":"int","value":4},{"name":"front","type":"int","value":0}],"point":true},{"id":23,"x":34,"y":85,"visible":true,"properties":[{"name":"image_layer_name","type":"string","value":"background_back_5"},{"name":"a","type":"int","value":255},{"name":"f","type":"int","value":0},{"name":"x","type":"int","value":34},{"name":"y","type":"int","value":85},{"name":"bS","type":"string","value":"portTown"},{"name":"cx","type":"int","value":500},{"name":"cy","type":"int","value":0},{"name":"no","type":"int","value":6},{"name":"rx","type":"int","value":-5},{"name":"ry","type":"int","value":-19},{"name":"ani","type":"int","value":0},{"name":"type","type":"int","value":4},{"name":"front","type":"int","value":0}],"point":true},{"id":24,"x":152,"y":134,"visible":true,"properties":[{"name":"image_layer_name","type":"string","value":"background_back_6"},{"name":"a","type":"int","value":255},{"name":"f","type":"int","value":0},{"name":"x","type":"int","value":152},{"name":"y","type":"int","value":134},{"name":"bS","type":"string","value":"portTown"},{"name":"cx","type":"int","value":750},{"name":"cy","type":"int","value":0},{"name":"no","type":"int","value":6},{"name":"rx","type":"int","value":-6},{"name":"ry","type":"int","value":-20},{"name":"ani","type":"int","value":0},{"name":"type","type":"int","value":4},{"name":"front","type":"int","value":0}],"point":true},{"id":25,"x":125,"y":-216,"visible":true,"properties":[{"name":"image_layer_name","type":"string","value":"background_back_7"},{"name":"a","type":"int","value":255},{"name":"f","type":"int","value":0},{"name":"x","type":"int","value":125},{"name":"y","type":"int","value":-216},{"name":"bS","type":"string","value":"portTown"},{"name":"cx","type":"int","value":1200},{"name":"cy","type":"int","value":0},{"name":"no","type":"int","value":5},{"name":"rx","type":"int","value":-5},{"name":"ry","type":"int","value":-20},{"name":"ani","type":"int","value":0},{"name":"type","type":"int","value":4},{"name":"front","type":"int","value":0}],"point":true},{"id":26,"x":342,"y":-40,"visible":true,"properties":[{"name":"image_layer_name","type":"string","value":"background_back_8"},{"name":"a","type":"int","value":255},{"name":"f","type":"int","value":0},{"name":"x","type":"int","value":342},{"name":"y","type":"int","value":-40},{"name":"bS","type":"string","value":"portTown"},{"name":"cx","type":"int","value":1000},{"name":"cy","type":"int","value":0},{"name":"no","type":"int","value":4},{"name":"rx","type":"int","value":-6},{"name":"ry","type":"int","value":-20},{"name":"ani","type":"int","value":0},{"name":"type","type":"int","value":4},{"name":"front","type":"int","value":0}],"point":true},{"id":27,"x":-298,"y":-211,"visible":true,"properties":[{"name":"image_layer_name","type":"string","value":"background_back_9"},{"name":"a","type":"int","value":255},{"name":"f","type":"int","value":0},{"name":"x","type":"int","value":-298},{"name":"y","type":"int","value":-211},{"name":"bS","type":"string","value":"login"},{"name":"cx","type":"int","value":1400},{"name":"cy","type":"int","value":0},{"name":"no","type":"int","value":0},{"name":"rx","type":"int","value":12},{"name":"ry","type":"int","value":-80},{"name":"ani","type":"int","value":1},{"name":"type","type":"int","value":4},{"name":"front","type":"int","value":0}],"point":true},{"id":28,"x":-315,"y":-199,"visible":true,"properties":[{"name":"image_layer_name","type":"string","value":"background_back_10"},{"name":"a","type":"int","value":255},{"name":"f","type":"int","value":0},{"name":"x","type":"int","value":-315},{"name":"y","type":"int","value":-199},{"name":"bS","type":"string","value":"login"},{"name":"cx","type":"int","value":1400},{"name":"cy","type":"int","value":0},{"name":"no","type":"int","value":1},{"name":"rx","type":"int","value":12},{"name":"ry","type":"int","value":-80},{"name":"ani","type":"int","value":1},{"name":"type","type":"int","value":4},{"name":"front","type":"int","value":0}],"point":true},{"id":29,"x":-333,"y":-210,"visible":true,"properties":[{"name":"image_layer_name","type":"string","value":"background_back_11"},{"name":"a","type":"int","value":255},{"name":"f","type":"int","value":0},{"name":"x","type":"int","value":-333},{"name":"y","type":"int","value":-210},{"name":"bS","type":"string","value":"login"},{"name":"cx","type":"int","value":1400},{"name":"cy","type":"int","value":0},{"name":"no","type":"int","value":2},{"name":"rx","type":"int","value":12},{"name":"ry","type":"int","value":-80},{"name":"ani","type":"int","value":1},{"name":"type","type":"int","value":4},{"name":"front","type":"int","value":0}],"point":true},{"id":30,"x":-348,"y":-218,"visible":true,"properties":[{"name":"image_layer_name","type":"string","value":"background_back_12"},{"name":"a","type":"int","value":255},{"name":"f","type":"int","value":0},{"name":"x","type":"int","value":-348},{"name":"y","type":"int","value":-218},{"name":"bS","type":"string","value":"login"},{"name":"cx","type":"int","value":1400},{"name":"cy","type":"int","value":0},{"name":"no","type":"int","value":1},{"name":"rx","type":"int","value":12},{"name":"ry","type":"int","value":-80},{"name":"ani","type":"int","value":1},{"name":"type","type":"int","value":4},{"name":"front","type":"int","value":0}],"point":true},{"id":31,"x":-337,"y":-191,"visible":true,"properties":[{"name":"image_layer_name","type":"string","value":"background_back_13"},{"name":"a","type":"int","value":255},{"name":"f","type":"int","value":0},{"name":"x","type":"int","value":-337},{"name":"y","type":"int","value":-191},{"name":"bS","type":"string","value":"login"},{"name":"cx","type":"int","value":1400},{"name":"cy","type":"int","value":0},{"name":"no","type":"int","value":0},{"name":"rx","type":"int","value":12},{"name":"ry","type":"int","value":-80},{"name":"ani","type":"int","value":1},{"name":"type","type":"int","value":4},{"name":"front","type":"int","value":0}],"point":true},{"id":32,"x":-366,"y":-205,"visible":true,"properties":[{"name":"image_layer_name","type":"string","value":"background_back_14"},{"name":"a","type":"int","value":255},{"name":"f","type":"int","value":0},{"name":"x","type":"int","value":-366},{"name":"y","type":"int","value":-205},{"name":"bS","type":"string","value":"login"},{"name":"cx","type":"int","value":1400},{"name":"cy","type":"int","value":0},{"name":"no","type":"int","value":2},{"name":"rx","type":"int","value":12},{"name":"ry","type":"int","value":-80},{"name":"ani","type":"int","value":1},{"name":"type","type":"int","value":4},{"name":"front","type":"int","value":0}],"point":true},{"id":33,"x":-388,"y":-193,"visible":true,"properties":[{"name":"image_layer_name","type":"string","value":"background_back_15"},{"name":"a","type":"int","value":255},{"name":"f","type":"int","value":0},{"name":"x","type":"int","value":-388},{"name":"y","type":"int","value":-193},{"name":"bS","type":"string","value":"login"},{"name":"cx","type":"int","value":1400},{"name":"cy","type":"int","value":0},{"name":"no","type":"int","value":1},{"name":"rx","type":"int","value":12},{"name":"ry","type":"int","value":-80},{"name":"ani","type":"int","value":1},{"name":"type","type":"int","value":4},{"name":"front","type":"int","value":0}],"point":true},{"id":34,"x":-403,"y":-206,"visible":true,"properties":[{"name":"image_layer_name","type":"string","value":"background_back_16"},{"name":"a","type":"int","value":255},{"name":"f","type":"int","value":0},{"name":"x","type":"int","value":-403},{"name":"y","type":"int","value":-206},{"name":"bS","type":"string","value":"login"},{"name":"cx","type":"int","value":1400},{"name":"cy","type":"int","value":0},{"name":"no","type":"int","value":1},{"name":"rx","type":"int","value":12},{"name":"ry","type":"int","value":-80},{"name":"ani","type":"int","value":1},{"name":"type","type":"int","value":4},{"name":"front","type":"int","value":0}],"point":true},{"id":35,"x":-379,"y":-212,"visible":true,"properties":[{"name":"image_layer_name","type":"string","value":"background_back_17"},{"name":"a","type":"int","value":255},{"name":"f","type":"int","value":0},{"name":"x","type":"int","value":-379},{"name":"y","type":"int","value":-212},{"name":"bS","type":"string","value":"login"},{"name":"cx","type":"int","value":1400},{"name":"cy","type":"int","value":0},{"name":"no","type":"int","value":0},{"name":"rx","type":"int","value":12},{"name":"ry","type":"int","value":-80},{"name":"ani","type":"int","value":1},{"name":"type","type":"int","value":4},{"name":"front","type":"int","value":0}],"point":true}]},{"id":23,"name":"portal","type":"objectgroup","visible":true,"opacity":1,"objects":[{"id":36,"x":2016,"y":1,"visible":true,"properties":[{"name":"x","type":"int","value":2016},{"name":"y","type":"int","value":1},{"name":"pn","type":"string","value":"sp"},{"name":"pt","type":"int","value":0},{"name":"tm","type":"int","value":999999999},{"name":"tn","type":"string","value":""}],"point":true},{"id":37,"x":2042,"y":-32,"visible":true,"properties":[{"name":"x","type":"int","value":2042},{"name":"y","type":"int","value":-32},{"name":"pn","type":"string","value":"h002"},{"name":"pt","type":"int","value":1},{"name":"tm","type":"int","value":101000301},{"name":"tn","type":"string","value":"h002_1"},{"name":"delay","type":"int","value":0},{"name":"script","type":"string","value":""},{"name":"onlyOnce","type":"int","value":0},{"name":"hideTooltip","type":"int","value":0}],"point":true},{"id":38,"x":2039,"y":-680,"visible":true,"properties":[{"name":"x","type":"int","value":2039},{"name":"y","type":"int","value":-680},{"name":"pn","type":"string","value":"h002_1"},{"name":"pt","type":"int","value":1},{"name":"tm","type":"int","value":101000301},{"name":"tn","type":"string","value":"h002"},{"name":"delay","type":"int","value":0},{"name":"script","type":"string","value":""},{"name":"onlyOnce","type":"int","value":0},{"name":"hideTooltip","type":"int","value":0}],"point":true}]},{"id":24,"name":"life","type":"objectgroup","visible":true,"opacity":1,"objects":[{"id":39,"x":2112,"y":-29,"visible":true,"properties":[{"name":"f","type":"int","value":0},{"name":"x","type":"int","value":2112},{"name":"y","type":"int","value":-29},{"name":"cy","type":"int","value":-29},{"name":"fh","type":"int","value":16},{"name":"id","type":"int","value":1032009},{"name":"rx0","type":"int","value":2062},{"name":"rx1","type":"int","value":2162},{"name":"type","type":"string","value":"n"},{"name":"mobTime","type":"int","value":0}],"point":true}]},{"id":25,"name":"foothold","type":"objectgroup","visible":true,"opacity":1,"objects":[{"id":40,"x":1569,"y":-928,"visible":true,"properties":[{"name":"layer","type":"int","value":0},{"name":"group","type":"int","value":3},{"name":"id","type":"int","value":1},{"name":"fh_layer","type":"int","value":0},{"name":"fh_group","type":"int","value":3},{"name":"fh_id","type":"int","value":1},{"name":"x1","type":"int","value":1569},{"name":"x2","type":"int","value":1569},{"name":"y1","type":"int","value":-928},{"name":"y2","type":"int","value":-151},{"name":"next","type":"int","value":2},{"name":"prev","type":"int","value":0}],"polyline":[{"x":0,"y":0},{"x":0,"y":777}]},{"id":41,"x":1569,"y":-151,"visible":true,"properties":[{"name":"layer","type":"int","value":0},{"name":"group","type":"int","value":3},{"name":"id","type":"int","value":2},{"name":"fh_layer","type":"int","value":0},{"name":"fh_group","type":"int","value":3},{"name":"fh_id","type":"int","value":2},{"name":"x1","type":"int","value":1569},{"name":"x2","type":"int","value":1725},{"name":"y1","type":"int","value":-151},{"name":"y2","type":"int","value":-131},{"name":"next","type":"int","value":3},{"name":"prev","type":"int","value":1}],"polyline":[{"x":0,"y":0},{"x":156,"y":20}]},{"id":42,"x":1725,"y":-131,"visible":true,"properties":[{"name":"layer","type":"int","value":0},{"name":"group","type":"int","value":3},{"name":"id","type":"int","value":3},{"name":"fh_layer","type":"int","value":0},{"name":"fh_group","type":"int","value":3},{"name":"fh_id","type":"int","value":3},{"name":"x1","type":"int","value":1725},{"name":"x2","type":"int","value":1795},{"name":"y1","type":"int","value":-131},{"name":"y2","type":"int","value":-64},{"name":"next","type":"int","value":4},{"name":"prev","type":"int","value":2}],"polyline":[{"x":0,"y":0},{"x":70,"y":67}]},{"id":43,"x":1795,"y":-64,"visible":true,"properties":[{"name":"layer","type":"int","value":0},{"name":"group","type":"int","value":3},{"name":"id","type":"int","value":4},{"name":"fh_layer","type":"int","value":0},{"name":"fh_group","type":"int","value":3},{"name":"fh_id","type":"int","value":4},{"name":"x1","type":"int","value":1795},{"name":"x2","type":"int","value":1856},{"name":"y1","type":"int","value":-64},{"name":"y2","type":"int","value":-15},{"name":"next","type":"int","value":5},{"name":"prev","type":"int","value":3}],"polyline":[{"x":0,"y":0},{"x":61,"y":49}]},{"id":44,"x":1856,"y":-15,"visible":true,"properties":[{"name":"layer","type":"int","value":0},{"name":"group","type":"int","value":3},{"name":"id","type":"int","value":5},{"name":"fh_layer","type":"int","value":0},{"name":"fh_group","type":"int","value":3},{"name":"fh_id","type":"int","value":5},{"name":"x1","type":"int","value":1856},{"name":"x2","type":"int","value":1856},{"name":"y1","type":"int","value":-15},{"name":"y2","type":"int","value":39},{"name":"next","type":"int","value":6},{"name":"prev","type":"int","value":4}],"polyline":[{"x":0,"y":0},{"x":0,"y":54}]},{"id":45,"x":1856,"y":39,"visible":true,"properties":[{"name":"layer","type":"int","value":0},{"name":"group","type":"int","value":3},{"name":"id","type":"int","value":6},{"name":"fh_layer","type":"int","value":0},{"name":"fh_group","type":"int","value":3},{"name":"fh_id","type":"int","value":6},{"name":"x1","type":"int","value":1856},{"name":"x2","type":"int","value":1899},{"name":"y1","type":"int","value":39},{"name":"y2","type":"int","value":39},{"name":"next","type":"int","value":7},{"name":"prev","type":"int","value":5}],"polyline":[{"x":0,"y":0},{"x":43,"y":0}]},{"id":46,"x":1899,"y":39,"visible":true,"properties":[{"name":"layer","type":"int","value":0},{"name":"group","type":"int","value":3},{"name":"id","type":"int","value":7},{"name":"fh_layer","type":"int","value":0},{"name":"fh_group","type":"int","value":3},{"name":"fh_id","type":"int","value":7},{"name":"x1","type":"int","value":1899},{"name":"x2","type":"int","value":1899},{"name":"y1","type":"int","value":39},{"name":"y2","type":"int","value":91},{"name":"next","type":"int","value":8},{"name":"prev","type":"int","value":6}],"polyline":[{"x":0,"y":0},{"x":0,"y":52}]},{"id":47,"x":1899,"y":91,"visible":true,"properties":[{"name":"layer","type":"int","value":0},{"name":"group","type":"int","value":3},{"name":"id","type":"int","value":8},{"name":"fh_layer","type":"int","value":0},{"name":"fh_group","type":"int","value":3},{"name":"fh_id","type":"int","value":8},{"name":"x1","type":"int","value":1899},{"name":"x2","type":"int","value":2015},{"name":"y1","type":"int","value":91},{"name":"y2","type":"int","value":91},{"name":"next","type":"int","value":18},{"name":"prev","type":"int","value":7}],"polyline":[{"x":0,"y":0},{"x":116,"y":0}]},{"id":48,"x":2203,"y":91,"visible":true,"properties":[{"name":"layer","type":"int","value":0},{"name":"group","type":"int","value":3},{"name":"id","type":"int","value":9},{"name":"fh_layer","type":"int","value":0},{"name":"fh_group","type":"int","value":3},{"name":"fh_id","type":"int","value":9},{"name":"x1","type":"int","value":2203},{"name":"x2","type":"int","value":2386},{"name":"y1","type":"int","value":91},{"name":"y2","type":"int","value":81},{"name":"next","type":"int","value":10},{"name":"prev","type":"int","value":21}],"polyline":[{"x":0,"y":0},{"x":183,"y":-10}]},{"id":49,"x":2386,"y":81,"visible":true,"properties":[{"name":"layer","type":"int","value":0},{"name":"group","type":"int","value":3},{"name":"id","type":"int","value":10},{"name":"fh_layer","type":"int","value":0},{"name":"fh_group","type":"int","value":3},{"name":"fh_id","type":"int","value":10},{"name":"x1","type":"int","value":2386},{"name":"x2","type":"int","value":2716},{"name":"y1","type":"int","value":81},{"name":"y2","type":"int","value":38},{"name":"next","type":"int","value":11},{"name":"prev","type":"int","value":9}],"polyline":[{"x":0,"y":0},{"x":330,"y":-43}]},{"id":50,"x":2716,"y":38,"visible":true,"properties":[{"name":"layer","type":"int","value":0},{"name":"group","type":"int","value":3},{"name":"id","type":"int","value":11},{"name":"fh_layer","type":"int","value":0},{"name":"fh_group","type":"int","value":3},{"name":"fh_id","type":"int","value":11},{"name":"x1","type":"int","value":2716},{"name":"x2","type":"int","value":2716},{"name":"y1","type":"int","value":38},{"name":"y2","type":"int","value":-928},{"name":"next","type":"int","value":0},{"name":"prev","type":"int","value":10}],"polyline":[{"x":0,"y":0},{"x":0,"y":-966}]},{"id":51,"x":2186,"y":39,"visible":true,"properties":[{"name":"layer","type":"int","value":0},{"name":"group","type":"int","value":3},{"name":"id","type":"int","value":12},{"name":"fh_layer","type":"int","value":0},{"name":"fh_group","type":"int","value":3},{"name":"fh_id","type":"int","value":12},{"name":"x1","type":"int","value":2186},{"name":"x2","type":"int","value":2274},{"name":"y1","type":"int","value":39},{"name":"y2","type":"int","value":39},{"name":"next","type":"int","value":13},{"name":"prev","type":"int","value":0}],"polyline":[{"x":0,"y":0},{"x":88,"y":0}]},{"id":52,"x":2274,"y":39,"visible":true,"properties":[{"name":"layer","type":"int","value":0},{"name":"group","type":"int","value":3},{"name":"id","type":"int","value":13},{"name":"fh_layer","type":"int","value":0},{"name":"fh_group","type":"int","value":3},{"name":"fh_id","type":"int","value":13},{"name":"x1","type":"int","value":2274},{"name":"x2","type":"int","value":2274},{"name":"y1","type":"int","value":39},{"name":"y2","type":"int","value":-6},{"name":"next","type":"int","value":14},{"name":"prev","type":"int","value":12}],"polyline":[{"x":0,"y":0},{"x":0,"y":-45}]},{"id":53,"x":2274,"y":-6,"visible":true,"properties":[{"name":"layer","type":"int","value":0},{"name":"group","type":"int","value":3},{"name":"id","type":"int","value":14},{"name":"fh_layer","type":"int","value":0},{"name":"fh_group","type":"int","value":3},{"name":"fh_id","type":"int","value":14},{"name":"x1","type":"int","value":2274},{"name":"x2","type":"int","value":2375},{"name":"y1","type":"int","value":-6},{"name":"y2","type":"int","value":-6},{"name":"next","type":"int","value":15},{"name":"prev","type":"int","value":13}],"polyline":[{"x":0,"y":0},{"x":101,"y":0}]},{"id":54,"x":2375,"y":-6,"visible":true,"properties":[{"name":"layer","type":"int","value":0},{"name":"group","type":"int","value":3},{"name":"id","type":"int","value":15},{"name":"fh_layer","type":"int","value":0},{"name":"fh_group","type":"int","value":3},{"name":"fh_id","type":"int","value":15},{"name":"x1","type":"int","value":2375},{"name":"x2","type":"int","value":2375},{"name":"y1","type":"int","value":-6},{"name":"y2","type":"int","value":-227},{"name":"next","type":"int","value":0},{"name":"prev","type":"int","value":14}],"polyline":[{"x":0,"y":0},{"x":0,"y":-221}]},{"id":55,"x":1929,"y":-29,"visible":true,"properties":[{"name":"layer","type":"int","value":0},{"name":"group","type":"int","value":3},{"name":"id","type":"int","value":16},{"name":"fh_layer","type":"int","value":0},{"name":"fh_group","type":"int","value":3},{"name":"fh_id","type":"int","value":16},{"name":"x1","type":"int","value":1929},{"name":"x2","type":"int","value":2145},{"name":"y1","type":"int","value":-29},{"name":"y2","type":"int","value":-29},{"name":"next","type":"int","value":0},{"name":"prev","type":"int","value":0}],"polyline":[{"x":0,"y":0},{"x":216,"y":0}]},{"id":56,"x":2015,"y":91,"visible":true,"properties":[{"name":"layer","type":"int","value":0},{"name":"group","type":"int","value":3},{"name":"id","type":"int","value":17},{"name":"fh_layer","type":"int","value":0},{"name":"fh_group","type":"int","value":3},{"name":"fh_id","type":"int","value":17},{"name":"x1","type":"int","value":2015},{"name":"x2","type":"int","value":2015},{"name":"y1","type":"int","value":91},{"name":"y2","type":"int","value":406},{"name":"next","type":"int","value":19},{"name":"prev","type":"int","value":8}],"polyline":[{"x":0,"y":0},{"x":0,"y":315}]},{"id":57,"x":2015,"y":91,"visible":true,"properties":[{"name":"layer","type":"int","value":0},{"name":"group","type":"int","value":3},{"name":"id","type":"int","value":18},{"name":"fh_layer","type":"int","value":0},{"name":"fh_group","type":"int","value":3},{"name":"fh_id","type":"int","value":18},{"name":"x1","type":"int","value":2015},{"name":"x2","type":"int","value":2114},{"name":"y1","type":"int","value":91},{"name":"y2","type":"int","value":91},{"name":"next","type":"int","value":21},{"name":"prev","type":"int","value":8}],"polyline":[{"x":0,"y":0},{"x":99,"y":0}]},{"id":58,"x":2015,"y":406,"visible":true,"properties":[{"name":"layer","type":"int","value":0},{"name":"group","type":"int","value":3},{"name":"id","type":"int","value":19},{"name":"fh_layer","type":"int","value":0},{"name":"fh_group","type":"int","value":3},{"name":"fh_id","type":"int","value":19},{"name":"x1","type":"int","value":2015},{"name":"x2","type":"int","value":2114},{"name":"y1","type":"int","value":406},{"name":"y2","type":"int","value":406},{"name":"next","type":"int","value":20},{"name":"prev","type":"int","value":17}],"polyline":[{"x":0,"y":0},{"x":99,"y":0}]},{"id":59,"x":2114,"y":406,"visible":true,"properties":[{"name":"layer","type":"int","value":0},{"name":"group","type":"int","value":3},{"name":"id","type":"int","value":20},{"name":"fh_layer","type":"int","value":0},{"name":"fh_group","type":"int","value":3},{"name":"fh_id","type":"int","value":20},{"name":"x1","type":"int","value":2114},{"name":"x2","type":"int","value":2114},{"name":"y1","type":"int","value":406},{"name":"y2","type":"int","value":91},{"name":"next","type":"int","value":21},{"name":"prev","type":"int","value":19}],"polyline":[{"x":0,"y":0},{"x":0,"y":-315}]},{"id":60,"x":2114,"y":91,"visible":true,"properties":[{"name":"layer","type":"int","value":0},{"name":"group","type":"int","value":3},{"name":"id","type":"int","value":21},{"name":"fh_layer","type":"int","value":0},{"name":"fh_group","type":"int","value":3},{"name":"fh_id","type":"int","value":21},{"name":"x1","type":"int","value":2114},{"name":"x2","type":"int","value":2203},{"name":"y1","type":"int","value":91},{"name":"y2","type":"int","value":91},{"name":"next","type":"int","value":9},{"name":"prev","type":"int","value":18}],"polyline":[{"x":0,"y":0},{"x":89,"y":0}]},{"id":61,"x":2016,"y":-701,"visible":true,"properties":[{"name":"layer","type":"int","value":0},{"name":"group","type":"int","value":3},{"name":"id","type":"int","value":22},{"name":"fh_layer","type":"int","value":0},{"name":"fh_group","type":"int","value":3},{"name":"fh_id","type":"int","value":22},{"name":"x1","type":"int","value":2016},{"name":"x2","type":"int","value":2016},{"name":"y1","type":"int","value":-701},{"name":"y2","type":"int","value":-679},{"name":"next","type":"int","value":23},{"name":"prev","type":"int","value":0}],"polyline":[{"x":0,"y":0},{"x":0,"y":22}]},{"id":62,"x":2016,"y":-679,"visible":true,"properties":[{"name":"layer","type":"int","value":0},{"name":"group","type":"int","value":3},{"name":"id","type":"int","value":23},{"name":"fh_layer","type":"int","value":0},{"name":"fh_group","type":"int","value":3},{"name":"fh_id","type":"int","value":23},{"name":"x1","type":"int","value":2016},{"name":"x2","type":"int","value":2065},{"name":"y1","type":"int","value":-679},{"name":"y2","type":"int","value":-679},{"name":"next","type":"int","value":24},{"name":"prev","type":"int","value":22}],"polyline":[{"x":0,"y":0},{"x":49,"y":0}]},{"id":63,"x":2065,"y":-679,"visible":true,"properties":[{"name":"layer","type":"int","value":0},{"name":"group","type":"int","value":3},{"name":"id","type":"int","value":24},{"name":"fh_layer","type":"int","value":0},{"name":"fh_group","type":"int","value":3},{"name":"fh_id","type":"int","value":24},{"name":"x1","type":"int","value":2065},{"name":"x2","type":"int","value":2065},{"name":"y1","type":"int","value":-679},{"name":"y2","type":"int","value":-701},{"name":"next","type":"int","value":0},{"name":"prev","type":"int","value":23}],"polyline":[{"x":0,"y":0},{"x":0,"y":-22}]},{"id":64,"x":1903,"y":-628,"visible":true,"properties":[{"name":"layer","type":"int","value":0},{"name":"group","type":"int","value":3},{"name":"id","type":"int","value":25},{"name":"fh_layer","type":"int","value":0},{"name":"fh_group","type":"int","value":3},{"name":"fh_id","type":"int","value":25},{"name":"x1","type":"int","value":1903},{"name":"x2","type":"int","value":2361},{"name":"y1","type":"int","value":-628},{"name":"y2","type":"int","value":-359},{"name":"next","type":"int","value":0},{"name":"prev","type":"int","value":0}],"polyline":[{"x":0,"y":0},{"x":458,"y":269}]},{"id":65,"x":1642,"y":-573,"visible":true,"properties":[{"name":"layer","type":"int","value":0},{"name":"group","type":"int","value":3},{"name":"id","type":"int","value":26},{"name":"fh_layer","type":"int","value":0},{"name":"fh_group","type":"int","value":3},{"name":"fh_id","type":"int","value":26},{"name":"x1","type":"int","value":1642},{"name":"x2","type":"int","value":2386},{"name":"y1","type":"int","value":-573},{"name":"y2","type":"int","value":-343},{"name":"next","type":"int","value":0},{"name":"prev","type":"int","value":0}],"polyline":[{"x":0,"y":0},{"x":744,"y":230}]},{"id":66,"x":1690,"y":-315,"visible":true,"properties":[{"name":"layer","type":"int","value":0},{"name":"group","type":"int","value":3},{"name":"id","type":"int","value":27},{"name":"fh_layer","type":"int","value":0},{"name":"fh_group","type":"int","value":3},{"name":"fh_id","type":"int","value":27},{"name":"x1","type":"int","value":1690},{"name":"x2","type":"int","value":2346},{"name":"y1","type":"int","value":-315},{"name":"y2","type":"int","value":-333},{"name":"next","type":"int","value":0},{"name":"prev","type":"int","value":0}],"polyline":[{"x":0,"y":0},{"x":656,"y":-18}]},{"id":67,"x":1774,"y":-111,"visible":true,"properties":[{"name":"layer","type":"int","value":0},{"name":"group","type":"int","value":3},{"name":"id","type":"int","value":28},{"name":"fh_layer","type":"int","value":0},{"name":"fh_group","type":"int","value":3},{"name":"fh_id","type":"int","value":28},{"name":"x1","type":"int","value":1774},{"name":"x2","type":"int","value":2347},{"name":"y1","type":"int","value":-111},{"name":"y2","type":"int","value":-315},{"name":"next","type":"int","value":0},{"name":"prev","type":"int","value":0}],"polyline":[{"x":0,"y":0},{"x":573,"y":-204}]},{"id":68,"x":1900,"y":-16,"visible":true,"properties":[{"name":"layer","type":"int","value":0},{"name":"group","type":"int","value":3},{"name":"id","type":"int","value":29},{"name":"fh_layer","type":"int","value":0},{"name":"fh_group","type":"int","value":3},{"name":"fh_id","type":"int","value":29},{"name":"x1","type":"int","value":1900},{"name":"x2","type":"int","value":2354},{"name":"y1","type":"int","value":-16},{"name":"y2","type":"int","value":-304},{"name":"next","type":"int","value":0},{"name":"prev","type":"int","value":0}],"polyline":[{"x":0,"y":0},{"x":454,"y":-288}]}]},{"id":26,"name":"miniMap","type":"objectgroup","visible":true,"opacity":1,"objects":[{"id":69,"x":-1116,"y":858,"visible":true,"properties":[{"name":"mag","type":"int","value":4},{"name":"centerX","type":"int","value":-1116},{"name":"centerY","type":"int","value":858},{"name":"canvas_path","type":"string","value":"../../images/30521.png"},{"name":"canvas_width","type":"int","value":102},{"name":"canvas_height","type":"int","value":91},{"name":"canvas_origin_x","type":"int","value":0},{"name":"canvas_origin_y","type":"int","value":0}],"point":true}]}],"tilesets":[{"firstgid":1,"source":"../../tilesets/bg_login.tsj"},{"firstgid":5,"source":"../../tilesets/bg_portTown.tsj"},{"firstgid":10,"source":"../../tilesets/bg_shineWood3.tsj"},{"firstgid":27,"source":"../../tilesets/obj_vehicle_ship_ossyria.tsj"},{"firstgid":40,"source":"../../tilesets/obj_acc2_shineWood_station.tsj"},{"firstgid":68,"source":"../../tilesets/obj_acc1_portTown_artificiality.tsj"}],"properties":[{"name":"bgm","type":"string","value":"Bgm01/MoonlightShadow"},{"name":"swim","type":"int","value":0},{"name":"town","type":"int","value":1},{"name":"VRTop","type":"int","value":-900},{"name":"cloud","type":"int","value":0},{"name":"VRLeft","type":"int","value":1230},{"name":"VRRight","type":"int","value":2830},{"name":"mapMark","type":"string","value":"Ellinia"},{"name":"mobRate","type":"float","value":1},{"name":"version","type":"int","value":10},{"name":"VRBottom","type":"int","value":550},{"name":"returnMap","type":"int","value":101000300},{"name":"fieldLimit","type":"int","value":393340},{"name":"hideMinimap","type":"int","value":0},{"name":"forcedReturn","type":"int","value":101000300}]}