{"type":"map","orientation":"orthogonal","renderorder":"right-down","infinite":false,"tilewidth":1,"tileheight":1,"width":2459,"height":1203,"nextlayerid":20,"nextobjectid":213,"layers":[{"id":1,"name":"layer_0_obj","type":"objectgroup","visible":true,"opacity":1,"objects":[{"id":1,"x":-829,"y":-423,"visible":true,"properties":[{"name":"layer","type":"int","value":0},{"name":"resource_index","type":"int","value":0},{"name":"oS","type":"string","value":"acc1"},{"name":"l0","type":"string","value":"grassySoil"},{"name":"l1","type":"string","value":"nature"},{"name":"l2","type":"string","value":"8"},{"name":"z","type":"int","value":1},{"name":"zM","type":"int","value":22},{"name":"f","type":"int","value":0}],"gid":48,"width":73,"height":56},{"id":2,"x":-773,"y":-422,"visible":true,"properties":[{"name":"layer","type":"int","value":0},{"name":"resource_index","type":"int","value":1},{"name":"oS","type":"string","value":"acc1"},{"name":"l0","type":"string","value":"grassySoil"},{"name":"l1","type":"string","value":"nature"},{"name":"l2","type":"string","value":"8"},{"name":"z","type":"int","value":2},{"name":"zM","type":"int","value":22},{"name":"f","type":"int","value":0}],"gid":48,"width":73,"height":56},{"id":3,"x":-714,"y":-420,"visible":true,"properties":[{"name":"layer","type":"int","value":0},{"name":"resource_index","type":"int","value":2},{"name":"oS","type":"string","value":"acc1"},{"name":"l0","type":"string","value":"grassySoil"},{"name":"l1","type":"string","value":"nature"},{"name":"l2","type":"string","value":"8"},{"name":"z","type":"int","value":5},{"name":"zM","type":"int","value":22},{"name":"f","type":"int","value":0}],"gid":48,"width":73,"height":56},{"id":4,"x":-752,"y":-449,"visible":true,"properties":[{"name":"layer","type":"int","value":0},{"name":"resource_index","type":"int","value":3},{"name":"oS","type":"string","value":"acc1"},{"name":"l0","type":"string","value":"grassySoil"},{"name":"l1","type":"string","value":"nature"},{"name":"l2","type":"string","value":"4"},{"name":"z","type":"int","value":3},{"name":"zM","type":"int","value":22},{"name":"f","type":"int","value":0}],"gid":54,"width":43,"height":42},{"id":5,"x":-728,"y":-447,"visible":true,"properties":[{"name":"layer","type":"int","value":0},{"name":"resource_index","type":"int","value":4},{"name":"oS","type":"string","value":"acc1"},{"name":"l0","type":"string","value":"grassySoil"},{"name":"l1","type":"string","value":"nature"},{"name":"l2","type":"string","value":"3"},{"name":"z","type":"int","value":4},{"name":"zM","type":"int","value":22},{"name":"f","type":"int","value":0}],"gid":53,"width":46,"height":44},{"id":6,"x":-704,"y":-447,"visible":true,"properties":[{"name":"layer","type":"int","value":0},{"name":"resource_index","type":"int","value":5},{"name":"oS","type":"string","value":"acc1"},{"name":"l0","type":"string","value":"grassySoil"},{"name":"l1","type":"string","value":"nature"},{"name":"l2","type":"string","value":"3"},{"name":"z","type":"int","value":3},{"name":"zM","type":"int","value":22},{"name":"f","type":"int","value":0}],"gid":53,"width":46,"height":44},{"id":7,"x":-687,"y":-449,"visible":true,"properties":[{"name":"layer","type":"int","value":0},{"name":"resource_index","type":"int","value":6},{"name":"oS","type":"string","value":"acc1"},{"name":"l0","type":"string","value":"grassySoil"},{"name":"l1","type":"string","value":"nature"},{"name":"l2","type":"string","value":"4"},{"name":"z","type":"int","value":2},{"name":"zM","type":"int","value":22},{"name":"f","type":"int","value":0}],"gid":54,"width":43,"height":42},{"id":8,"x":-749,"y":-506,"visible":true,"properties":[{"name":"layer","type":"int","value":0},{"name":"resource_index","type":"int","value":7},{"name":"oS","type":"string","value":"acc1"},{"name":"l0","type":"string","value":"grassySoil"},{"name":"l1","type":"string","value":"nature"},{"name":"l2","type":"string","value":"21"},{"name":"z","type":"int","value":7},{"name":"zM","type":"int","value":23},{"name":"f","type":"int","value":0}],"gid":51,"width":33,"height":18},{"id":9,"x":-860,"y":-448,"visible":true,"properties":[{"name":"layer","type":"int","value":0},{"name":"resource_index","type":"int","value":8},{"name":"oS","type":"string","value":"acc1"},{"name":"l0","type":"string","value":"grassySoil"},{"name":"l1","type":"string","value":"artificiality"},{"name":"l2","type":"string","value":"26"},{"name":"z","type":"int","value":9},{"name":"zM","type":"int","value":0},{"name":"f","type":"int","value":0}],"gid":90,"width":97,"height":90},{"id":10,"x":-658,"y":-445,"visible":true,"properties":[{"name":"layer","type":"int","value":0},{"name":"resource_index","type":"int","value":9},{"name":"oS","type":"string","value":"guide"},{"name":"l0","type":"string","value":"milepost"},{"name":"l1","type":"string","value":"common"},{"name":"l2","type":"string","value":"1"},{"name":"z","type":"int","value":9},{"name":"zM","type":"int","value":0},{"name":"f","type":"int","value":0}],"gid":42,"width":21,"height":60},{"id":11,"x":-686,"y":-484,"visible":true,"properties":[{"name":"layer","type":"int","value":0},{"name":"resource_index","type":"int","value":10},{"name":"oS","type":"string","value":"guide"},{"name":"l0","type":"string","value":"milepost"},{"name":"l1","type":"string","value":"backcho"},{"name":"l2","type":"string","value":"2"},{"name":"z","type":"int","value":10},{"name":"zM","type":"int","value":0},{"name":"f","type":"int","value":0}],"gid":75,"width":63,"height":40}]},{"id":2,"name":"layer_1_tile","type":"objectgroup","visible":true,"opacity":1,"objects":[{"id":12,"x":-659,"y":-419,"visible":true,"properties":[{"name":"layer","type":"int","value":1},{"name":"resource_index","type":"int","value":0},{"name":"u","type":"string","value":"edU"},{"name":"no","type":"int","value":1},{"name":"zM","type":"int","value":20}],"gid":14,"width":55,"height":38},{"id":13,"x":-654,"y":-403,"visible":true,"properties":[{"name":"layer","type":"int","value":1},{"name":"resource_index","type":"int","value":1},{"name":"u","type":"string","value":"edD"},{"name":"no","type":"int","value":0},{"name":"zM","type":"int","value":20}],"gid":9,"width":48,"height":17},{"id":14,"x":-720,"y":-394,"visible":true,"properties":[{"name":"layer","type":"int","value":1},{"name":"resource_index","type":"int","value":2},{"name":"u","type":"string","value":"enH1"},{"name":"no","type":"int","value":1},{"name":"zM","type":"int","value":20}],"gid":13,"width":90,"height":26},{"id":15,"x":-720,"y":-420,"visible":true,"properties":[{"name":"layer","type":"int","value":1},{"name":"resource_index","type":"int","value":3},{"name":"u","type":"string","value":"enH0"},{"name":"no","type":"int","value":1},{"name":"zM","type":"int","value":20}],"gid":12,"width":90,"height":39},{"id":16,"x":-810,"y":-394,"visible":true,"properties":[{"name":"layer","type":"int","value":1},{"name":"resource_index","type":"int","value":4},{"name":"u","type":"string","value":"enH1"},{"name":"no","type":"int","value":1},{"name":"zM","type":"int","value":20}],"gid":13,"width":90,"height":26},{"id":17,"x":-810,"y":-420,"visible":true,"properties":[{"name":"layer","type":"int","value":1},{"name":"resource_index","type":"int","value":5},{"name":"u","type":"string","value":"enH0"},{"name":"no","type":"int","value":0},{"name":"zM","type":"int","value":20}],"gid":11,"width":90,"height":38},{"id":18,"x":-929,"y":-419,"visible":true,"properties":[{"name":"layer","type":"int","value":1},{"name":"resource_index","type":"int","value":6},{"name":"u","type":"string","value":"edU"},{"name":"no","type":"int","value":1},{"name":"zM","type":"int","value":20}],"gid":14,"width":55,"height":38},{"id":19,"x":-924,"y":-403,"visible":true,"properties":[{"name":"layer","type":"int","value":1},{"name":"resource_index","type":"int","value":7},{"name":"u","type":"string","value":"edD"},{"name":"no","type":"int","value":0},{"name":"zM","type":"int","value":20}],"gid":9,"width":48,"height":17},{"id":20,"x":-900,"y":-420,"visible":true,"properties":[{"name":"layer","type":"int","value":1},{"name":"resource_index","type":"int","value":8},{"name":"u","type":"string","value":"enH0"},{"name":"no","type":"int","value":0},{"name":"zM","type":"int","value":20}],"gid":11,"width":90,"height":38},{"id":21,"x":-900,"y":-395,"visible":true,"properties":[{"name":"layer","type":"int","value":1},{"name":"resource_index","type":"int","value":9},{"name":"u","type":"string","value":"enH1"},{"name":"no","type":"int","value":0},{"name":"zM","type":"int","value":20}],"gid":10,"width":90,"height":25}]},{"id":3,"name":"layer_2_obj","type":"objectgroup","visible":true,"opacity":1,"objects":[{"id":50,"x":-742,"y":213,"visible":true,"properties":[{"name":"layer","type":"int","value":2},{"name":"resource_index","type":"int","value":0},{"name":"oS","type":"string","value":"houseGS"},{"name":"l0","type":"string","value":"house6"},{"name":"l1","type":"string","value":"basic"},{"name":"l2","type":"string","value":"0"},{"name":"z","type":"int","value":1},{"name":"zM","type":"int","value":1},{"name":"f","type":"int","value":0}],"gid":41,"width":281,"height":157},{"id":51,"x":-751,"y":120,"visible":true,"properties":[{"name":"layer","type":"int","value":2},{"name":"resource_index","type":"int","value":1},{"name":"oS","type":"string","value":"houseGS"},{"name":"l0","type":"string","value":"house6"},{"name":"l1","type":"string","value":"basic"},{"name":"l2","type":"string","value":"1"},{"name":"z","type":"int","value":2},{"name":"zM","type":"int","value":1},{"name":"f","type":"int","value":0}],"gid":40,"width":318,"height":175},{"id":52,"x":-738,"y":115,"visible":true,"properties":[{"name":"layer","type":"int","value":2},{"name":"resource_index","type":"int","value":2},{"name":"oS","type":"string","value":"houseGS"},{"name":"l0","type":"string","value":"house6"},{"name":"l1","type":"string","value":"deco"},{"name":"l2","type":"string","value":"0"},{"name":"z","type":"int","value":4},{"name":"zM","type":"int","value":1},{"name":"f","type":"int","value":0}],"gid":30,"width":304,"height":167},{"id":53,"x":-702,"y":214,"visible":true,"properties":[{"name":"layer","type":"int","value":2},{"name":"resource_index","type":"int","value":3},{"name":"oS","type":"string","value":"door"},{"name":"l0","type":"string","value":"grassySoil"},{"name":"l1","type":"string","value":"door"},{"name":"l2","type":"string","value":"9"},{"name":"z","type":"int","value":3},{"name":"zM","type":"int","value":1},{"name":"f","type":"int","value":0}],"gid":38,"width":98,"height":130},{"id":54,"x":-686,"y":215,"visible":true,"properties":[{"name":"layer","type":"int","value":2},{"name":"resource_index","type":"int","value":4},{"name":"oS","type":"string","value":"door"},{"name":"l0","type":"string","value":"grassySoil"},{"name":"l1","type":"string","value":"door"},{"name":"l2","type":"string","value":"12"},{"name":"z","type":"int","value":2},{"name":"zM","type":"int","value":1},{"name":"f","type":"int","value":0}],"gid":39,"width":69,"height":84},{"id":55,"x":-571,"y":179,"visible":true,"properties":[{"name":"layer","type":"int","value":2},{"name":"resource_index","type":"int","value":5},{"name":"oS","type":"string","value":"door"},{"name":"l0","type":"string","value":"grassySoil"},{"name":"l1","type":"string","value":"window"},{"name":"l2","type":"string","value":"1"},{"name":"z","type":"int","value":3},{"name":"zM","type":"int","value":1},{"name":"f","type":"int","value":0}],"gid":71,"width":86,"height":78},{"id":56,"x":-549,"y":147,"visible":true,"properties":[{"name":"layer","type":"int","value":2},{"name":"resource_index","type":"int","value":6},{"name":"oS","type":"string","value":"house"},{"name":"l0","type":"string","value":"grassySoil"},{"name":"l1","type":"string","value":"accessory"},{"name":"l2","type":"string","value":"0"},{"name":"z","type":"int","value":4},{"name":"zM","type":"int","value":1},{"name":"f","type":"int","value":0}],"gid":79,"width":19,"height":21},{"id":57,"x":-566,"y":36,"visible":true,"properties":[{"name":"layer","type":"int","value":2},{"name":"resource_index","type":"int","value":7},{"name":"oS","type":"string","value":"house"},{"name":"l0","type":"string","value":"grassySoil"},{"name":"l1","type":"string","value":"accessory"},{"name":"l2","type":"string","value":"1"},{"name":"z","type":"int","value":5},{"name":"zM","type":"int","value":1},{"name":"f","type":"int","value":0}],"gid":80,"width":76,"height":50},{"id":58,"x":-1173,"y":214,"visible":true,"properties":[{"name":"layer","type":"int","value":2},{"name":"resource_index","type":"int","value":8},{"name":"oS","type":"string","value":"acc1"},{"name":"l0","type":"string","value":"grassySoil"},{"name":"l1","type":"string","value":"nature"},{"name":"l2","type":"string","value":"17"},{"name":"z","type":"int","value":3},{"name":"zM","type":"int","value":4},{"name":"f","type":"int","value":0}],"gid":63,"width":141,"height":62},{"id":59,"x":-521,"y":225,"visible":true,"properties":[{"name":"layer","type":"int","value":2},{"name":"resource_index","type":"int","value":9},{"name":"oS","type":"string","value":"acc1"},{"name":"l0","type":"string","value":"grassySoil"},{"name":"l1","type":"string","value":"nature"},{"name":"l2","type":"string","value":"13"},{"name":"z","type":"int","value":0},{"name":"zM","type":"int","value":1},{"name":"f","type":"int","value":0}],"gid":44,"width":223,"height":128},{"id":60,"x":-888,"y":231,"visible":true,"properties":[{"name":"layer","type":"int","value":2},{"name":"resource_index","type":"int","value":10},{"name":"oS","type":"string","value":"acc1"},{"name":"l0","type":"string","value":"grassySoil"},{"name":"l1","type":"string","value":"nature"},{"name":"l2","type":"string","value":"13"},{"name":"z","type":"int","value":0},{"name":"zM","type":"int","value":1},{"name":"f","type":"int","value":0}],"gid":44,"width":223,"height":128},{"id":61,"x":-1001,"y":221,"visible":true,"properties":[{"name":"layer","type":"int","value":2},{"name":"resource_index","type":"int","value":11},{"name":"oS","type":"string","value":"acc1"},{"name":"l0","type":"string","value":"darkWood"},{"name":"l1","type":"string","value":"nature"},{"name":"l2","type":"string","value":"20"},{"name":"z","type":"int","value":2},{"name":"zM","type":"int","value":1},{"name":"f","type":"int","value":0}],"gid":31,"width":149,"height":67},{"id":62,"x":-1117,"y":219,"visible":true,"properties":[{"name":"layer","type":"int","value":2},{"name":"resource_index","type":"int","value":12},{"name":"oS","type":"string","value":"acc1"},{"name":"l0","type":"string","value":"darkWood"},{"name":"l1","type":"string","value":"nature"},{"name":"l2","type":"string","value":"20"},{"name":"z","type":"int","value":1},{"name":"zM","type":"int","value":1},{"name":"f","type":"int","value":0}],"gid":31,"width":149,"height":67},{"id":63,"x":-495,"y":215,"visible":true,"properties":[{"name":"layer","type":"int","value":2},{"name":"resource_index","type":"int","value":13},{"name":"oS","type":"string","value":"acc1"},{"name":"l0","type":"string","value":"grassySoil"},{"name":"l1","type":"string","value":"nature"},{"name":"l2","type":"string","value":"5"},{"name":"z","type":"int","value":4},{"name":"zM","type":"int","value":1},{"name":"f","type":"int","value":0}],"gid":57,"width":47,"height":66},{"id":64,"x":-762,"y":234,"visible":true,"properties":[{"name":"layer","type":"int","value":2},{"name":"resource_index","type":"int","value":14},{"name":"oS","type":"string","value":"acc1"},{"name":"l0","type":"string","value":"grassySoil"},{"name":"l1","type":"string","value":"nature"},{"name":"l2","type":"string","value":"8"},{"name":"z","type":"int","value":4},{"name":"zM","type":"int","value":1},{"name":"f","type":"int","value":0}],"gid":48,"width":73,"height":56},{"id":65,"x":-831,"y":234,"visible":true,"properties":[{"name":"layer","type":"int","value":2},{"name":"resource_index","type":"int","value":15},{"name":"oS","type":"string","value":"acc1"},{"name":"l0","type":"string","value":"grassySoil"},{"name":"l1","type":"string","value":"nature"},{"name":"l2","type":"string","value":"8"},{"name":"z","type":"int","value":3},{"name":"zM","type":"int","value":1},{"name":"f","type":"int","value":0}],"gid":48,"width":73,"height":56},{"id":66,"x":-902,"y":236,"visible":true,"properties":[{"name":"layer","type":"int","value":2},{"name":"resource_index","type":"int","value":16},{"name":"oS","type":"string","value":"acc1"},{"name":"l0","type":"string","value":"grassySoil"},{"name":"l1","type":"string","value":"nature"},{"name":"l2","type":"string","value":"8"},{"name":"z","type":"int","value":3},{"name":"zM","type":"int","value":1},{"name":"f","type":"int","value":0}],"gid":48,"width":73,"height":56},{"id":67,"x":-973,"y":235,"visible":true,"properties":[{"name":"layer","type":"int","value":2},{"name":"resource_index","type":"int","value":17},{"name":"oS","type":"string","value":"acc1"},{"name":"l0","type":"string","value":"grassySoil"},{"name":"l1","type":"string","value":"nature"},{"name":"l2","type":"string","value":"8"},{"name":"z","type":"int","value":3},{"name":"zM","type":"int","value":1},{"name":"f","type":"int","value":0}],"gid":48,"width":73,"height":56},{"id":68,"x":-1034,"y":-111,"visible":true,"properties":[{"name":"layer","type":"int","value":2},{"name":"resource_index","type":"int","value":18},{"name":"oS","type":"string","value":"acc1"},{"name":"l0","type":"string","value":"darkWood"},{"name":"l1","type":"string","value":"nature"},{"name":"l2","type":"string","value":"20"},{"name":"z","type":"int","value":1},{"name":"zM","type":"int","value":9},{"name":"f","type":"int","value":0}],"gid":31,"width":149,"height":67},{"id":69,"x":-912,"y":-118,"visible":true,"properties":[{"name":"layer","type":"int","value":2},{"name":"resource_index","type":"int","value":19},{"name":"oS","type":"string","value":"acc1"},{"name":"l0","type":"string","value":"grassySoil"},{"name":"l1","type":"string","value":"nature"},{"name":"l2","type":"string","value":"5"},{"name":"z","type":"int","value":4},{"name":"zM","type":"int","value":9},{"name":"f","type":"int","value":0}],"gid":57,"width":47,"height":66},{"id":70,"x":-892,"y":-117,"visible":true,"properties":[{"name":"layer","type":"int","value":2},{"name":"resource_index","type":"int","value":20},{"name":"oS","type":"string","value":"acc1"},{"name":"l0","type":"string","value":"grassySoil"},{"name":"l1","type":"string","value":"nature"},{"name":"l2","type":"string","value":"6"},{"name":"z","type":"int","value":3},{"name":"zM","type":"int","value":9},{"name":"f","type":"int","value":0}],"gid":56,"width":56,"height":52},{"id":71,"x":-869,"y":-115,"visible":true,"properties":[{"name":"layer","type":"int","value":2},{"name":"resource_index","type":"int","value":21},{"name":"oS","type":"string","value":"acc1"},{"name":"l0","type":"string","value":"grassySoil"},{"name":"l1","type":"string","value":"nature"},{"name":"l2","type":"string","value":"6"},{"name":"z","type":"int","value":2},{"name":"zM","type":"int","value":9},{"name":"f","type":"int","value":0}],"gid":56,"width":56,"height":52},{"id":72,"x":-837,"y":-204,"visible":true,"properties":[{"name":"layer","type":"int","value":2},{"name":"resource_index","type":"int","value":22},{"name":"oS","type":"string","value":"acc1"},{"name":"l0","type":"string","value":"grassySoil"},{"name":"l1","type":"string","value":"nature"},{"name":"l2","type":"string","value":"19"},{"name":"z","type":"int","value":5},{"name":"zM","type":"int","value":12},{"name":"f","type":"int","value":0}],"gid":49,"width":33,"height":16},{"id":73,"x":-723,"y":-291,"visible":true,"properties":[{"name":"layer","type":"int","value":2},{"name":"resource_index","type":"int","value":23},{"name":"oS","type":"string","value":"acc1"},{"name":"l0","type":"string","value":"darkWood"},{"name":"l1","type":"string","value":"nature"},{"name":"l2","type":"string","value":"20"},{"name":"z","type":"int","value":2},{"name":"zM","type":"int","value":15},{"name":"f","type":"int","value":0}],"gid":31,"width":149,"height":67},{"id":74,"x":-803,"y":-296,"visible":true,"properties":[{"name":"layer","type":"int","value":2},{"name":"resource_index","type":"int","value":24},{"name":"oS","type":"string","value":"acc1"},{"name":"l0","type":"string","value":"grassySoil"},{"name":"l1","type":"string","value":"nature"},{"name":"l2","type":"string","value":"4"},{"name":"z","type":"int","value":3},{"name":"zM","type":"int","value":15},{"name":"f","type":"int","value":0}],"gid":54,"width":43,"height":42},{"id":75,"x":-776,"y":-298,"visible":true,"properties":[{"name":"layer","type":"int","value":2},{"name":"resource_index","type":"int","value":25},{"name":"oS","type":"string","value":"acc1"},{"name":"l0","type":"string","value":"grassySoil"},{"name":"l1","type":"string","value":"nature"},{"name":"l2","type":"string","value":"3"},{"name":"z","type":"int","value":4},{"name":"zM","type":"int","value":15},{"name":"f","type":"int","value":0}],"gid":53,"width":46,"height":44},{"id":76,"x":-755,"y":-299,"visible":true,"properties":[{"name":"layer","type":"int","value":2},{"name":"resource_index","type":"int","value":26},{"name":"oS","type":"string","value":"acc1"},{"name":"l0","type":"string","value":"grassySoil"},{"name":"l1","type":"string","value":"nature"},{"name":"l2","type":"string","value":"4"},{"name":"z","type":"int","value":3},{"name":"zM","type":"int","value":15},{"name":"f","type":"int","value":0}],"gid":54,"width":43,"height":42},{"id":77,"x":-734,"y":-297,"visible":true,"properties":[{"name":"layer","type":"int","value":2},{"name":"resource_index","type":"int","value":27},{"name":"oS","type":"string","value":"acc1"},{"name":"l0","type":"string","value":"grassySoil"},{"name":"l1","type":"string","value":"nature"},{"name":"l2","type":"string","value":"3"},{"name":"z","type":"int","value":5},{"name":"zM","type":"int","value":15},{"name":"f","type":"int","value":0}],"gid":53,"width":46,"height":44},{"id":78,"x":-792,"y":-362,"visible":true,"properties":[{"name":"layer","type":"int","value":2},{"name":"resource_index","type":"int","value":28},{"name":"oS","type":"string","value":"acc1"},{"name":"l0","type":"string","value":"grassySoil"},{"name":"l1","type":"string","value":"nature"},{"name":"l2","type":"string","value":"21"},{"name":"z","type":"int","value":6},{"name":"zM","type":"int","value":18},{"name":"f","type":"int","value":0}],"gid":51,"width":33,"height":18},{"id":79,"x":-887,"y":-414,"visible":true,"properties":[{"name":"layer","type":"int","value":2},{"name":"resource_index","type":"int","value":29},{"name":"oS","type":"string","value":"connect"},{"name":"l0","type":"string","value":"rope"},{"name":"l1","type":"string","value":"3"},{"name":"l2","type":"string","value":"0"},{"name":"z","type":"int","value":3},{"name":"zM","type":"int","value":21},{"name":"f","type":"int","value":0}],"gid":26,"width":18,"height":41},{"id":80,"x":-886,"y":-384,"visible":true,"properties":[{"name":"layer","type":"int","value":2},{"name":"resource_index","type":"int","value":30},{"name":"oS","type":"string","value":"connect"},{"name":"l0","type":"string","value":"rope"},{"name":"l1","type":"string","value":"3"},{"name":"l2","type":"string","value":"1"},{"name":"z","type":"int","value":3},{"name":"zM","type":"int","value":19},{"name":"f","type":"int","value":0}],"gid":28,"width":17,"height":30},{"id":81,"x":-886,"y":-345,"visible":true,"properties":[{"name":"layer","type":"int","value":2},{"name":"resource_index","type":"int","value":31},{"name":"oS","type":"string","value":"connect"},{"name":"l0","type":"string","value":"rope"},{"name":"l1","type":"string","value":"3"},{"name":"l2","type":"string","value":"2"},{"name":"z","type":"int","value":3},{"name":"zM","type":"int","value":17},{"name":"f","type":"int","value":0}],"gid":29,"width":17,"height":39}]},{"id":4,"name":"layer_2_tile","type":"objectgroup","visible":true,"opacity":1,"objects":[{"id":22,"x":-1035,"y":-64,"visible":true,"properties":[{"name":"layer","type":"int","value":2},{"name":"resource_index","type":"int","value":0},{"name":"u","type":"string","value":"enH1"},{"name":"no","type":"int","value":1},{"name":"zM","type":"int","value":9}],"gid":13,"width":90,"height":26},{"id":23,"x":-1035,"y":-90,"visible":true,"properties":[{"name":"layer","type":"int","value":2},{"name":"resource_index","type":"int","value":1},{"name":"u","type":"string","value":"enH0"},{"name":"no","type":"int","value":0},{"name":"zM","type":"int","value":9}],"gid":11,"width":90,"height":38},{"id":24,"x":-945,"y":-90,"visible":true,"properties":[{"name":"layer","type":"int","value":2},{"name":"resource_index","type":"int","value":2},{"name":"u","type":"string","value":"enH0"},{"name":"no","type":"int","value":1},{"name":"zM","type":"int","value":9}],"gid":12,"width":90,"height":39},{"id":25,"x":-945,"y":-65,"visible":true,"properties":[{"name":"layer","type":"int","value":2},{"name":"resource_index","type":"int","value":3},{"name":"u","type":"string","value":"enH1"},{"name":"no","type":"int","value":0},{"name":"zM","type":"int","value":9}],"gid":10,"width":90,"height":25},{"id":26,"x":-855,"y":-64,"visible":true,"properties":[{"name":"layer","type":"int","value":2},{"name":"resource_index","type":"int","value":4},{"name":"u","type":"string","value":"enH1"},{"name":"no","type":"int","value":1},{"name":"zM","type":"int","value":9}],"gid":13,"width":90,"height":26},{"id":27,"x":-855,"y":-90,"visible":true,"properties":[{"name":"layer","type":"int","value":2},{"name":"resource_index","type":"int","value":5},{"name":"u","type":"string","value":"enH0"},{"name":"no","type":"int","value":1},{"name":"zM","type":"int","value":9}],"gid":12,"width":90,"height":39},{"id":28,"x":-765,"y":-64,"visible":true,"properties":[{"name":"layer","type":"int","value":2},{"name":"resource_index","type":"int","value":6},{"name":"u","type":"string","value":"enH1"},{"name":"no","type":"int","value":1},{"name":"zM","type":"int","value":9}],"gid":13,"width":90,"height":26},{"id":29,"x":-765,"y":-90,"visible":true,"properties":[{"name":"layer","type":"int","value":2},{"name":"resource_index","type":"int","value":7},{"name":"u","type":"string","value":"enH0"},{"name":"no","type":"int","value":0},{"name":"zM","type":"int","value":9}],"gid":11,"width":90,"height":38},{"id":30,"x":-524,"y":-89,"visible":true,"properties":[{"name":"layer","type":"int","value":2},{"name":"resource_index","type":"int","value":8},{"name":"u","type":"string","value":"edU"},{"name":"no","type":"int","value":1},{"name":"zM","type":"int","value":9}],"gid":14,"width":55,"height":38},{"id":31,"x":-519,"y":-73,"visible":true,"properties":[{"name":"layer","type":"int","value":2},{"name":"resource_index","type":"int","value":9},{"name":"u","type":"string","value":"edD"},{"name":"no","type":"int","value":0},{"name":"zM","type":"int","value":9}],"gid":9,"width":48,"height":17},{"id":32,"x":-1059,"y":-73,"visible":true,"properties":[{"name":"layer","type":"int","value":2},{"name":"resource_index","type":"int","value":10},{"name":"u","type":"string","value":"edD"},{"name":"no","type":"int","value":0},{"name":"zM","type":"int","value":9}],"gid":9,"width":48,"height":17},{"id":33,"x":-1064,"y":-89,"visible":true,"properties":[{"name":"layer","type":"int","value":2},{"name":"resource_index","type":"int","value":11},{"name":"u","type":"string","value":"edU"},{"name":"no","type":"int","value":1},{"name":"zM","type":"int","value":9}],"gid":14,"width":55,"height":38},{"id":34,"x":-585,"y":-90,"visible":true,"properties":[{"name":"layer","type":"int","value":2},{"name":"resource_index","type":"int","value":12},{"name":"u","type":"string","value":"enH0"},{"name":"no","type":"int","value":0},{"name":"zM","type":"int","value":9}],"gid":11,"width":90,"height":38},{"id":35,"x":-585,"y":-64,"visible":true,"properties":[{"name":"layer","type":"int","value":2},{"name":"resource_index","type":"int","value":13},{"name":"u","type":"string","value":"enH1"},{"name":"no","type":"int","value":1},{"name":"zM","type":"int","value":9}],"gid":13,"width":90,"height":26},{"id":36,"x":-675,"y":-90,"visible":true,"properties":[{"name":"layer","type":"int","value":2},{"name":"resource_index","type":"int","value":14},{"name":"u","type":"string","value":"enH0"},{"name":"no","type":"int","value":1},{"name":"zM","type":"int","value":9}],"gid":12,"width":90,"height":39},{"id":37,"x":-675,"y":-64,"visible":true,"properties":[{"name":"layer","type":"int","value":2},{"name":"resource_index","type":"int","value":15},{"name":"u","type":"string","value":"enH1"},{"name":"no","type":"int","value":1},{"name":"zM","type":"int","value":9}],"gid":13,"width":90,"height":26},{"id":38,"x":-609,"y":-253,"visible":true,"properties":[{"name":"layer","type":"int","value":2},{"name":"resource_index","type":"int","value":16},{"name":"u","type":"string","value":"edD"},{"name":"no","type":"int","value":0},{"name":"zM","type":"int","value":15}],"gid":9,"width":48,"height":17},{"id":39,"x":-614,"y":-270,"visible":true,"properties":[{"name":"layer","type":"int","value":2},{"name":"resource_index","type":"int","value":17},{"name":"u","type":"string","value":"edU"},{"name":"no","type":"int","value":0},{"name":"zM","type":"int","value":15}],"gid":8,"width":54,"height":37},{"id":40,"x":-675,"y":-270,"visible":true,"properties":[{"name":"layer","type":"int","value":2},{"name":"resource_index","type":"int","value":18},{"name":"u","type":"string","value":"enH0"},{"name":"no","type":"int","value":1},{"name":"zM","type":"int","value":15}],"gid":12,"width":90,"height":39},{"id":41,"x":-675,"y":-245,"visible":true,"properties":[{"name":"layer","type":"int","value":2},{"name":"resource_index","type":"int","value":19},{"name":"u","type":"string","value":"enH1"},{"name":"no","type":"int","value":0},{"name":"zM","type":"int","value":15}],"gid":10,"width":90,"height":25},{"id":42,"x":-855,"y":-244,"visible":true,"properties":[{"name":"layer","type":"int","value":2},{"name":"resource_index","type":"int","value":20},{"name":"u","type":"string","value":"enH1"},{"name":"no","type":"int","value":1},{"name":"zM","type":"int","value":15}],"gid":13,"width":90,"height":26},{"id":43,"x":-855,"y":-270,"visible":true,"properties":[{"name":"layer","type":"int","value":2},{"name":"resource_index","type":"int","value":21},{"name":"u","type":"string","value":"enH0"},{"name":"no","type":"int","value":0},{"name":"zM","type":"int","value":15}],"gid":11,"width":90,"height":38},{"id":44,"x":-765,"y":-244,"visible":true,"properties":[{"name":"layer","type":"int","value":2},{"name":"resource_index","type":"int","value":22},{"name":"u","type":"string","value":"enH1"},{"name":"no","type":"int","value":1},{"name":"zM","type":"int","value":15}],"gid":13,"width":90,"height":26},{"id":45,"x":-765,"y":-270,"visible":true,"properties":[{"name":"layer","type":"int","value":2},{"name":"resource_index","type":"int","value":23},{"name":"u","type":"string","value":"enH0"},{"name":"no","type":"int","value":1},{"name":"zM","type":"int","value":15}],"gid":12,"width":90,"height":39},{"id":46,"x":-974,"y":-269,"visible":true,"properties":[{"name":"layer","type":"int","value":2},{"name":"resource_index","type":"int","value":24},{"name":"u","type":"string","value":"edU"},{"name":"no","type":"int","value":1},{"name":"zM","type":"int","value":15}],"gid":14,"width":55,"height":38},{"id":47,"x":-969,"y":-253,"visible":true,"properties":[{"name":"layer","type":"int","value":2},{"name":"resource_index","type":"int","value":25},{"name":"u","type":"string","value":"edD"},{"name":"no","type":"int","value":0},{"name":"zM","type":"int","value":15}],"gid":9,"width":48,"height":17},{"id":48,"x":-945,"y":-270,"visible":true,"properties":[{"name":"layer","type":"int","value":2},{"name":"resource_index","type":"int","value":26},{"name":"u","type":"string","value":"enH0"},{"name":"no","type":"int","value":1},{"name":"zM","type":"int","value":15}],"gid":12,"width":90,"height":39},{"id":49,"x":-945,"y":-245,"visible":true,"properties":[{"name":"layer","type":"int","value":2},{"name":"resource_index","type":"int","value":27},{"name":"u","type":"string","value":"enH1"},{"name":"no","type":"int","value":0},{"name":"zM","type":"int","value":15}],"gid":10,"width":90,"height":25}]},{"id":5,"name":"layer_3_obj","type":"objectgroup","visible":true,"opacity":1,"objects":[{"id":130,"x":-992,"y":-84,"visible":true,"properties":[{"name":"layer","type":"int","value":3},{"name":"resource_index","type":"int","value":0},{"name":"oS","type":"string","value":"connect"},{"name":"l0","type":"string","value":"rope"},{"name":"l1","type":"string","value":"3"},{"name":"l2","type":"string","value":"0"},{"name":"z","type":"int","value":3},{"name":"zM","type":"int","value":10},{"name":"f","type":"int","value":0}],"gid":26,"width":18,"height":41},{"id":131,"x":-994,"y":36,"visible":true,"properties":[{"name":"layer","type":"int","value":3},{"name":"resource_index","type":"int","value":1},{"name":"oS","type":"string","value":"connect"},{"name":"l0","type":"string","value":"rope"},{"name":"l1","type":"string","value":"3"},{"name":"l2","type":"string","value":"3"},{"name":"z","type":"int","value":3},{"name":"zM","type":"int","value":8},{"name":"f","type":"int","value":0}],"gid":27,"width":26,"height":120},{"id":132,"x":-991,"y":66,"visible":true,"properties":[{"name":"layer","type":"int","value":3},{"name":"resource_index","type":"int","value":2},{"name":"oS","type":"string","value":"connect"},{"name":"l0","type":"string","value":"rope"},{"name":"l1","type":"string","value":"3"},{"name":"l2","type":"string","value":"1"},{"name":"z","type":"int","value":3},{"name":"zM","type":"int","value":7},{"name":"f","type":"int","value":0}],"gid":28,"width":17,"height":30},{"id":133,"x":-991,"y":96,"visible":true,"properties":[{"name":"layer","type":"int","value":3},{"name":"resource_index","type":"int","value":3},{"name":"oS","type":"string","value":"connect"},{"name":"l0","type":"string","value":"rope"},{"name":"l1","type":"string","value":"3"},{"name":"l2","type":"string","value":"1"},{"name":"z","type":"int","value":3},{"name":"zM","type":"int","value":6},{"name":"f","type":"int","value":0}],"gid":28,"width":17,"height":30},{"id":134,"x":-991,"y":135,"visible":true,"properties":[{"name":"layer","type":"int","value":3},{"name":"resource_index","type":"int","value":4},{"name":"oS","type":"string","value":"connect"},{"name":"l0","type":"string","value":"rope"},{"name":"l1","type":"string","value":"3"},{"name":"l2","type":"string","value":"2"},{"name":"z","type":"int","value":3},{"name":"zM","type":"int","value":5},{"name":"f","type":"int","value":0}],"gid":29,"width":17,"height":39},{"id":135,"x":-725,"y":-269,"visible":true,"properties":[{"name":"layer","type":"int","value":3},{"name":"resource_index","type":"int","value":5},{"name":"oS","type":"string","value":"connect"},{"name":"l0","type":"string","value":"rope"},{"name":"l1","type":"string","value":"3"},{"name":"l2","type":"string","value":"0"},{"name":"z","type":"int","value":3},{"name":"zM","type":"int","value":16},{"name":"f","type":"int","value":0}],"gid":26,"width":18,"height":41},{"id":136,"x":-724,"y":-239,"visible":true,"properties":[{"name":"layer","type":"int","value":3},{"name":"resource_index","type":"int","value":6},{"name":"oS","type":"string","value":"connect"},{"name":"l0","type":"string","value":"rope"},{"name":"l1","type":"string","value":"3"},{"name":"l2","type":"string","value":"1"},{"name":"z","type":"int","value":3},{"name":"zM","type":"int","value":14},{"name":"f","type":"int","value":0}],"gid":28,"width":17,"height":30},{"id":137,"x":-724,"y":-209,"visible":true,"properties":[{"name":"layer","type":"int","value":3},{"name":"resource_index","type":"int","value":7},{"name":"oS","type":"string","value":"connect"},{"name":"l0","type":"string","value":"rope"},{"name":"l1","type":"string","value":"3"},{"name":"l2","type":"string","value":"1"},{"name":"z","type":"int","value":3},{"name":"zM","type":"int","value":13},{"name":"f","type":"int","value":0}],"gid":28,"width":17,"height":30},{"id":138,"x":-724,"y":-170,"visible":true,"properties":[{"name":"layer","type":"int","value":3},{"name":"resource_index","type":"int","value":8},{"name":"oS","type":"string","value":"connect"},{"name":"l0","type":"string","value":"rope"},{"name":"l1","type":"string","value":"3"},{"name":"l2","type":"string","value":"2"},{"name":"z","type":"int","value":3},{"name":"zM","type":"int","value":11},{"name":"f","type":"int","value":0}],"gid":29,"width":17,"height":39}]},{"id":6,"name":"layer_3_tile","type":"objectgroup","visible":true,"opacity":1,"objects":[{"id":82,"x":-1080,"y":240,"visible":true,"properties":[{"name":"layer","type":"int","value":3},{"name":"resource_index","type":"int","value":0},{"name":"u","type":"string","value":"enH0"},{"name":"no","type":"int","value":0},{"name":"zM","type":"int","value":0}],"gid":11,"width":90,"height":38},{"id":83,"x":-900,"y":360,"visible":true,"properties":[{"name":"layer","type":"int","value":3},{"name":"resource_index","type":"int","value":1},{"name":"u","type":"string","value":"bsc"},{"name":"no","type":"int","value":1},{"name":"zM","type":"int","value":0}],"gid":18,"width":90,"height":60},{"id":84,"x":-630,"y":300,"visible":true,"properties":[{"name":"layer","type":"int","value":3},{"name":"resource_index","type":"int","value":2},{"name":"u","type":"string","value":"bsc"},{"name":"no","type":"int","value":3},{"name":"zM","type":"int","value":0}],"gid":15,"width":90,"height":60},{"id":85,"x":-810,"y":300,"visible":true,"properties":[{"name":"layer","type":"int","value":3},{"name":"resource_index","type":"int","value":3},{"name":"u","type":"string","value":"bsc"},{"name":"no","type":"int","value":2},{"name":"zM","type":"int","value":0}],"gid":16,"width":90,"height":60},{"id":86,"x":-900,"y":385,"visible":true,"properties":[{"name":"layer","type":"int","value":3},{"name":"resource_index","type":"int","value":4},{"name":"u","type":"string","value":"enH1"},{"name":"no","type":"int","value":0},{"name":"zM","type":"int","value":0}],"gid":10,"width":90,"height":25},{"id":87,"x":-720,"y":386,"visible":true,"properties":[{"name":"layer","type":"int","value":3},{"name":"resource_index","type":"int","value":5},{"name":"u","type":"string","value":"enH1"},{"name":"no","type":"int","value":1},{"name":"zM","type":"int","value":0}],"gid":13,"width":90,"height":26},{"id":88,"x":-360,"y":360,"visible":true,"properties":[{"name":"layer","type":"int","value":3},{"name":"resource_index","type":"int","value":6},{"name":"u","type":"string","value":"bsc"},{"name":"no","type":"int","value":0},{"name":"zM","type":"int","value":0}],"gid":19,"width":90,"height":60},{"id":89,"x":-540,"y":240,"visible":true,"properties":[{"name":"layer","type":"int","value":3},{"name":"resource_index","type":"int","value":7},{"name":"u","type":"string","value":"enH0"},{"name":"no","type":"int","value":1},{"name":"zM","type":"int","value":0}],"gid":12,"width":90,"height":39},{"id":90,"x":-720,"y":240,"visible":true,"properties":[{"name":"layer","type":"int","value":3},{"name":"resource_index","type":"int","value":8},{"name":"u","type":"string","value":"enH0"},{"name":"no","type":"int","value":1},{"name":"zM","type":"int","value":0}],"gid":12,"width":90,"height":39},{"id":91,"x":-810,"y":240,"visible":true,"properties":[{"name":"layer","type":"int","value":3},{"name":"resource_index","type":"int","value":9},{"name":"u","type":"string","value":"enH0"},{"name":"no","type":"int","value":1},{"name":"zM","type":"int","value":0}],"gid":12,"width":90,"height":39},{"id":92,"x":-1170,"y":300,"visible":true,"properties":[{"name":"layer","type":"int","value":3},{"name":"resource_index","type":"int","value":10},{"name":"u","type":"string","value":"bsc"},{"name":"no","type":"int","value":2},{"name":"zM","type":"int","value":0}],"gid":16,"width":90,"height":60},{"id":93,"x":-810,"y":360,"visible":true,"properties":[{"name":"layer","type":"int","value":3},{"name":"resource_index","type":"int","value":11},{"name":"u","type":"string","value":"bsc"},{"name":"no","type":"int","value":0},{"name":"zM","type":"int","value":0}],"gid":19,"width":90,"height":60},{"id":94,"x":-900,"y":240,"visible":true,"properties":[{"name":"layer","type":"int","value":3},{"name":"resource_index","type":"int","value":12},{"name":"u","type":"string","value":"enH0"},{"name":"no","type":"int","value":1},{"name":"zM","type":"int","value":0}],"gid":12,"width":90,"height":39},{"id":95,"x":-990,"y":240,"visible":true,"properties":[{"name":"layer","type":"int","value":3},{"name":"resource_index","type":"int","value":13},{"name":"u","type":"string","value":"enH0"},{"name":"no","type":"int","value":0},{"name":"zM","type":"int","value":0}],"gid":11,"width":90,"height":38},{"id":96,"x":-1199,"y":240,"visible":true,"properties":[{"name":"layer","type":"int","value":3},{"name":"resource_index","type":"int","value":14},{"name":"u","type":"string","value":"edU"},{"name":"no","type":"int","value":0},{"name":"zM","type":"int","value":0}],"gid":8,"width":54,"height":37},{"id":97,"x":-450,"y":240,"visible":true,"properties":[{"name":"layer","type":"int","value":3},{"name":"resource_index","type":"int","value":15},{"name":"u","type":"string","value":"enH0"},{"name":"no","type":"int","value":0},{"name":"zM","type":"int","value":0}],"gid":11,"width":90,"height":38},{"id":98,"x":-1170,"y":240,"visible":true,"properties":[{"name":"layer","type":"int","value":3},{"name":"resource_index","type":"int","value":16},{"name":"u","type":"string","value":"enH0"},{"name":"no","type":"int","value":1},{"name":"zM","type":"int","value":0}],"gid":12,"width":90,"height":39},{"id":99,"x":-1202,"y":300,"visible":true,"properties":[{"name":"layer","type":"int","value":3},{"name":"resource_index","type":"int","value":17},{"name":"u","type":"string","value":"enV0"},{"name":"no","type":"int","value":0},{"name":"zM","type":"int","value":0}],"gid":24,"width":32,"height":60},{"id":100,"x":-990,"y":386,"visible":true,"properties":[{"name":"layer","type":"int","value":3},{"name":"resource_index","type":"int","value":18},{"name":"u","type":"string","value":"enH1"},{"name":"no","type":"int","value":1},{"name":"zM","type":"int","value":0}],"gid":13,"width":90,"height":26},{"id":101,"x":-1170,"y":360,"visible":true,"properties":[{"name":"layer","type":"int","value":3},{"name":"resource_index","type":"int","value":19},{"name":"u","type":"string","value":"bsc"},{"name":"no","type":"int","value":2},{"name":"zM","type":"int","value":0}],"gid":16,"width":90,"height":60},{"id":102,"x":-630,"y":360,"visible":true,"properties":[{"name":"layer","type":"int","value":3},{"name":"resource_index","type":"int","value":20},{"name":"u","type":"string","value":"bsc"},{"name":"no","type":"int","value":1},{"name":"zM","type":"int","value":0}],"gid":18,"width":90,"height":60},{"id":103,"x":-450,"y":385,"visible":true,"properties":[{"name":"layer","type":"int","value":3},{"name":"resource_index","type":"int","value":21},{"name":"u","type":"string","value":"enH1"},{"name":"no","type":"int","value":0},{"name":"zM","type":"int","value":0}],"gid":10,"width":90,"height":25},{"id":104,"x":-1080,"y":300,"visible":true,"properties":[{"name":"layer","type":"int","value":3},{"name":"resource_index","type":"int","value":22},{"name":"u","type":"string","value":"bsc"},{"name":"no","type":"int","value":0},{"name":"zM","type":"int","value":0}],"gid":19,"width":90,"height":60},{"id":105,"x":-1080,"y":386,"visible":true,"properties":[{"name":"layer","type":"int","value":3},{"name":"resource_index","type":"int","value":23},{"name":"u","type":"string","value":"enH1"},{"name":"no","type":"int","value":1},{"name":"zM","type":"int","value":0}],"gid":13,"width":90,"height":26},{"id":106,"x":-1194,"y":377,"visible":true,"properties":[{"name":"layer","type":"int","value":3},{"name":"resource_index","type":"int","value":24},{"name":"u","type":"string","value":"edD"},{"name":"no","type":"int","value":0},{"name":"zM","type":"int","value":0}],"gid":9,"width":48,"height":17},{"id":107,"x":-720,"y":360,"visible":true,"properties":[{"name":"layer","type":"int","value":3},{"name":"resource_index","type":"int","value":25},{"name":"u","type":"string","value":"bsc"},{"name":"no","type":"int","value":0},{"name":"zM","type":"int","value":0}],"gid":19,"width":90,"height":60},{"id":108,"x":-810,"y":385,"visible":true,"properties":[{"name":"layer","type":"int","value":3},{"name":"resource_index","type":"int","value":26},{"name":"u","type":"string","value":"enH1"},{"name":"no","type":"int","value":0},{"name":"zM","type":"int","value":0}],"gid":10,"width":90,"height":25},{"id":109,"x":-630,"y":240,"visible":true,"properties":[{"name":"layer","type":"int","value":3},{"name":"resource_index","type":"int","value":27},{"name":"u","type":"string","value":"enH0"},{"name":"no","type":"int","value":1},{"name":"zM","type":"int","value":0}],"gid":12,"width":90,"height":39},{"id":110,"x":-900,"y":300,"visible":true,"properties":[{"name":"layer","type":"int","value":3},{"name":"resource_index","type":"int","value":28},{"name":"u","type":"string","value":"bsc"},{"name":"no","type":"int","value":2},{"name":"zM","type":"int","value":0}],"gid":16,"width":90,"height":60},{"id":111,"x":-1170,"y":386,"visible":true,"properties":[{"name":"layer","type":"int","value":3},{"name":"resource_index","type":"int","value":29},{"name":"u","type":"string","value":"enH1"},{"name":"no","type":"int","value":1},{"name":"zM","type":"int","value":0}],"gid":13,"width":90,"height":26},{"id":112,"x":-1199,"y":360,"visible":true,"properties":[{"name":"layer","type":"int","value":3},{"name":"resource_index","type":"int","value":30},{"name":"u","type":"string","value":"enV0"},{"name":"no","type":"int","value":1},{"name":"zM","type":"int","value":0}],"gid":20,"width":29,"height":60},{"id":113,"x":-540,"y":385,"visible":true,"properties":[{"name":"layer","type":"int","value":3},{"name":"resource_index","type":"int","value":31},{"name":"u","type":"string","value":"enH1"},{"name":"no","type":"int","value":0},{"name":"zM","type":"int","value":0}],"gid":10,"width":90,"height":25},{"id":114,"x":-720,"y":300,"visible":true,"properties":[{"name":"layer","type":"int","value":3},{"name":"resource_index","type":"int","value":32},{"name":"u","type":"string","value":"bsc"},{"name":"no","type":"int","value":0},{"name":"zM","type":"int","value":0}],"gid":19,"width":90,"height":60},{"id":115,"x":-990,"y":300,"visible":true,"properties":[{"name":"layer","type":"int","value":3},{"name":"resource_index","type":"int","value":33},{"name":"u","type":"string","value":"bsc"},{"name":"no","type":"int","value":4},{"name":"zM","type":"int","value":0}],"gid":17,"width":90,"height":60},{"id":116,"x":-540,"y":360,"visible":true,"properties":[{"name":"layer","type":"int","value":3},{"name":"resource_index","type":"int","value":34},{"name":"u","type":"string","value":"bsc"},{"name":"no","type":"int","value":4},{"name":"zM","type":"int","value":0}],"gid":17,"width":90,"height":60},{"id":117,"x":-360,"y":385,"visible":true,"properties":[{"name":"layer","type":"int","value":3},{"name":"resource_index","type":"int","value":35},{"name":"u","type":"string","value":"enH1"},{"name":"no","type":"int","value":0},{"name":"zM","type":"int","value":0}],"gid":10,"width":90,"height":25},{"id":118,"x":-630,"y":385,"visible":true,"properties":[{"name":"layer","type":"int","value":3},{"name":"resource_index","type":"int","value":36},{"name":"u","type":"string","value":"enH1"},{"name":"no","type":"int","value":0},{"name":"zM","type":"int","value":0}],"gid":10,"width":90,"height":25},{"id":119,"x":-1080,"y":360,"visible":true,"properties":[{"name":"layer","type":"int","value":3},{"name":"resource_index","type":"int","value":37},{"name":"u","type":"string","value":"bsc"},{"name":"no","type":"int","value":4},{"name":"zM","type":"int","value":0}],"gid":17,"width":90,"height":60},{"id":120,"x":-450,"y":300,"visible":true,"properties":[{"name":"layer","type":"int","value":3},{"name":"resource_index","type":"int","value":38},{"name":"u","type":"string","value":"bsc"},{"name":"no","type":"int","value":0},{"name":"zM","type":"int","value":0}],"gid":19,"width":90,"height":60},{"id":121,"x":-450,"y":360,"visible":true,"properties":[{"name":"layer","type":"int","value":3},{"name":"resource_index","type":"int","value":39},{"name":"u","type":"string","value":"bsc"},{"name":"no","type":"int","value":1},{"name":"zM","type":"int","value":0}],"gid":18,"width":90,"height":60},{"id":122,"x":-540,"y":300,"visible":true,"properties":[{"name":"layer","type":"int","value":3},{"name":"resource_index","type":"int","value":40},{"name":"u","type":"string","value":"bsc"},{"name":"no","type":"int","value":0},{"name":"zM","type":"int","value":0}],"gid":19,"width":90,"height":60},{"id":123,"x":-990,"y":360,"visible":true,"properties":[{"name":"layer","type":"int","value":3},{"name":"resource_index","type":"int","value":41},{"name":"u","type":"string","value":"bsc"},{"name":"no","type":"int","value":4},{"name":"zM","type":"int","value":0}],"gid":17,"width":90,"height":60},{"id":124,"x":-360,"y":300,"visible":true,"properties":[{"name":"layer","type":"int","value":3},{"name":"resource_index","type":"int","value":42},{"name":"u","type":"string","value":"bsc"},{"name":"no","type":"int","value":1},{"name":"zM","type":"int","value":0}],"gid":18,"width":90,"height":60},{"id":125,"x":-360,"y":240,"visible":true,"properties":[{"name":"layer","type":"int","value":3},{"name":"resource_index","type":"int","value":43},{"name":"u","type":"string","value":"enH0"},{"name":"no","type":"int","value":1},{"name":"zM","type":"int","value":0}],"gid":12,"width":90,"height":39},{"id":126,"x":-299,"y":241,"visible":true,"properties":[{"name":"layer","type":"int","value":3},{"name":"resource_index","type":"int","value":44},{"name":"u","type":"string","value":"edU"},{"name":"no","type":"int","value":1},{"name":"zM","type":"int","value":0}],"gid":14,"width":55,"height":38},{"id":127,"x":-270,"y":300,"visible":true,"properties":[{"name":"layer","type":"int","value":3},{"name":"resource_index","type":"int","value":45},{"name":"u","type":"string","value":"enV1"},{"name":"no","type":"int","value":0},{"name":"zM","type":"int","value":0}],"gid":25,"width":29,"height":60},{"id":128,"x":-270,"y":360,"visible":true,"properties":[{"name":"layer","type":"int","value":3},{"name":"resource_index","type":"int","value":46},{"name":"u","type":"string","value":"enV1"},{"name":"no","type":"int","value":1},{"name":"zM","type":"int","value":0}],"gid":23,"width":29,"height":60},{"id":129,"x":-294,"y":377,"visible":true,"properties":[{"name":"layer","type":"int","value":3},{"name":"resource_index","type":"int","value":47},{"name":"u","type":"string","value":"edD"},{"name":"no","type":"int","value":0},{"name":"zM","type":"int","value":0}],"gid":9,"width":48,"height":17}]},{"id":7,"name":"layer_4_obj","type":"objectgroup","visible":true,"opacity":1,"objects":[{"id":139,"x":-450,"y":173,"visible":true,"properties":[{"name":"layer","type":"int","value":4},{"name":"resource_index","type":"int","value":0},{"name":"oS","type":"string","value":"acc1"},{"name":"l0","type":"string","value":"grassySoil"},{"name":"l1","type":"string","value":"nature"},{"name":"l2","type":"string","value":"20"},{"name":"z","type":"int","value":4},{"name":"zM","type":"int","value":3},{"name":"f","type":"int","value":0}],"gid":58,"width":38,"height":16},{"id":140,"x":-468,"y":218,"visible":true,"properties":[{"name":"layer","type":"int","value":4},{"name":"resource_index","type":"int","value":1},{"name":"oS","type":"string","value":"acc1"},{"name":"l0","type":"string","value":"grassySoil"},{"name":"l1","type":"string","value":"nature"},{"name":"l2","type":"string","value":"6"},{"name":"z","type":"int","value":3},{"name":"zM","type":"int","value":3},{"name":"f","type":"int","value":0}],"gid":56,"width":56,"height":52},{"id":141,"x":-1119,"y":220,"visible":true,"properties":[{"name":"layer","type":"int","value":4},{"name":"resource_index","type":"int","value":2},{"name":"oS","type":"string","value":"acc1"},{"name":"l0","type":"string","value":"grassySoil"},{"name":"l1","type":"string","value":"nature"},{"name":"l2","type":"string","value":"17"},{"name":"z","type":"int","value":3},{"name":"zM","type":"int","value":2},{"name":"f","type":"int","value":0}],"gid":63,"width":141,"height":62}]},{"id":8,"name":"background_back_0","type":"imagelayer","visible":true,"opacity":1,"image":"../../images/29098.png","imagewidth":256,"imageheight":256,"offsetx":-128,"offsety":-128,"repeatx":true,"repeaty":true,"parallaxx":1,"parallaxy":1,"properties":[{"name":"a","type":"int","value":255},{"name":"f","type":"int","value":0},{"name":"x","type":"int","value":0},{"name":"y","type":"int","value":0},{"name":"bS","type":"string","value":"grassySoil"},{"name":"cx","type":"int","value":0},{"name":"cy","type":"int","value":0},{"name":"no","type":"int","value":0},{"name":"rx","type":"int","value":0},{"name":"ry","type":"int","value":0},{"name":"ani","type":"int","value":0},{"name":"type","type":"int","value":3},{"name":"front","type":"int","value":0}]},{"id":9,"name":"background_back_1","type":"imagelayer","visible":true,"opacity":1,"image":"../../images/29099.png","imagewidth":1024,"imageheight":579,"offsetx":-569,"offsety":-456,"repeatx":true,"repeaty":false,"parallaxx":1,"parallaxy":1,"properties":[{"name":"a","type":"int","value":255},{"name":"f","type":"int","value":0},{"name":"x","type":"int","value":-57},{"name":"y","type":"int","value":-167},{"name":"bS","type":"string","value":"grassySoil"},{"name":"cx","type":"int","value":0},{"name":"cy","type":"int","value":0},{"name":"no","type":"int","value":1},{"name":"rx","type":"int","value":-5},{"name":"ry","type":"int","value":0},{"name":"ani","type":"int","value":0},{"name":"type","type":"int","value":4},{"name":"front","type":"int","value":0}]},{"id":10,"name":"background_back_2","type":"imagelayer","visible":true,"opacity":1,"image":"../../images/29100.png","imagewidth":2493,"imageheight":340,"offsetx":-879,"offsety":-51,"repeatx":false,"repeaty":false,"parallaxx":1,"parallaxy":1,"properties":[{"name":"a","type":"int","value":255},{"name":"f","type":"int","value":0},{"name":"x","type":"int","value":367},{"name":"y","type":"int","value":119},{"name":"bS","type":"string","value":"grassySoil"},{"name":"cx","type":"int","value":0},{"name":"cy","type":"int","value":0},{"name":"no","type":"int","value":2},{"name":"rx","type":"int","value":-10},{"name":"ry","type":"int","value":-10},{"name":"ani","type":"int","value":0},{"name":"type","type":"int","value":0},{"name":"front","type":"int","value":0}]},{"id":11,"name":"background_back_3","type":"imagelayer","visible":true,"opacity":1,"image":"../../images/29101.png","imagewidth":315,"imageheight":268,"offsetx":89,"offsety":-319,"repeatx":false,"repeaty":false,"parallaxx":1,"parallaxy":1,"properties":[{"name":"a","type":"int","value":255},{"name":"f","type":"int","value":0},{"name":"x","type":"int","value":246},{"name":"y","type":"int","value":-185},{"name":"bS","type":"string","value":"grassySoil"},{"name":"cx","type":"int","value":0},{"name":"cy","type":"int","value":0},{"name":"no","type":"int","value":3},{"name":"rx","type":"int","value":-10},{"name":"ry","type":"int","value":-10},{"name":"ani","type":"int","value":0},{"name":"type","type":"int","value":0},{"name":"front","type":"int","value":0}]},{"id":12,"name":"background_back_4","type":"imagelayer","visible":true,"opacity":1,"image":"../../images/29104.png","imagewidth":1024,"imageheight":294,"offsetx":-577,"offsety":14,"repeatx":false,"repeaty":false,"parallaxx":1,"parallaxy":1,"properties":[{"name":"a","type":"int","value":255},{"name":"f","type":"int","value":0},{"name":"x","type":"int","value":-65},{"name":"y","type":"int","value":161},{"name":"bS","type":"string","value":"grassySoil"},{"name":"cx","type":"int","value":0},{"name":"cy","type":"int","value":0},{"name":"no","type":"int","value":6},{"name":"rx","type":"int","value":-20},{"name":"ry","type":"int","value":-15},{"name":"ani","type":"int","value":0},{"name":"type","type":"int","value":0},{"name":"front","type":"int","value":0}]},{"id":13,"name":"background_back_5","type":"imagelayer","visible":true,"opacity":1,"image":"../../images/29102.png","imagewidth":1024,"imageheight":257,"offsetx":446,"offsety":51,"repeatx":false,"repeaty":false,"parallaxx":1,"parallaxy":1,"properties":[{"name":"a","type":"int","value":255},{"name":"f","type":"int","value":0},{"name":"x","type":"int","value":958},{"name":"y","type":"int","value":179},{"name":"bS","type":"string","value":"grassySoil"},{"name":"cx","type":"int","value":0},{"name":"cy","type":"int","value":0},{"name":"no","type":"int","value":4},{"name":"rx","type":"int","value":-20},{"name":"ry","type":"int","value":-15},{"name":"ani","type":"int","value":0},{"name":"type","type":"int","value":0},{"name":"front","type":"int","value":0}]},{"id":14,"name":"background_back","type":"objectgroup","visible":true,"opacity":1,"objects":[{"id":142,"x":-57,"y":-167,"visible":true,"properties":[{"name":"image_layer_name","type":"string","value":"background_back_1"},{"name":"a","type":"int","value":255},{"name":"f","type":"int","value":0},{"name":"x","type":"int","value":-57},{"name":"y","type":"int","value":-167},{"name":"bS","type":"string","value":"grassySoil"},{"name":"cx","type":"int","value":0},{"name":"cy","type":"int","value":0},{"name":"no","type":"int","value":1},{"name":"rx","type":"int","value":-5},{"name":"ry","type":"int","value":0},{"name":"ani","type":"int","value":0},{"name":"type","type":"int","value":4},{"name":"front","type":"int","value":0}],"point":true}]},{"id":15,"name":"portal","type":"objectgroup","visible":true,"opacity":1,"objects":[{"id":143,"x":-1086,"y":123,"visible":true,"properties":[{"name":"x","type":"int","value":-1086},{"name":"y","type":"int","value":123},{"name":"pn","type":"string","value":"sp"},{"name":"pt","type":"int","value":0},{"name":"tm","type":"int","value":999999999},{"name":"tn","type":"string","value":""}],"point":true},{"id":144,"x":-805,"y":-160,"visible":true,"properties":[{"name":"x","type":"int","value":-805},{"name":"y","type":"int","value":-160},{"name":"pn","type":"string","value":"sp"},{"name":"pt","type":"int","value":0},{"name":"tm","type":"int","value":999999999},{"name":"tn","type":"string","value":""}],"point":true},{"id":145,"x":-805,"y":-345,"visible":true,"properties":[{"name":"x","type":"int","value":-805},{"name":"y","type":"int","value":-345},{"name":"pn","type":"string","value":"sp"},{"name":"pt","type":"int","value":0},{"name":"tm","type":"int","value":999999999},{"name":"tn","type":"string","value":""}],"point":true},{"id":146,"x":-675,"y":-480,"visible":true,"properties":[{"name":"x","type":"int","value":-675},{"name":"y","type":"int","value":-480},{"name":"pn","type":"string","value":"sp"},{"name":"pt","type":"int","value":0},{"name":"tm","type":"int","value":999999999},{"name":"tn","type":"string","value":""}],"point":true},{"id":147,"x":-809,"y":-446,"visible":true,"properties":[{"name":"x","type":"int","value":-809},{"name":"y","type":"int","value":-446},{"name":"pn","type":"string","value":"out00"},{"name":"pt","type":"int","value":2},{"name":"tm","type":"int","value":100000004},{"name":"tn","type":"string","value":"in00"}],"point":true}]},{"id":16,"name":"life","type":"objectgroup","visible":true,"opacity":1,"objects":[{"id":148,"x":-649,"y":204,"visible":true,"properties":[{"name":"f","type":"int","value":0},{"name":"x","type":"int","value":-649},{"name":"y","type":"int","value":204},{"name":"cy","type":"int","value":215},{"name":"fh","type":"int","value":29},{"name":"id","type":"int","value":6130101},{"name":"rx0","type":"int","value":-1189},{"name":"rx1","type":"int","value":-251},{"name":"type","type":"string","value":"m"},{"name":"mobTime","type":"int","value":1800}],"point":true},{"id":149,"x":-856,"y":-158,"visible":true,"properties":[{"name":"f","type":"int","value":0},{"name":"x","type":"int","value":-856},{"name":"y","type":"int","value":-158},{"name":"cy","type":"int","value":-115},{"name":"fh","type":"int","value":9},{"name":"id","type":"int","value":3000002},{"name":"rx0","type":"int","value":-1054},{"name":"rx1","type":"int","value":-476},{"name":"type","type":"string","value":"m"},{"name":"mobTime","type":"int","value":180}],"point":true},{"id":150,"x":-536,"y":157,"visible":true,"properties":[{"name":"f","type":"int","value":0},{"name":"x","type":"int","value":-536},{"name":"y","type":"int","value":157},{"name":"cy","type":"int","value":215},{"name":"fh","type":"int","value":28},{"name":"id","type":"int","value":3000002},{"name":"rx0","type":"int","value":-1189},{"name":"rx1","type":"int","value":-251},{"name":"type","type":"string","value":"m"},{"name":"mobTime","type":"int","value":180}],"point":true},{"id":151,"x":-919,"y":-308,"visible":true,"properties":[{"name":"f","type":"int","value":0},{"name":"x","type":"int","value":-919},{"name":"y","type":"int","value":-308},{"name":"cy","type":"int","value":-295},{"name":"fh","type":"int","value":25},{"name":"id","type":"int","value":2110200},{"name":"rx0","type":"int","value":-964},{"name":"rx1","type":"int","value":-566},{"name":"hide","type":"int","value":0},{"name":"type","type":"string","value":"m"},{"name":"mobTime","type":"int","value":0}],"point":true},{"id":152,"x":-785,"y":-308,"visible":true,"properties":[{"name":"f","type":"int","value":0},{"name":"x","type":"int","value":-785},{"name":"y","type":"int","value":-308},{"name":"cy","type":"int","value":-295},{"name":"fh","type":"int","value":22},{"name":"id","type":"int","value":2110200},{"name":"rx0","type":"int","value":-964},{"name":"rx1","type":"int","value":-566},{"name":"hide","type":"int","value":0},{"name":"type","type":"string","value":"m"},{"name":"mobTime","type":"int","value":0}],"point":true},{"id":153,"x":-634,"y":-306,"visible":true,"properties":[{"name":"f","type":"int","value":0},{"name":"x","type":"int","value":-634},{"name":"y","type":"int","value":-306},{"name":"cy","type":"int","value":-295},{"name":"fh","type":"int","value":21},{"name":"id","type":"int","value":2110200},{"name":"rx0","type":"int","value":-964},{"name":"rx1","type":"int","value":-566},{"name":"hide","type":"int","value":0},{"name":"type","type":"string","value":"m"},{"name":"mobTime","type":"int","value":0}],"point":true},{"id":154,"x":-909,"y":-141,"visible":true,"properties":[{"name":"f","type":"int","value":0},{"name":"x","type":"int","value":-909},{"name":"y","type":"int","value":-141},{"name":"cy","type":"int","value":-115},{"name":"fh","type":"int","value":9},{"name":"id","type":"int","value":2110200},{"name":"rx0","type":"int","value":-1054},{"name":"rx1","type":"int","value":-476},{"name":"hide","type":"int","value":0},{"name":"type","type":"string","value":"m"},{"name":"mobTime","type":"int","value":0}],"point":true},{"id":155,"x":-788,"y":-157,"visible":true,"properties":[{"name":"f","type":"int","value":0},{"name":"x","type":"int","value":-788},{"name":"y","type":"int","value":-157},{"name":"cy","type":"int","value":-115},{"name":"fh","type":"int","value":10},{"name":"id","type":"int","value":2110200},{"name":"rx0","type":"int","value":-1054},{"name":"rx1","type":"int","value":-476},{"name":"hide","type":"int","value":0},{"name":"type","type":"string","value":"m"},{"name":"mobTime","type":"int","value":0}],"point":true},{"id":156,"x":-634,"y":-142,"visible":true,"properties":[{"name":"f","type":"int","value":0},{"name":"x","type":"int","value":-634},{"name":"y","type":"int","value":-142},{"name":"cy","type":"int","value":-115},{"name":"fh","type":"int","value":18},{"name":"id","type":"int","value":2110200},{"name":"rx0","type":"int","value":-1054},{"name":"rx1","type":"int","value":-476},{"name":"hide","type":"int","value":0},{"name":"type","type":"string","value":"m"},{"name":"mobTime","type":"int","value":0}],"point":true},{"id":157,"x":-542,"y":-138,"visible":true,"properties":[{"name":"f","type":"int","value":0},{"name":"x","type":"int","value":-542},{"name":"y","type":"int","value":-138},{"name":"cy","type":"int","value":-115},{"name":"fh","type":"int","value":17},{"name":"id","type":"int","value":2110200},{"name":"rx0","type":"int","value":-1054},{"name":"rx1","type":"int","value":-476},{"name":"hide","type":"int","value":0},{"name":"type","type":"string","value":"m"},{"name":"mobTime","type":"int","value":0}],"point":true},{"id":158,"x":-1142,"y":193,"visible":true,"properties":[{"name":"f","type":"int","value":0},{"name":"x","type":"int","value":-1142},{"name":"y","type":"int","value":193},{"name":"cy","type":"int","value":215},{"name":"fh","type":"int","value":34},{"name":"id","type":"int","value":2110200},{"name":"rx0","type":"int","value":-1189},{"name":"rx1","type":"int","value":-251},{"name":"hide","type":"int","value":0},{"name":"type","type":"string","value":"m"},{"name":"mobTime","type":"int","value":0}],"point":true},{"id":159,"x":-1022,"y":178,"visible":true,"properties":[{"name":"f","type":"int","value":0},{"name":"x","type":"int","value":-1022},{"name":"y","type":"int","value":178},{"name":"cy","type":"int","value":215},{"name":"fh","type":"int","value":27},{"name":"id","type":"int","value":2110200},{"name":"rx0","type":"int","value":-1189},{"name":"rx1","type":"int","value":-251},{"name":"hide","type":"int","value":0},{"name":"type","type":"string","value":"m"},{"name":"mobTime","type":"int","value":0}],"point":true},{"id":160,"x":-925,"y":173,"visible":true,"properties":[{"name":"f","type":"int","value":0},{"name":"x","type":"int","value":-925},{"name":"y","type":"int","value":173},{"name":"cy","type":"int","value":215},{"name":"fh","type":"int","value":32},{"name":"id","type":"int","value":2110200},{"name":"rx0","type":"int","value":-1189},{"name":"rx1","type":"int","value":-251},{"name":"hide","type":"int","value":0},{"name":"type","type":"string","value":"m"},{"name":"mobTime","type":"int","value":0}],"point":true},{"id":161,"x":-814,"y":176,"visible":true,"properties":[{"name":"f","type":"int","value":0},{"name":"x","type":"int","value":-814},{"name":"y","type":"int","value":176},{"name":"cy","type":"int","value":215},{"name":"fh","type":"int","value":31},{"name":"id","type":"int","value":2110200},{"name":"rx0","type":"int","value":-1189},{"name":"rx1","type":"int","value":-251},{"name":"hide","type":"int","value":0},{"name":"type","type":"string","value":"m"},{"name":"mobTime","type":"int","value":0}],"point":true},{"id":162,"x":-329,"y":189,"visible":true,"properties":[{"name":"f","type":"int","value":0},{"name":"x","type":"int","value":-329},{"name":"y","type":"int","value":189},{"name":"cy","type":"int","value":215},{"name":"fh","type":"int","value":40},{"name":"id","type":"int","value":2110200},{"name":"rx0","type":"int","value":-1189},{"name":"rx1","type":"int","value":-251},{"name":"hide","type":"int","value":0},{"name":"type","type":"string","value":"m"},{"name":"mobTime","type":"int","value":0}],"point":true},{"id":163,"x":-534,"y":162,"visible":true,"properties":[{"name":"f","type":"int","value":0},{"name":"x","type":"int","value":-534},{"name":"y","type":"int","value":162},{"name":"cy","type":"int","value":215},{"name":"fh","type":"int","value":28},{"name":"id","type":"int","value":2110200},{"name":"rx0","type":"int","value":-1189},{"name":"rx1","type":"int","value":-251},{"name":"hide","type":"int","value":0},{"name":"type","type":"string","value":"m"},{"name":"mobTime","type":"int","value":0}],"point":true}]},{"id":17,"name":"foothold","type":"objectgroup","visible":true,"opacity":1,"objects":[{"id":164,"x":-669,"y":-445,"visible":true,"properties":[{"name":"layer","type":"int","value":1},{"name":"group","type":"int","value":20},{"name":"id","type":"int","value":1},{"name":"fh_layer","type":"int","value":1},{"name":"fh_group","type":"int","value":20},{"name":"fh_id","type":"int","value":1},{"name":"x1","type":"int","value":-669},{"name":"x2","type":"int","value":-591},{"name":"y1","type":"int","value":-445},{"name":"y2","type":"int","value":-445},{"name":"next","type":"int","value":2},{"name":"prev","type":"int","value":3}],"polyline":[{"x":0,"y":0},{"x":78,"y":0}]},{"id":165,"x":-591,"y":-445,"visible":true,"properties":[{"name":"layer","type":"int","value":1},{"name":"group","type":"int","value":20},{"name":"id","type":"int","value":2},{"name":"fh_layer","type":"int","value":1},{"name":"fh_group","type":"int","value":20},{"name":"fh_id","type":"int","value":2},{"name":"x1","type":"int","value":-591},{"name":"x2","type":"int","value":-591},{"name":"y1","type":"int","value":-445},{"name":"y2","type":"int","value":-420},{"name":"next","type":"int","value":0},{"name":"prev","type":"int","value":1}],"polyline":[{"x":0,"y":0},{"x":0,"y":25}]},{"id":166,"x":-720,"y":-445,"visible":true,"properties":[{"name":"layer","type":"int","value":1},{"name":"group","type":"int","value":20},{"name":"id","type":"int","value":3},{"name":"fh_layer","type":"int","value":1},{"name":"fh_group","type":"int","value":20},{"name":"fh_id","type":"int","value":3},{"name":"x1","type":"int","value":-720},{"name":"x2","type":"int","value":-669},{"name":"y1","type":"int","value":-445},{"name":"y2","type":"int","value":-445},{"name":"next","type":"int","value":1},{"name":"prev","type":"int","value":4}],"polyline":[{"x":0,"y":0},{"x":51,"y":0}]},{"id":167,"x":-810,"y":-445,"visible":true,"properties":[{"name":"layer","type":"int","value":1},{"name":"group","type":"int","value":20},{"name":"id","type":"int","value":4},{"name":"fh_layer","type":"int","value":1},{"name":"fh_group","type":"int","value":20},{"name":"fh_id","type":"int","value":4},{"name":"x1","type":"int","value":-810},{"name":"x2","type":"int","value":-720},{"name":"y1","type":"int","value":-445},{"name":"y2","type":"int","value":-445},{"name":"next","type":"int","value":3},{"name":"prev","type":"int","value":7}],"polyline":[{"x":0,"y":0},{"x":90,"y":0}]},{"id":168,"x":-939,"y":-420,"visible":true,"properties":[{"name":"layer","type":"int","value":1},{"name":"group","type":"int","value":20},{"name":"id","type":"int","value":5},{"name":"fh_layer","type":"int","value":1},{"name":"fh_group","type":"int","value":20},{"name":"fh_id","type":"int","value":5},{"name":"x1","type":"int","value":-939},{"name":"x2","type":"int","value":-939},{"name":"y1","type":"int","value":-420},{"name":"y2","type":"int","value":-445},{"name":"next","type":"int","value":6},{"name":"prev","type":"int","value":0}],"polyline":[{"x":0,"y":0},{"x":0,"y":-25}]},{"id":169,"x":-939,"y":-445,"visible":true,"properties":[{"name":"layer","type":"int","value":1},{"name":"group","type":"int","value":20},{"name":"id","type":"int","value":6},{"name":"fh_layer","type":"int","value":1},{"name":"fh_group","type":"int","value":20},{"name":"fh_id","type":"int","value":6},{"name":"x1","type":"int","value":-939},{"name":"x2","type":"int","value":-861},{"name":"y1","type":"int","value":-445},{"name":"y2","type":"int","value":-445},{"name":"next","type":"int","value":7},{"name":"prev","type":"int","value":5}],"polyline":[{"x":0,"y":0},{"x":78,"y":0}]},{"id":170,"x":-861,"y":-445,"visible":true,"properties":[{"name":"layer","type":"int","value":1},{"name":"group","type":"int","value":20},{"name":"id","type":"int","value":7},{"name":"fh_layer","type":"int","value":1},{"name":"fh_group","type":"int","value":20},{"name":"fh_id","type":"int","value":7},{"name":"x1","type":"int","value":-861},{"name":"x2","type":"int","value":-810},{"name":"y1","type":"int","value":-445},{"name":"y2","type":"int","value":-445},{"name":"next","type":"int","value":4},{"name":"prev","type":"int","value":6}],"polyline":[{"x":0,"y":0},{"x":51,"y":0}]},{"id":171,"x":-1035,"y":-115,"visible":true,"properties":[{"name":"layer","type":"int","value":2},{"name":"group","type":"int","value":9},{"name":"id","type":"int","value":8},{"name":"fh_layer","type":"int","value":2},{"name":"fh_group","type":"int","value":9},{"name":"fh_id","type":"int","value":8},{"name":"x1","type":"int","value":-1035},{"name":"x2","type":"int","value":-996},{"name":"y1","type":"int","value":-115},{"name":"y2","type":"int","value":-115},{"name":"next","type":"int","value":16},{"name":"prev","type":"int","value":15}],"polyline":[{"x":0,"y":0},{"x":39,"y":0}]},{"id":172,"x":-945,"y":-115,"visible":true,"properties":[{"name":"layer","type":"int","value":2},{"name":"group","type":"int","value":9},{"name":"id","type":"int","value":9},{"name":"fh_layer","type":"int","value":2},{"name":"fh_group","type":"int","value":9},{"name":"fh_id","type":"int","value":9},{"name":"x1","type":"int","value":-945},{"name":"x2","type":"int","value":-855},{"name":"y1","type":"int","value":-115},{"name":"y2","type":"int","value":-115},{"name":"next","type":"int","value":10},{"name":"prev","type":"int","value":16}],"polyline":[{"x":0,"y":0},{"x":90,"y":0}]},{"id":173,"x":-855,"y":-115,"visible":true,"properties":[{"name":"layer","type":"int","value":2},{"name":"group","type":"int","value":9},{"name":"id","type":"int","value":10},{"name":"fh_layer","type":"int","value":2},{"name":"fh_group","type":"int","value":9},{"name":"fh_id","type":"int","value":10},{"name":"x1","type":"int","value":-855},{"name":"x2","type":"int","value":-765},{"name":"y1","type":"int","value":-115},{"name":"y2","type":"int","value":-115},{"name":"next","type":"int","value":11},{"name":"prev","type":"int","value":9}],"polyline":[{"x":0,"y":0},{"x":90,"y":0}]},{"id":174,"x":-765,"y":-115,"visible":true,"properties":[{"name":"layer","type":"int","value":2},{"name":"group","type":"int","value":9},{"name":"id","type":"int","value":11},{"name":"fh_layer","type":"int","value":2},{"name":"fh_group","type":"int","value":9},{"name":"fh_id","type":"int","value":11},{"name":"x1","type":"int","value":-765},{"name":"x2","type":"int","value":-675},{"name":"y1","type":"int","value":-115},{"name":"y2","type":"int","value":-115},{"name":"next","type":"int","value":18},{"name":"prev","type":"int","value":10}],"polyline":[{"x":0,"y":0},{"x":90,"y":0}]},{"id":175,"x":-534,"y":-115,"visible":true,"properties":[{"name":"layer","type":"int","value":2},{"name":"group","type":"int","value":9},{"name":"id","type":"int","value":12},{"name":"fh_layer","type":"int","value":2},{"name":"fh_group","type":"int","value":9},{"name":"fh_id","type":"int","value":12},{"name":"x1","type":"int","value":-534},{"name":"x2","type":"int","value":-456},{"name":"y1","type":"int","value":-115},{"name":"y2","type":"int","value":-115},{"name":"next","type":"int","value":13},{"name":"prev","type":"int","value":17}],"polyline":[{"x":0,"y":0},{"x":78,"y":0}]},{"id":176,"x":-456,"y":-115,"visible":true,"properties":[{"name":"layer","type":"int","value":2},{"name":"group","type":"int","value":9},{"name":"id","type":"int","value":13},{"name":"fh_layer","type":"int","value":2},{"name":"fh_group","type":"int","value":9},{"name":"fh_id","type":"int","value":13},{"name":"x1","type":"int","value":-456},{"name":"x2","type":"int","value":-456},{"name":"y1","type":"int","value":-115},{"name":"y2","type":"int","value":-90},{"name":"next","type":"int","value":0},{"name":"prev","type":"int","value":12}],"polyline":[{"x":0,"y":0},{"x":0,"y":25}]},{"id":177,"x":-1074,"y":-90,"visible":true,"properties":[{"name":"layer","type":"int","value":2},{"name":"group","type":"int","value":9},{"name":"id","type":"int","value":14},{"name":"fh_layer","type":"int","value":2},{"name":"fh_group","type":"int","value":9},{"name":"fh_id","type":"int","value":14},{"name":"x1","type":"int","value":-1074},{"name":"x2","type":"int","value":-1074},{"name":"y1","type":"int","value":-90},{"name":"y2","type":"int","value":-115},{"name":"next","type":"int","value":15},{"name":"prev","type":"int","value":0}],"polyline":[{"x":0,"y":0},{"x":0,"y":-25}]},{"id":178,"x":-1074,"y":-115,"visible":true,"properties":[{"name":"layer","type":"int","value":2},{"name":"group","type":"int","value":9},{"name":"id","type":"int","value":15},{"name":"fh_layer","type":"int","value":2},{"name":"fh_group","type":"int","value":9},{"name":"fh_id","type":"int","value":15},{"name":"x1","type":"int","value":-1074},{"name":"x2","type":"int","value":-1035},{"name":"y1","type":"int","value":-115},{"name":"y2","type":"int","value":-115},{"name":"next","type":"int","value":8},{"name":"prev","type":"int","value":14}],"polyline":[{"x":0,"y":0},{"x":39,"y":0}]},{"id":179,"x":-996,"y":-115,"visible":true,"properties":[{"name":"layer","type":"int","value":2},{"name":"group","type":"int","value":9},{"name":"id","type":"int","value":16},{"name":"fh_layer","type":"int","value":2},{"name":"fh_group","type":"int","value":9},{"name":"fh_id","type":"int","value":16},{"name":"x1","type":"int","value":-996},{"name":"x2","type":"int","value":-945},{"name":"y1","type":"int","value":-115},{"name":"y2","type":"int","value":-115},{"name":"next","type":"int","value":9},{"name":"prev","type":"int","value":8}],"polyline":[{"x":0,"y":0},{"x":51,"y":0}]},{"id":180,"x":-585,"y":-115,"visible":true,"properties":[{"name":"layer","type":"int","value":2},{"name":"group","type":"int","value":9},{"name":"id","type":"int","value":17},{"name":"fh_layer","type":"int","value":2},{"name":"fh_group","type":"int","value":9},{"name":"fh_id","type":"int","value":17},{"name":"x1","type":"int","value":-585},{"name":"x2","type":"int","value":-534},{"name":"y1","type":"int","value":-115},{"name":"y2","type":"int","value":-115},{"name":"next","type":"int","value":12},{"name":"prev","type":"int","value":18}],"polyline":[{"x":0,"y":0},{"x":51,"y":0}]},{"id":181,"x":-675,"y":-115,"visible":true,"properties":[{"name":"layer","type":"int","value":2},{"name":"group","type":"int","value":9},{"name":"id","type":"int","value":18},{"name":"fh_layer","type":"int","value":2},{"name":"fh_group","type":"int","value":9},{"name":"fh_id","type":"int","value":18},{"name":"x1","type":"int","value":-675},{"name":"x2","type":"int","value":-585},{"name":"y1","type":"int","value":-115},{"name":"y2","type":"int","value":-115},{"name":"next","type":"int","value":17},{"name":"prev","type":"int","value":11}],"polyline":[{"x":0,"y":0},{"x":90,"y":0}]},{"id":182,"x":-624,"y":-295,"visible":true,"properties":[{"name":"layer","type":"int","value":2},{"name":"group","type":"int","value":15},{"name":"id","type":"int","value":19},{"name":"fh_layer","type":"int","value":2},{"name":"fh_group","type":"int","value":15},{"name":"fh_id","type":"int","value":19},{"name":"x1","type":"int","value":-624},{"name":"x2","type":"int","value":-546},{"name":"y1","type":"int","value":-295},{"name":"y2","type":"int","value":-295},{"name":"next","type":"int","value":20},{"name":"prev","type":"int","value":21}],"polyline":[{"x":0,"y":0},{"x":78,"y":0}]},{"id":183,"x":-546,"y":-295,"visible":true,"properties":[{"name":"layer","type":"int","value":2},{"name":"group","type":"int","value":15},{"name":"id","type":"int","value":20},{"name":"fh_layer","type":"int","value":2},{"name":"fh_group","type":"int","value":15},{"name":"fh_id","type":"int","value":20},{"name":"x1","type":"int","value":-546},{"name":"x2","type":"int","value":-546},{"name":"y1","type":"int","value":-295},{"name":"y2","type":"int","value":-270},{"name":"next","type":"int","value":0},{"name":"prev","type":"int","value":19}],"polyline":[{"x":0,"y":0},{"x":0,"y":25}]},{"id":184,"x":-675,"y":-295,"visible":true,"properties":[{"name":"layer","type":"int","value":2},{"name":"group","type":"int","value":15},{"name":"id","type":"int","value":21},{"name":"fh_layer","type":"int","value":2},{"name":"fh_group","type":"int","value":15},{"name":"fh_id","type":"int","value":21},{"name":"x1","type":"int","value":-675},{"name":"x2","type":"int","value":-624},{"name":"y1","type":"int","value":-295},{"name":"y2","type":"int","value":-295},{"name":"next","type":"int","value":19},{"name":"prev","type":"int","value":23}],"polyline":[{"x":0,"y":0},{"x":51,"y":0}]},{"id":185,"x":-855,"y":-295,"visible":true,"properties":[{"name":"layer","type":"int","value":2},{"name":"group","type":"int","value":15},{"name":"id","type":"int","value":22},{"name":"fh_layer","type":"int","value":2},{"name":"fh_group","type":"int","value":15},{"name":"fh_id","type":"int","value":22},{"name":"x1","type":"int","value":-855},{"name":"x2","type":"int","value":-765},{"name":"y1","type":"int","value":-295},{"name":"y2","type":"int","value":-295},{"name":"next","type":"int","value":23},{"name":"prev","type":"int","value":26}],"polyline":[{"x":0,"y":0},{"x":90,"y":0}]},{"id":186,"x":-765,"y":-295,"visible":true,"properties":[{"name":"layer","type":"int","value":2},{"name":"group","type":"int","value":15},{"name":"id","type":"int","value":23},{"name":"fh_layer","type":"int","value":2},{"name":"fh_group","type":"int","value":15},{"name":"fh_id","type":"int","value":23},{"name":"x1","type":"int","value":-765},{"name":"x2","type":"int","value":-675},{"name":"y1","type":"int","value":-295},{"name":"y2","type":"int","value":-295},{"name":"next","type":"int","value":21},{"name":"prev","type":"int","value":22}],"polyline":[{"x":0,"y":0},{"x":90,"y":0}]},{"id":187,"x":-984,"y":-270,"visible":true,"properties":[{"name":"layer","type":"int","value":2},{"name":"group","type":"int","value":15},{"name":"id","type":"int","value":24},{"name":"fh_layer","type":"int","value":2},{"name":"fh_group","type":"int","value":15},{"name":"fh_id","type":"int","value":24},{"name":"x1","type":"int","value":-984},{"name":"x2","type":"int","value":-984},{"name":"y1","type":"int","value":-270},{"name":"y2","type":"int","value":-295},{"name":"next","type":"int","value":25},{"name":"prev","type":"int","value":0}],"polyline":[{"x":0,"y":0},{"x":0,"y":-25}]},{"id":188,"x":-984,"y":-295,"visible":true,"properties":[{"name":"layer","type":"int","value":2},{"name":"group","type":"int","value":15},{"name":"id","type":"int","value":25},{"name":"fh_layer","type":"int","value":2},{"name":"fh_group","type":"int","value":15},{"name":"fh_id","type":"int","value":25},{"name":"x1","type":"int","value":-984},{"name":"x2","type":"int","value":-906},{"name":"y1","type":"int","value":-295},{"name":"y2","type":"int","value":-295},{"name":"next","type":"int","value":26},{"name":"prev","type":"int","value":24}],"polyline":[{"x":0,"y":0},{"x":78,"y":0}]},{"id":189,"x":-906,"y":-295,"visible":true,"properties":[{"name":"layer","type":"int","value":2},{"name":"group","type":"int","value":15},{"name":"id","type":"int","value":26},{"name":"fh_layer","type":"int","value":2},{"name":"fh_group","type":"int","value":15},{"name":"fh_id","type":"int","value":26},{"name":"x1","type":"int","value":-906},{"name":"x2","type":"int","value":-855},{"name":"y1","type":"int","value":-295},{"name":"y2","type":"int","value":-295},{"name":"next","type":"int","value":22},{"name":"prev","type":"int","value":25}],"polyline":[{"x":0,"y":0},{"x":51,"y":0}]},{"id":190,"x":-1080,"y":215,"visible":true,"properties":[{"name":"layer","type":"int","value":3},{"name":"group","type":"int","value":0},{"name":"id","type":"int","value":27},{"name":"fh_layer","type":"int","value":3},{"name":"fh_group","type":"int","value":0},{"name":"fh_id","type":"int","value":27},{"name":"x1","type":"int","value":-1080},{"name":"x2","type":"int","value":-990},{"name":"y1","type":"int","value":215},{"name":"y2","type":"int","value":215},{"name":"next","type":"int","value":32},{"name":"prev","type":"int","value":36}],"polyline":[{"x":0,"y":0},{"x":90,"y":0}]},{"id":191,"x":-540,"y":215,"visible":true,"properties":[{"name":"layer","type":"int","value":3},{"name":"group","type":"int","value":0},{"name":"id","type":"int","value":28},{"name":"fh_layer","type":"int","value":3},{"name":"fh_group","type":"int","value":0},{"name":"fh_id","type":"int","value":28},{"name":"x1","type":"int","value":-540},{"name":"x2","type":"int","value":-450},{"name":"y1","type":"int","value":215},{"name":"y2","type":"int","value":215},{"name":"next","type":"int","value":35},{"name":"prev","type":"int","value":38}],"polyline":[{"x":0,"y":0},{"x":90,"y":0}]},{"id":192,"x":-720,"y":215,"visible":true,"properties":[{"name":"layer","type":"int","value":3},{"name":"group","type":"int","value":0},{"name":"id","type":"int","value":29},{"name":"fh_layer","type":"int","value":3},{"name":"fh_group","type":"int","value":0},{"name":"fh_id","type":"int","value":29},{"name":"x1","type":"int","value":-720},{"name":"x2","type":"int","value":-630},{"name":"y1","type":"int","value":215},{"name":"y2","type":"int","value":215},{"name":"next","type":"int","value":38},{"name":"prev","type":"int","value":30}],"polyline":[{"x":0,"y":0},{"x":90,"y":0}]},{"id":193,"x":-810,"y":215,"visible":true,"properties":[{"name":"layer","type":"int","value":3},{"name":"group","type":"int","value":0},{"name":"id","type":"int","value":30},{"name":"fh_layer","type":"int","value":3},{"name":"fh_group","type":"int","value":0},{"name":"fh_id","type":"int","value":30},{"name":"x1","type":"int","value":-810},{"name":"x2","type":"int","value":-720},{"name":"y1","type":"int","value":215},{"name":"y2","type":"int","value":215},{"name":"next","type":"int","value":29},{"name":"prev","type":"int","value":31}],"polyline":[{"x":0,"y":0},{"x":90,"y":0}]},{"id":194,"x":-900,"y":215,"visible":true,"properties":[{"name":"layer","type":"int","value":3},{"name":"group","type":"int","value":0},{"name":"id","type":"int","value":31},{"name":"fh_layer","type":"int","value":3},{"name":"fh_group","type":"int","value":0},{"name":"fh_id","type":"int","value":31},{"name":"x1","type":"int","value":-900},{"name":"x2","type":"int","value":-810},{"name":"y1","type":"int","value":215},{"name":"y2","type":"int","value":215},{"name":"next","type":"int","value":30},{"name":"prev","type":"int","value":32}],"polyline":[{"x":0,"y":0},{"x":90,"y":0}]},{"id":195,"x":-990,"y":215,"visible":true,"properties":[{"name":"layer","type":"int","value":3},{"name":"group","type":"int","value":0},{"name":"id","type":"int","value":32},{"name":"fh_layer","type":"int","value":3},{"name":"fh_group","type":"int","value":0},{"name":"fh_id","type":"int","value":32},{"name":"x1","type":"int","value":-990},{"name":"x2","type":"int","value":-900},{"name":"y1","type":"int","value":215},{"name":"y2","type":"int","value":215},{"name":"next","type":"int","value":31},{"name":"prev","type":"int","value":27}],"polyline":[{"x":0,"y":0},{"x":90,"y":0}]},{"id":196,"x":-1209,"y":240,"visible":true,"properties":[{"name":"layer","type":"int","value":3},{"name":"group","type":"int","value":0},{"name":"id","type":"int","value":33},{"name":"fh_layer","type":"int","value":3},{"name":"fh_group","type":"int","value":0},{"name":"fh_id","type":"int","value":33},{"name":"x1","type":"int","value":-1209},{"name":"x2","type":"int","value":-1209},{"name":"y1","type":"int","value":240},{"name":"y2","type":"int","value":215},{"name":"next","type":"int","value":34},{"name":"prev","type":"int","value":37}],"polyline":[{"x":0,"y":0},{"x":0,"y":-25}]},{"id":197,"x":-1209,"y":215,"visible":true,"properties":[{"name":"layer","type":"int","value":3},{"name":"group","type":"int","value":0},{"name":"id","type":"int","value":34},{"name":"fh_layer","type":"int","value":3},{"name":"fh_group","type":"int","value":0},{"name":"fh_id","type":"int","value":34},{"name":"x1","type":"int","value":-1209},{"name":"x2","type":"int","value":-1131},{"name":"y1","type":"int","value":215},{"name":"y2","type":"int","value":215},{"name":"next","type":"int","value":36},{"name":"prev","type":"int","value":33}],"polyline":[{"x":0,"y":0},{"x":78,"y":0}]},{"id":198,"x":-450,"y":215,"visible":true,"properties":[{"name":"layer","type":"int","value":3},{"name":"group","type":"int","value":0},{"name":"id","type":"int","value":35},{"name":"fh_layer","type":"int","value":3},{"name":"fh_group","type":"int","value":0},{"name":"fh_id","type":"int","value":35},{"name":"x1","type":"int","value":-450},{"name":"x2","type":"int","value":-360},{"name":"y1","type":"int","value":215},{"name":"y2","type":"int","value":215},{"name":"next","type":"int","value":40},{"name":"prev","type":"int","value":28}],"polyline":[{"x":0,"y":0},{"x":90,"y":0}]},{"id":199,"x":-1131,"y":215,"visible":true,"properties":[{"name":"layer","type":"int","value":3},{"name":"group","type":"int","value":0},{"name":"id","type":"int","value":36},{"name":"fh_layer","type":"int","value":3},{"name":"fh_group","type":"int","value":0},{"name":"fh_id","type":"int","value":36},{"name":"x1","type":"int","value":-1131},{"name":"x2","type":"int","value":-1080},{"name":"y1","type":"int","value":215},{"name":"y2","type":"int","value":215},{"name":"next","type":"int","value":27},{"name":"prev","type":"int","value":34}],"polyline":[{"x":0,"y":0},{"x":51,"y":0}]},{"id":200,"x":-1209,"y":300,"visible":true,"properties":[{"name":"layer","type":"int","value":3},{"name":"group","type":"int","value":0},{"name":"id","type":"int","value":37},{"name":"fh_layer","type":"int","value":3},{"name":"fh_group","type":"int","value":0},{"name":"fh_id","type":"int","value":37},{"name":"x1","type":"int","value":-1209},{"name":"x2","type":"int","value":-1209},{"name":"y1","type":"int","value":300},{"name":"y2","type":"int","value":240},{"name":"next","type":"int","value":33},{"name":"prev","type":"int","value":39}],"polyline":[{"x":0,"y":0},{"x":0,"y":-60}]},{"id":201,"x":-630,"y":215,"visible":true,"properties":[{"name":"layer","type":"int","value":3},{"name":"group","type":"int","value":0},{"name":"id","type":"int","value":38},{"name":"fh_layer","type":"int","value":3},{"name":"fh_group","type":"int","value":0},{"name":"fh_id","type":"int","value":38},{"name":"x1","type":"int","value":-630},{"name":"x2","type":"int","value":-540},{"name":"y1","type":"int","value":215},{"name":"y2","type":"int","value":215},{"name":"next","type":"int","value":28},{"name":"prev","type":"int","value":29}],"polyline":[{"x":0,"y":0},{"x":90,"y":0}]},{"id":202,"x":-1209,"y":360,"visible":true,"properties":[{"name":"layer","type":"int","value":3},{"name":"group","type":"int","value":0},{"name":"id","type":"int","value":39},{"name":"fh_layer","type":"int","value":3},{"name":"fh_group","type":"int","value":0},{"name":"fh_id","type":"int","value":39},{"name":"x1","type":"int","value":-1209},{"name":"x2","type":"int","value":-1209},{"name":"y1","type":"int","value":360},{"name":"y2","type":"int","value":300},{"name":"next","type":"int","value":37},{"name":"prev","type":"int","value":0}],"polyline":[{"x":0,"y":0},{"x":0,"y":-60}]},{"id":203,"x":-360,"y":215,"visible":true,"properties":[{"name":"layer","type":"int","value":3},{"name":"group","type":"int","value":0},{"name":"id","type":"int","value":40},{"name":"fh_layer","type":"int","value":3},{"name":"fh_group","type":"int","value":0},{"name":"fh_id","type":"int","value":40},{"name":"x1","type":"int","value":-360},{"name":"x2","type":"int","value":-309},{"name":"y1","type":"int","value":215},{"name":"y2","type":"int","value":215},{"name":"next","type":"int","value":41},{"name":"prev","type":"int","value":35}],"polyline":[{"x":0,"y":0},{"x":51,"y":0}]},{"id":204,"x":-309,"y":215,"visible":true,"properties":[{"name":"layer","type":"int","value":3},{"name":"group","type":"int","value":0},{"name":"id","type":"int","value":41},{"name":"fh_layer","type":"int","value":3},{"name":"fh_group","type":"int","value":0},{"name":"fh_id","type":"int","value":41},{"name":"x1","type":"int","value":-309},{"name":"x2","type":"int","value":-270},{"name":"y1","type":"int","value":215},{"name":"y2","type":"int","value":215},{"name":"next","type":"int","value":42},{"name":"prev","type":"int","value":40}],"polyline":[{"x":0,"y":0},{"x":39,"y":0}]},{"id":205,"x":-270,"y":215,"visible":true,"properties":[{"name":"layer","type":"int","value":3},{"name":"group","type":"int","value":0},{"name":"id","type":"int","value":42},{"name":"fh_layer","type":"int","value":3},{"name":"fh_group","type":"int","value":0},{"name":"fh_id","type":"int","value":42},{"name":"x1","type":"int","value":-270},{"name":"x2","type":"int","value":-231},{"name":"y1","type":"int","value":215},{"name":"y2","type":"int","value":215},{"name":"next","type":"int","value":43},{"name":"prev","type":"int","value":41}],"polyline":[{"x":0,"y":0},{"x":39,"y":0}]},{"id":206,"x":-231,"y":215,"visible":true,"properties":[{"name":"layer","type":"int","value":3},{"name":"group","type":"int","value":0},{"name":"id","type":"int","value":43},{"name":"fh_layer","type":"int","value":3},{"name":"fh_group","type":"int","value":0},{"name":"fh_id","type":"int","value":43},{"name":"x1","type":"int","value":-231},{"name":"x2","type":"int","value":-231},{"name":"y1","type":"int","value":215},{"name":"y2","type":"int","value":240},{"name":"next","type":"int","value":44},{"name":"prev","type":"int","value":42}],"polyline":[{"x":0,"y":0},{"x":0,"y":25}]},{"id":207,"x":-231,"y":240,"visible":true,"properties":[{"name":"layer","type":"int","value":3},{"name":"group","type":"int","value":0},{"name":"id","type":"int","value":44},{"name":"fh_layer","type":"int","value":3},{"name":"fh_group","type":"int","value":0},{"name":"fh_id","type":"int","value":44},{"name":"x1","type":"int","value":-231},{"name":"x2","type":"int","value":-231},{"name":"y1","type":"int","value":240},{"name":"y2","type":"int","value":300},{"name":"next","type":"int","value":45},{"name":"prev","type":"int","value":43}],"polyline":[{"x":0,"y":0},{"x":0,"y":60}]},{"id":208,"x":-231,"y":300,"visible":true,"properties":[{"name":"layer","type":"int","value":3},{"name":"group","type":"int","value":0},{"name":"id","type":"int","value":45},{"name":"fh_layer","type":"int","value":3},{"name":"fh_group","type":"int","value":0},{"name":"fh_id","type":"int","value":45},{"name":"x1","type":"int","value":-231},{"name":"x2","type":"int","value":-231},{"name":"y1","type":"int","value":300},{"name":"y2","type":"int","value":360},{"name":"next","type":"int","value":0},{"name":"prev","type":"int","value":44}],"polyline":[{"x":0,"y":0},{"x":0,"y":60}]}]},{"id":18,"name":"ladderRope","type":"objectgroup","visible":true,"opacity":1,"objects":[{"id":209,"x":-876,"y":-443,"visible":true,"properties":[{"name":"ladder_id","type":"int","value":1},{"name":"l","type":"int","value":0},{"name":"x","type":"int","value":-876},{"name":"uf","type":"int","value":1},{"name":"y1","type":"int","value":-443},{"name":"y2","type":"int","value":-322},{"name":"page","type":"int","value":2}],"polyline":[{"x":0,"y":0},{"x":0,"y":121}]},{"id":210,"x":-981,"y":-113,"visible":true,"properties":[{"name":"ladder_id","type":"int","value":2},{"name":"l","type":"int","value":0},{"name":"x","type":"int","value":-981},{"name":"uf","type":"int","value":1},{"name":"y1","type":"int","value":-113},{"name":"y2","type":"int","value":158},{"name":"page","type":"int","value":3}],"polyline":[{"x":0,"y":0},{"x":0,"y":271}]},{"id":211,"x":-714,"y":-293,"visible":true,"properties":[{"name":"ladder_id","type":"int","value":3},{"name":"l","type":"int","value":0},{"name":"x","type":"int","value":-714},{"name":"uf","type":"int","value":1},{"name":"y1","type":"int","value":-293},{"name":"y2","type":"int","value":-147},{"name":"page","type":"int","value":3}],"polyline":[{"x":0,"y":0},{"x":0,"y":146}]}]},{"id":19,"name":"miniMap","type":"objectgroup","visible":true,"opacity":1,"objects":[{"id":212,"x":1250,"y":688,"visible":true,"properties":[{"name":"mag","type":"int","value":4},{"name":"centerX","type":"int","value":1250},{"name":"centerY","type":"int","value":688},{"name":"canvas_path","type":"string","value":"../../images/30767.png"},{"name":"canvas_width","type":"int","value":66},{"name":"canvas_height","type":"int","value":70},{"name":"canvas_origin_x","type":"int","value":0},{"name":"canvas_origin_y","type":"int","value":0}],"point":true}]}],"tilesets":[{"firstgid":1,"source":"../../tilesets/bg_grassySoil.tsj"},{"firstgid":8,"source":"../../tilesets/tile_grassySoil.tsj"},{"firstgid":26,"source":"../../tilesets/obj_connect_rope_3.tsj"},{"firstgid":30,"source":"../../tilesets/obj_houseGS_house6_deco.tsj"},{"firstgid":31,"source":"../../tilesets/obj_acc1_darkWood_nature.tsj"},{"firstgid":33,"source":"../../tilesets/obj_door_grassySoil_door.tsj"},{"firstgid":40,"source":"../../tilesets/obj_houseGS_house6_basic.tsj"},{"firstgid":42,"source":"../../tilesets/obj_guide_milepost_common.tsj"},{"firstgid":44,"source":"../../tilesets/obj_acc1_grassySoil_nature.tsj"},{"firstgid":68,"source":"../../tilesets/obj_door_grassySoil_window.tsj"},{"firstgid":74,"source":"../../tilesets/obj_guide_milepost_backcho.tsj"},{"firstgid":79,"source":"../../tilesets/obj_house_grassySoil_accessory.tsj"},{"firstgid":81,"source":"../../tilesets/obj_acc1_grassySoil_artificiality.tsj"}],"properties":[{"name":"bgm","type":"string","value":"Bgm00/FloralLife"},{"name":"swim","type":"int","value":0},{"name":"town","type":"int","value":0},{"name":"cloud","type":"int","value":0},{"name":"mapDesc","type":"string","value":""},{"name":"mapMark","type":"string","value":"Henesys"},{"name":"mobRate","type":"float","value":1.3000000715255737},{"name":"version","type":"int","value":10},{"name":"moveLimit","type":"int","value":0},{"name":"returnMap","type":"int","value":100000000},{"name":"fieldLimit","type":"int","value":8264},{"name":"hideMinimap","type":"int","value":0},{"name":"forcedReturn","type":"int","value":100000000}]}