{"type":"map","orientation":"orthogonal","renderorder":"right-down","infinite":false,"tilewidth":1,"tileheight":1,"width":1156,"height":681,"parallaxoriginx":-400,"parallaxoriginy":80,"nextlayerid":15,"nextobjectid":146,"layers":[{"id":1,"name":"background_back_0","type":"imagelayer","visible":true,"opacity":1,"image":"../images/29098.png","imagewidth":256,"imageheight":256,"offsetx":-128,"offsety":-48,"repeatx":true,"repeaty":true,"parallaxx":0,"parallaxy":0,"properties":[{"name":"a","type":"int","value":255},{"name":"f","type":"int","value":0},{"name":"x","type":"int","value":0},{"name":"y","type":"int","value":0},{"name":"bS","type":"string","value":"grassySoil"},{"name":"cx","type":"int","value":0},{"name":"cy","type":"int","value":0},{"name":"no","type":"int","value":0},{"name":"rx","type":"int","value":0},{"name":"ry","type":"int","value":0},{"name":"ani","type":"int","value":0},{"name":"type","type":"int","value":3},{"name":"front","type":"int","value":0}]},{"id":2,"name":"background_back_1","type":"imagelayer","visible":true,"opacity":1,"image":"../images/29099.png","imagewidth":1024,"imageheight":579,"offsetx":-400,"offsety":-199,"repeatx":true,"repeaty":false,"parallaxx":0.05,"parallaxy":0.03,"properties":[{"name":"a","type":"int","value":255},{"name":"f","type":"int","value":0},{"name":"x","type":"int","value":112},{"name":"y","type":"int","value":10},{"name":"bS","type":"string","value":"grassySoil"},{"name":"cx","type":"int","value":0},{"name":"cy","type":"int","value":0},{"name":"no","type":"int","value":1},{"name":"rx","type":"int","value":-5},{"name":"ry","type":"int","value":-3},{"name":"ani","type":"int","value":0},{"name":"type","type":"int","value":4},{"name":"front","type":"int","value":0}]},{"id":3,"name":"background_back_2","type":"imagelayer","visible":true,"opacity":1,"image":"../images/29100.png","imagewidth":2493,"imageheight":340,"offsetx":-922,"offsety":73,"repeatx":false,"repeaty":false,"parallaxx":0.2,"parallaxy":-0.03,"properties":[{"name":"a","type":"int","value":255},{"name":"f","type":"int","value":0},{"name":"x","type":"int","value":324},{"name":"y","type":"int","value":163},{"name":"bS","type":"string","value":"grassySoil"},{"name":"cx","type":"int","value":0},{"name":"cy","type":"int","value":0},{"name":"no","type":"int","value":2},{"name":"rx","type":"int","value":-20},{"name":"ry","type":"int","value":3},{"name":"ani","type":"int","value":0},{"name":"type","type":"int","value":0},{"name":"front","type":"int","value":0}]},{"id":4,"name":"background_back_3","type":"imagelayer","visible":true,"opacity":1,"image":"../images/29101.png","imagewidth":315,"imageheight":268,"offsetx":46,"offsety":-195,"repeatx":false,"repeaty":false,"parallaxx":0.2,"parallaxy":-0.03,"properties":[{"name":"a","type":"int","value":255},{"name":"f","type":"int","value":0},{"name":"x","type":"int","value":203},{"name":"y","type":"int","value":-141},{"name":"bS","type":"string","value":"grassySoil"},{"name":"cx","type":"int","value":0},{"name":"cy","type":"int","value":0},{"name":"no","type":"int","value":3},{"name":"rx","type":"int","value":-20},{"name":"ry","type":"int","value":3},{"name":"ani","type":"int","value":0},{"name":"type","type":"int","value":0},{"name":"front","type":"int","value":0}]},{"id":5,"name":"background_back","type":"objectgroup","visible":true,"opacity":1,"draworder":"index","offsetx":0,"offsety":0,"parallaxx":1,"parallaxy":1,"objects":[{"id":1,"x":112,"y":10,"visible":true,"properties":[{"name":"image_layer_name","type":"string","value":"background_back_1"},{"name":"a","type":"int","value":255},{"name":"f","type":"int","value":0},{"name":"x","type":"int","value":112},{"name":"y","type":"int","value":10},{"name":"bS","type":"string","value":"grassySoil"},{"name":"cx","type":"int","value":0},{"name":"cy","type":"int","value":0},{"name":"no","type":"int","value":1},{"name":"rx","type":"int","value":-5},{"name":"ry","type":"int","value":-3},{"name":"ani","type":"int","value":0},{"name":"type","type":"int","value":4},{"name":"front","type":"int","value":0}],"point":true}],"properties":[]},{"id":6,"name":"layer_0_obj","type":"objectgroup","visible":true,"opacity":1,"draworder":"index","offsetx":0,"offsety":0,"parallaxx":1,"parallaxy":1,"objects":[{"id":2,"x":-479,"y":295,"visible":true,"properties":[{"name":"layer","type":"int","value":0},{"name":"resource_index","type":"int","value":0},{"name":"oS","type":"string","value":"acc1"},{"name":"l0","type":"string","value":"grassySoil"},{"name":"l1","type":"string","value":"nature"},{"name":"l2","type":"string","value":"13"},{"name":"z","type":"int","value":3},{"name":"zM","type":"int","value":2},{"name":"f","type":"int","value":0}],"gid":59,"width":223,"height":128},{"id":3,"x":246,"y":275,"visible":true,"properties":[{"name":"layer","type":"int","value":0},{"name":"resource_index","type":"int","value":1},{"name":"oS","type":"string","value":"acc1"},{"name":"l0","type":"string","value":"grassySoil"},{"name":"l1","type":"string","value":"market"},{"name":"l2","type":"string","value":"22"},{"name":"z","type":"int","value":3},{"name":"zM","type":"int","value":6},{"name":"f","type":"int","value":0}],"gid":43,"width":92,"height":60},{"id":4,"x":338,"y":275,"visible":true,"properties":[{"name":"layer","type":"int","value":0},{"name":"resource_index","type":"int","value":2},{"name":"oS","type":"string","value":"acc1"},{"name":"l0","type":"string","value":"grassySoil"},{"name":"l1","type":"string","value":"market"},{"name":"l2","type":"string","value":"22"},{"name":"z","type":"int","value":3},{"name":"zM","type":"int","value":3},{"name":"f","type":"int","value":0}],"gid":43,"width":92,"height":60},{"id":5,"x":430,"y":275,"visible":true,"properties":[{"name":"layer","type":"int","value":0},{"name":"resource_index","type":"int","value":3},{"name":"oS","type":"string","value":"acc1"},{"name":"l0","type":"string","value":"grassySoil"},{"name":"l1","type":"string","value":"market"},{"name":"l2","type":"string","value":"22"},{"name":"z","type":"int","value":3},{"name":"zM","type":"int","value":4},{"name":"f","type":"int","value":0}],"gid":43,"width":92,"height":60},{"id":6,"x":522,"y":275,"visible":true,"properties":[{"name":"layer","type":"int","value":0},{"name":"resource_index","type":"int","value":4},{"name":"oS","type":"string","value":"acc1"},{"name":"l0","type":"string","value":"grassySoil"},{"name":"l1","type":"string","value":"market"},{"name":"l2","type":"string","value":"22"},{"name":"z","type":"int","value":3},{"name":"zM","type":"int","value":5},{"name":"f","type":"int","value":0}],"gid":43,"width":92,"height":60},{"id":7,"x":611,"y":274,"visible":true,"properties":[{"name":"layer","type":"int","value":0},{"name":"resource_index","type":"int","value":5},{"name":"oS","type":"string","value":"acc1"},{"name":"l0","type":"string","value":"grassySoil"},{"name":"l1","type":"string","value":"market"},{"name":"l2","type":"string","value":"21"},{"name":"z","type":"int","value":3},{"name":"zM","type":"int","value":5},{"name":"f","type":"int","value":0}],"gid":50,"width":45,"height":58}],"properties":[]},{"id":7,"name":"layer_1_obj","type":"objectgroup","visible":true,"opacity":1,"draworder":"index","offsetx":0,"offsety":0,"parallaxx":1,"parallaxy":1,"objects":[{"id":92,"x":-16,"y":246,"visible":true,"properties":[{"name":"layer","type":"int","value":1},{"name":"resource_index","type":"int","value":0},{"name":"oS","type":"string","value":"connect"},{"name":"l0","type":"string","value":"ladder"},{"name":"l1","type":"string","value":"1"},{"name":"l2","type":"string","value":"0"},{"name":"z","type":"int","value":4},{"name":"zM","type":"int","value":0},{"name":"f","type":"int","value":0}],"gid":29,"width":68,"height":206},{"id":93,"x":-143,"y":249,"visible":true,"properties":[{"name":"layer","type":"int","value":1},{"name":"resource_index","type":"int","value":1},{"name":"oS","type":"string","value":"prop"},{"name":"l0","type":"string","value":"grassySoil"},{"name":"l1","type":"string","value":"fur"},{"name":"l2","type":"string","value":"0"},{"name":"z","type":"int","value":4},{"name":"zM","type":"int","value":7},{"name":"f","type":"int","value":1}],"gid":30,"width":90,"height":85},{"id":94,"x":-174,"y":41,"visible":true,"properties":[{"name":"layer","type":"int","value":1},{"name":"resource_index","type":"int","value":2},{"name":"oS","type":"string","value":"prop"},{"name":"l0","type":"string","value":"grassySoil"},{"name":"l1","type":"string","value":"fur"},{"name":"l2","type":"string","value":"1"},{"name":"z","type":"int","value":4},{"name":"zM","type":"int","value":8},{"name":"f","type":"int","value":1}],"gid":31,"width":128,"height":67},{"id":95,"x":43,"y":40,"visible":true,"properties":[{"name":"layer","type":"int","value":1},{"name":"resource_index","type":"int","value":3},{"name":"oS","type":"string","value":"prop"},{"name":"l0","type":"string","value":"grassySoil"},{"name":"l1","type":"string","value":"fur"},{"name":"l2","type":"string","value":"2"},{"name":"z","type":"int","value":3},{"name":"zM","type":"int","value":9},{"name":"f","type":"int","value":0}],"gid":32,"width":77,"height":41},{"id":96,"x":-341,"y":274,"visible":true,"properties":[{"name":"layer","type":"int","value":1},{"name":"resource_index","type":"int","value":4},{"name":"oS","type":"string","value":"insideGS"},{"name":"l0","type":"string","value":"house2"},{"name":"l1","type":"string","value":"basic"},{"name":"l2","type":"string","value":"0"},{"name":"z","type":"int","value":1},{"name":"zM","type":"int","value":0},{"name":"f","type":"int","value":0}],"gid":36,"width":619,"height":533},{"id":97,"x":-394,"y":288,"visible":true,"properties":[{"name":"layer","type":"int","value":1},{"name":"resource_index","type":"int","value":5},{"name":"oS","type":"string","value":"acc1"},{"name":"l0","type":"string","value":"grassySoil"},{"name":"l1","type":"string","value":"nature"},{"name":"l2","type":"string","value":"13"},{"name":"z","type":"int","value":0},{"name":"zM","type":"int","value":0},{"name":"f","type":"int","value":0}],"gid":59,"width":223,"height":128},{"id":98,"x":-194,"y":255,"visible":true,"properties":[{"name":"layer","type":"int","value":1},{"name":"resource_index","type":"int","value":6},{"name":"oS","type":"string","value":"insideGS"},{"name":"l0","type":"string","value":"house2"},{"name":"l1","type":"string","value":"basic"},{"name":"l2","type":"string","value":"4"},{"name":"z","type":"int","value":3},{"name":"zM","type":"int","value":0},{"name":"f","type":"int","value":0}],"gid":37,"width":431,"height":10},{"id":99,"x":-206,"y":87,"visible":true,"properties":[{"name":"layer","type":"int","value":1},{"name":"resource_index","type":"int","value":7},{"name":"oS","type":"string","value":"insideGS"},{"name":"l0","type":"string","value":"house2"},{"name":"l1","type":"string","value":"basic"},{"name":"l2","type":"string","value":"3"},{"name":"z","type":"int","value":3},{"name":"zM","type":"int","value":0},{"name":"f","type":"int","value":0}],"gid":38,"width":371,"height":42},{"id":100,"x":222,"y":246,"visible":true,"properties":[{"name":"layer","type":"int","value":1},{"name":"resource_index","type":"int","value":8},{"name":"oS","type":"string","value":"prop"},{"name":"l0","type":"string","value":"grassySoil"},{"name":"l1","type":"string","value":"door"},{"name":"l2","type":"string","value":"0"},{"name":"z","type":"int","value":3},{"name":"zM","type":"int","value":0},{"name":"f","type":"int","value":1}],"gid":34,"width":68,"height":87},{"id":101,"x":-5,"y":-84,"visible":true,"properties":[{"name":"layer","type":"int","value":1},{"name":"resource_index","type":"int","value":9},{"name":"oS","type":"string","value":"prop"},{"name":"l0","type":"string","value":"grassySoil"},{"name":"l1","type":"string","value":"lamp"},{"name":"l2","type":"string","value":"0"},{"name":"z","type":"int","value":5},{"name":"zM","type":"int","value":0},{"name":"f","type":"int","value":0}],"gid":35,"width":34,"height":60},{"id":102,"x":-57,"y":127,"visible":true,"properties":[{"name":"layer","type":"int","value":1},{"name":"resource_index","type":"int","value":10},{"name":"oS","type":"string","value":"prop"},{"name":"l0","type":"string","value":"grassySoil"},{"name":"l1","type":"string","value":"lamp"},{"name":"l2","type":"string","value":"0"},{"name":"z","type":"int","value":3},{"name":"zM","type":"int","value":0},{"name":"f","type":"int","value":0}],"gid":35,"width":34,"height":60},{"id":103,"x":-223,"y":270,"visible":true,"properties":[{"name":"layer","type":"int","value":1},{"name":"resource_index","type":"int","value":11},{"name":"oS","type":"string","value":"insideGS"},{"name":"l0","type":"string","value":"house2"},{"name":"l1","type":"string","value":"basic"},{"name":"l2","type":"string","value":"2"},{"name":"z","type":"int","value":2},{"name":"zM","type":"int","value":0},{"name":"f","type":"int","value":0}],"gid":39,"width":482,"height":223},{"id":104,"x":-120,"y":5,"visible":true,"properties":[{"name":"layer","type":"int","value":1},{"name":"resource_index","type":"int","value":12},{"name":"oS","type":"string","value":"prop"},{"name":"l0","type":"string","value":"grassySoil"},{"name":"l1","type":"string","value":"win"},{"name":"l2","type":"string","value":"1"},{"name":"z","type":"int","value":4},{"name":"zM","type":"int","value":0},{"name":"f","type":"int","value":0}],"gid":33,"width":140,"height":141}],"properties":[]},{"id":8,"name":"layer_1_tile","type":"objectgroup","visible":true,"opacity":1,"draworder":"index","offsetx":0,"offsety":0,"parallaxx":1,"parallaxy":1,"objects":[{"id":8,"x":-360,"y":360,"visible":true,"properties":[{"name":"layer","type":"int","value":1},{"name":"resource_index","type":"int","value":0},{"name":"u","type":"string","value":"bsc"},{"name":"no","type":"int","value":4},{"name":"zM","type":"int","value":0}],"gid":8,"width":90,"height":60},{"id":9,"x":-360,"y":300,"visible":true,"properties":[{"name":"layer","type":"int","value":1},{"name":"resource_index","type":"int","value":1},{"name":"u","type":"string","value":"enH0"},{"name":"no","type":"int","value":1},{"name":"zM","type":"int","value":0}],"gid":22,"width":90,"height":32},{"id":10,"x":-270,"y":360,"visible":true,"properties":[{"name":"layer","type":"int","value":1},{"name":"resource_index","type":"int","value":2},{"name":"u","type":"string","value":"bsc"},{"name":"no","type":"int","value":3},{"name":"zM","type":"int","value":0}],"gid":12,"width":91,"height":60},{"id":11,"x":-270,"y":300,"visible":true,"properties":[{"name":"layer","type":"int","value":1},{"name":"resource_index","type":"int","value":3},{"name":"u","type":"string","value":"enH0"},{"name":"no","type":"int","value":1},{"name":"zM","type":"int","value":0}],"gid":22,"width":90,"height":32},{"id":12,"x":-90,"y":360,"visible":true,"properties":[{"name":"layer","type":"int","value":1},{"name":"resource_index","type":"int","value":4},{"name":"u","type":"string","value":"bsc"},{"name":"no","type":"int","value":4},{"name":"zM","type":"int","value":0}],"gid":8,"width":90,"height":60},{"id":13,"x":-90,"y":300,"visible":true,"properties":[{"name":"layer","type":"int","value":1},{"name":"resource_index","type":"int","value":5},{"name":"u","type":"string","value":"enH0"},{"name":"no","type":"int","value":3},{"name":"zM","type":"int","value":0}],"gid":14,"width":90,"height":32},{"id":14,"x":0,"y":360,"visible":true,"properties":[{"name":"layer","type":"int","value":1},{"name":"resource_index","type":"int","value":6},{"name":"u","type":"string","value":"bsc"},{"name":"no","type":"int","value":0},{"name":"zM","type":"int","value":0}],"gid":16,"width":90,"height":60},{"id":15,"x":360,"y":420,"visible":true,"properties":[{"name":"layer","type":"int","value":1},{"name":"resource_index","type":"int","value":7},{"name":"u","type":"string","value":"bsc"},{"name":"no","type":"int","value":0},{"name":"zM","type":"int","value":0}],"gid":16,"width":90,"height":60},{"id":16,"x":-180,"y":300,"visible":true,"properties":[{"name":"layer","type":"int","value":1},{"name":"resource_index","type":"int","value":8},{"name":"u","type":"string","value":"enH0"},{"name":"no","type":"int","value":1},{"name":"zM","type":"int","value":0}],"gid":22,"width":90,"height":32},{"id":17,"x":-180,"y":360,"visible":true,"properties":[{"name":"layer","type":"int","value":1},{"name":"resource_index","type":"int","value":9},{"name":"u","type":"string","value":"bsc"},{"name":"no","type":"int","value":0},{"name":"zM","type":"int","value":0}],"gid":16,"width":90,"height":60},{"id":18,"x":630,"y":360,"visible":true,"properties":[{"name":"layer","type":"int","value":1},{"name":"resource_index","type":"int","value":10},{"name":"u","type":"string","value":"enV1"},{"name":"no","type":"int","value":1},{"name":"zM","type":"int","value":0}],"gid":20,"width":26,"height":60},{"id":19,"x":600,"y":300,"visible":true,"properties":[{"name":"layer","type":"int","value":1},{"name":"resource_index","type":"int","value":11},{"name":"u","type":"string","value":"edU"},{"name":"no","type":"int","value":0},{"name":"zM","type":"int","value":0}],"gid":15,"width":61,"height":33},{"id":20,"x":540,"y":480,"visible":true,"properties":[{"name":"layer","type":"int","value":1},{"name":"resource_index","type":"int","value":12},{"name":"u","type":"string","value":"bsc"},{"name":"no","type":"int","value":2},{"name":"zM","type":"int","value":0}],"gid":10,"width":90,"height":60},{"id":21,"x":-270,"y":420,"visible":true,"properties":[{"name":"layer","type":"int","value":1},{"name":"resource_index","type":"int","value":13},{"name":"u","type":"string","value":"bsc"},{"name":"no","type":"int","value":4},{"name":"zM","type":"int","value":0}],"gid":8,"width":90,"height":60},{"id":22,"x":630,"y":480,"visible":true,"properties":[{"name":"layer","type":"int","value":1},{"name":"resource_index","type":"int","value":14},{"name":"u","type":"string","value":"enV1"},{"name":"no","type":"int","value":1},{"name":"zM","type":"int","value":0}],"gid":20,"width":26,"height":60},{"id":23,"x":-180,"y":420,"visible":true,"properties":[{"name":"layer","type":"int","value":1},{"name":"resource_index","type":"int","value":15},{"name":"u","type":"string","value":"bsc"},{"name":"no","type":"int","value":0},{"name":"zM","type":"int","value":0}],"gid":16,"width":90,"height":60},{"id":24,"x":630,"y":420,"visible":true,"properties":[{"name":"layer","type":"int","value":1},{"name":"resource_index","type":"int","value":16},{"name":"u","type":"string","value":"enV1"},{"name":"no","type":"int","value":1},{"name":"zM","type":"int","value":0}],"gid":20,"width":26,"height":60},{"id":25,"x":-360,"y":480,"visible":true,"properties":[{"name":"layer","type":"int","value":1},{"name":"resource_index","type":"int","value":17},{"name":"u","type":"string","value":"bsc"},{"name":"no","type":"int","value":0},{"name":"zM","type":"int","value":0}],"gid":16,"width":90,"height":60},{"id":26,"x":450,"y":300,"visible":true,"properties":[{"name":"layer","type":"int","value":1},{"name":"resource_index","type":"int","value":18},{"name":"u","type":"string","value":"enH0"},{"name":"no","type":"int","value":1},{"name":"zM","type":"int","value":0}],"gid":22,"width":90,"height":32},{"id":27,"x":180,"y":540,"visible":true,"properties":[{"name":"layer","type":"int","value":1},{"name":"resource_index","type":"int","value":19},{"name":"u","type":"string","value":"bsc"},{"name":"no","type":"int","value":4},{"name":"zM","type":"int","value":0}],"gid":8,"width":90,"height":60},{"id":28,"x":540,"y":360,"visible":true,"properties":[{"name":"layer","type":"int","value":1},{"name":"resource_index","type":"int","value":20},{"name":"u","type":"string","value":"bsc"},{"name":"no","type":"int","value":3},{"name":"zM","type":"int","value":0}],"gid":12,"width":91,"height":60},{"id":29,"x":630,"y":540,"visible":true,"properties":[{"name":"layer","type":"int","value":1},{"name":"resource_index","type":"int","value":21},{"name":"u","type":"string","value":"enV1"},{"name":"no","type":"int","value":1},{"name":"zM","type":"int","value":0}],"gid":20,"width":26,"height":60},{"id":30,"x":540,"y":562,"visible":true,"properties":[{"name":"layer","type":"int","value":1},{"name":"resource_index","type":"int","value":22},{"name":"u","type":"string","value":"enH1"},{"name":"no","type":"int","value":3},{"name":"zM","type":"int","value":0}],"gid":27,"width":90,"height":22},{"id":31,"x":540,"y":300,"visible":true,"properties":[{"name":"layer","type":"int","value":1},{"name":"resource_index","type":"int","value":23},{"name":"u","type":"string","value":"enH0"},{"name":"no","type":"int","value":1},{"name":"zM","type":"int","value":0}],"gid":22,"width":90,"height":32},{"id":32,"x":-360,"y":562,"visible":true,"properties":[{"name":"layer","type":"int","value":1},{"name":"resource_index","type":"int","value":24},{"name":"u","type":"string","value":"enH1"},{"name":"no","type":"int","value":3},{"name":"zM","type":"int","value":0}],"gid":27,"width":90,"height":22},{"id":33,"x":-360,"y":540,"visible":true,"properties":[{"name":"layer","type":"int","value":1},{"name":"resource_index","type":"int","value":25},{"name":"u","type":"string","value":"bsc"},{"name":"no","type":"int","value":2},{"name":"zM","type":"int","value":0}],"gid":10,"width":90,"height":60},{"id":34,"x":-90,"y":420,"visible":true,"properties":[{"name":"layer","type":"int","value":1},{"name":"resource_index","type":"int","value":26},{"name":"u","type":"string","value":"bsc"},{"name":"no","type":"int","value":1},{"name":"zM","type":"int","value":0}],"gid":13,"width":90,"height":60},{"id":35,"x":0,"y":560,"visible":true,"properties":[{"name":"layer","type":"int","value":1},{"name":"resource_index","type":"int","value":27},{"name":"u","type":"string","value":"enH1"},{"name":"no","type":"int","value":2},{"name":"zM","type":"int","value":0}],"gid":17,"width":90,"height":20},{"id":36,"x":450,"y":420,"visible":true,"properties":[{"name":"layer","type":"int","value":1},{"name":"resource_index","type":"int","value":28},{"name":"u","type":"string","value":"bsc"},{"name":"no","type":"int","value":2},{"name":"zM","type":"int","value":0}],"gid":10,"width":90,"height":60},{"id":37,"x":90,"y":561,"visible":true,"properties":[{"name":"layer","type":"int","value":1},{"name":"resource_index","type":"int","value":29},{"name":"u","type":"string","value":"enH1"},{"name":"no","type":"int","value":0},{"name":"zM","type":"int","value":0}],"gid":19,"width":90,"height":21},{"id":38,"x":-90,"y":560,"visible":true,"properties":[{"name":"layer","type":"int","value":1},{"name":"resource_index","type":"int","value":30},{"name":"u","type":"string","value":"enH1"},{"name":"no","type":"int","value":2},{"name":"zM","type":"int","value":0}],"gid":17,"width":90,"height":20},{"id":39,"x":540,"y":420,"visible":true,"properties":[{"name":"layer","type":"int","value":1},{"name":"resource_index","type":"int","value":31},{"name":"u","type":"string","value":"bsc"},{"name":"no","type":"int","value":0},{"name":"zM","type":"int","value":0}],"gid":16,"width":90,"height":60},{"id":40,"x":-180,"y":562,"visible":true,"properties":[{"name":"layer","type":"int","value":1},{"name":"resource_index","type":"int","value":32},{"name":"u","type":"string","value":"enH1"},{"name":"no","type":"int","value":3},{"name":"zM","type":"int","value":0}],"gid":27,"width":90,"height":22},{"id":41,"x":180,"y":562,"visible":true,"properties":[{"name":"layer","type":"int","value":1},{"name":"resource_index","type":"int","value":33},{"name":"u","type":"string","value":"enH1"},{"name":"no","type":"int","value":3},{"name":"zM","type":"int","value":0}],"gid":27,"width":90,"height":22},{"id":42,"x":-180,"y":480,"visible":true,"properties":[{"name":"layer","type":"int","value":1},{"name":"resource_index","type":"int","value":34},{"name":"u","type":"string","value":"bsc"},{"name":"no","type":"int","value":1},{"name":"zM","type":"int","value":0}],"gid":13,"width":90,"height":60},{"id":43,"x":-270,"y":561,"visible":true,"properties":[{"name":"layer","type":"int","value":1},{"name":"resource_index","type":"int","value":35},{"name":"u","type":"string","value":"enH1"},{"name":"no","type":"int","value":0},{"name":"zM","type":"int","value":0}],"gid":19,"width":90,"height":21},{"id":44,"x":-270,"y":480,"visible":true,"properties":[{"name":"layer","type":"int","value":1},{"name":"resource_index","type":"int","value":36},{"name":"u","type":"string","value":"bsc"},{"name":"no","type":"int","value":1},{"name":"zM","type":"int","value":0}],"gid":13,"width":90,"height":60},{"id":45,"x":-270,"y":540,"visible":true,"properties":[{"name":"layer","type":"int","value":1},{"name":"resource_index","type":"int","value":37},{"name":"u","type":"string","value":"bsc"},{"name":"no","type":"int","value":4},{"name":"zM","type":"int","value":0}],"gid":8,"width":90,"height":60},{"id":46,"x":-360,"y":420,"visible":true,"properties":[{"name":"layer","type":"int","value":1},{"name":"resource_index","type":"int","value":38},{"name":"u","type":"string","value":"bsc"},{"name":"no","type":"int","value":3},{"name":"zM","type":"int","value":0}],"gid":12,"width":91,"height":60},{"id":47,"x":360,"y":540,"visible":true,"properties":[{"name":"layer","type":"int","value":1},{"name":"resource_index","type":"int","value":39},{"name":"u","type":"string","value":"bsc"},{"name":"no","type":"int","value":0},{"name":"zM","type":"int","value":0}],"gid":16,"width":90,"height":60},{"id":48,"x":-180,"y":540,"visible":true,"properties":[{"name":"layer","type":"int","value":1},{"name":"resource_index","type":"int","value":40},{"name":"u","type":"string","value":"bsc"},{"name":"no","type":"int","value":4},{"name":"zM","type":"int","value":0}],"gid":8,"width":90,"height":60},{"id":49,"x":-90,"y":540,"visible":true,"properties":[{"name":"layer","type":"int","value":1},{"name":"resource_index","type":"int","value":41},{"name":"u","type":"string","value":"bsc"},{"name":"no","type":"int","value":2},{"name":"zM","type":"int","value":0}],"gid":10,"width":90,"height":60},{"id":50,"x":540,"y":540,"visible":true,"properties":[{"name":"layer","type":"int","value":1},{"name":"resource_index","type":"int","value":42},{"name":"u","type":"string","value":"bsc"},{"name":"no","type":"int","value":1},{"name":"zM","type":"int","value":0}],"gid":13,"width":90,"height":60},{"id":51,"x":-90,"y":480,"visible":true,"properties":[{"name":"layer","type":"int","value":1},{"name":"resource_index","type":"int","value":43},{"name":"u","type":"string","value":"bsc"},{"name":"no","type":"int","value":0},{"name":"zM","type":"int","value":0}],"gid":16,"width":90,"height":60},{"id":52,"x":450,"y":360,"visible":true,"properties":[{"name":"layer","type":"int","value":1},{"name":"resource_index","type":"int","value":44},{"name":"u","type":"string","value":"bsc"},{"name":"no","type":"int","value":0},{"name":"zM","type":"int","value":0}],"gid":16,"width":90,"height":60},{"id":53,"x":450,"y":540,"visible":true,"properties":[{"name":"layer","type":"int","value":1},{"name":"resource_index","type":"int","value":45},{"name":"u","type":"string","value":"bsc"},{"name":"no","type":"int","value":4},{"name":"zM","type":"int","value":0}],"gid":8,"width":90,"height":60},{"id":54,"x":360,"y":360,"visible":true,"properties":[{"name":"layer","type":"int","value":1},{"name":"resource_index","type":"int","value":46},{"name":"u","type":"string","value":"bsc"},{"name":"no","type":"int","value":0},{"name":"zM","type":"int","value":0}],"gid":16,"width":90,"height":60},{"id":55,"x":360,"y":300,"visible":true,"properties":[{"name":"layer","type":"int","value":1},{"name":"resource_index","type":"int","value":47},{"name":"u","type":"string","value":"enH0"},{"name":"no","type":"int","value":3},{"name":"zM","type":"int","value":0}],"gid":14,"width":90,"height":32},{"id":56,"x":270,"y":360,"visible":true,"properties":[{"name":"layer","type":"int","value":1},{"name":"resource_index","type":"int","value":48},{"name":"u","type":"string","value":"bsc"},{"name":"no","type":"int","value":4},{"name":"zM","type":"int","value":0}],"gid":8,"width":90,"height":60},{"id":57,"x":270,"y":300,"visible":true,"properties":[{"name":"layer","type":"int","value":1},{"name":"resource_index","type":"int","value":49},{"name":"u","type":"string","value":"enH0"},{"name":"no","type":"int","value":1},{"name":"zM","type":"int","value":0}],"gid":22,"width":90,"height":32},{"id":58,"x":180,"y":360,"visible":true,"properties":[{"name":"layer","type":"int","value":1},{"name":"resource_index","type":"int","value":50},{"name":"u","type":"string","value":"bsc"},{"name":"no","type":"int","value":3},{"name":"zM","type":"int","value":0}],"gid":12,"width":91,"height":60},{"id":59,"x":180,"y":300,"visible":true,"properties":[{"name":"layer","type":"int","value":1},{"name":"resource_index","type":"int","value":51},{"name":"u","type":"string","value":"enH0"},{"name":"no","type":"int","value":3},{"name":"zM","type":"int","value":0}],"gid":14,"width":90,"height":32},{"id":60,"x":0,"y":300,"visible":true,"properties":[{"name":"layer","type":"int","value":1},{"name":"resource_index","type":"int","value":52},{"name":"u","type":"string","value":"enH0"},{"name":"no","type":"int","value":2},{"name":"zM","type":"int","value":0}],"gid":21,"width":90,"height":32},{"id":61,"x":90,"y":360,"visible":true,"properties":[{"name":"layer","type":"int","value":1},{"name":"resource_index","type":"int","value":53},{"name":"u","type":"string","value":"bsc"},{"name":"no","type":"int","value":3},{"name":"zM","type":"int","value":0}],"gid":12,"width":91,"height":60},{"id":62,"x":90,"y":300,"visible":true,"properties":[{"name":"layer","type":"int","value":1},{"name":"resource_index","type":"int","value":54},{"name":"u","type":"string","value":"enH0"},{"name":"no","type":"int","value":1},{"name":"zM","type":"int","value":0}],"gid":22,"width":90,"height":32},{"id":63,"x":270,"y":420,"visible":true,"properties":[{"name":"layer","type":"int","value":1},{"name":"resource_index","type":"int","value":55},{"name":"u","type":"string","value":"bsc"},{"name":"no","type":"int","value":1},{"name":"zM","type":"int","value":0}],"gid":13,"width":90,"height":60},{"id":64,"x":180,"y":420,"visible":true,"properties":[{"name":"layer","type":"int","value":1},{"name":"resource_index","type":"int","value":56},{"name":"u","type":"string","value":"bsc"},{"name":"no","type":"int","value":4},{"name":"zM","type":"int","value":0}],"gid":8,"width":90,"height":60},{"id":65,"x":90,"y":420,"visible":true,"properties":[{"name":"layer","type":"int","value":1},{"name":"resource_index","type":"int","value":57},{"name":"u","type":"string","value":"bsc"},{"name":"no","type":"int","value":2},{"name":"zM","type":"int","value":0}],"gid":10,"width":90,"height":60},{"id":66,"x":606,"y":553,"visible":true,"properties":[{"name":"layer","type":"int","value":1},{"name":"resource_index","type":"int","value":58},{"name":"u","type":"string","value":"edD"},{"name":"no","type":"int","value":0},{"name":"zM","type":"int","value":0}],"gid":23,"width":45,"height":13},{"id":67,"x":0,"y":420,"visible":true,"properties":[{"name":"layer","type":"int","value":1},{"name":"resource_index","type":"int","value":59},{"name":"u","type":"string","value":"bsc"},{"name":"no","type":"int","value":2},{"name":"zM","type":"int","value":0}],"gid":10,"width":90,"height":60},{"id":68,"x":90,"y":480,"visible":true,"properties":[{"name":"layer","type":"int","value":1},{"name":"resource_index","type":"int","value":60},{"name":"u","type":"string","value":"bsc"},{"name":"no","type":"int","value":0},{"name":"zM","type":"int","value":0}],"gid":16,"width":90,"height":60},{"id":69,"x":180,"y":480,"visible":true,"properties":[{"name":"layer","type":"int","value":1},{"name":"resource_index","type":"int","value":61},{"name":"u","type":"string","value":"bsc"},{"name":"no","type":"int","value":0},{"name":"zM","type":"int","value":0}],"gid":16,"width":90,"height":60},{"id":70,"x":360,"y":480,"visible":true,"properties":[{"name":"layer","type":"int","value":1},{"name":"resource_index","type":"int","value":62},{"name":"u","type":"string","value":"bsc"},{"name":"no","type":"int","value":3},{"name":"zM","type":"int","value":0}],"gid":12,"width":91,"height":60},{"id":71,"x":0,"y":480,"visible":true,"properties":[{"name":"layer","type":"int","value":1},{"name":"resource_index","type":"int","value":63},{"name":"u","type":"string","value":"bsc"},{"name":"no","type":"int","value":0},{"name":"zM","type":"int","value":0}],"gid":16,"width":90,"height":60},{"id":72,"x":270,"y":480,"visible":true,"properties":[{"name":"layer","type":"int","value":1},{"name":"resource_index","type":"int","value":64},{"name":"u","type":"string","value":"bsc"},{"name":"no","type":"int","value":0},{"name":"zM","type":"int","value":0}],"gid":16,"width":90,"height":60},{"id":73,"x":450,"y":560,"visible":true,"properties":[{"name":"layer","type":"int","value":1},{"name":"resource_index","type":"int","value":65},{"name":"u","type":"string","value":"enH1"},{"name":"no","type":"int","value":2},{"name":"zM","type":"int","value":0}],"gid":17,"width":90,"height":20},{"id":74,"x":270,"y":561,"visible":true,"properties":[{"name":"layer","type":"int","value":1},{"name":"resource_index","type":"int","value":66},{"name":"u","type":"string","value":"enH1"},{"name":"no","type":"int","value":0},{"name":"zM","type":"int","value":0}],"gid":19,"width":90,"height":21},{"id":75,"x":0,"y":540,"visible":true,"properties":[{"name":"layer","type":"int","value":1},{"name":"resource_index","type":"int","value":67},{"name":"u","type":"string","value":"bsc"},{"name":"no","type":"int","value":0},{"name":"zM","type":"int","value":0}],"gid":16,"width":90,"height":60},{"id":76,"x":90,"y":540,"visible":true,"properties":[{"name":"layer","type":"int","value":1},{"name":"resource_index","type":"int","value":68},{"name":"u","type":"string","value":"bsc"},{"name":"no","type":"int","value":3},{"name":"zM","type":"int","value":0}],"gid":12,"width":91,"height":60},{"id":77,"x":360,"y":561,"visible":true,"properties":[{"name":"layer","type":"int","value":1},{"name":"resource_index","type":"int","value":69},{"name":"u","type":"string","value":"enH1"},{"name":"no","type":"int","value":0},{"name":"zM","type":"int","value":0}],"gid":19,"width":90,"height":21},{"id":78,"x":450,"y":480,"visible":true,"properties":[{"name":"layer","type":"int","value":1},{"name":"resource_index","type":"int","value":70},{"name":"u","type":"string","value":"bsc"},{"name":"no","type":"int","value":1},{"name":"zM","type":"int","value":0}],"gid":13,"width":90,"height":60},{"id":79,"x":270,"y":540,"visible":true,"properties":[{"name":"layer","type":"int","value":1},{"name":"resource_index","type":"int","value":71},{"name":"u","type":"string","value":"bsc"},{"name":"no","type":"int","value":0},{"name":"zM","type":"int","value":0}],"gid":16,"width":90,"height":60},{"id":80,"x":-480,"y":360,"visible":true,"properties":[{"name":"layer","type":"int","value":1},{"name":"resource_index","type":"int","value":72},{"name":"u","type":"string","value":"enV0"},{"name":"no","type":"int","value":0},{"name":"zM","type":"int","value":0}],"gid":26,"width":30,"height":60},{"id":81,"x":-450,"y":360,"visible":true,"properties":[{"name":"layer","type":"int","value":1},{"name":"resource_index","type":"int","value":73},{"name":"u","type":"string","value":"bsc"},{"name":"no","type":"int","value":3},{"name":"zM","type":"int","value":0}],"gid":12,"width":91,"height":60},{"id":82,"x":-480,"y":480,"visible":true,"properties":[{"name":"layer","type":"int","value":1},{"name":"resource_index","type":"int","value":74},{"name":"u","type":"string","value":"enV0"},{"name":"no","type":"int","value":0},{"name":"zM","type":"int","value":0}],"gid":26,"width":30,"height":60},{"id":83,"x":-450,"y":540,"visible":true,"properties":[{"name":"layer","type":"int","value":1},{"name":"resource_index","type":"int","value":75},{"name":"u","type":"string","value":"bsc"},{"name":"no","type":"int","value":0},{"name":"zM","type":"int","value":0}],"gid":16,"width":90,"height":60},{"id":84,"x":-474,"y":553,"visible":true,"properties":[{"name":"layer","type":"int","value":1},{"name":"resource_index","type":"int","value":76},{"name":"u","type":"string","value":"edD"},{"name":"no","type":"int","value":0},{"name":"zM","type":"int","value":0}],"gid":23,"width":45,"height":13},{"id":85,"x":-450,"y":562,"visible":true,"properties":[{"name":"layer","type":"int","value":1},{"name":"resource_index","type":"int","value":77},{"name":"u","type":"string","value":"enH1"},{"name":"no","type":"int","value":3},{"name":"zM","type":"int","value":0}],"gid":27,"width":90,"height":22},{"id":86,"x":-478,"y":300,"visible":true,"properties":[{"name":"layer","type":"int","value":1},{"name":"resource_index","type":"int","value":78},{"name":"u","type":"string","value":"edU"},{"name":"no","type":"int","value":1},{"name":"zM","type":"int","value":0}],"gid":11,"width":54,"height":32},{"id":87,"x":-450,"y":420,"visible":true,"properties":[{"name":"layer","type":"int","value":1},{"name":"resource_index","type":"int","value":79},{"name":"u","type":"string","value":"bsc"},{"name":"no","type":"int","value":0},{"name":"zM","type":"int","value":0}],"gid":16,"width":90,"height":60},{"id":88,"x":-450,"y":300,"visible":true,"properties":[{"name":"layer","type":"int","value":1},{"name":"resource_index","type":"int","value":80},{"name":"u","type":"string","value":"enH0"},{"name":"no","type":"int","value":1},{"name":"zM","type":"int","value":0}],"gid":22,"width":90,"height":32},{"id":89,"x":-477,"y":420,"visible":true,"properties":[{"name":"layer","type":"int","value":1},{"name":"resource_index","type":"int","value":81},{"name":"u","type":"string","value":"enV0"},{"name":"no","type":"int","value":1},{"name":"zM","type":"int","value":0}],"gid":24,"width":27,"height":60},{"id":90,"x":-450,"y":480,"visible":true,"properties":[{"name":"layer","type":"int","value":1},{"name":"resource_index","type":"int","value":82},{"name":"u","type":"string","value":"bsc"},{"name":"no","type":"int","value":0},{"name":"zM","type":"int","value":0}],"gid":16,"width":90,"height":60},{"id":91,"x":-480,"y":540,"visible":true,"properties":[{"name":"layer","type":"int","value":1},{"name":"resource_index","type":"int","value":83},{"name":"u","type":"string","value":"enV0"},{"name":"no","type":"int","value":0},{"name":"zM","type":"int","value":0}],"gid":26,"width":30,"height":60}],"properties":[]},{"id":9,"name":"layer_2_obj","type":"objectgroup","visible":true,"opacity":1,"draworder":"index","offsetx":0,"offsety":0,"parallaxx":1,"parallaxy":1,"objects":[{"id":105,"x":-263,"y":390,"visible":true,"properties":[{"name":"layer","type":"int","value":2},{"name":"resource_index","type":"int","value":0},{"name":"oS","type":"string","value":"acc1"},{"name":"l0","type":"string","value":"woodMarble"},{"name":"l1","type":"string","value":"artificiality"},{"name":"l2","type":"string","value":"1"},{"name":"z","type":"int","value":3},{"name":"zM","type":"int","value":1},{"name":"f","type":"int","value":0}],"gid":90,"width":56,"height":56},{"id":106,"x":-249,"y":463,"visible":true,"properties":[{"name":"layer","type":"int","value":2},{"name":"resource_index","type":"int","value":1},{"name":"oS","type":"string","value":"acc1"},{"name":"l0","type":"string","value":"woodMarble"},{"name":"l1","type":"string","value":"artificiality"},{"name":"l2","type":"string","value":"2"},{"name":"z","type":"int","value":4},{"name":"zM","type":"int","value":1},{"name":"f","type":"int","value":0}],"gid":91,"width":28,"height":95}],"properties":[]},{"id":10,"name":"portal","type":"objectgroup","visible":true,"opacity":1,"draworder":"index","offsetx":0,"offsety":0,"parallaxx":1,"parallaxy":1,"objects":[{"id":107,"x":364,"y":204,"visible":true,"properties":[{"name":"x","type":"int","value":364},{"name":"y","type":"int","value":204},{"name":"pn","type":"string","value":"sp"},{"name":"pt","type":"int","value":0},{"name":"tm","type":"int","value":999999999},{"name":"tn","type":"string","value":""}],"point":true},{"id":108,"x":158,"y":251,"visible":true,"properties":[{"name":"x","type":"int","value":202},{"name":"y","type":"int","value":242},{"name":"pn","type":"string","value":"out02"},{"name":"pt","type":"int","value":2},{"name":"tm","type":"int","value":100000000},{"name":"tn","type":"string","value":"in02"}],"gid":82,"width":89,"height":257}],"properties":[]},{"id":11,"name":"life","type":"objectgroup","visible":true,"opacity":1,"draworder":"index","offsetx":0,"offsety":0,"parallaxx":1,"parallaxy":1,"objects":[{"id":109,"x":-17,"y":36,"visible":true,"properties":[{"name":"x","type":"int","value":-17},{"name":"y","type":"int","value":36},{"name":"cy","type":"int","value":38},{"name":"fh","type":"int","value":26},{"name":"id","type":"int","value":1012101},{"name":"rx0","type":"int","value":-67},{"name":"rx1","type":"int","value":33},{"name":"type","type":"string","value":"n"},{"name":"npc_aseprite","type":"file","value":"../../Npc/1012101.img/animation.aseprite"}],"point":true}],"properties":[]},{"id":12,"name":"foothold","type":"objectgroup","visible":true,"opacity":1,"draworder":"index","offsetx":0,"offsety":0,"parallaxx":1,"parallaxy":1,"objects":[{"id":110,"x":-360,"y":274,"visible":true,"properties":[{"name":"layer","type":"int","value":1},{"name":"group","type":"int","value":0},{"name":"id","type":"int","value":1},{"name":"fh_layer","type":"int","value":1},{"name":"fh_group","type":"int","value":0},{"name":"fh_id","type":"int","value":1},{"name":"x1","type":"int","value":-360},{"name":"x2","type":"int","value":-270},{"name":"y1","type":"int","value":274},{"name":"y2","type":"int","value":274},{"name":"next","type":"int","value":2},{"name":"prev","type":"int","value":22}],"polyline":[{"x":0,"y":0},{"x":90,"y":0}]},{"id":111,"x":-270,"y":274,"visible":true,"properties":[{"name":"layer","type":"int","value":1},{"name":"group","type":"int","value":0},{"name":"id","type":"int","value":2},{"name":"fh_layer","type":"int","value":1},{"name":"fh_group","type":"int","value":0},{"name":"fh_id","type":"int","value":2},{"name":"x1","type":"int","value":-270},{"name":"x2","type":"int","value":-180},{"name":"y1","type":"int","value":274},{"name":"y2","type":"int","value":274},{"name":"next","type":"int","value":4},{"name":"prev","type":"int","value":1}],"polyline":[{"x":0,"y":0},{"x":90,"y":0}]},{"id":112,"x":-90,"y":274,"visible":true,"properties":[{"name":"layer","type":"int","value":1},{"name":"group","type":"int","value":0},{"name":"id","type":"int","value":3},{"name":"fh_layer","type":"int","value":1},{"name":"fh_group","type":"int","value":0},{"name":"fh_id","type":"int","value":3},{"name":"x1","type":"int","value":-90},{"name":"x2","type":"int","value":0},{"name":"y1","type":"int","value":274},{"name":"y2","type":"int","value":274},{"name":"next","type":"int","value":16},{"name":"prev","type":"int","value":4}],"polyline":[{"x":0,"y":0},{"x":90,"y":0}]},{"id":113,"x":-180,"y":274,"visible":true,"properties":[{"name":"layer","type":"int","value":1},{"name":"group","type":"int","value":0},{"name":"id","type":"int","value":4},{"name":"fh_layer","type":"int","value":1},{"name":"fh_group","type":"int","value":0},{"name":"fh_id","type":"int","value":4},{"name":"x1","type":"int","value":-180},{"name":"x2","type":"int","value":-90},{"name":"y1","type":"int","value":274},{"name":"y2","type":"int","value":274},{"name":"next","type":"int","value":3},{"name":"prev","type":"int","value":2}],"polyline":[{"x":0,"y":0},{"x":90,"y":0}]},{"id":114,"x":668,"y":300,"visible":true,"properties":[{"name":"layer","type":"int","value":1},{"name":"group","type":"int","value":0},{"name":"id","type":"int","value":5},{"name":"fh_layer","type":"int","value":1},{"name":"fh_group","type":"int","value":0},{"name":"fh_id","type":"int","value":5},{"name":"x1","type":"int","value":668},{"name":"x2","type":"int","value":668},{"name":"y1","type":"int","value":300},{"name":"y2","type":"int","value":360},{"name":"next","type":"int","value":9},{"name":"prev","type":"int","value":7}],"polyline":[{"x":0,"y":0},{"x":0,"y":60}]},{"id":115,"x":592,"y":274,"visible":true,"properties":[{"name":"layer","type":"int","value":1},{"name":"group","type":"int","value":0},{"name":"id","type":"int","value":6},{"name":"fh_layer","type":"int","value":1},{"name":"fh_group","type":"int","value":0},{"name":"fh_id","type":"int","value":6},{"name":"x1","type":"int","value":592},{"name":"x2","type":"int","value":668},{"name":"y1","type":"int","value":274},{"name":"y2","type":"int","value":274},{"name":"next","type":"int","value":7},{"name":"prev","type":"int","value":12}],"polyline":[{"x":0,"y":0},{"x":76,"y":0}]},{"id":116,"x":668,"y":274,"visible":true,"properties":[{"name":"layer","type":"int","value":1},{"name":"group","type":"int","value":0},{"name":"id","type":"int","value":7},{"name":"fh_layer","type":"int","value":1},{"name":"fh_group","type":"int","value":0},{"name":"fh_id","type":"int","value":7},{"name":"x1","type":"int","value":668},{"name":"x2","type":"int","value":668},{"name":"y1","type":"int","value":274},{"name":"y2","type":"int","value":300},{"name":"next","type":"int","value":5},{"name":"prev","type":"int","value":6}],"polyline":[{"x":0,"y":0},{"x":0,"y":26}]},{"id":117,"x":668,"y":420,"visible":true,"properties":[{"name":"layer","type":"int","value":1},{"name":"group","type":"int","value":0},{"name":"id","type":"int","value":8},{"name":"fh_layer","type":"int","value":1},{"name":"fh_group","type":"int","value":0},{"name":"fh_id","type":"int","value":8},{"name":"x1","type":"int","value":668},{"name":"x2","type":"int","value":668},{"name":"y1","type":"int","value":420},{"name":"y2","type":"int","value":480},{"name":"next","type":"int","value":11},{"name":"prev","type":"int","value":9}],"polyline":[{"x":0,"y":0},{"x":0,"y":60}]},{"id":118,"x":668,"y":360,"visible":true,"properties":[{"name":"layer","type":"int","value":1},{"name":"group","type":"int","value":0},{"name":"id","type":"int","value":9},{"name":"fh_layer","type":"int","value":1},{"name":"fh_group","type":"int","value":0},{"name":"fh_id","type":"int","value":9},{"name":"x1","type":"int","value":668},{"name":"x2","type":"int","value":668},{"name":"y1","type":"int","value":360},{"name":"y2","type":"int","value":420},{"name":"next","type":"int","value":8},{"name":"prev","type":"int","value":5}],"polyline":[{"x":0,"y":0},{"x":0,"y":60}]},{"id":119,"x":450,"y":274,"visible":true,"properties":[{"name":"layer","type":"int","value":1},{"name":"group","type":"int","value":0},{"name":"id","type":"int","value":10},{"name":"fh_layer","type":"int","value":1},{"name":"fh_group","type":"int","value":0},{"name":"fh_id","type":"int","value":10},{"name":"x1","type":"int","value":450},{"name":"x2","type":"int","value":540},{"name":"y1","type":"int","value":274},{"name":"y2","type":"int","value":274},{"name":"next","type":"int","value":12},{"name":"prev","type":"int","value":13}],"polyline":[{"x":0,"y":0},{"x":90,"y":0}]},{"id":120,"x":668,"y":480,"visible":true,"properties":[{"name":"layer","type":"int","value":1},{"name":"group","type":"int","value":0},{"name":"id","type":"int","value":11},{"name":"fh_layer","type":"int","value":1},{"name":"fh_group","type":"int","value":0},{"name":"fh_id","type":"int","value":11},{"name":"x1","type":"int","value":668},{"name":"x2","type":"int","value":668},{"name":"y1","type":"int","value":480},{"name":"y2","type":"int","value":540},{"name":"next","type":"int","value":0},{"name":"prev","type":"int","value":8}],"polyline":[{"x":0,"y":0},{"x":0,"y":60}]},{"id":121,"x":540,"y":274,"visible":true,"properties":[{"name":"layer","type":"int","value":1},{"name":"group","type":"int","value":0},{"name":"id","type":"int","value":12},{"name":"fh_layer","type":"int","value":1},{"name":"fh_group","type":"int","value":0},{"name":"fh_id","type":"int","value":12},{"name":"x1","type":"int","value":540},{"name":"x2","type":"int","value":592},{"name":"y1","type":"int","value":274},{"name":"y2","type":"int","value":274},{"name":"next","type":"int","value":6},{"name":"prev","type":"int","value":10}],"polyline":[{"x":0,"y":0},{"x":52,"y":0}]},{"id":122,"x":360,"y":274,"visible":true,"properties":[{"name":"layer","type":"int","value":1},{"name":"group","type":"int","value":0},{"name":"id","type":"int","value":13},{"name":"fh_layer","type":"int","value":1},{"name":"fh_group","type":"int","value":0},{"name":"fh_id","type":"int","value":13},{"name":"x1","type":"int","value":360},{"name":"x2","type":"int","value":450},{"name":"y1","type":"int","value":274},{"name":"y2","type":"int","value":274},{"name":"next","type":"int","value":10},{"name":"prev","type":"int","value":14}],"polyline":[{"x":0,"y":0},{"x":90,"y":0}]},{"id":123,"x":270,"y":274,"visible":true,"properties":[{"name":"layer","type":"int","value":1},{"name":"group","type":"int","value":0},{"name":"id","type":"int","value":14},{"name":"fh_layer","type":"int","value":1},{"name":"fh_group","type":"int","value":0},{"name":"fh_id","type":"int","value":14},{"name":"x1","type":"int","value":270},{"name":"x2","type":"int","value":360},{"name":"y1","type":"int","value":274},{"name":"y2","type":"int","value":274},{"name":"next","type":"int","value":13},{"name":"prev","type":"int","value":34}],"polyline":[{"x":0,"y":0},{"x":90,"y":0}]},{"id":124,"x":180,"y":274,"visible":true,"properties":[{"name":"layer","type":"int","value":1},{"name":"group","type":"int","value":0},{"name":"id","type":"int","value":15},{"name":"fh_layer","type":"int","value":1},{"name":"fh_group","type":"int","value":0},{"name":"fh_id","type":"int","value":15},{"name":"x1","type":"int","value":180},{"name":"x2","type":"int","value":258},{"name":"y1","type":"int","value":274},{"name":"y2","type":"int","value":274},{"name":"next","type":"int","value":34},{"name":"prev","type":"int","value":17}],"polyline":[{"x":0,"y":0},{"x":78,"y":0}]},{"id":125,"x":0,"y":274,"visible":true,"properties":[{"name":"layer","type":"int","value":1},{"name":"group","type":"int","value":0},{"name":"id","type":"int","value":16},{"name":"fh_layer","type":"int","value":1},{"name":"fh_group","type":"int","value":0},{"name":"fh_id","type":"int","value":16},{"name":"x1","type":"int","value":0},{"name":"x2","type":"int","value":90},{"name":"y1","type":"int","value":274},{"name":"y2","type":"int","value":274},{"name":"next","type":"int","value":17},{"name":"prev","type":"int","value":3}],"polyline":[{"x":0,"y":0},{"x":90,"y":0}]},{"id":126,"x":90,"y":274,"visible":true,"properties":[{"name":"layer","type":"int","value":1},{"name":"group","type":"int","value":0},{"name":"id","type":"int","value":17},{"name":"fh_layer","type":"int","value":1},{"name":"fh_group","type":"int","value":0},{"name":"fh_id","type":"int","value":17},{"name":"x1","type":"int","value":90},{"name":"x2","type":"int","value":180},{"name":"y1","type":"int","value":274},{"name":"y2","type":"int","value":274},{"name":"next","type":"int","value":15},{"name":"prev","type":"int","value":16}],"polyline":[{"x":0,"y":0},{"x":90,"y":0}]},{"id":127,"x":-488,"y":360,"visible":true,"properties":[{"name":"layer","type":"int","value":1},{"name":"group","type":"int","value":0},{"name":"id","type":"int","value":18},{"name":"fh_layer","type":"int","value":1},{"name":"fh_group","type":"int","value":0},{"name":"fh_id","type":"int","value":18},{"name":"x1","type":"int","value":-488},{"name":"x2","type":"int","value":-488},{"name":"y1","type":"int","value":360},{"name":"y2","type":"int","value":300},{"name":"next","type":"int","value":20},{"name":"prev","type":"int","value":23}],"polyline":[{"x":0,"y":0},{"x":0,"y":-60}]},{"id":128,"x":-488,"y":480,"visible":true,"properties":[{"name":"layer","type":"int","value":1},{"name":"group","type":"int","value":0},{"name":"id","type":"int","value":19},{"name":"fh_layer","type":"int","value":1},{"name":"fh_group","type":"int","value":0},{"name":"fh_id","type":"int","value":19},{"name":"x1","type":"int","value":-488},{"name":"x2","type":"int","value":-488},{"name":"y1","type":"int","value":480},{"name":"y2","type":"int","value":420},{"name":"next","type":"int","value":23},{"name":"prev","type":"int","value":24}],"polyline":[{"x":0,"y":0},{"x":0,"y":-60}]},{"id":129,"x":-488,"y":300,"visible":true,"properties":[{"name":"layer","type":"int","value":1},{"name":"group","type":"int","value":0},{"name":"id","type":"int","value":20},{"name":"fh_layer","type":"int","value":1},{"name":"fh_group","type":"int","value":0},{"name":"fh_id","type":"int","value":20},{"name":"x1","type":"int","value":-488},{"name":"x2","type":"int","value":-488},{"name":"y1","type":"int","value":300},{"name":"y2","type":"int","value":274},{"name":"next","type":"int","value":21},{"name":"prev","type":"int","value":18}],"polyline":[{"x":0,"y":0},{"x":0,"y":-26}]},{"id":130,"x":-488,"y":274,"visible":true,"properties":[{"name":"layer","type":"int","value":1},{"name":"group","type":"int","value":0},{"name":"id","type":"int","value":21},{"name":"fh_layer","type":"int","value":1},{"name":"fh_group","type":"int","value":0},{"name":"fh_id","type":"int","value":21},{"name":"x1","type":"int","value":-488},{"name":"x2","type":"int","value":-412},{"name":"y1","type":"int","value":274},{"name":"y2","type":"int","value":274},{"name":"next","type":"int","value":22},{"name":"prev","type":"int","value":20}],"polyline":[{"x":0,"y":0},{"x":76,"y":0}]},{"id":131,"x":-412,"y":274,"visible":true,"properties":[{"name":"layer","type":"int","value":1},{"name":"group","type":"int","value":0},{"name":"id","type":"int","value":22},{"name":"fh_layer","type":"int","value":1},{"name":"fh_group","type":"int","value":0},{"name":"fh_id","type":"int","value":22},{"name":"x1","type":"int","value":-412},{"name":"x2","type":"int","value":-360},{"name":"y1","type":"int","value":274},{"name":"y2","type":"int","value":274},{"name":"next","type":"int","value":1},{"name":"prev","type":"int","value":21}],"polyline":[{"x":0,"y":0},{"x":52,"y":0}]},{"id":132,"x":-488,"y":420,"visible":true,"properties":[{"name":"layer","type":"int","value":1},{"name":"group","type":"int","value":0},{"name":"id","type":"int","value":23},{"name":"fh_layer","type":"int","value":1},{"name":"fh_group","type":"int","value":0},{"name":"fh_id","type":"int","value":23},{"name":"x1","type":"int","value":-488},{"name":"x2","type":"int","value":-488},{"name":"y1","type":"int","value":420},{"name":"y2","type":"int","value":360},{"name":"next","type":"int","value":18},{"name":"prev","type":"int","value":19}],"polyline":[{"x":0,"y":0},{"x":0,"y":-60}]},{"id":133,"x":-488,"y":540,"visible":true,"properties":[{"name":"layer","type":"int","value":1},{"name":"group","type":"int","value":0},{"name":"id","type":"int","value":24},{"name":"fh_layer","type":"int","value":1},{"name":"fh_group","type":"int","value":0},{"name":"fh_id","type":"int","value":24},{"name":"x1","type":"int","value":-488},{"name":"x2","type":"int","value":-488},{"name":"y1","type":"int","value":540},{"name":"y2","type":"int","value":480},{"name":"next","type":"int","value":19},{"name":"prev","type":"int","value":0}],"polyline":[{"x":0,"y":0},{"x":0,"y":-60}]},{"id":134,"x":-174,"y":-126,"visible":true,"properties":[{"name":"layer","type":"int","value":1},{"name":"group","type":"int","value":0},{"name":"id","type":"int","value":25},{"name":"fh_layer","type":"int","value":1},{"name":"fh_group","type":"int","value":0},{"name":"fh_id","type":"int","value":25},{"name":"x1","type":"int","value":-174},{"name":"x2","type":"int","value":-174},{"name":"y1","type":"int","value":-126},{"name":"y2","type":"int","value":38},{"name":"next","type":"int","value":26},{"name":"prev","type":"int","value":28}],"polyline":[{"x":0,"y":0},{"x":0,"y":164}]},{"id":135,"x":-174,"y":38,"visible":true,"properties":[{"name":"layer","type":"int","value":1},{"name":"group","type":"int","value":0},{"name":"id","type":"int","value":26},{"name":"fh_layer","type":"int","value":1},{"name":"fh_group","type":"int","value":0},{"name":"fh_id","type":"int","value":26},{"name":"x1","type":"int","value":-174},{"name":"x2","type":"int","value":106},{"name":"y1","type":"int","value":38},{"name":"y2","type":"int","value":38},{"name":"next","type":"int","value":27},{"name":"prev","type":"int","value":25}],"polyline":[{"x":0,"y":0},{"x":280,"y":0}]},{"id":136,"x":106,"y":38,"visible":true,"properties":[{"name":"layer","type":"int","value":1},{"name":"group","type":"int","value":0},{"name":"id","type":"int","value":27},{"name":"fh_layer","type":"int","value":1},{"name":"fh_group","type":"int","value":0},{"name":"fh_id","type":"int","value":27},{"name":"x1","type":"int","value":106},{"name":"x2","type":"int","value":106},{"name":"y1","type":"int","value":38},{"name":"y2","type":"int","value":-126},{"name":"next","type":"int","value":28},{"name":"prev","type":"int","value":26}],"polyline":[{"x":0,"y":0},{"x":0,"y":-164}]},{"id":137,"x":106,"y":-126,"visible":true,"properties":[{"name":"layer","type":"int","value":1},{"name":"group","type":"int","value":0},{"name":"id","type":"int","value":28},{"name":"fh_layer","type":"int","value":1},{"name":"fh_group","type":"int","value":0},{"name":"fh_id","type":"int","value":28},{"name":"x1","type":"int","value":106},{"name":"x2","type":"int","value":-174},{"name":"y1","type":"int","value":-126},{"name":"y2","type":"int","value":-126},{"name":"next","type":"int","value":25},{"name":"prev","type":"int","value":27}],"polyline":[{"x":0,"y":0},{"x":-280,"y":0}]},{"id":138,"x":162,"y":127,"visible":true,"properties":[{"name":"layer","type":"int","value":1},{"name":"group","type":"int","value":0},{"name":"id","type":"int","value":29},{"name":"fh_layer","type":"int","value":1},{"name":"fh_group","type":"int","value":0},{"name":"fh_id","type":"int","value":29},{"name":"x1","type":"int","value":162},{"name":"x2","type":"int","value":97},{"name":"y1","type":"int","value":127},{"name":"y2","type":"int","value":50},{"name":"next","type":"int","value":30},{"name":"prev","type":"int","value":0}],"polyline":[{"x":0,"y":0},{"x":-65,"y":-77}]},{"id":139,"x":97,"y":50,"visible":true,"properties":[{"name":"layer","type":"int","value":1},{"name":"group","type":"int","value":0},{"name":"id","type":"int","value":30},{"name":"fh_layer","type":"int","value":1},{"name":"fh_group","type":"int","value":0},{"name":"fh_id","type":"int","value":30},{"name":"x1","type":"int","value":97},{"name":"x2","type":"int","value":-151},{"name":"y1","type":"int","value":50},{"name":"y2","type":"int","value":50},{"name":"next","type":"int","value":31},{"name":"prev","type":"int","value":29}],"polyline":[{"x":0,"y":0},{"x":-248,"y":0}]},{"id":140,"x":-151,"y":50,"visible":true,"properties":[{"name":"layer","type":"int","value":1},{"name":"group","type":"int","value":0},{"name":"id","type":"int","value":31},{"name":"fh_layer","type":"int","value":1},{"name":"fh_group","type":"int","value":0},{"name":"fh_id","type":"int","value":31},{"name":"x1","type":"int","value":-151},{"name":"x2","type":"int","value":-151},{"name":"y1","type":"int","value":50},{"name":"y2","type":"int","value":245},{"name":"next","type":"int","value":32},{"name":"prev","type":"int","value":30}],"polyline":[{"x":0,"y":0},{"x":0,"y":195}]},{"id":141,"x":-151,"y":245,"visible":true,"properties":[{"name":"layer","type":"int","value":1},{"name":"group","type":"int","value":0},{"name":"id","type":"int","value":32},{"name":"fh_layer","type":"int","value":1},{"name":"fh_group","type":"int","value":0},{"name":"fh_id","type":"int","value":32},{"name":"x1","type":"int","value":-151},{"name":"x2","type":"int","value":258},{"name":"y1","type":"int","value":245},{"name":"y2","type":"int","value":245},{"name":"next","type":"int","value":33},{"name":"prev","type":"int","value":31}],"polyline":[{"x":0,"y":0},{"x":409,"y":0}]},{"id":142,"x":258,"y":245,"visible":true,"properties":[{"name":"layer","type":"int","value":1},{"name":"group","type":"int","value":0},{"name":"id","type":"int","value":33},{"name":"fh_layer","type":"int","value":1},{"name":"fh_group","type":"int","value":0},{"name":"fh_id","type":"int","value":33},{"name":"x1","type":"int","value":258},{"name":"x2","type":"int","value":258},{"name":"y1","type":"int","value":245},{"name":"y2","type":"int","value":274},{"name":"next","type":"int","value":34},{"name":"prev","type":"int","value":32}],"polyline":[{"x":0,"y":0},{"x":0,"y":29}]},{"id":143,"x":258,"y":274,"visible":true,"properties":[{"name":"layer","type":"int","value":1},{"name":"group","type":"int","value":0},{"name":"id","type":"int","value":34},{"name":"fh_layer","type":"int","value":1},{"name":"fh_group","type":"int","value":0},{"name":"fh_id","type":"int","value":34},{"name":"x1","type":"int","value":258},{"name":"x2","type":"int","value":270},{"name":"y1","type":"int","value":274},{"name":"y2","type":"int","value":274},{"name":"next","type":"int","value":14},{"name":"prev","type":"int","value":33}],"polyline":[{"x":0,"y":0},{"x":12,"y":0}]}],"properties":[]},{"id":13,"name":"ladderRope","type":"objectgroup","visible":true,"opacity":1,"draworder":"index","offsetx":0,"offsety":0,"parallaxx":1,"parallaxy":1,"objects":[{"id":144,"x":18,"y":40,"visible":true,"properties":[{"name":"ladder_id","type":"int","value":1},{"name":"l","type":"int","value":1},{"name":"x","type":"int","value":18},{"name":"uf","type":"int","value":1},{"name":"y1","type":"int","value":40},{"name":"y2","type":"int","value":243},{"name":"page","type":"int","value":1}],"polyline":[{"x":0,"y":0},{"x":0,"y":203}]}],"properties":[]},{"id":14,"name":"miniMap","type":"objectgroup","visible":true,"opacity":1,"draworder":"index","offsetx":0,"offsety":0,"parallaxx":1,"parallaxy":1,"objects":[{"id":145,"x":528,"y":409,"visible":true,"properties":[{"name":"mag","type":"int","value":4},{"name":"centerX","type":"int","value":528},{"name":"centerY","type":"int","value":409},{"name":"canvas_path","type":"string","value":"../images/30784.png"},{"name":"canvas_width","type":"int","value":77},{"name":"canvas_height","type":"int","value":63},{"name":"canvas_origin_x","type":"int","value":0},{"name":"canvas_origin_y","type":"int","value":0}],"point":true}],"properties":[]}],"tilesets":[{"firstgid":1,"source":"../tilesets/bg_grassySoil.tsj"},{"firstgid":7,"source":"../tilesets/tile_woodMarble.tsj"},{"firstgid":29,"source":"../tilesets/obj_connect_ladder_1.tsj"},{"firstgid":30,"source":"../tilesets/obj_prop_grassySoil_fur.tsj"},{"firstgid":33,"source":"../tilesets/obj_prop_grassySoil_win.tsj"},{"firstgid":34,"source":"../tilesets/obj_prop_grassySoil_door.tsj"},{"firstgid":35,"source":"../tilesets/obj_prop_grassySoil_lamp.tsj"},{"firstgid":36,"source":"../tilesets/obj_insideGS_house2_basic.tsj"},{"firstgid":40,"source":"../tilesets/obj_acc1_grassySoil_market.tsj"},{"firstgid":59,"source":"../tilesets/obj_acc1_grassySoil_nature.tsj"},{"firstgid":82,"source":"../tilesets/portal_MapHelper.img_portal_game_pv.tsj"},{"firstgid":90,"source":"../tilesets/obj_acc1_woodMarble_artificiality.tsj"}],"properties":[{"name":"bgm","type":"string","value":"Bgm00/FloralLife"},{"name":"town","type":"int","value":1},{"name":"cloud","type":"int","value":0},{"name":"mapDesc","type":"string","value":""},{"name":"mapMark","type":"string","value":"Henesys"},{"name":"mobRate","type":"float","value":1},{"name":"version","type":"int","value":10},{"name":"moveLimit","type":"int","value":0},{"name":"returnMap","type":"int","value":100000001},{"name":"hideMinimap","type":"int","value":0},{"name":"forcedReturn","type":"int","value":999999999}]}