{"type":"map","orientation":"orthogonal","renderorder":"right-down","infinite":false,"tilewidth":1,"tileheight":1,"width":800,"height":600,"parallaxoriginx":-400,"parallaxoriginy":80,"nextlayerid":5,"nextobjectid":85,"layers":[{"id":1,"name":"layer_1_obj","type":"objectgroup","visible":true,"opacity":1,"draworder":"index","offsetx":0,"offsety":0,"parallaxx":1,"parallaxy":1,"objects":[{"id":1,"x":-401,"y":299,"visible":true,"properties":[{"name":"layer","type":"int","value":1},{"name":"resource_index","type":"int","value":0},{"name":"oS","type":"string","value":"acc1"},{"name":"l0","type":"string","value":"lv200"},{"name":"l1","type":"string","value":"magician"},{"name":"l2","type":"string","value":"0"},{"name":"z","type":"int","value":1},{"name":"zM","type":"int","value":0},{"name":"f","type":"int","value":0}],"gid":1,"width":800,"height":600},{"id":2,"x":-400,"y":299,"visible":true,"properties":[{"name":"layer","type":"int","value":1},{"name":"resource_index","type":"int","value":1},{"name":"oS","type":"string","value":"acc1"},{"name":"l0","type":"string","value":"lv200"},{"name":"l1","type":"string","value":"magician"},{"name":"l2","type":"string","value":"1"},{"name":"z","type":"int","value":5},{"name":"zM","type":"int","value":0},{"name":"f","type":"int","value":0}],"gid":2,"width":800,"height":600},{"id":3,"x":-400,"y":257,"visible":true,"properties":[{"name":"layer","type":"int","value":1},{"name":"resource_index","type":"int","value":2},{"name":"oS","type":"string","value":"acc1"},{"name":"l0","type":"string","value":"lv200"},{"name":"l1","type":"string","value":"magician"},{"name":"l2","type":"string","value":"2"},{"name":"z","type":"int","value":9},{"name":"zM","type":"int","value":0},{"name":"f","type":"int","value":0}],"gid":3,"width":800,"height":295}],"properties":[]},{"id":2,"name":"portal","type":"objectgroup","visible":true,"opacity":1,"draworder":"index","offsetx":0,"offsety":0,"parallaxx":1,"parallaxy":1,"objects":[{"id":4,"x":220,"y":136,"visible":true,"properties":[{"name":"x","type":"int","value":220},{"name":"y","type":"int","value":136},{"name":"pn","type":"string","value":"sp"},{"name":"pt","type":"int","value":0},{"name":"tm","type":"int","value":999999999},{"name":"tn","type":"string","value":""},{"name":"horizontalImpact","type":"int","value":0}],"point":true},{"id":5,"x":286,"y":-34,"visible":true,"properties":[{"name":"x","type":"int","value":286},{"name":"y","type":"int","value":-34},{"name":"pn","type":"string","value":"sp"},{"name":"pt","type":"int","value":0},{"name":"tm","type":"int","value":999999999},{"name":"tn","type":"string","value":""},{"name":"horizontalImpact","type":"int","value":0}],"point":true},{"id":6,"x":265,"y":167,"visible":true,"properties":[{"name":"x","type":"int","value":309},{"name":"y","type":"int","value":158},{"name":"pn","type":"string","value":"out00"},{"name":"pt","type":"int","value":2},{"name":"tm","type":"int","value":101000003},{"name":"tn","type":"string","value":"rank00"},{"name":"delay","type":"int","value":0},{"name":"script","type":"string","value":""},{"name":"onlyOnce","type":"int","value":0},{"name":"hideTooltip","type":"int","value":0},{"name":"horizontalImpact","type":"int","value":0}],"gid":4,"width":89,"height":257}],"properties":[]},{"id":3,"name":"life","type":"objectgroup","visible":true,"opacity":1,"draworder":"index","offsetx":0,"offsety":0,"parallaxx":1,"parallaxy":1,"objects":[{"id":7,"x":2,"y":-38,"visible":true,"properties":[{"name":"f","type":"int","value":0},{"name":"x","type":"int","value":2},{"name":"y","type":"int","value":-38},{"name":"cy","type":"int","value":-34},{"name":"fh","type":"int","value":3},{"name":"id","type":"int","value":9901710},{"name":"rx0","type":"int","value":-48},{"name":"rx1","type":"int","value":52},{"name":"hide","type":"int","value":0},{"name":"type","type":"string","value":"n"},{"name":"mobTime","type":"int","value":0},{"name":"npc_aseprite","type":"file","value":"../../Npc/9901710.img/animation.aseprite"}],"point":true},{"id":8,"x":-107,"y":45,"visible":true,"properties":[{"name":"f","type":"int","value":0},{"name":"x","type":"int","value":-107},{"name":"y","type":"int","value":45},{"name":"cy","type":"int","value":51},{"name":"fh","type":"int","value":1},{"name":"id","type":"int","value":9901711},{"name":"rx0","type":"int","value":-157},{"name":"rx1","type":"int","value":-57},{"name":"hide","type":"int","value":0},{"name":"type","type":"string","value":"n"},{"name":"mobTime","type":"int","value":0},{"name":"npc_aseprite","type":"file","value":"../../Npc/9901711.img/animation.aseprite"}],"point":true},{"id":9,"x":116,"y":47,"visible":true,"properties":[{"name":"f","type":"int","value":0},{"name":"x","type":"int","value":116},{"name":"y","type":"int","value":47},{"name":"cy","type":"int","value":52},{"name":"fh","type":"int","value":2},{"name":"id","type":"int","value":9901712},{"name":"rx0","type":"int","value":66},{"name":"rx1","type":"int","value":166},{"name":"hide","type":"int","value":0},{"name":"type","type":"string","value":"n"},{"name":"mobTime","type":"int","value":0},{"name":"npc_aseprite","type":"file","value":"../../Npc/9901712.img/animation.aseprite"}],"point":true},{"id":10,"x":-222,"y":9,"visible":true,"properties":[{"name":"f","type":"int","value":0},{"name":"x","type":"int","value":-222},{"name":"y","type":"int","value":9},{"name":"cy","type":"int","value":17},{"name":"fh","type":"int","value":53},{"name":"id","type":"int","value":9901713},{"name":"rx0","type":"int","value":-272},{"name":"rx1","type":"int","value":-172},{"name":"hide","type":"int","value":0},{"name":"type","type":"string","value":"n"},{"name":"mobTime","type":"int","value":0},{"name":"npc_aseprite","type":"file","value":"../../Npc/9901713.img/animation.aseprite"}],"point":true},{"id":11,"x":230,"y":-5,"visible":true,"properties":[{"name":"f","type":"int","value":0},{"name":"x","type":"int","value":230},{"name":"y","type":"int","value":-5},{"name":"cy","type":"int","value":2},{"name":"fh","type":"int","value":56},{"name":"id","type":"int","value":9901714},{"name":"rx0","type":"int","value":180},{"name":"rx1","type":"int","value":280},{"name":"hide","type":"int","value":0},{"name":"type","type":"string","value":"n"},{"name":"mobTime","type":"int","value":0},{"name":"npc_aseprite","type":"file","value":"../../Npc/9901714.img/animation.aseprite"}],"point":true},{"id":12,"x":-337,"y":-17,"visible":true,"properties":[{"name":"f","type":"int","value":0},{"name":"x","type":"int","value":-337},{"name":"y","type":"int","value":-17},{"name":"cy","type":"int","value":-8},{"name":"fh","type":"int","value":46},{"name":"id","type":"int","value":9901715},{"name":"rx0","type":"int","value":-380},{"name":"rx1","type":"int","value":-287},{"name":"hide","type":"int","value":0},{"name":"type","type":"string","value":"n"},{"name":"mobTime","type":"int","value":0},{"name":"npc_aseprite","type":"file","value":"../../Npc/9901715.img/animation.aseprite"}],"point":true},{"id":13,"x":338,"y":-20,"visible":true,"properties":[{"name":"f","type":"int","value":0},{"name":"x","type":"int","value":338},{"name":"y","type":"int","value":-20},{"name":"cy","type":"int","value":-14},{"name":"fh","type":"int","value":64},{"name":"id","type":"int","value":9901716},{"name":"rx0","type":"int","value":288},{"name":"rx1","type":"int","value":380},{"name":"hide","type":"int","value":0},{"name":"type","type":"string","value":"n"},{"name":"mobTime","type":"int","value":0},{"name":"npc_aseprite","type":"file","value":"../../Npc/9901716.img/animation.aseprite"}],"point":true},{"id":14,"x":-159,"y":167,"visible":true,"properties":[{"name":"f","type":"int","value":0},{"name":"x","type":"int","value":-159},{"name":"y","type":"int","value":167},{"name":"cy","type":"int","value":173},{"name":"fh","type":"int","value":15},{"name":"id","type":"int","value":9901717},{"name":"rx0","type":"int","value":-209},{"name":"rx1","type":"int","value":-109},{"name":"hide","type":"int","value":0},{"name":"type","type":"string","value":"n"},{"name":"mobTime","type":"int","value":0},{"name":"npc_aseprite","type":"file","value":"../../Npc/9901717.img/animation.aseprite"}],"point":true},{"id":15,"x":8,"y":158,"visible":true,"properties":[{"name":"f","type":"int","value":0},{"name":"x","type":"int","value":8},{"name":"y","type":"int","value":158},{"name":"cy","type":"int","value":165},{"name":"fh","type":"int","value":24},{"name":"id","type":"int","value":9901718},{"name":"rx0","type":"int","value":-42},{"name":"rx1","type":"int","value":58},{"name":"hide","type":"int","value":0},{"name":"type","type":"string","value":"n"},{"name":"mobTime","type":"int","value":0},{"name":"npc_aseprite","type":"file","value":"../../Npc/9901718.img/animation.aseprite"}],"point":true},{"id":16,"x":170,"y":154,"visible":true,"properties":[{"name":"f","type":"int","value":0},{"name":"x","type":"int","value":170},{"name":"y","type":"int","value":154},{"name":"cy","type":"int","value":160},{"name":"fh","type":"int","value":32},{"name":"id","type":"int","value":9901719},{"name":"rx0","type":"int","value":120},{"name":"rx1","type":"int","value":220},{"name":"hide","type":"int","value":0},{"name":"type","type":"string","value":"n"},{"name":"mobTime","type":"int","value":0},{"name":"npc_aseprite","type":"file","value":"../../Npc/9901719.img/animation.aseprite"}],"point":true},{"id":17,"x":-310,"y":158,"visible":true,"properties":[{"name":"f","type":"int","value":1},{"name":"x","type":"int","value":-310},{"name":"y","type":"int","value":158},{"name":"cy","type":"int","value":163},{"name":"fh","type":"int","value":5},{"name":"id","type":"int","value":9010021},{"name":"rx0","type":"int","value":-360},{"name":"rx1","type":"int","value":-260},{"name":"hide","type":"int","value":0},{"name":"type","type":"string","value":"n"},{"name":"mobTime","type":"int","value":0},{"name":"npc_aseprite","type":"file","value":"../../Npc/9010021.img/animation.aseprite"}],"point":true}],"properties":[]},{"id":4,"name":"foothold","type":"objectgroup","visible":true,"opacity":1,"draworder":"index","offsetx":0,"offsety":0,"parallaxx":1,"parallaxy":1,"objects":[{"id":18,"x":-133,"y":51,"visible":true,"properties":[{"name":"layer","type":"int","value":1},{"name":"group","type":"int","value":0},{"name":"id","type":"int","value":1},{"name":"fh_layer","type":"int","value":1},{"name":"fh_group","type":"int","value":0},{"name":"fh_id","type":"int","value":1},{"name":"x1","type":"int","value":-133},{"name":"x2","type":"int","value":-76},{"name":"y1","type":"int","value":51},{"name":"y2","type":"int","value":51},{"name":"next","type":"int","value":0},{"name":"prev","type":"int","value":0}],"polyline":[{"x":0,"y":0},{"x":57,"y":0}]},{"id":19,"x":85,"y":52,"visible":true,"properties":[{"name":"layer","type":"int","value":1},{"name":"group","type":"int","value":0},{"name":"id","type":"int","value":2},{"name":"fh_layer","type":"int","value":1},{"name":"fh_group","type":"int","value":0},{"name":"fh_id","type":"int","value":2},{"name":"x1","type":"int","value":85},{"name":"x2","type":"int","value":143},{"name":"y1","type":"int","value":52},{"name":"y2","type":"int","value":52},{"name":"next","type":"int","value":0},{"name":"prev","type":"int","value":0}],"polyline":[{"x":0,"y":0},{"x":58,"y":0}]},{"id":20,"x":-11,"y":-34,"visible":true,"properties":[{"name":"layer","type":"int","value":1},{"name":"group","type":"int","value":0},{"name":"id","type":"int","value":3},{"name":"fh_layer","type":"int","value":1},{"name":"fh_group","type":"int","value":0},{"name":"fh_id","type":"int","value":3},{"name":"x1","type":"int","value":-11},{"name":"x2","type":"int","value":20},{"name":"y1","type":"int","value":-34},{"name":"y2","type":"int","value":-34},{"name":"next","type":"int","value":0},{"name":"prev","type":"int","value":0}],"polyline":[{"x":0,"y":0},{"x":31,"y":0}]},{"id":21,"x":-400,"y":169,"visible":true,"properties":[{"name":"layer","type":"int","value":1},{"name":"group","type":"int","value":0},{"name":"id","type":"int","value":4},{"name":"fh_layer","type":"int","value":1},{"name":"fh_group","type":"int","value":0},{"name":"fh_id","type":"int","value":4},{"name":"x1","type":"int","value":-400},{"name":"x2","type":"int","value":-334},{"name":"y1","type":"int","value":169},{"name":"y2","type":"int","value":164},{"name":"next","type":"int","value":5},{"name":"prev","type":"int","value":0}],"polyline":[{"x":0,"y":0},{"x":66,"y":-5}]},{"id":22,"x":-334,"y":164,"visible":true,"properties":[{"name":"layer","type":"int","value":1},{"name":"group","type":"int","value":0},{"name":"id","type":"int","value":5},{"name":"fh_layer","type":"int","value":1},{"name":"fh_group","type":"int","value":0},{"name":"fh_id","type":"int","value":5},{"name":"x1","type":"int","value":-334},{"name":"x2","type":"int","value":-301},{"name":"y1","type":"int","value":164},{"name":"y2","type":"int","value":162},{"name":"next","type":"int","value":6},{"name":"prev","type":"int","value":4}],"polyline":[{"x":0,"y":0},{"x":33,"y":-2}]},{"id":23,"x":-301,"y":162,"visible":true,"properties":[{"name":"layer","type":"int","value":1},{"name":"group","type":"int","value":0},{"name":"id","type":"int","value":6},{"name":"fh_layer","type":"int","value":1},{"name":"fh_group","type":"int","value":0},{"name":"fh_id","type":"int","value":6},{"name":"x1","type":"int","value":-301},{"name":"x2","type":"int","value":-281},{"name":"y1","type":"int","value":162},{"name":"y2","type":"int","value":166},{"name":"next","type":"int","value":7},{"name":"prev","type":"int","value":5}],"polyline":[{"x":0,"y":0},{"x":20,"y":4}]},{"id":24,"x":-281,"y":166,"visible":true,"properties":[{"name":"layer","type":"int","value":1},{"name":"group","type":"int","value":0},{"name":"id","type":"int","value":7},{"name":"fh_layer","type":"int","value":1},{"name":"fh_group","type":"int","value":0},{"name":"fh_id","type":"int","value":7},{"name":"x1","type":"int","value":-281},{"name":"x2","type":"int","value":-270},{"name":"y1","type":"int","value":166},{"name":"y2","type":"int","value":166},{"name":"next","type":"int","value":8},{"name":"prev","type":"int","value":6}],"polyline":[{"x":0,"y":0},{"x":11,"y":0}]},{"id":25,"x":-270,"y":166,"visible":true,"properties":[{"name":"layer","type":"int","value":1},{"name":"group","type":"int","value":0},{"name":"id","type":"int","value":8},{"name":"fh_layer","type":"int","value":1},{"name":"fh_group","type":"int","value":0},{"name":"fh_id","type":"int","value":8},{"name":"x1","type":"int","value":-270},{"name":"x2","type":"int","value":-254},{"name":"y1","type":"int","value":166},{"name":"y2","type":"int","value":158},{"name":"next","type":"int","value":9},{"name":"prev","type":"int","value":7}],"polyline":[{"x":0,"y":0},{"x":16,"y":-8}]},{"id":26,"x":-254,"y":158,"visible":true,"properties":[{"name":"layer","type":"int","value":1},{"name":"group","type":"int","value":0},{"name":"id","type":"int","value":9},{"name":"fh_layer","type":"int","value":1},{"name":"fh_group","type":"int","value":0},{"name":"fh_id","type":"int","value":9},{"name":"x1","type":"int","value":-254},{"name":"x2","type":"int","value":-240},{"name":"y1","type":"int","value":158},{"name":"y2","type":"int","value":158},{"name":"next","type":"int","value":10},{"name":"prev","type":"int","value":8}],"polyline":[{"x":0,"y":0},{"x":14,"y":0}]},{"id":27,"x":-240,"y":158,"visible":true,"properties":[{"name":"layer","type":"int","value":1},{"name":"group","type":"int","value":0},{"name":"id","type":"int","value":10},{"name":"fh_layer","type":"int","value":1},{"name":"fh_group","type":"int","value":0},{"name":"fh_id","type":"int","value":10},{"name":"x1","type":"int","value":-240},{"name":"x2","type":"int","value":-225},{"name":"y1","type":"int","value":158},{"name":"y2","type":"int","value":158},{"name":"next","type":"int","value":11},{"name":"prev","type":"int","value":9}],"polyline":[{"x":0,"y":0},{"x":15,"y":0}]},{"id":28,"x":-225,"y":158,"visible":true,"properties":[{"name":"layer","type":"int","value":1},{"name":"group","type":"int","value":0},{"name":"id","type":"int","value":11},{"name":"fh_layer","type":"int","value":1},{"name":"fh_group","type":"int","value":0},{"name":"fh_id","type":"int","value":11},{"name":"x1","type":"int","value":-225},{"name":"x2","type":"int","value":-201},{"name":"y1","type":"int","value":158},{"name":"y2","type":"int","value":158},{"name":"next","type":"int","value":12},{"name":"prev","type":"int","value":10}],"polyline":[{"x":0,"y":0},{"x":24,"y":0}]},{"id":29,"x":-201,"y":158,"visible":true,"properties":[{"name":"layer","type":"int","value":1},{"name":"group","type":"int","value":0},{"name":"id","type":"int","value":12},{"name":"fh_layer","type":"int","value":1},{"name":"fh_group","type":"int","value":0},{"name":"fh_id","type":"int","value":12},{"name":"x1","type":"int","value":-201},{"name":"x2","type":"int","value":-182},{"name":"y1","type":"int","value":158},{"name":"y2","type":"int","value":161},{"name":"next","type":"int","value":13},{"name":"prev","type":"int","value":11}],"polyline":[{"x":0,"y":0},{"x":19,"y":3}]},{"id":30,"x":-182,"y":161,"visible":true,"properties":[{"name":"layer","type":"int","value":1},{"name":"group","type":"int","value":0},{"name":"id","type":"int","value":13},{"name":"fh_layer","type":"int","value":1},{"name":"fh_group","type":"int","value":0},{"name":"fh_id","type":"int","value":13},{"name":"x1","type":"int","value":-182},{"name":"x2","type":"int","value":-168},{"name":"y1","type":"int","value":161},{"name":"y2","type":"int","value":167},{"name":"next","type":"int","value":14},{"name":"prev","type":"int","value":12}],"polyline":[{"x":0,"y":0},{"x":14,"y":6}]},{"id":31,"x":-168,"y":167,"visible":true,"properties":[{"name":"layer","type":"int","value":1},{"name":"group","type":"int","value":0},{"name":"id","type":"int","value":14},{"name":"fh_layer","type":"int","value":1},{"name":"fh_group","type":"int","value":0},{"name":"fh_id","type":"int","value":14},{"name":"x1","type":"int","value":-168},{"name":"x2","type":"int","value":-160},{"name":"y1","type":"int","value":167},{"name":"y2","type":"int","value":173},{"name":"next","type":"int","value":15},{"name":"prev","type":"int","value":13}],"polyline":[{"x":0,"y":0},{"x":8,"y":6}]},{"id":32,"x":-160,"y":173,"visible":true,"properties":[{"name":"layer","type":"int","value":1},{"name":"group","type":"int","value":0},{"name":"id","type":"int","value":15},{"name":"fh_layer","type":"int","value":1},{"name":"fh_group","type":"int","value":0},{"name":"fh_id","type":"int","value":15},{"name":"x1","type":"int","value":-160},{"name":"x2","type":"int","value":-144},{"name":"y1","type":"int","value":173},{"name":"y2","type":"int","value":173},{"name":"next","type":"int","value":16},{"name":"prev","type":"int","value":14}],"polyline":[{"x":0,"y":0},{"x":16,"y":0}]},{"id":33,"x":-144,"y":173,"visible":true,"properties":[{"name":"layer","type":"int","value":1},{"name":"group","type":"int","value":0},{"name":"id","type":"int","value":16},{"name":"fh_layer","type":"int","value":1},{"name":"fh_group","type":"int","value":0},{"name":"fh_id","type":"int","value":16},{"name":"x1","type":"int","value":-144},{"name":"x2","type":"int","value":-125},{"name":"y1","type":"int","value":173},{"name":"y2","type":"int","value":173},{"name":"next","type":"int","value":17},{"name":"prev","type":"int","value":15}],"polyline":[{"x":0,"y":0},{"x":19,"y":0}]},{"id":34,"x":-125,"y":173,"visible":true,"properties":[{"name":"layer","type":"int","value":1},{"name":"group","type":"int","value":0},{"name":"id","type":"int","value":17},{"name":"fh_layer","type":"int","value":1},{"name":"fh_group","type":"int","value":0},{"name":"fh_id","type":"int","value":17},{"name":"x1","type":"int","value":-125},{"name":"x2","type":"int","value":-106},{"name":"y1","type":"int","value":173},{"name":"y2","type":"int","value":174},{"name":"next","type":"int","value":18},{"name":"prev","type":"int","value":16}],"polyline":[{"x":0,"y":0},{"x":19,"y":1}]},{"id":35,"x":-106,"y":174,"visible":true,"properties":[{"name":"layer","type":"int","value":1},{"name":"group","type":"int","value":0},{"name":"id","type":"int","value":18},{"name":"fh_layer","type":"int","value":1},{"name":"fh_group","type":"int","value":0},{"name":"fh_id","type":"int","value":18},{"name":"x1","type":"int","value":-106},{"name":"x2","type":"int","value":-92},{"name":"y1","type":"int","value":174},{"name":"y2","type":"int","value":174},{"name":"next","type":"int","value":19},{"name":"prev","type":"int","value":17}],"polyline":[{"x":0,"y":0},{"x":14,"y":0}]},{"id":36,"x":-92,"y":174,"visible":true,"properties":[{"name":"layer","type":"int","value":1},{"name":"group","type":"int","value":0},{"name":"id","type":"int","value":19},{"name":"fh_layer","type":"int","value":1},{"name":"fh_group","type":"int","value":0},{"name":"fh_id","type":"int","value":19},{"name":"x1","type":"int","value":-92},{"name":"x2","type":"int","value":-66},{"name":"y1","type":"int","value":174},{"name":"y2","type":"int","value":174},{"name":"next","type":"int","value":20},{"name":"prev","type":"int","value":18}],"polyline":[{"x":0,"y":0},{"x":26,"y":0}]},{"id":37,"x":-66,"y":174,"visible":true,"properties":[{"name":"layer","type":"int","value":1},{"name":"group","type":"int","value":0},{"name":"id","type":"int","value":20},{"name":"fh_layer","type":"int","value":1},{"name":"fh_group","type":"int","value":0},{"name":"fh_id","type":"int","value":20},{"name":"x1","type":"int","value":-66},{"name":"x2","type":"int","value":-38},{"name":"y1","type":"int","value":174},{"name":"y2","type":"int","value":174},{"name":"next","type":"int","value":21},{"name":"prev","type":"int","value":19}],"polyline":[{"x":0,"y":0},{"x":28,"y":0}]},{"id":38,"x":-38,"y":174,"visible":true,"properties":[{"name":"layer","type":"int","value":1},{"name":"group","type":"int","value":0},{"name":"id","type":"int","value":21},{"name":"fh_layer","type":"int","value":1},{"name":"fh_group","type":"int","value":0},{"name":"fh_id","type":"int","value":21},{"name":"x1","type":"int","value":-38},{"name":"x2","type":"int","value":-32},{"name":"y1","type":"int","value":174},{"name":"y2","type":"int","value":171},{"name":"next","type":"int","value":22},{"name":"prev","type":"int","value":20}],"polyline":[{"x":0,"y":0},{"x":6,"y":-3}]},{"id":39,"x":-32,"y":171,"visible":true,"properties":[{"name":"layer","type":"int","value":1},{"name":"group","type":"int","value":0},{"name":"id","type":"int","value":22},{"name":"fh_layer","type":"int","value":1},{"name":"fh_group","type":"int","value":0},{"name":"fh_id","type":"int","value":22},{"name":"x1","type":"int","value":-32},{"name":"x2","type":"int","value":-23},{"name":"y1","type":"int","value":171},{"name":"y2","type":"int","value":167},{"name":"next","type":"int","value":23},{"name":"prev","type":"int","value":21}],"polyline":[{"x":0,"y":0},{"x":9,"y":-4}]},{"id":40,"x":-23,"y":167,"visible":true,"properties":[{"name":"layer","type":"int","value":1},{"name":"group","type":"int","value":0},{"name":"id","type":"int","value":23},{"name":"fh_layer","type":"int","value":1},{"name":"fh_group","type":"int","value":0},{"name":"fh_id","type":"int","value":23},{"name":"x1","type":"int","value":-23},{"name":"x2","type":"int","value":-3},{"name":"y1","type":"int","value":167},{"name":"y2","type":"int","value":165},{"name":"next","type":"int","value":24},{"name":"prev","type":"int","value":22}],"polyline":[{"x":0,"y":0},{"x":20,"y":-2}]},{"id":41,"x":-3,"y":165,"visible":true,"properties":[{"name":"layer","type":"int","value":1},{"name":"group","type":"int","value":0},{"name":"id","type":"int","value":24},{"name":"fh_layer","type":"int","value":1},{"name":"fh_group","type":"int","value":0},{"name":"fh_id","type":"int","value":24},{"name":"x1","type":"int","value":-3},{"name":"x2","type":"int","value":15},{"name":"y1","type":"int","value":165},{"name":"y2","type":"int","value":165},{"name":"next","type":"int","value":25},{"name":"prev","type":"int","value":23}],"polyline":[{"x":0,"y":0},{"x":18,"y":0}]},{"id":42,"x":15,"y":165,"visible":true,"properties":[{"name":"layer","type":"int","value":1},{"name":"group","type":"int","value":0},{"name":"id","type":"int","value":25},{"name":"fh_layer","type":"int","value":1},{"name":"fh_group","type":"int","value":0},{"name":"fh_id","type":"int","value":25},{"name":"x1","type":"int","value":15},{"name":"x2","type":"int","value":35},{"name":"y1","type":"int","value":165},{"name":"y2","type":"int","value":163},{"name":"next","type":"int","value":26},{"name":"prev","type":"int","value":24}],"polyline":[{"x":0,"y":0},{"x":20,"y":-2}]},{"id":43,"x":35,"y":163,"visible":true,"properties":[{"name":"layer","type":"int","value":1},{"name":"group","type":"int","value":0},{"name":"id","type":"int","value":26},{"name":"fh_layer","type":"int","value":1},{"name":"fh_group","type":"int","value":0},{"name":"fh_id","type":"int","value":26},{"name":"x1","type":"int","value":35},{"name":"x2","type":"int","value":66},{"name":"y1","type":"int","value":163},{"name":"y2","type":"int","value":160},{"name":"next","type":"int","value":27},{"name":"prev","type":"int","value":25}],"polyline":[{"x":0,"y":0},{"x":31,"y":-3}]},{"id":44,"x":66,"y":160,"visible":true,"properties":[{"name":"layer","type":"int","value":1},{"name":"group","type":"int","value":0},{"name":"id","type":"int","value":27},{"name":"fh_layer","type":"int","value":1},{"name":"fh_group","type":"int","value":0},{"name":"fh_id","type":"int","value":27},{"name":"x1","type":"int","value":66},{"name":"x2","type":"int","value":91},{"name":"y1","type":"int","value":160},{"name":"y2","type":"int","value":160},{"name":"next","type":"int","value":28},{"name":"prev","type":"int","value":26}],"polyline":[{"x":0,"y":0},{"x":25,"y":0}]},{"id":45,"x":91,"y":160,"visible":true,"properties":[{"name":"layer","type":"int","value":1},{"name":"group","type":"int","value":0},{"name":"id","type":"int","value":28},{"name":"fh_layer","type":"int","value":1},{"name":"fh_group","type":"int","value":0},{"name":"fh_id","type":"int","value":28},{"name":"x1","type":"int","value":91},{"name":"x2","type":"int","value":112},{"name":"y1","type":"int","value":160},{"name":"y2","type":"int","value":159},{"name":"next","type":"int","value":29},{"name":"prev","type":"int","value":27}],"polyline":[{"x":0,"y":0},{"x":21,"y":-1}]},{"id":46,"x":112,"y":159,"visible":true,"properties":[{"name":"layer","type":"int","value":1},{"name":"group","type":"int","value":0},{"name":"id","type":"int","value":29},{"name":"fh_layer","type":"int","value":1},{"name":"fh_group","type":"int","value":0},{"name":"fh_id","type":"int","value":29},{"name":"x1","type":"int","value":112},{"name":"x2","type":"int","value":128},{"name":"y1","type":"int","value":159},{"name":"y2","type":"int","value":162},{"name":"next","type":"int","value":30},{"name":"prev","type":"int","value":28}],"polyline":[{"x":0,"y":0},{"x":16,"y":3}]},{"id":47,"x":128,"y":162,"visible":true,"properties":[{"name":"layer","type":"int","value":1},{"name":"group","type":"int","value":0},{"name":"id","type":"int","value":30},{"name":"fh_layer","type":"int","value":1},{"name":"fh_group","type":"int","value":0},{"name":"fh_id","type":"int","value":30},{"name":"x1","type":"int","value":128},{"name":"x2","type":"int","value":141},{"name":"y1","type":"int","value":162},{"name":"y2","type":"int","value":160},{"name":"next","type":"int","value":31},{"name":"prev","type":"int","value":29}],"polyline":[{"x":0,"y":0},{"x":13,"y":-2}]},{"id":48,"x":141,"y":160,"visible":true,"properties":[{"name":"layer","type":"int","value":1},{"name":"group","type":"int","value":0},{"name":"id","type":"int","value":31},{"name":"fh_layer","type":"int","value":1},{"name":"fh_group","type":"int","value":0},{"name":"fh_id","type":"int","value":31},{"name":"x1","type":"int","value":141},{"name":"x2","type":"int","value":160},{"name":"y1","type":"int","value":160},{"name":"y2","type":"int","value":157},{"name":"next","type":"int","value":32},{"name":"prev","type":"int","value":30}],"polyline":[{"x":0,"y":0},{"x":19,"y":-3}]},{"id":49,"x":160,"y":157,"visible":true,"properties":[{"name":"layer","type":"int","value":1},{"name":"group","type":"int","value":0},{"name":"id","type":"int","value":32},{"name":"fh_layer","type":"int","value":1},{"name":"fh_group","type":"int","value":0},{"name":"fh_id","type":"int","value":32},{"name":"x1","type":"int","value":160},{"name":"x2","type":"int","value":174},{"name":"y1","type":"int","value":157},{"name":"y2","type":"int","value":162},{"name":"next","type":"int","value":33},{"name":"prev","type":"int","value":31}],"polyline":[{"x":0,"y":0},{"x":14,"y":5}]},{"id":50,"x":174,"y":162,"visible":true,"properties":[{"name":"layer","type":"int","value":1},{"name":"group","type":"int","value":0},{"name":"id","type":"int","value":33},{"name":"fh_layer","type":"int","value":1},{"name":"fh_group","type":"int","value":0},{"name":"fh_id","type":"int","value":33},{"name":"x1","type":"int","value":174},{"name":"x2","type":"int","value":190},{"name":"y1","type":"int","value":162},{"name":"y2","type":"int","value":164},{"name":"next","type":"int","value":34},{"name":"prev","type":"int","value":32}],"polyline":[{"x":0,"y":0},{"x":16,"y":2}]},{"id":51,"x":190,"y":164,"visible":true,"properties":[{"name":"layer","type":"int","value":1},{"name":"group","type":"int","value":0},{"name":"id","type":"int","value":34},{"name":"fh_layer","type":"int","value":1},{"name":"fh_group","type":"int","value":0},{"name":"fh_id","type":"int","value":34},{"name":"x1","type":"int","value":190},{"name":"x2","type":"int","value":206},{"name":"y1","type":"int","value":164},{"name":"y2","type":"int","value":162},{"name":"next","type":"int","value":35},{"name":"prev","type":"int","value":33}],"polyline":[{"x":0,"y":0},{"x":16,"y":-2}]},{"id":52,"x":206,"y":162,"visible":true,"properties":[{"name":"layer","type":"int","value":1},{"name":"group","type":"int","value":0},{"name":"id","type":"int","value":35},{"name":"fh_layer","type":"int","value":1},{"name":"fh_group","type":"int","value":0},{"name":"fh_id","type":"int","value":35},{"name":"x1","type":"int","value":206},{"name":"x2","type":"int","value":222},{"name":"y1","type":"int","value":162},{"name":"y2","type":"int","value":162},{"name":"next","type":"int","value":36},{"name":"prev","type":"int","value":34}],"polyline":[{"x":0,"y":0},{"x":16,"y":0}]},{"id":53,"x":222,"y":162,"visible":true,"properties":[{"name":"layer","type":"int","value":1},{"name":"group","type":"int","value":0},{"name":"id","type":"int","value":36},{"name":"fh_layer","type":"int","value":1},{"name":"fh_group","type":"int","value":0},{"name":"fh_id","type":"int","value":36},{"name":"x1","type":"int","value":222},{"name":"x2","type":"int","value":242},{"name":"y1","type":"int","value":162},{"name":"y2","type":"int","value":165},{"name":"next","type":"int","value":37},{"name":"prev","type":"int","value":35}],"polyline":[{"x":0,"y":0},{"x":20,"y":3}]},{"id":54,"x":242,"y":165,"visible":true,"properties":[{"name":"layer","type":"int","value":1},{"name":"group","type":"int","value":0},{"name":"id","type":"int","value":37},{"name":"fh_layer","type":"int","value":1},{"name":"fh_group","type":"int","value":0},{"name":"fh_id","type":"int","value":37},{"name":"x1","type":"int","value":242},{"name":"x2","type":"int","value":256},{"name":"y1","type":"int","value":165},{"name":"y2","type":"int","value":165},{"name":"next","type":"int","value":38},{"name":"prev","type":"int","value":36}],"polyline":[{"x":0,"y":0},{"x":14,"y":0}]},{"id":55,"x":256,"y":165,"visible":true,"properties":[{"name":"layer","type":"int","value":1},{"name":"group","type":"int","value":0},{"name":"id","type":"int","value":38},{"name":"fh_layer","type":"int","value":1},{"name":"fh_group","type":"int","value":0},{"name":"fh_id","type":"int","value":38},{"name":"x1","type":"int","value":256},{"name":"x2","type":"int","value":279},{"name":"y1","type":"int","value":165},{"name":"y2","type":"int","value":161},{"name":"next","type":"int","value":39},{"name":"prev","type":"int","value":37}],"polyline":[{"x":0,"y":0},{"x":23,"y":-4}]},{"id":56,"x":279,"y":161,"visible":true,"properties":[{"name":"layer","type":"int","value":1},{"name":"group","type":"int","value":0},{"name":"id","type":"int","value":39},{"name":"fh_layer","type":"int","value":1},{"name":"fh_group","type":"int","value":0},{"name":"fh_id","type":"int","value":39},{"name":"x1","type":"int","value":279},{"name":"x2","type":"int","value":302},{"name":"y1","type":"int","value":161},{"name":"y2","type":"int","value":162},{"name":"next","type":"int","value":40},{"name":"prev","type":"int","value":38}],"polyline":[{"x":0,"y":0},{"x":23,"y":1}]},{"id":57,"x":302,"y":162,"visible":true,"properties":[{"name":"layer","type":"int","value":1},{"name":"group","type":"int","value":0},{"name":"id","type":"int","value":40},{"name":"fh_layer","type":"int","value":1},{"name":"fh_group","type":"int","value":0},{"name":"fh_id","type":"int","value":40},{"name":"x1","type":"int","value":302},{"name":"x2","type":"int","value":323},{"name":"y1","type":"int","value":162},{"name":"y2","type":"int","value":162},{"name":"next","type":"int","value":41},{"name":"prev","type":"int","value":39}],"polyline":[{"x":0,"y":0},{"x":21,"y":0}]},{"id":58,"x":323,"y":162,"visible":true,"properties":[{"name":"layer","type":"int","value":1},{"name":"group","type":"int","value":0},{"name":"id","type":"int","value":41},{"name":"fh_layer","type":"int","value":1},{"name":"fh_group","type":"int","value":0},{"name":"fh_id","type":"int","value":41},{"name":"x1","type":"int","value":323},{"name":"x2","type":"int","value":342},{"name":"y1","type":"int","value":162},{"name":"y2","type":"int","value":162},{"name":"next","type":"int","value":42},{"name":"prev","type":"int","value":40}],"polyline":[{"x":0,"y":0},{"x":19,"y":0}]},{"id":59,"x":342,"y":162,"visible":true,"properties":[{"name":"layer","type":"int","value":1},{"name":"group","type":"int","value":0},{"name":"id","type":"int","value":42},{"name":"fh_layer","type":"int","value":1},{"name":"fh_group","type":"int","value":0},{"name":"fh_id","type":"int","value":42},{"name":"x1","type":"int","value":342},{"name":"x2","type":"int","value":356},{"name":"y1","type":"int","value":162},{"name":"y2","type":"int","value":162},{"name":"next","type":"int","value":43},{"name":"prev","type":"int","value":41}],"polyline":[{"x":0,"y":0},{"x":14,"y":0}]},{"id":60,"x":356,"y":162,"visible":true,"properties":[{"name":"layer","type":"int","value":1},{"name":"group","type":"int","value":0},{"name":"id","type":"int","value":43},{"name":"fh_layer","type":"int","value":1},{"name":"fh_group","type":"int","value":0},{"name":"fh_id","type":"int","value":43},{"name":"x1","type":"int","value":356},{"name":"x2","type":"int","value":379},{"name":"y1","type":"int","value":162},{"name":"y2","type":"int","value":161},{"name":"next","type":"int","value":44},{"name":"prev","type":"int","value":42}],"polyline":[{"x":0,"y":0},{"x":23,"y":-1}]},{"id":61,"x":379,"y":161,"visible":true,"properties":[{"name":"layer","type":"int","value":1},{"name":"group","type":"int","value":0},{"name":"id","type":"int","value":44},{"name":"fh_layer","type":"int","value":1},{"name":"fh_group","type":"int","value":0},{"name":"fh_id","type":"int","value":44},{"name":"x1","type":"int","value":379},{"name":"x2","type":"int","value":400},{"name":"y1","type":"int","value":161},{"name":"y2","type":"int","value":159},{"name":"next","type":"int","value":0},{"name":"prev","type":"int","value":43}],"polyline":[{"x":0,"y":0},{"x":21,"y":-2}]},{"id":62,"x":-400,"y":-9,"visible":true,"properties":[{"name":"layer","type":"int","value":1},{"name":"group","type":"int","value":0},{"name":"id","type":"int","value":45},{"name":"fh_layer","type":"int","value":1},{"name":"fh_group","type":"int","value":0},{"name":"fh_id","type":"int","value":45},{"name":"x1","type":"int","value":-400},{"name":"x2","type":"int","value":-358},{"name":"y1","type":"int","value":-9},{"name":"y2","type":"int","value":-8},{"name":"next","type":"int","value":46},{"name":"prev","type":"int","value":0}],"polyline":[{"x":0,"y":0},{"x":42,"y":1}]},{"id":63,"x":-358,"y":-8,"visible":true,"properties":[{"name":"layer","type":"int","value":1},{"name":"group","type":"int","value":0},{"name":"id","type":"int","value":46},{"name":"fh_layer","type":"int","value":1},{"name":"fh_group","type":"int","value":0},{"name":"fh_id","type":"int","value":46},{"name":"x1","type":"int","value":-358},{"name":"x2","type":"int","value":-332},{"name":"y1","type":"int","value":-8},{"name":"y2","type":"int","value":-9},{"name":"next","type":"int","value":47},{"name":"prev","type":"int","value":45}],"polyline":[{"x":0,"y":0},{"x":26,"y":-1}]},{"id":64,"x":-332,"y":-9,"visible":true,"properties":[{"name":"layer","type":"int","value":1},{"name":"group","type":"int","value":0},{"name":"id","type":"int","value":47},{"name":"fh_layer","type":"int","value":1},{"name":"fh_group","type":"int","value":0},{"name":"fh_id","type":"int","value":47},{"name":"x1","type":"int","value":-332},{"name":"x2","type":"int","value":-314},{"name":"y1","type":"int","value":-9},{"name":"y2","type":"int","value":-6},{"name":"next","type":"int","value":48},{"name":"prev","type":"int","value":46}],"polyline":[{"x":0,"y":0},{"x":18,"y":3}]},{"id":65,"x":-314,"y":-6,"visible":true,"properties":[{"name":"layer","type":"int","value":1},{"name":"group","type":"int","value":0},{"name":"id","type":"int","value":48},{"name":"fh_layer","type":"int","value":1},{"name":"fh_group","type":"int","value":0},{"name":"fh_id","type":"int","value":48},{"name":"x1","type":"int","value":-314},{"name":"x2","type":"int","value":-296},{"name":"y1","type":"int","value":-6},{"name":"y2","type":"int","value":-4},{"name":"next","type":"int","value":49},{"name":"prev","type":"int","value":47}],"polyline":[{"x":0,"y":0},{"x":18,"y":2}]},{"id":66,"x":-296,"y":-4,"visible":true,"properties":[{"name":"layer","type":"int","value":1},{"name":"group","type":"int","value":0},{"name":"id","type":"int","value":49},{"name":"fh_layer","type":"int","value":1},{"name":"fh_group","type":"int","value":0},{"name":"fh_id","type":"int","value":49},{"name":"x1","type":"int","value":-296},{"name":"x2","type":"int","value":-282},{"name":"y1","type":"int","value":-4},{"name":"y2","type":"int","value":2},{"name":"next","type":"int","value":50},{"name":"prev","type":"int","value":48}],"polyline":[{"x":0,"y":0},{"x":14,"y":6}]},{"id":67,"x":-282,"y":2,"visible":true,"properties":[{"name":"layer","type":"int","value":1},{"name":"group","type":"int","value":0},{"name":"id","type":"int","value":50},{"name":"fh_layer","type":"int","value":1},{"name":"fh_group","type":"int","value":0},{"name":"fh_id","type":"int","value":50},{"name":"x1","type":"int","value":-282},{"name":"x2","type":"int","value":-270},{"name":"y1","type":"int","value":2},{"name":"y2","type":"int","value":6},{"name":"next","type":"int","value":51},{"name":"prev","type":"int","value":49}],"polyline":[{"x":0,"y":0},{"x":12,"y":4}]},{"id":68,"x":-270,"y":6,"visible":true,"properties":[{"name":"layer","type":"int","value":1},{"name":"group","type":"int","value":0},{"name":"id","type":"int","value":51},{"name":"fh_layer","type":"int","value":1},{"name":"fh_group","type":"int","value":0},{"name":"fh_id","type":"int","value":51},{"name":"x1","type":"int","value":-270},{"name":"x2","type":"int","value":-250},{"name":"y1","type":"int","value":6},{"name":"y2","type":"int","value":10},{"name":"next","type":"int","value":52},{"name":"prev","type":"int","value":50}],"polyline":[{"x":0,"y":0},{"x":20,"y":4}]},{"id":69,"x":-250,"y":10,"visible":true,"properties":[{"name":"layer","type":"int","value":1},{"name":"group","type":"int","value":0},{"name":"id","type":"int","value":52},{"name":"fh_layer","type":"int","value":1},{"name":"fh_group","type":"int","value":0},{"name":"fh_id","type":"int","value":52},{"name":"x1","type":"int","value":-250},{"name":"x2","type":"int","value":-228},{"name":"y1","type":"int","value":10},{"name":"y2","type":"int","value":17},{"name":"next","type":"int","value":53},{"name":"prev","type":"int","value":51}],"polyline":[{"x":0,"y":0},{"x":22,"y":7}]},{"id":70,"x":-228,"y":17,"visible":true,"properties":[{"name":"layer","type":"int","value":1},{"name":"group","type":"int","value":0},{"name":"id","type":"int","value":53},{"name":"fh_layer","type":"int","value":1},{"name":"fh_group","type":"int","value":0},{"name":"fh_id","type":"int","value":53},{"name":"x1","type":"int","value":-228},{"name":"x2","type":"int","value":-174},{"name":"y1","type":"int","value":17},{"name":"y2","type":"int","value":17},{"name":"next","type":"int","value":0},{"name":"prev","type":"int","value":52}],"polyline":[{"x":0,"y":0},{"x":54,"y":0}]},{"id":71,"x":191,"y":8,"visible":true,"properties":[{"name":"layer","type":"int","value":1},{"name":"group","type":"int","value":0},{"name":"id","type":"int","value":54},{"name":"fh_layer","type":"int","value":1},{"name":"fh_group","type":"int","value":0},{"name":"fh_id","type":"int","value":54},{"name":"x1","type":"int","value":191},{"name":"x2","type":"int","value":214},{"name":"y1","type":"int","value":8},{"name":"y2","type":"int","value":5},{"name":"next","type":"int","value":55},{"name":"prev","type":"int","value":0}],"polyline":[{"x":0,"y":0},{"x":23,"y":-3}]},{"id":72,"x":214,"y":5,"visible":true,"properties":[{"name":"layer","type":"int","value":1},{"name":"group","type":"int","value":0},{"name":"id","type":"int","value":55},{"name":"fh_layer","type":"int","value":1},{"name":"fh_group","type":"int","value":0},{"name":"fh_id","type":"int","value":55},{"name":"x1","type":"int","value":214},{"name":"x2","type":"int","value":229},{"name":"y1","type":"int","value":5},{"name":"y2","type":"int","value":2},{"name":"next","type":"int","value":56},{"name":"prev","type":"int","value":54}],"polyline":[{"x":0,"y":0},{"x":15,"y":-3}]},{"id":73,"x":229,"y":2,"visible":true,"properties":[{"name":"layer","type":"int","value":1},{"name":"group","type":"int","value":0},{"name":"id","type":"int","value":56},{"name":"fh_layer","type":"int","value":1},{"name":"fh_group","type":"int","value":0},{"name":"fh_id","type":"int","value":56},{"name":"x1","type":"int","value":229},{"name":"x2","type":"int","value":249},{"name":"y1","type":"int","value":2},{"name":"y2","type":"int","value":2},{"name":"next","type":"int","value":57},{"name":"prev","type":"int","value":55}],"polyline":[{"x":0,"y":0},{"x":20,"y":0}]},{"id":74,"x":249,"y":2,"visible":true,"properties":[{"name":"layer","type":"int","value":1},{"name":"group","type":"int","value":0},{"name":"id","type":"int","value":57},{"name":"fh_layer","type":"int","value":1},{"name":"fh_group","type":"int","value":0},{"name":"fh_id","type":"int","value":57},{"name":"x1","type":"int","value":249},{"name":"x2","type":"int","value":272},{"name":"y1","type":"int","value":2},{"name":"y2","type":"int","value":3},{"name":"next","type":"int","value":58},{"name":"prev","type":"int","value":56}],"polyline":[{"x":0,"y":0},{"x":23,"y":1}]},{"id":75,"x":272,"y":3,"visible":true,"properties":[{"name":"layer","type":"int","value":1},{"name":"group","type":"int","value":0},{"name":"id","type":"int","value":58},{"name":"fh_layer","type":"int","value":1},{"name":"fh_group","type":"int","value":0},{"name":"fh_id","type":"int","value":58},{"name":"x1","type":"int","value":272},{"name":"x2","type":"int","value":283},{"name":"y1","type":"int","value":3},{"name":"y2","type":"int","value":4},{"name":"next","type":"int","value":59},{"name":"prev","type":"int","value":57}],"polyline":[{"x":0,"y":0},{"x":11,"y":1}]},{"id":76,"x":283,"y":4,"visible":true,"properties":[{"name":"layer","type":"int","value":1},{"name":"group","type":"int","value":0},{"name":"id","type":"int","value":59},{"name":"fh_layer","type":"int","value":1},{"name":"fh_group","type":"int","value":0},{"name":"fh_id","type":"int","value":59},{"name":"x1","type":"int","value":283},{"name":"x2","type":"int","value":298},{"name":"y1","type":"int","value":4},{"name":"y2","type":"int","value":4},{"name":"next","type":"int","value":60},{"name":"prev","type":"int","value":58}],"polyline":[{"x":0,"y":0},{"x":15,"y":0}]},{"id":77,"x":298,"y":4,"visible":true,"properties":[{"name":"layer","type":"int","value":1},{"name":"group","type":"int","value":0},{"name":"id","type":"int","value":60},{"name":"fh_layer","type":"int","value":1},{"name":"fh_group","type":"int","value":0},{"name":"fh_id","type":"int","value":60},{"name":"x1","type":"int","value":298},{"name":"x2","type":"int","value":303},{"name":"y1","type":"int","value":4},{"name":"y2","type":"int","value":-5},{"name":"next","type":"int","value":61},{"name":"prev","type":"int","value":59}],"polyline":[{"x":0,"y":0},{"x":5,"y":-9}]},{"id":78,"x":303,"y":-5,"visible":true,"properties":[{"name":"layer","type":"int","value":1},{"name":"group","type":"int","value":0},{"name":"id","type":"int","value":61},{"name":"fh_layer","type":"int","value":1},{"name":"fh_group","type":"int","value":0},{"name":"fh_id","type":"int","value":61},{"name":"x1","type":"int","value":303},{"name":"x2","type":"int","value":312},{"name":"y1","type":"int","value":-5},{"name":"y2","type":"int","value":-9},{"name":"next","type":"int","value":62},{"name":"prev","type":"int","value":60}],"polyline":[{"x":0,"y":0},{"x":9,"y":-4}]},{"id":79,"x":312,"y":-9,"visible":true,"properties":[{"name":"layer","type":"int","value":1},{"name":"group","type":"int","value":0},{"name":"id","type":"int","value":62},{"name":"fh_layer","type":"int","value":1},{"name":"fh_group","type":"int","value":0},{"name":"fh_id","type":"int","value":62},{"name":"x1","type":"int","value":312},{"name":"x2","type":"int","value":322},{"name":"y1","type":"int","value":-9},{"name":"y2","type":"int","value":-13},{"name":"next","type":"int","value":63},{"name":"prev","type":"int","value":61}],"polyline":[{"x":0,"y":0},{"x":10,"y":-4}]},{"id":80,"x":322,"y":-13,"visible":true,"properties":[{"name":"layer","type":"int","value":1},{"name":"group","type":"int","value":0},{"name":"id","type":"int","value":63},{"name":"fh_layer","type":"int","value":1},{"name":"fh_group","type":"int","value":0},{"name":"fh_id","type":"int","value":63},{"name":"x1","type":"int","value":322},{"name":"x2","type":"int","value":336},{"name":"y1","type":"int","value":-13},{"name":"y2","type":"int","value":-14},{"name":"next","type":"int","value":64},{"name":"prev","type":"int","value":62}],"polyline":[{"x":0,"y":0},{"x":14,"y":-1}]},{"id":81,"x":336,"y":-14,"visible":true,"properties":[{"name":"layer","type":"int","value":1},{"name":"group","type":"int","value":0},{"name":"id","type":"int","value":64},{"name":"fh_layer","type":"int","value":1},{"name":"fh_group","type":"int","value":0},{"name":"fh_id","type":"int","value":64},{"name":"x1","type":"int","value":336},{"name":"x2","type":"int","value":349},{"name":"y1","type":"int","value":-14},{"name":"y2","type":"int","value":-14},{"name":"next","type":"int","value":65},{"name":"prev","type":"int","value":63}],"polyline":[{"x":0,"y":0},{"x":13,"y":0}]},{"id":82,"x":349,"y":-14,"visible":true,"properties":[{"name":"layer","type":"int","value":1},{"name":"group","type":"int","value":0},{"name":"id","type":"int","value":65},{"name":"fh_layer","type":"int","value":1},{"name":"fh_group","type":"int","value":0},{"name":"fh_id","type":"int","value":65},{"name":"x1","type":"int","value":349},{"name":"x2","type":"int","value":363},{"name":"y1","type":"int","value":-14},{"name":"y2","type":"int","value":-14},{"name":"next","type":"int","value":66},{"name":"prev","type":"int","value":64}],"polyline":[{"x":0,"y":0},{"x":14,"y":0}]},{"id":83,"x":363,"y":-14,"visible":true,"properties":[{"name":"layer","type":"int","value":1},{"name":"group","type":"int","value":0},{"name":"id","type":"int","value":66},{"name":"fh_layer","type":"int","value":1},{"name":"fh_group","type":"int","value":0},{"name":"fh_id","type":"int","value":66},{"name":"x1","type":"int","value":363},{"name":"x2","type":"int","value":385},{"name":"y1","type":"int","value":-14},{"name":"y2","type":"int","value":-14},{"name":"next","type":"int","value":67},{"name":"prev","type":"int","value":65}],"polyline":[{"x":0,"y":0},{"x":22,"y":0}]},{"id":84,"x":385,"y":-14,"visible":true,"properties":[{"name":"layer","type":"int","value":1},{"name":"group","type":"int","value":0},{"name":"id","type":"int","value":67},{"name":"fh_layer","type":"int","value":1},{"name":"fh_group","type":"int","value":0},{"name":"fh_id","type":"int","value":67},{"name":"x1","type":"int","value":385},{"name":"x2","type":"int","value":400},{"name":"y1","type":"int","value":-14},{"name":"y2","type":"int","value":-15},{"name":"next","type":"int","value":0},{"name":"prev","type":"int","value":66}],"polyline":[{"x":0,"y":0},{"x":15,"y":-1}]}],"properties":[]}],"tilesets":[{"firstgid":1,"source":"../tilesets/obj_acc1_lv200_magician.tsj"},{"firstgid":4,"source":"../tilesets/portal_MapHelper.img_portal_game_pv.tsj"}],"properties":[{"name":"bgm","type":"string","value":"Bgm02/WhenTheMorningComes"},{"name":"fly","type":"int","value":0},{"name":"swim","type":"int","value":0},{"name":"town","type":"int","value":1},{"name":"VRTop","type":"int","value":-300},{"name":"cloud","type":"int","value":0},{"name":"VRLeft","type":"int","value":-400},{"name":"VRRight","type":"int","value":400},{"name":"mapMark","type":"string","value":"Ellinia"},{"name":"mobRate","type":"float","value":1},{"name":"version","type":"int","value":10},{"name":"VRBottom","type":"int","value":300},{"name":"noMapCmd","type":"int","value":0},{"name":"returnMap","type":"int","value":101000000},{"name":"fieldLimit","type":"int","value":0},{"name":"hideMinimap","type":"int","value":0},{"name":"onUserEnter","type":"string","value":""},{"name":"forcedReturn","type":"int","value":999999999},{"name":"onFirstUserEnter","type":"string","value":""}]}