{"type":"map","orientation":"orthogonal","renderorder":"right-down","infinite":false,"tilewidth":1,"tileheight":1,"width":800,"height":600,"parallaxoriginx":-400,"parallaxoriginy":80,"nextlayerid":5,"nextobjectid":72,"layers":[{"id":1,"name":"layer_1_obj","type":"objectgroup","visible":true,"opacity":1,"draworder":"index","offsetx":0,"offsety":0,"parallaxx":1,"parallaxy":1,"objects":[{"id":1,"x":-400,"y":302,"visible":true,"properties":[{"name":"layer","type":"int","value":1},{"name":"resource_index","type":"int","value":0},{"name":"oS","type":"string","value":"job"},{"name":"l0","type":"string","value":"job"},{"name":"l1","type":"string","value":"warrior"},{"name":"l2","type":"string","value":"0"},{"name":"z","type":"int","value":0},{"name":"zM","type":"int","value":0},{"name":"f","type":"int","value":0}],"gid":1,"width":805,"height":602},{"id":2,"x":-393,"y":183,"visible":true,"properties":[{"name":"layer","type":"int","value":1},{"name":"resource_index","type":"int","value":1},{"name":"oS","type":"string","value":"job"},{"name":"l0","type":"string","value":"job"},{"name":"l1","type":"string","value":"warrior"},{"name":"l2","type":"string","value":"2"},{"name":"z","type":"int","value":2},{"name":"zM","type":"int","value":0},{"name":"f","type":"int","value":0}],"gid":2,"width":223,"height":169},{"id":3,"x":-398,"y":205,"visible":true,"properties":[{"name":"layer","type":"int","value":1},{"name":"resource_index","type":"int","value":2},{"name":"oS","type":"string","value":"job"},{"name":"l0","type":"string","value":"job"},{"name":"l1","type":"string","value":"warrior"},{"name":"l2","type":"string","value":"3"},{"name":"z","type":"int","value":5},{"name":"zM","type":"int","value":0},{"name":"f","type":"int","value":0}],"gid":3,"width":133,"height":91},{"id":4,"x":-167,"y":190,"visible":true,"properties":[{"name":"layer","type":"int","value":1},{"name":"resource_index","type":"int","value":3},{"name":"oS","type":"string","value":"job"},{"name":"l0","type":"string","value":"job"},{"name":"l1","type":"string","value":"warrior"},{"name":"l2","type":"string","value":"3"},{"name":"z","type":"int","value":4},{"name":"zM","type":"int","value":0},{"name":"f","type":"int","value":0}],"gid":3,"width":133,"height":91},{"id":5,"x":-400,"y":300,"visible":true,"properties":[{"name":"layer","type":"int","value":1},{"name":"resource_index","type":"int","value":4},{"name":"oS","type":"string","value":"job"},{"name":"l0","type":"string","value":"job"},{"name":"l1","type":"string","value":"warrior"},{"name":"l2","type":"string","value":"4"},{"name":"z","type":"int","value":6},{"name":"zM","type":"int","value":0},{"name":"f","type":"int","value":0}],"gid":4,"width":800,"height":600},{"id":6,"x":-378,"y":123,"visible":true,"properties":[{"name":"layer","type":"int","value":1},{"name":"resource_index","type":"int","value":5},{"name":"oS","type":"string","value":"job"},{"name":"l0","type":"string","value":"job"},{"name":"l1","type":"string","value":"warrior"},{"name":"l2","type":"string","value":"5"},{"name":"z","type":"int","value":5},{"name":"zM","type":"int","value":0},{"name":"f","type":"int","value":0}],"gid":5,"width":62,"height":69},{"id":7,"x":-148,"y":111,"visible":true,"properties":[{"name":"layer","type":"int","value":1},{"name":"resource_index","type":"int","value":6},{"name":"oS","type":"string","value":"job"},{"name":"l0","type":"string","value":"job"},{"name":"l1","type":"string","value":"warrior"},{"name":"l2","type":"string","value":"6"},{"name":"z","type":"int","value":3},{"name":"zM","type":"int","value":0},{"name":"f","type":"int","value":0}],"gid":6,"width":63,"height":70},{"id":8,"x":75,"y":-170,"visible":true,"properties":[{"name":"layer","type":"int","value":1},{"name":"resource_index","type":"int","value":7},{"name":"oS","type":"string","value":"job"},{"name":"l0","type":"string","value":"job"},{"name":"l1","type":"string","value":"warrior"},{"name":"l2","type":"string","value":"7"},{"name":"z","type":"int","value":7},{"name":"zM","type":"int","value":0},{"name":"f","type":"int","value":0}],"gid":7,"width":48,"height":64},{"id":9,"x":267,"y":-170,"visible":true,"properties":[{"name":"layer","type":"int","value":1},{"name":"resource_index","type":"int","value":8},{"name":"oS","type":"string","value":"job"},{"name":"l0","type":"string","value":"job"},{"name":"l1","type":"string","value":"warrior"},{"name":"l2","type":"string","value":"8"},{"name":"z","type":"int","value":7},{"name":"zM","type":"int","value":0},{"name":"f","type":"int","value":0}],"gid":8,"width":49,"height":60},{"id":10,"x":-276,"y":-35,"visible":true,"properties":[{"name":"layer","type":"int","value":1},{"name":"resource_index","type":"int","value":9},{"name":"oS","type":"string","value":"job"},{"name":"l0","type":"string","value":"job"},{"name":"l1","type":"string","value":"warrior"},{"name":"l2","type":"string","value":"1"},{"name":"z","type":"int","value":3},{"name":"zM","type":"int","value":0},{"name":"f","type":"int","value":0}],"gid":9,"width":1,"height":1},{"id":11,"x":134,"y":87,"visible":true,"properties":[{"name":"layer","type":"int","value":1},{"name":"resource_index","type":"int","value":10},{"name":"oS","type":"string","value":"signboard"},{"name":"l0","type":"string","value":"market"},{"name":"l1","type":"string","value":"arrow"},{"name":"l2","type":"string","value":"10"},{"name":"z","type":"int","value":11},{"name":"zM","type":"int","value":0},{"name":"f","type":"int","value":0}],"gid":11,"width":54,"height":44},{"id":12,"x":-11,"y":-25,"visible":true,"properties":[{"name":"layer","type":"int","value":1},{"name":"resource_index","type":"int","value":11},{"name":"oS","type":"string","value":"guide"},{"name":"l0","type":"string","value":"miniD"},{"name":"l1","type":"string","value":"portalEff"},{"name":"l2","type":"string","value":"0"},{"name":"z","type":"int","value":9},{"name":"zM","type":"int","value":0},{"name":"f","type":"int","value":0}],"gid":10,"width":131,"height":166}],"properties":[]},{"id":2,"name":"portal","type":"objectgroup","visible":true,"opacity":1,"draworder":"index","offsetx":0,"offsety":0,"parallaxx":1,"parallaxy":1,"objects":[{"id":13,"x":360,"y":150,"visible":true,"properties":[{"name":"x","type":"int","value":360},{"name":"y","type":"int","value":150},{"name":"pn","type":"string","value":"sp"},{"name":"pt","type":"int","value":0},{"name":"tm","type":"int","value":999999999},{"name":"tn","type":"string","value":""}],"point":true},{"id":14,"x":305,"y":167,"visible":true,"properties":[{"name":"x","type":"int","value":305},{"name":"y","type":"int","value":167},{"name":"pn","type":"string","value":"sp"},{"name":"pt","type":"int","value":0},{"name":"tm","type":"int","value":999999999},{"name":"tn","type":"string","value":""}],"point":true},{"id":15,"x":135,"y":171,"visible":true,"properties":[{"name":"x","type":"int","value":135},{"name":"y","type":"int","value":171},{"name":"pn","type":"string","value":"sp"},{"name":"pt","type":"int","value":0},{"name":"tm","type":"int","value":999999999},{"name":"tn","type":"string","value":""}],"point":true},{"id":16,"x":96,"y":172,"visible":true,"properties":[{"name":"x","type":"int","value":96},{"name":"y","type":"int","value":172},{"name":"pn","type":"string","value":"sp"},{"name":"pt","type":"int","value":0},{"name":"tm","type":"int","value":999999999},{"name":"tn","type":"string","value":""}],"point":true},{"id":17,"x":-38,"y":166,"visible":true,"properties":[{"name":"x","type":"int","value":-38},{"name":"y","type":"int","value":166},{"name":"pn","type":"string","value":"sp"},{"name":"pt","type":"int","value":0},{"name":"tm","type":"int","value":999999999},{"name":"tn","type":"string","value":""}],"point":true},{"id":18,"x":-92,"y":171,"visible":true,"properties":[{"name":"x","type":"int","value":-92},{"name":"y","type":"int","value":171},{"name":"pn","type":"string","value":"sp"},{"name":"pt","type":"int","value":0},{"name":"tm","type":"int","value":999999999},{"name":"tn","type":"string","value":""}],"point":true},{"id":19,"x":-359,"y":173,"visible":true,"properties":[{"name":"x","type":"int","value":-359},{"name":"y","type":"int","value":173},{"name":"pn","type":"string","value":"sp"},{"name":"pt","type":"int","value":0},{"name":"tm","type":"int","value":999999999},{"name":"tn","type":"string","value":""}],"point":true},{"id":20,"x":-321,"y":166,"visible":true,"properties":[{"name":"x","type":"int","value":-321},{"name":"y","type":"int","value":166},{"name":"pn","type":"string","value":"sp"},{"name":"pt","type":"int","value":0},{"name":"tm","type":"int","value":999999999},{"name":"tn","type":"string","value":""}],"point":true},{"id":21,"x":204,"y":130,"visible":true,"properties":[{"name":"x","type":"int","value":248},{"name":"y","type":"int","value":121},{"name":"pn","type":"string","value":"out02"},{"name":"pt","type":"int","value":2},{"name":"tm","type":"int","value":102000000},{"name":"tn","type":"string","value":"in02"}],"gid":16,"width":89,"height":257},{"id":22,"x":55,"y":-29,"visible":true,"properties":[{"name":"x","type":"int","value":55},{"name":"y","type":"int","value":-29},{"name":"pn","type":"string","value":"rank00"},{"name":"pt","type":"int","value":7},{"name":"tm","type":"int","value":999999999},{"name":"tn","type":"string","value":""},{"name":"script","type":"string","value":"rankRoom"},{"name":"horizontalImpact","type":"int","value":0}],"point":true},{"id":23,"x":71,"y":149,"visible":true,"properties":[{"name":"x","type":"int","value":71},{"name":"y","type":"int","value":149},{"name":"pn","type":"string","value":"tutorial"},{"name":"pt","type":"int","value":9},{"name":"tm","type":"int","value":999999999},{"name":"tn","type":"string","value":""},{"name":"delay","type":"int","value":1000},{"name":"script","type":"string","value":"tutorialNPC"},{"name":"onlyOnce","type":"int","value":1},{"name":"hideTooltip","type":"int","value":0}],"point":true}],"properties":[]},{"id":3,"name":"life","type":"objectgroup","visible":true,"opacity":1,"draworder":"index","offsetx":0,"offsety":0,"parallaxx":1,"parallaxy":1,"objects":[{"id":24,"x":-295,"y":16,"visible":true,"properties":[{"name":"f","type":"int","value":1},{"name":"x","type":"int","value":-295},{"name":"y","type":"int","value":16},{"name":"cy","type":"int","value":20},{"name":"fh","type":"int","value":44},{"name":"id","type":"int","value":1022000},{"name":"rx0","type":"int","value":-345},{"name":"rx1","type":"int","value":-245},{"name":"type","type":"string","value":"n"},{"name":"npc_aseprite","type":"file","value":"../../Npc/1022000.img/animation.aseprite"}],"point":true}],"properties":[]},{"id":4,"name":"foothold","type":"objectgroup","visible":true,"opacity":1,"draworder":"index","offsetx":0,"offsety":0,"parallaxx":1,"parallaxy":1,"objects":[{"id":25,"x":-399,"y":-7,"visible":true,"properties":[{"name":"layer","type":"int","value":1},{"name":"group","type":"int","value":0},{"name":"id","type":"int","value":1},{"name":"fh_layer","type":"int","value":1},{"name":"fh_group","type":"int","value":0},{"name":"fh_id","type":"int","value":1},{"name":"x1","type":"int","value":-399},{"name":"x2","type":"int","value":-399},{"name":"y1","type":"int","value":-7},{"name":"y2","type":"int","value":203},{"name":"next","type":"int","value":2},{"name":"prev","type":"int","value":0}],"polyline":[{"x":0,"y":0},{"x":0,"y":210}]},{"id":26,"x":-399,"y":203,"visible":true,"properties":[{"name":"layer","type":"int","value":1},{"name":"group","type":"int","value":0},{"name":"id","type":"int","value":2},{"name":"fh_layer","type":"int","value":1},{"name":"fh_group","type":"int","value":0},{"name":"fh_id","type":"int","value":2},{"name":"x1","type":"int","value":-399},{"name":"x2","type":"int","value":-252},{"name":"y1","type":"int","value":203},{"name":"y2","type":"int","value":195},{"name":"next","type":"int","value":3},{"name":"prev","type":"int","value":1}],"polyline":[{"x":0,"y":0},{"x":147,"y":-8}]},{"id":27,"x":-252,"y":195,"visible":true,"properties":[{"name":"layer","type":"int","value":1},{"name":"group","type":"int","value":0},{"name":"id","type":"int","value":3},{"name":"fh_layer","type":"int","value":1},{"name":"fh_group","type":"int","value":0},{"name":"fh_id","type":"int","value":3},{"name":"x1","type":"int","value":-252},{"name":"x2","type":"int","value":-225},{"name":"y1","type":"int","value":195},{"name":"y2","type":"int","value":189},{"name":"next","type":"int","value":4},{"name":"prev","type":"int","value":2}],"polyline":[{"x":0,"y":0},{"x":27,"y":-6}]},{"id":28,"x":-225,"y":189,"visible":true,"properties":[{"name":"layer","type":"int","value":1},{"name":"group","type":"int","value":0},{"name":"id","type":"int","value":4},{"name":"fh_layer","type":"int","value":1},{"name":"fh_group","type":"int","value":0},{"name":"fh_id","type":"int","value":4},{"name":"x1","type":"int","value":-225},{"name":"x2","type":"int","value":-156},{"name":"y1","type":"int","value":189},{"name":"y2","type":"int","value":193},{"name":"next","type":"int","value":5},{"name":"prev","type":"int","value":3}],"polyline":[{"x":0,"y":0},{"x":69,"y":4}]},{"id":29,"x":-156,"y":193,"visible":true,"properties":[{"name":"layer","type":"int","value":1},{"name":"group","type":"int","value":0},{"name":"id","type":"int","value":5},{"name":"fh_layer","type":"int","value":1},{"name":"fh_group","type":"int","value":0},{"name":"fh_id","type":"int","value":5},{"name":"x1","type":"int","value":-156},{"name":"x2","type":"int","value":-80},{"name":"y1","type":"int","value":193},{"name":"y2","type":"int","value":189},{"name":"next","type":"int","value":6},{"name":"prev","type":"int","value":4}],"polyline":[{"x":0,"y":0},{"x":76,"y":-4}]},{"id":30,"x":-80,"y":189,"visible":true,"properties":[{"name":"layer","type":"int","value":1},{"name":"group","type":"int","value":0},{"name":"id","type":"int","value":6},{"name":"fh_layer","type":"int","value":1},{"name":"fh_group","type":"int","value":0},{"name":"fh_id","type":"int","value":6},{"name":"x1","type":"int","value":-80},{"name":"x2","type":"int","value":90},{"name":"y1","type":"int","value":189},{"name":"y2","type":"int","value":198},{"name":"next","type":"int","value":7},{"name":"prev","type":"int","value":5}],"polyline":[{"x":0,"y":0},{"x":170,"y":9}]},{"id":31,"x":90,"y":198,"visible":true,"properties":[{"name":"layer","type":"int","value":1},{"name":"group","type":"int","value":0},{"name":"id","type":"int","value":7},{"name":"fh_layer","type":"int","value":1},{"name":"fh_group","type":"int","value":0},{"name":"fh_id","type":"int","value":7},{"name":"x1","type":"int","value":90},{"name":"x2","type":"int","value":119},{"name":"y1","type":"int","value":198},{"name":"y2","type":"int","value":203},{"name":"next","type":"int","value":8},{"name":"prev","type":"int","value":6}],"polyline":[{"x":0,"y":0},{"x":29,"y":5}]},{"id":32,"x":119,"y":203,"visible":true,"properties":[{"name":"layer","type":"int","value":1},{"name":"group","type":"int","value":0},{"name":"id","type":"int","value":8},{"name":"fh_layer","type":"int","value":1},{"name":"fh_group","type":"int","value":0},{"name":"fh_id","type":"int","value":8},{"name":"x1","type":"int","value":119},{"name":"x2","type":"int","value":196},{"name":"y1","type":"int","value":203},{"name":"y2","type":"int","value":199},{"name":"next","type":"int","value":9},{"name":"prev","type":"int","value":7}],"polyline":[{"x":0,"y":0},{"x":77,"y":-4}]},{"id":33,"x":196,"y":199,"visible":true,"properties":[{"name":"layer","type":"int","value":1},{"name":"group","type":"int","value":0},{"name":"id","type":"int","value":9},{"name":"fh_layer","type":"int","value":1},{"name":"fh_group","type":"int","value":0},{"name":"fh_id","type":"int","value":9},{"name":"x1","type":"int","value":196},{"name":"x2","type":"int","value":239},{"name":"y1","type":"int","value":199},{"name":"y2","type":"int","value":204},{"name":"next","type":"int","value":10},{"name":"prev","type":"int","value":8}],"polyline":[{"x":0,"y":0},{"x":43,"y":5}]},{"id":34,"x":239,"y":204,"visible":true,"properties":[{"name":"layer","type":"int","value":1},{"name":"group","type":"int","value":0},{"name":"id","type":"int","value":10},{"name":"fh_layer","type":"int","value":1},{"name":"fh_group","type":"int","value":0},{"name":"fh_id","type":"int","value":10},{"name":"x1","type":"int","value":239},{"name":"x2","type":"int","value":258},{"name":"y1","type":"int","value":204},{"name":"y2","type":"int","value":198},{"name":"next","type":"int","value":11},{"name":"prev","type":"int","value":9}],"polyline":[{"x":0,"y":0},{"x":19,"y":-6}]},{"id":35,"x":258,"y":198,"visible":true,"properties":[{"name":"layer","type":"int","value":1},{"name":"group","type":"int","value":0},{"name":"id","type":"int","value":11},{"name":"fh_layer","type":"int","value":1},{"name":"fh_group","type":"int","value":0},{"name":"fh_id","type":"int","value":11},{"name":"x1","type":"int","value":258},{"name":"x2","type":"int","value":400},{"name":"y1","type":"int","value":198},{"name":"y2","type":"int","value":201},{"name":"next","type":"int","value":12},{"name":"prev","type":"int","value":10}],"polyline":[{"x":0,"y":0},{"x":142,"y":3}]},{"id":36,"x":400,"y":201,"visible":true,"properties":[{"name":"layer","type":"int","value":1},{"name":"group","type":"int","value":0},{"name":"id","type":"int","value":12},{"name":"fh_layer","type":"int","value":1},{"name":"fh_group","type":"int","value":0},{"name":"fh_id","type":"int","value":12},{"name":"x1","type":"int","value":400},{"name":"x2","type":"int","value":400},{"name":"y1","type":"int","value":201},{"name":"y2","type":"int","value":-7},{"name":"next","type":"int","value":0},{"name":"prev","type":"int","value":11}],"polyline":[{"x":0,"y":0},{"x":0,"y":-208}]},{"id":37,"x":163,"y":166,"visible":true,"properties":[{"name":"layer","type":"int","value":1},{"name":"group","type":"int","value":0},{"name":"id","type":"int","value":13},{"name":"fh_layer","type":"int","value":1},{"name":"fh_group","type":"int","value":0},{"name":"fh_id","type":"int","value":13},{"name":"x1","type":"int","value":163},{"name":"x2","type":"int","value":273},{"name":"y1","type":"int","value":166},{"name":"y2","type":"int","value":167},{"name":"next","type":"int","value":0},{"name":"prev","type":"int","value":0}],"polyline":[{"x":0,"y":0},{"x":110,"y":1}]},{"id":38,"x":187,"y":144,"visible":true,"properties":[{"name":"layer","type":"int","value":1},{"name":"group","type":"int","value":0},{"name":"id","type":"int","value":14},{"name":"fh_layer","type":"int","value":1},{"name":"fh_group","type":"int","value":0},{"name":"fh_id","type":"int","value":14},{"name":"x1","type":"int","value":187},{"name":"x2","type":"int","value":273},{"name":"y1","type":"int","value":144},{"name":"y2","type":"int","value":145},{"name":"next","type":"int","value":0},{"name":"prev","type":"int","value":0}],"polyline":[{"x":0,"y":0},{"x":86,"y":1}]},{"id":39,"x":206,"y":122,"visible":true,"properties":[{"name":"layer","type":"int","value":1},{"name":"group","type":"int","value":0},{"name":"id","type":"int","value":15},{"name":"fh_layer","type":"int","value":1},{"name":"fh_group","type":"int","value":0},{"name":"fh_id","type":"int","value":15},{"name":"x1","type":"int","value":206},{"name":"x2","type":"int","value":287},{"name":"y1","type":"int","value":122},{"name":"y2","type":"int","value":122},{"name":"next","type":"int","value":0},{"name":"prev","type":"int","value":0}],"polyline":[{"x":0,"y":0},{"x":81,"y":0}]},{"id":40,"x":-22,"y":161,"visible":true,"properties":[{"name":"layer","type":"int","value":1},{"name":"group","type":"int","value":0},{"name":"id","type":"int","value":16},{"name":"fh_layer","type":"int","value":1},{"name":"fh_group","type":"int","value":0},{"name":"fh_id","type":"int","value":16},{"name":"x1","type":"int","value":-22},{"name":"x2","type":"int","value":-14},{"name":"y1","type":"int","value":161},{"name":"y2","type":"int","value":157},{"name":"next","type":"int","value":17},{"name":"prev","type":"int","value":0}],"polyline":[{"x":0,"y":0},{"x":8,"y":-4}]},{"id":41,"x":-14,"y":157,"visible":true,"properties":[{"name":"layer","type":"int","value":1},{"name":"group","type":"int","value":0},{"name":"id","type":"int","value":17},{"name":"fh_layer","type":"int","value":1},{"name":"fh_group","type":"int","value":0},{"name":"fh_id","type":"int","value":17},{"name":"x1","type":"int","value":-14},{"name":"x2","type":"int","value":23},{"name":"y1","type":"int","value":157},{"name":"y2","type":"int","value":155},{"name":"next","type":"int","value":18},{"name":"prev","type":"int","value":16}],"polyline":[{"x":0,"y":0},{"x":37,"y":-2}]},{"id":42,"x":23,"y":155,"visible":true,"properties":[{"name":"layer","type":"int","value":1},{"name":"group","type":"int","value":0},{"name":"id","type":"int","value":18},{"name":"fh_layer","type":"int","value":1},{"name":"fh_group","type":"int","value":0},{"name":"fh_id","type":"int","value":18},{"name":"x1","type":"int","value":23},{"name":"x2","type":"int","value":47},{"name":"y1","type":"int","value":155},{"name":"y2","type":"int","value":157},{"name":"next","type":"int","value":19},{"name":"prev","type":"int","value":17}],"polyline":[{"x":0,"y":0},{"x":24,"y":2}]},{"id":43,"x":47,"y":157,"visible":true,"properties":[{"name":"layer","type":"int","value":1},{"name":"group","type":"int","value":0},{"name":"id","type":"int","value":19},{"name":"fh_layer","type":"int","value":1},{"name":"fh_group","type":"int","value":0},{"name":"fh_id","type":"int","value":19},{"name":"x1","type":"int","value":47},{"name":"x2","type":"int","value":75},{"name":"y1","type":"int","value":157},{"name":"y2","type":"int","value":158},{"name":"next","type":"int","value":0},{"name":"prev","type":"int","value":18}],"polyline":[{"x":0,"y":0},{"x":28,"y":1}]},{"id":44,"x":1,"y":132,"visible":true,"properties":[{"name":"layer","type":"int","value":1},{"name":"group","type":"int","value":0},{"name":"id","type":"int","value":20},{"name":"fh_layer","type":"int","value":1},{"name":"fh_group","type":"int","value":0},{"name":"fh_id","type":"int","value":20},{"name":"x1","type":"int","value":1},{"name":"x2","type":"int","value":68},{"name":"y1","type":"int","value":132},{"name":"y2","type":"int","value":131},{"name":"next","type":"int","value":21},{"name":"prev","type":"int","value":0}],"polyline":[{"x":0,"y":0},{"x":67,"y":-1}]},{"id":45,"x":68,"y":131,"visible":true,"properties":[{"name":"layer","type":"int","value":1},{"name":"group","type":"int","value":0},{"name":"id","type":"int","value":21},{"name":"fh_layer","type":"int","value":1},{"name":"fh_group","type":"int","value":0},{"name":"fh_id","type":"int","value":21},{"name":"x1","type":"int","value":68},{"name":"x2","type":"int","value":85},{"name":"y1","type":"int","value":131},{"name":"y2","type":"int","value":136},{"name":"next","type":"int","value":0},{"name":"prev","type":"int","value":20}],"polyline":[{"x":0,"y":0},{"x":17,"y":5}]},{"id":46,"x":6,"y":105,"visible":true,"properties":[{"name":"layer","type":"int","value":1},{"name":"group","type":"int","value":0},{"name":"id","type":"int","value":22},{"name":"fh_layer","type":"int","value":1},{"name":"fh_group","type":"int","value":0},{"name":"fh_id","type":"int","value":22},{"name":"x1","type":"int","value":6},{"name":"x2","type":"int","value":71},{"name":"y1","type":"int","value":105},{"name":"y2","type":"int","value":107},{"name":"next","type":"int","value":23},{"name":"prev","type":"int","value":0}],"polyline":[{"x":0,"y":0},{"x":65,"y":2}]},{"id":47,"x":71,"y":107,"visible":true,"properties":[{"name":"layer","type":"int","value":1},{"name":"group","type":"int","value":0},{"name":"id","type":"int","value":23},{"name":"fh_layer","type":"int","value":1},{"name":"fh_group","type":"int","value":0},{"name":"fh_id","type":"int","value":23},{"name":"x1","type":"int","value":71},{"name":"x2","type":"int","value":88},{"name":"y1","type":"int","value":107},{"name":"y2","type":"int","value":105},{"name":"next","type":"int","value":0},{"name":"prev","type":"int","value":22}],"polyline":[{"x":0,"y":0},{"x":17,"y":-2}]},{"id":48,"x":-20,"y":77,"visible":true,"properties":[{"name":"layer","type":"int","value":1},{"name":"group","type":"int","value":0},{"name":"id","type":"int","value":24},{"name":"fh_layer","type":"int","value":1},{"name":"fh_group","type":"int","value":0},{"name":"fh_id","type":"int","value":24},{"name":"x1","type":"int","value":-20},{"name":"x2","type":"int","value":48},{"name":"y1","type":"int","value":77},{"name":"y2","type":"int","value":81},{"name":"next","type":"int","value":25},{"name":"prev","type":"int","value":0}],"polyline":[{"x":0,"y":0},{"x":68,"y":4}]},{"id":49,"x":48,"y":81,"visible":true,"properties":[{"name":"layer","type":"int","value":1},{"name":"group","type":"int","value":0},{"name":"id","type":"int","value":25},{"name":"fh_layer","type":"int","value":1},{"name":"fh_group","type":"int","value":0},{"name":"fh_id","type":"int","value":25},{"name":"x1","type":"int","value":48},{"name":"x2","type":"int","value":66},{"name":"y1","type":"int","value":81},{"name":"y2","type":"int","value":79},{"name":"next","type":"int","value":26},{"name":"prev","type":"int","value":24}],"polyline":[{"x":0,"y":0},{"x":18,"y":-2}]},{"id":50,"x":66,"y":79,"visible":true,"properties":[{"name":"layer","type":"int","value":1},{"name":"group","type":"int","value":0},{"name":"id","type":"int","value":26},{"name":"fh_layer","type":"int","value":1},{"name":"fh_group","type":"int","value":0},{"name":"fh_id","type":"int","value":26},{"name":"x1","type":"int","value":66},{"name":"x2","type":"int","value":74},{"name":"y1","type":"int","value":79},{"name":"y2","type":"int","value":82},{"name":"next","type":"int","value":0},{"name":"prev","type":"int","value":25}],"polyline":[{"x":0,"y":0},{"x":8,"y":3}]},{"id":51,"x":-100,"y":57,"visible":true,"properties":[{"name":"layer","type":"int","value":1},{"name":"group","type":"int","value":0},{"name":"id","type":"int","value":27},{"name":"fh_layer","type":"int","value":1},{"name":"fh_group","type":"int","value":0},{"name":"fh_id","type":"int","value":27},{"name":"x1","type":"int","value":-100},{"name":"x2","type":"int","value":-77},{"name":"y1","type":"int","value":57},{"name":"y2","type":"int","value":52},{"name":"next","type":"int","value":28},{"name":"prev","type":"int","value":0}],"polyline":[{"x":0,"y":0},{"x":23,"y":-5}]},{"id":52,"x":-77,"y":52,"visible":true,"properties":[{"name":"layer","type":"int","value":1},{"name":"group","type":"int","value":0},{"name":"id","type":"int","value":28},{"name":"fh_layer","type":"int","value":1},{"name":"fh_group","type":"int","value":0},{"name":"fh_id","type":"int","value":28},{"name":"x1","type":"int","value":-77},{"name":"x2","type":"int","value":-71},{"name":"y1","type":"int","value":52},{"name":"y2","type":"int","value":56},{"name":"next","type":"int","value":29},{"name":"prev","type":"int","value":27}],"polyline":[{"x":0,"y":0},{"x":6,"y":4}]},{"id":53,"x":-71,"y":56,"visible":true,"properties":[{"name":"layer","type":"int","value":1},{"name":"group","type":"int","value":0},{"name":"id","type":"int","value":29},{"name":"fh_layer","type":"int","value":1},{"name":"fh_group","type":"int","value":0},{"name":"fh_id","type":"int","value":29},{"name":"x1","type":"int","value":-71},{"name":"x2","type":"int","value":-55},{"name":"y1","type":"int","value":56},{"name":"y2","type":"int","value":54},{"name":"next","type":"int","value":30},{"name":"prev","type":"int","value":28}],"polyline":[{"x":0,"y":0},{"x":16,"y":-2}]},{"id":54,"x":-55,"y":54,"visible":true,"properties":[{"name":"layer","type":"int","value":1},{"name":"group","type":"int","value":0},{"name":"id","type":"int","value":30},{"name":"fh_layer","type":"int","value":1},{"name":"fh_group","type":"int","value":0},{"name":"fh_id","type":"int","value":30},{"name":"x1","type":"int","value":-55},{"name":"x2","type":"int","value":14},{"name":"y1","type":"int","value":54},{"name":"y2","type":"int","value":55},{"name":"next","type":"int","value":31},{"name":"prev","type":"int","value":29}],"polyline":[{"x":0,"y":0},{"x":69,"y":1}]},{"id":55,"x":14,"y":55,"visible":true,"properties":[{"name":"layer","type":"int","value":1},{"name":"group","type":"int","value":0},{"name":"id","type":"int","value":31},{"name":"fh_layer","type":"int","value":1},{"name":"fh_group","type":"int","value":0},{"name":"fh_id","type":"int","value":31},{"name":"x1","type":"int","value":14},{"name":"x2","type":"int","value":39},{"name":"y1","type":"int","value":55},{"name":"y2","type":"int","value":56},{"name":"next","type":"int","value":0},{"name":"prev","type":"int","value":30}],"polyline":[{"x":0,"y":0},{"x":25,"y":1}]},{"id":56,"x":-58,"y":32,"visible":true,"properties":[{"name":"layer","type":"int","value":1},{"name":"group","type":"int","value":0},{"name":"id","type":"int","value":32},{"name":"fh_layer","type":"int","value":1},{"name":"fh_group","type":"int","value":0},{"name":"fh_id","type":"int","value":32},{"name":"x1","type":"int","value":-58},{"name":"x2","type":"int","value":24},{"name":"y1","type":"int","value":32},{"name":"y2","type":"int","value":35},{"name":"next","type":"int","value":0},{"name":"prev","type":"int","value":0}],"polyline":[{"x":0,"y":0},{"x":82,"y":3}]},{"id":57,"x":-35,"y":18,"visible":true,"properties":[{"name":"layer","type":"int","value":1},{"name":"group","type":"int","value":0},{"name":"id","type":"int","value":33},{"name":"fh_layer","type":"int","value":1},{"name":"fh_group","type":"int","value":0},{"name":"fh_id","type":"int","value":33},{"name":"x1","type":"int","value":-35},{"name":"x2","type":"int","value":-14},{"name":"y1","type":"int","value":18},{"name":"y2","type":"int","value":15},{"name":"next","type":"int","value":34},{"name":"prev","type":"int","value":0}],"polyline":[{"x":0,"y":0},{"x":21,"y":-3}]},{"id":58,"x":-14,"y":15,"visible":true,"properties":[{"name":"layer","type":"int","value":1},{"name":"group","type":"int","value":0},{"name":"id","type":"int","value":34},{"name":"fh_layer","type":"int","value":1},{"name":"fh_group","type":"int","value":0},{"name":"fh_id","type":"int","value":34},{"name":"x1","type":"int","value":-14},{"name":"x2","type":"int","value":58},{"name":"y1","type":"int","value":15},{"name":"y2","type":"int","value":18},{"name":"next","type":"int","value":0},{"name":"prev","type":"int","value":33}],"polyline":[{"x":0,"y":0},{"x":72,"y":3}]},{"id":59,"x":-2,"y":-7,"visible":true,"properties":[{"name":"layer","type":"int","value":1},{"name":"group","type":"int","value":0},{"name":"id","type":"int","value":35},{"name":"fh_layer","type":"int","value":1},{"name":"fh_group","type":"int","value":0},{"name":"fh_id","type":"int","value":35},{"name":"x1","type":"int","value":-2},{"name":"x2","type":"int","value":75},{"name":"y1","type":"int","value":-7},{"name":"y2","type":"int","value":-5},{"name":"next","type":"int","value":0},{"name":"prev","type":"int","value":0}],"polyline":[{"x":0,"y":0},{"x":77,"y":2}]},{"id":60,"x":24,"y":-27,"visible":true,"properties":[{"name":"layer","type":"int","value":1},{"name":"group","type":"int","value":0},{"name":"id","type":"int","value":36},{"name":"fh_layer","type":"int","value":1},{"name":"fh_group","type":"int","value":0},{"name":"fh_id","type":"int","value":36},{"name":"x1","type":"int","value":24},{"name":"x2","type":"int","value":89},{"name":"y1","type":"int","value":-27},{"name":"y2","type":"int","value":-27},{"name":"next","type":"int","value":37},{"name":"prev","type":"int","value":0}],"polyline":[{"x":0,"y":0},{"x":65,"y":0}]},{"id":61,"x":89,"y":-27,"visible":true,"properties":[{"name":"layer","type":"int","value":1},{"name":"group","type":"int","value":0},{"name":"id","type":"int","value":37},{"name":"fh_layer","type":"int","value":1},{"name":"fh_group","type":"int","value":0},{"name":"fh_id","type":"int","value":37},{"name":"x1","type":"int","value":89},{"name":"x2","type":"int","value":88},{"name":"y1","type":"int","value":-27},{"name":"y2","type":"int","value":-212},{"name":"next","type":"int","value":0},{"name":"prev","type":"int","value":36}],"polyline":[{"x":0,"y":0},{"x":-1,"y":-185}]},{"id":62,"x":86,"y":131,"visible":true,"properties":[{"name":"layer","type":"int","value":1},{"name":"group","type":"int","value":0},{"name":"id","type":"int","value":38},{"name":"fh_layer","type":"int","value":1},{"name":"fh_group","type":"int","value":0},{"name":"fh_id","type":"int","value":38},{"name":"x1","type":"int","value":86},{"name":"x2","type":"int","value":177},{"name":"y1","type":"int","value":131},{"name":"y2","type":"int","value":131},{"name":"next","type":"int","value":0},{"name":"prev","type":"int","value":0}],"polyline":[{"x":0,"y":0},{"x":91,"y":0}]},{"id":63,"x":277,"y":131,"visible":true,"properties":[{"name":"layer","type":"int","value":1},{"name":"group","type":"int","value":0},{"name":"id","type":"int","value":39},{"name":"fh_layer","type":"int","value":1},{"name":"fh_group","type":"int","value":0},{"name":"fh_id","type":"int","value":39},{"name":"x1","type":"int","value":277},{"name":"x2","type":"int","value":364},{"name":"y1","type":"int","value":131},{"name":"y2","type":"int","value":131},{"name":"next","type":"int","value":0},{"name":"prev","type":"int","value":0}],"polyline":[{"x":0,"y":0},{"x":87,"y":0}]},{"id":64,"x":-350,"y":26,"visible":true,"properties":[{"name":"layer","type":"int","value":1},{"name":"group","type":"int","value":0},{"name":"id","type":"int","value":40},{"name":"fh_layer","type":"int","value":1},{"name":"fh_group","type":"int","value":0},{"name":"fh_id","type":"int","value":40},{"name":"x1","type":"int","value":-350},{"name":"x2","type":"int","value":-350},{"name":"y1","type":"int","value":26},{"name":"y2","type":"int","value":-93},{"name":"next","type":"int","value":41},{"name":"prev","type":"int","value":43}],"polyline":[{"x":0,"y":0},{"x":0,"y":-119}]},{"id":65,"x":-350,"y":-93,"visible":true,"properties":[{"name":"layer","type":"int","value":1},{"name":"group","type":"int","value":0},{"name":"id","type":"int","value":41},{"name":"fh_layer","type":"int","value":1},{"name":"fh_group","type":"int","value":0},{"name":"fh_id","type":"int","value":41},{"name":"x1","type":"int","value":-350},{"name":"x2","type":"int","value":-226},{"name":"y1","type":"int","value":-93},{"name":"y2","type":"int","value":-93},{"name":"next","type":"int","value":42},{"name":"prev","type":"int","value":40}],"polyline":[{"x":0,"y":0},{"x":124,"y":0}]},{"id":66,"x":-226,"y":-93,"visible":true,"properties":[{"name":"layer","type":"int","value":1},{"name":"group","type":"int","value":0},{"name":"id","type":"int","value":42},{"name":"fh_layer","type":"int","value":1},{"name":"fh_group","type":"int","value":0},{"name":"fh_id","type":"int","value":42},{"name":"x1","type":"int","value":-226},{"name":"x2","type":"int","value":-226},{"name":"y1","type":"int","value":-93},{"name":"y2","type":"int","value":26},{"name":"next","type":"int","value":43},{"name":"prev","type":"int","value":41}],"polyline":[{"x":0,"y":0},{"x":0,"y":119}]},{"id":67,"x":-226,"y":26,"visible":true,"properties":[{"name":"layer","type":"int","value":1},{"name":"group","type":"int","value":0},{"name":"id","type":"int","value":43},{"name":"fh_layer","type":"int","value":1},{"name":"fh_group","type":"int","value":0},{"name":"fh_id","type":"int","value":43},{"name":"x1","type":"int","value":-226},{"name":"x2","type":"int","value":-350},{"name":"y1","type":"int","value":26},{"name":"y2","type":"int","value":26},{"name":"next","type":"int","value":40},{"name":"prev","type":"int","value":42}],"polyline":[{"x":0,"y":0},{"x":-124,"y":0}]},{"id":68,"x":-339,"y":20,"visible":true,"properties":[{"name":"layer","type":"int","value":1},{"name":"group","type":"int","value":0},{"name":"id","type":"int","value":44},{"name":"fh_layer","type":"int","value":1},{"name":"fh_group","type":"int","value":0},{"name":"fh_id","type":"int","value":44},{"name":"x1","type":"int","value":-339},{"name":"x2","type":"int","value":-243},{"name":"y1","type":"int","value":20},{"name":"y2","type":"int","value":20},{"name":"next","type":"int","value":45},{"name":"prev","type":"int","value":47}],"polyline":[{"x":0,"y":0},{"x":96,"y":0}]},{"id":69,"x":-243,"y":20,"visible":true,"properties":[{"name":"layer","type":"int","value":1},{"name":"group","type":"int","value":0},{"name":"id","type":"int","value":45},{"name":"fh_layer","type":"int","value":1},{"name":"fh_group","type":"int","value":0},{"name":"fh_id","type":"int","value":45},{"name":"x1","type":"int","value":-243},{"name":"x2","type":"int","value":-243},{"name":"y1","type":"int","value":20},{"name":"y2","type":"int","value":-76},{"name":"next","type":"int","value":46},{"name":"prev","type":"int","value":44}],"polyline":[{"x":0,"y":0},{"x":0,"y":-96}]},{"id":70,"x":-243,"y":-76,"visible":true,"properties":[{"name":"layer","type":"int","value":1},{"name":"group","type":"int","value":0},{"name":"id","type":"int","value":46},{"name":"fh_layer","type":"int","value":1},{"name":"fh_group","type":"int","value":0},{"name":"fh_id","type":"int","value":46},{"name":"x1","type":"int","value":-243},{"name":"x2","type":"int","value":-339},{"name":"y1","type":"int","value":-76},{"name":"y2","type":"int","value":-76},{"name":"next","type":"int","value":47},{"name":"prev","type":"int","value":45}],"polyline":[{"x":0,"y":0},{"x":-96,"y":0}]},{"id":71,"x":-339,"y":-76,"visible":true,"properties":[{"name":"layer","type":"int","value":1},{"name":"group","type":"int","value":0},{"name":"id","type":"int","value":47},{"name":"fh_layer","type":"int","value":1},{"name":"fh_group","type":"int","value":0},{"name":"fh_id","type":"int","value":47},{"name":"x1","type":"int","value":-339},{"name":"x2","type":"int","value":-339},{"name":"y1","type":"int","value":-76},{"name":"y2","type":"int","value":20},{"name":"next","type":"int","value":44},{"name":"prev","type":"int","value":46}],"polyline":[{"x":0,"y":0},{"x":0,"y":96}]}],"properties":[]}],"tilesets":[{"firstgid":1,"source":"../tilesets/obj_job_job_warrior.tsj"},{"firstgid":10,"source":"../tilesets/obj_guide_miniD_portalEff.tsj"},{"firstgid":11,"source":"../tilesets/obj_signboard_market_arrow.tsj"},{"firstgid":16,"source":"../tilesets/portal_MapHelper.img_portal_game_pv.tsj"}],"properties":[{"name":"bgm","type":"string","value":"Bgm00/Nightmare"},{"name":"town","type":"int","value":1},{"name":"VRTop","type":"int","value":-300},{"name":"cloud","type":"int","value":0},{"name":"VRLeft","type":"int","value":-400},{"name":"VRRight","type":"int","value":400},{"name":"mapMark","type":"string","value":"Perion"},{"name":"mobRate","type":"float","value":1},{"name":"version","type":"int","value":10},{"name":"VRBottom","type":"int","value":300},{"name":"returnMap","type":"int","value":102000000},{"name":"fieldLimit","type":"int","value":0},{"name":"hideMinimap","type":"int","value":0},{"name":"forcedReturn","type":"int","value":999999999}]}