{"type":"map","orientation":"orthogonal","renderorder":"right-down","infinite":false,"tilewidth":1,"tileheight":1,"width":800,"height":600,"parallaxoriginx":-400,"parallaxoriginy":80,"nextlayerid":8,"nextobjectid":51,"layers":[{"id":1,"name":"layer_1_obj","type":"objectgroup","visible":true,"opacity":1,"draworder":"index","offsetx":0,"offsety":0,"parallaxx":1,"parallaxy":1,"objects":[{"id":1,"x":-400,"y":300,"visible":true,"properties":[{"name":"layer","type":"int","value":1},{"name":"resource_index","type":"int","value":0},{"name":"oS","type":"string","value":"insideGS"},{"name":"l0","type":"string","value":"house0"},{"name":"l1","type":"string","value":"basic"},{"name":"l2","type":"string","value":"0"},{"name":"z","type":"int","value":0},{"name":"zM","type":"int","value":0},{"name":"f","type":"int","value":0}],"gid":15,"width":800,"height":600},{"id":2,"x":-132,"y":-13,"visible":true,"properties":[{"name":"layer","type":"int","value":1},{"name":"resource_index","type":"int","value":1},{"name":"oS","type":"string","value":"shop"},{"name":"l0","type":"string","value":"shop"},{"name":"l1","type":"string","value":"weapon"},{"name":"l2","type":"string","value":"16"},{"name":"z","type":"int","value":5},{"name":"zM","type":"int","value":0},{"name":"f","type":"int","value":0}],"gid":3,"width":171,"height":129},{"id":3,"x":-115,"y":-32,"visible":true,"properties":[{"name":"layer","type":"int","value":1},{"name":"resource_index","type":"int","value":2},{"name":"oS","type":"string","value":"shop"},{"name":"l0","type":"string","value":"shop"},{"name":"l1","type":"string","value":"weapon"},{"name":"l2","type":"string","value":"0"},{"name":"z","type":"int","value":6},{"name":"zM","type":"int","value":0},{"name":"f","type":"int","value":0}],"gid":4,"width":143,"height":105},{"id":4,"x":10,"y":183,"visible":true,"properties":[{"name":"layer","type":"int","value":1},{"name":"resource_index","type":"int","value":3},{"name":"oS","type":"string","value":"shop"},{"name":"l0","type":"string","value":"shop"},{"name":"l1","type":"string","value":"weapon"},{"name":"l2","type":"string","value":"2"},{"name":"z","type":"int","value":4},{"name":"zM","type":"int","value":0},{"name":"f","type":"int","value":0}],"gid":5,"width":387,"height":336},{"id":5,"x":-352,"y":146,"visible":true,"properties":[{"name":"layer","type":"int","value":1},{"name":"resource_index","type":"int","value":4},{"name":"oS","type":"string","value":"shop"},{"name":"l0","type":"string","value":"shop"},{"name":"l1","type":"string","value":"weapon"},{"name":"l2","type":"string","value":"5"},{"name":"z","type":"int","value":2},{"name":"zM","type":"int","value":0},{"name":"f","type":"int","value":0}],"gid":6,"width":391,"height":287},{"id":6,"x":-265,"y":-152,"visible":true,"properties":[{"name":"layer","type":"int","value":1},{"name":"resource_index","type":"int","value":5},{"name":"oS","type":"string","value":"shop"},{"name":"l0","type":"string","value":"shop"},{"name":"l1","type":"string","value":"weapon"},{"name":"l2","type":"string","value":"6"},{"name":"z","type":"int","value":5},{"name":"zM","type":"int","value":0},{"name":"f","type":"int","value":0}],"gid":7,"width":630,"height":192},{"id":7,"x":-351,"y":185,"visible":true,"properties":[{"name":"layer","type":"int","value":1},{"name":"resource_index","type":"int","value":6},{"name":"oS","type":"string","value":"shop"},{"name":"l0","type":"string","value":"shop"},{"name":"l1","type":"string","value":"weapon"},{"name":"l2","type":"string","value":"20"},{"name":"z","type":"int","value":4},{"name":"zM","type":"int","value":0},{"name":"f","type":"int","value":0}],"gid":8,"width":164,"height":332},{"id":8,"x":241,"y":183,"visible":true,"properties":[{"name":"layer","type":"int","value":1},{"name":"resource_index","type":"int","value":7},{"name":"oS","type":"string","value":"shop"},{"name":"l0","type":"string","value":"shop"},{"name":"l1","type":"string","value":"weapon"},{"name":"l2","type":"string","value":"12"},{"name":"z","type":"int","value":5},{"name":"zM","type":"int","value":0},{"name":"f","type":"int","value":0}],"gid":9,"width":73,"height":48},{"id":9,"x":-204,"y":158,"visible":true,"properties":[{"name":"layer","type":"int","value":1},{"name":"resource_index","type":"int","value":8},{"name":"oS","type":"string","value":"shop"},{"name":"l0","type":"string","value":"shop"},{"name":"l1","type":"string","value":"weapon"},{"name":"l2","type":"string","value":"7"},{"name":"z","type":"int","value":3},{"name":"zM","type":"int","value":0},{"name":"f","type":"int","value":0}],"gid":10,"width":68,"height":104},{"id":10,"x":-121,"y":137,"visible":true,"properties":[{"name":"layer","type":"int","value":1},{"name":"resource_index","type":"int","value":9},{"name":"oS","type":"string","value":"shop"},{"name":"l0","type":"string","value":"shop"},{"name":"l1","type":"string","value":"weapon"},{"name":"l2","type":"string","value":"10"},{"name":"z","type":"int","value":3},{"name":"zM","type":"int","value":0},{"name":"f","type":"int","value":0}],"gid":11,"width":91,"height":112},{"id":11,"x":46,"y":183,"visible":true,"properties":[{"name":"layer","type":"int","value":1},{"name":"resource_index","type":"int","value":10},{"name":"oS","type":"string","value":"shop"},{"name":"l0","type":"string","value":"shop"},{"name":"l1","type":"string","value":"weapon"},{"name":"l2","type":"string","value":"18"},{"name":"z","type":"int","value":5},{"name":"zM","type":"int","value":0},{"name":"f","type":"int","value":0}],"gid":12,"width":255,"height":202},{"id":12,"x":312,"y":182,"visible":true,"properties":[{"name":"layer","type":"int","value":1},{"name":"resource_index","type":"int","value":11},{"name":"oS","type":"string","value":"shop"},{"name":"l0","type":"string","value":"shop"},{"name":"l1","type":"string","value":"weapon"},{"name":"l2","type":"string","value":"11"},{"name":"z","type":"int","value":5},{"name":"zM","type":"int","value":0},{"name":"f","type":"int","value":0}],"gid":13,"width":79,"height":131}],"properties":[]},{"id":2,"name":"layer_2_obj","type":"objectgroup","visible":true,"opacity":1,"draworder":"index","offsetx":0,"offsety":0,"parallaxx":1,"parallaxy":1,"objects":[{"id":13,"x":-356,"y":184,"visible":true,"properties":[{"name":"layer","type":"int","value":2},{"name":"resource_index","type":"int","value":0},{"name":"oS","type":"string","value":"shop"},{"name":"l0","type":"string","value":"shop"},{"name":"l1","type":"string","value":"weapon"},{"name":"l2","type":"string","value":"19"},{"name":"z","type":"int","value":3},{"name":"zM","type":"int","value":1},{"name":"f","type":"int","value":0}],"gid":14,"width":215,"height":221},{"id":14,"x":13,"y":-80,"visible":true,"properties":[{"name":"layer","type":"int","value":2},{"name":"resource_index","type":"int","value":1},{"name":"oS","type":"string","value":"connect"},{"name":"l0","type":"string","value":"rope"},{"name":"l1","type":"string","value":"1"},{"name":"l2","type":"string","value":"0"},{"name":"z","type":"int","value":3},{"name":"zM","type":"int","value":3},{"name":"f","type":"int","value":0}],"gid":1,"width":64,"height":185},{"id":15,"x":-400,"y":207,"visible":true,"properties":[{"name":"layer","type":"int","value":2},{"name":"resource_index","type":"int","value":2},{"name":"oS","type":"string","value":"insideGS"},{"name":"l0","type":"string","value":"house0"},{"name":"l1","type":"string","value":"basic"},{"name":"l2","type":"string","value":"2"},{"name":"z","type":"int","value":4},{"name":"zM","type":"int","value":1},{"name":"f","type":"int","value":0}],"gid":17,"width":800,"height":27}],"properties":[]},{"id":3,"name":"layer_3_obj","type":"objectgroup","visible":true,"opacity":1,"draworder":"index","offsetx":0,"offsety":0,"parallaxx":1,"parallaxy":1,"objects":[{"id":16,"x":-400,"y":183,"visible":true,"properties":[{"name":"layer","type":"int","value":3},{"name":"resource_index","type":"int","value":0},{"name":"oS","type":"string","value":"insideGS"},{"name":"l0","type":"string","value":"house0"},{"name":"l1","type":"string","value":"basic"},{"name":"l2","type":"string","value":"1"},{"name":"z","type":"int","value":3},{"name":"zM","type":"int","value":2},{"name":"f","type":"int","value":0}],"gid":16,"width":800,"height":483}],"properties":[]},{"id":4,"name":"portal","type":"objectgroup","visible":true,"opacity":1,"draworder":"index","offsetx":0,"offsety":0,"parallaxx":1,"parallaxy":1,"objects":[{"id":17,"x":-114,"y":115,"visible":true,"properties":[{"name":"x","type":"int","value":-114},{"name":"y","type":"int","value":115},{"name":"pn","type":"string","value":"sp"},{"name":"pt","type":"int","value":0},{"name":"tm","type":"int","value":999999999},{"name":"tn","type":"string","value":""}],"point":true},{"id":18,"x":181,"y":-72,"visible":true,"properties":[{"name":"x","type":"int","value":181},{"name":"y","type":"int","value":-72},{"name":"pn","type":"string","value":"sp"},{"name":"pt","type":"int","value":0},{"name":"tm","type":"int","value":999999999},{"name":"tn","type":"string","value":""}],"point":true},{"id":19,"x":111,"y":107,"visible":true,"properties":[{"name":"x","type":"int","value":111},{"name":"y","type":"int","value":107},{"name":"pn","type":"string","value":"sp"},{"name":"pt","type":"int","value":0},{"name":"tm","type":"int","value":999999999},{"name":"tn","type":"string","value":""}],"point":true},{"id":20,"x":-92,"y":190,"visible":true,"properties":[{"name":"x","type":"int","value":-48},{"name":"y","type":"int","value":181},{"name":"pn","type":"string","value":"out00"},{"name":"pt","type":"int","value":2},{"name":"tm","type":"int","value":102000000},{"name":"tn","type":"string","value":"in00"}],"gid":18,"width":89,"height":257}],"properties":[]},{"id":5,"name":"life","type":"objectgroup","visible":true,"opacity":1,"draworder":"index","offsetx":0,"offsety":0,"parallaxx":1,"parallaxy":1,"objects":[{"id":21,"x":-298,"y":138,"visible":true,"properties":[{"name":"f","type":"int","value":1},{"name":"x","type":"int","value":-298},{"name":"y","type":"int","value":138},{"name":"cy","type":"int","value":140},{"name":"fh","type":"int","value":11},{"name":"id","type":"int","value":1021000},{"name":"rx0","type":"int","value":-318},{"name":"rx1","type":"int","value":-248},{"name":"type","type":"string","value":"n"},{"name":"npc_aseprite","type":"file","value":"../../Npc/1021000.img/animation.aseprite"}],"point":true},{"id":22,"x":-253,"y":138,"visible":true,"properties":[{"name":"f","type":"int","value":1},{"name":"x","type":"int","value":-253},{"name":"y","type":"int","value":138},{"name":"cy","type":"int","value":140},{"name":"fh","type":"int","value":11},{"name":"id","type":"int","value":1021001},{"name":"rx0","type":"int","value":-303},{"name":"rx1","type":"int","value":-203},{"name":"type","type":"string","value":"n"},{"name":"npc_aseprite","type":"file","value":"../../Npc/1021001.img/animation.aseprite"}],"point":true}],"properties":[]},{"id":6,"name":"foothold","type":"objectgroup","visible":true,"opacity":1,"draworder":"index","offsetx":0,"offsety":0,"parallaxx":1,"parallaxy":1,"objects":[{"id":23,"x":19,"y":158,"visible":true,"properties":[{"name":"layer","type":"int","value":1},{"name":"group","type":"int","value":0},{"name":"id","type":"int","value":1},{"name":"fh_layer","type":"int","value":1},{"name":"fh_group","type":"int","value":0},{"name":"fh_id","type":"int","value":1},{"name":"x1","type":"int","value":19},{"name":"x2","type":"int","value":113},{"name":"y1","type":"int","value":158},{"name":"y2","type":"int","value":158},{"name":"next","type":"int","value":0},{"name":"prev","type":"int","value":0}],"polyline":[{"x":0,"y":0},{"x":94,"y":0}]},{"id":24,"x":174,"y":-98,"visible":true,"properties":[{"name":"layer","type":"int","value":1},{"name":"group","type":"int","value":0},{"name":"id","type":"int","value":2},{"name":"fh_layer","type":"int","value":1},{"name":"fh_group","type":"int","value":0},{"name":"fh_id","type":"int","value":2},{"name":"x1","type":"int","value":174},{"name":"x2","type":"int","value":199},{"name":"y1","type":"int","value":-98},{"name":"y2","type":"int","value":-108},{"name":"next","type":"int","value":3},{"name":"prev","type":"int","value":0}],"polyline":[{"x":0,"y":0},{"x":25,"y":-10}]},{"id":25,"x":199,"y":-108,"visible":true,"properties":[{"name":"layer","type":"int","value":1},{"name":"group","type":"int","value":0},{"name":"id","type":"int","value":3},{"name":"fh_layer","type":"int","value":1},{"name":"fh_group","type":"int","value":0},{"name":"fh_id","type":"int","value":3},{"name":"x1","type":"int","value":199},{"name":"x2","type":"int","value":227},{"name":"y1","type":"int","value":-108},{"name":"y2","type":"int","value":-108},{"name":"next","type":"int","value":4},{"name":"prev","type":"int","value":2}],"polyline":[{"x":0,"y":0},{"x":28,"y":0}]},{"id":26,"x":227,"y":-108,"visible":true,"properties":[{"name":"layer","type":"int","value":1},{"name":"group","type":"int","value":0},{"name":"id","type":"int","value":4},{"name":"fh_layer","type":"int","value":1},{"name":"fh_group","type":"int","value":0},{"name":"fh_id","type":"int","value":4},{"name":"x1","type":"int","value":227},{"name":"x2","type":"int","value":252},{"name":"y1","type":"int","value":-108},{"name":"y2","type":"int","value":-97},{"name":"next","type":"int","value":0},{"name":"prev","type":"int","value":3}],"polyline":[{"x":0,"y":0},{"x":25,"y":11}]},{"id":27,"x":114,"y":-45,"visible":true,"properties":[{"name":"layer","type":"int","value":1},{"name":"group","type":"int","value":0},{"name":"id","type":"int","value":5},{"name":"fh_layer","type":"int","value":1},{"name":"fh_group","type":"int","value":0},{"name":"fh_id","type":"int","value":5},{"name":"x1","type":"int","value":114},{"name":"x2","type":"int","value":119},{"name":"y1","type":"int","value":-45},{"name":"y2","type":"int","value":-54},{"name":"next","type":"int","value":6},{"name":"prev","type":"int","value":0}],"polyline":[{"x":0,"y":0},{"x":5,"y":-9}]},{"id":28,"x":119,"y":-54,"visible":true,"properties":[{"name":"layer","type":"int","value":1},{"name":"group","type":"int","value":0},{"name":"id","type":"int","value":6},{"name":"fh_layer","type":"int","value":1},{"name":"fh_group","type":"int","value":0},{"name":"fh_id","type":"int","value":6},{"name":"x1","type":"int","value":119},{"name":"x2","type":"int","value":139},{"name":"y1","type":"int","value":-54},{"name":"y2","type":"int","value":-59},{"name":"next","type":"int","value":7},{"name":"prev","type":"int","value":5}],"polyline":[{"x":0,"y":0},{"x":20,"y":-5}]},{"id":29,"x":139,"y":-59,"visible":true,"properties":[{"name":"layer","type":"int","value":1},{"name":"group","type":"int","value":0},{"name":"id","type":"int","value":7},{"name":"fh_layer","type":"int","value":1},{"name":"fh_group","type":"int","value":0},{"name":"fh_id","type":"int","value":7},{"name":"x1","type":"int","value":139},{"name":"x2","type":"int","value":173},{"name":"y1","type":"int","value":-59},{"name":"y2","type":"int","value":-51},{"name":"next","type":"int","value":0},{"name":"prev","type":"int","value":6}],"polyline":[{"x":0,"y":0},{"x":34,"y":8}]},{"id":30,"x":-119,"y":139,"visible":true,"properties":[{"name":"layer","type":"int","value":1},{"name":"group","type":"int","value":0},{"name":"id","type":"int","value":8},{"name":"fh_layer","type":"int","value":1},{"name":"fh_group","type":"int","value":0},{"name":"fh_id","type":"int","value":8},{"name":"x1","type":"int","value":-119},{"name":"x2","type":"int","value":-16},{"name":"y1","type":"int","value":139},{"name":"y2","type":"int","value":139},{"name":"next","type":"int","value":0},{"name":"prev","type":"int","value":0}],"polyline":[{"x":0,"y":0},{"x":103,"y":0}]},{"id":31,"x":-185,"y":-263,"visible":true,"properties":[{"name":"layer","type":"int","value":1},{"name":"group","type":"int","value":0},{"name":"id","type":"int","value":9},{"name":"fh_layer","type":"int","value":1},{"name":"fh_group","type":"int","value":0},{"name":"fh_id","type":"int","value":9},{"name":"x1","type":"int","value":-185},{"name":"x2","type":"int","value":311},{"name":"y1","type":"int","value":-263},{"name":"y2","type":"int","value":-263},{"name":"next","type":"int","value":0},{"name":"prev","type":"int","value":0}],"polyline":[{"x":0,"y":0},{"x":496,"y":0}]},{"id":32,"x":247,"y":-183,"visible":true,"properties":[{"name":"layer","type":"int","value":1},{"name":"group","type":"int","value":0},{"name":"id","type":"int","value":10},{"name":"fh_layer","type":"int","value":1},{"name":"fh_group","type":"int","value":0},{"name":"fh_id","type":"int","value":10},{"name":"x1","type":"int","value":247},{"name":"x2","type":"int","value":342},{"name":"y1","type":"int","value":-183},{"name":"y2","type":"int","value":-183},{"name":"next","type":"int","value":0},{"name":"prev","type":"int","value":0}],"polyline":[{"x":0,"y":0},{"x":95,"y":0}]},{"id":33,"x":-338,"y":140,"visible":true,"properties":[{"name":"layer","type":"int","value":1},{"name":"group","type":"int","value":0},{"name":"id","type":"int","value":11},{"name":"fh_layer","type":"int","value":1},{"name":"fh_group","type":"int","value":0},{"name":"fh_id","type":"int","value":11},{"name":"x1","type":"int","value":-338},{"name":"x2","type":"int","value":-227},{"name":"y1","type":"int","value":140},{"name":"y2","type":"int","value":140},{"name":"next","type":"int","value":12},{"name":"prev","type":"int","value":15}],"polyline":[{"x":0,"y":0},{"x":111,"y":0}]},{"id":34,"x":-227,"y":140,"visible":true,"properties":[{"name":"layer","type":"int","value":1},{"name":"group","type":"int","value":0},{"name":"id","type":"int","value":12},{"name":"fh_layer","type":"int","value":1},{"name":"fh_group","type":"int","value":0},{"name":"fh_id","type":"int","value":12},{"name":"x1","type":"int","value":-227},{"name":"x2","type":"int","value":-227},{"name":"y1","type":"int","value":140},{"name":"y2","type":"int","value":138},{"name":"next","type":"int","value":13},{"name":"prev","type":"int","value":11}],"polyline":[{"x":0,"y":0},{"x":0,"y":-2}]},{"id":35,"x":-227,"y":138,"visible":true,"properties":[{"name":"layer","type":"int","value":1},{"name":"group","type":"int","value":0},{"name":"id","type":"int","value":13},{"name":"fh_layer","type":"int","value":1},{"name":"fh_group","type":"int","value":0},{"name":"fh_id","type":"int","value":13},{"name":"x1","type":"int","value":-227},{"name":"x2","type":"int","value":-227},{"name":"y1","type":"int","value":138},{"name":"y2","type":"int","value":13},{"name":"next","type":"int","value":14},{"name":"prev","type":"int","value":12}],"polyline":[{"x":0,"y":0},{"x":0,"y":-125}]},{"id":36,"x":-227,"y":13,"visible":true,"properties":[{"name":"layer","type":"int","value":1},{"name":"group","type":"int","value":0},{"name":"id","type":"int","value":14},{"name":"fh_layer","type":"int","value":1},{"name":"fh_group","type":"int","value":0},{"name":"fh_id","type":"int","value":14},{"name":"x1","type":"int","value":-227},{"name":"x2","type":"int","value":-338},{"name":"y1","type":"int","value":13},{"name":"y2","type":"int","value":13},{"name":"next","type":"int","value":15},{"name":"prev","type":"int","value":13}],"polyline":[{"x":0,"y":0},{"x":-111,"y":0}]},{"id":37,"x":-338,"y":13,"visible":true,"properties":[{"name":"layer","type":"int","value":1},{"name":"group","type":"int","value":0},{"name":"id","type":"int","value":15},{"name":"fh_layer","type":"int","value":1},{"name":"fh_group","type":"int","value":0},{"name":"fh_id","type":"int","value":15},{"name":"x1","type":"int","value":-338},{"name":"x2","type":"int","value":-338},{"name":"y1","type":"int","value":13},{"name":"y2","type":"int","value":140},{"name":"next","type":"int","value":11},{"name":"prev","type":"int","value":14}],"polyline":[{"x":0,"y":0},{"x":0,"y":127}]},{"id":38,"x":46,"y":-19,"visible":true,"properties":[{"name":"layer","type":"int","value":1},{"name":"group","type":"int","value":0},{"name":"id","type":"int","value":16},{"name":"fh_layer","type":"int","value":1},{"name":"fh_group","type":"int","value":0},{"name":"fh_id","type":"int","value":16},{"name":"x1","type":"int","value":46},{"name":"x2","type":"int","value":263},{"name":"y1","type":"int","value":-19},{"name":"y2","type":"int","value":-19},{"name":"next","type":"int","value":0},{"name":"prev","type":"int","value":0}],"polyline":[{"x":0,"y":0},{"x":217,"y":0}]},{"id":39,"x":184,"y":20,"visible":true,"properties":[{"name":"layer","type":"int","value":1},{"name":"group","type":"int","value":0},{"name":"id","type":"int","value":17},{"name":"fh_layer","type":"int","value":1},{"name":"fh_group","type":"int","value":0},{"name":"fh_id","type":"int","value":17},{"name":"x1","type":"int","value":184},{"name":"x2","type":"int","value":228},{"name":"y1","type":"int","value":20},{"name":"y2","type":"int","value":20},{"name":"next","type":"int","value":0},{"name":"prev","type":"int","value":0}],"polyline":[{"x":0,"y":0},{"x":44,"y":0}]},{"id":40,"x":162,"y":57,"visible":true,"properties":[{"name":"layer","type":"int","value":1},{"name":"group","type":"int","value":0},{"name":"id","type":"int","value":18},{"name":"fh_layer","type":"int","value":1},{"name":"fh_group","type":"int","value":0},{"name":"fh_id","type":"int","value":18},{"name":"x1","type":"int","value":162},{"name":"x2","type":"int","value":202},{"name":"y1","type":"int","value":57},{"name":"y2","type":"int","value":57},{"name":"next","type":"int","value":0},{"name":"prev","type":"int","value":0}],"polyline":[{"x":0,"y":0},{"x":40,"y":0}]},{"id":41,"x":189,"y":97,"visible":true,"properties":[{"name":"layer","type":"int","value":1},{"name":"group","type":"int","value":0},{"name":"id","type":"int","value":19},{"name":"fh_layer","type":"int","value":1},{"name":"fh_group","type":"int","value":0},{"name":"fh_id","type":"int","value":19},{"name":"x1","type":"int","value":189},{"name":"x2","type":"int","value":301},{"name":"y1","type":"int","value":97},{"name":"y2","type":"int","value":97},{"name":"next","type":"int","value":0},{"name":"prev","type":"int","value":0}],"polyline":[{"x":0,"y":0},{"x":112,"y":0}]},{"id":42,"x":172,"y":127,"visible":true,"properties":[{"name":"layer","type":"int","value":1},{"name":"group","type":"int","value":0},{"name":"id","type":"int","value":20},{"name":"fh_layer","type":"int","value":1},{"name":"fh_group","type":"int","value":0},{"name":"fh_id","type":"int","value":20},{"name":"x1","type":"int","value":172},{"name":"x2","type":"int","value":214},{"name":"y1","type":"int","value":127},{"name":"y2","type":"int","value":127},{"name":"next","type":"int","value":0},{"name":"prev","type":"int","value":0}],"polyline":[{"x":0,"y":0},{"x":42,"y":0}]},{"id":43,"x":158,"y":156,"visible":true,"properties":[{"name":"layer","type":"int","value":1},{"name":"group","type":"int","value":0},{"name":"id","type":"int","value":21},{"name":"fh_layer","type":"int","value":1},{"name":"fh_group","type":"int","value":0},{"name":"fh_id","type":"int","value":21},{"name":"x1","type":"int","value":158},{"name":"x2","type":"int","value":198},{"name":"y1","type":"int","value":156},{"name":"y2","type":"int","value":156},{"name":"next","type":"int","value":0},{"name":"prev","type":"int","value":0}],"polyline":[{"x":0,"y":0},{"x":40,"y":0}]},{"id":44,"x":328,"y":131,"visible":true,"properties":[{"name":"layer","type":"int","value":1},{"name":"group","type":"int","value":0},{"name":"id","type":"int","value":22},{"name":"fh_layer","type":"int","value":1},{"name":"fh_group","type":"int","value":0},{"name":"fh_id","type":"int","value":22},{"name":"x1","type":"int","value":328},{"name":"x2","type":"int","value":365},{"name":"y1","type":"int","value":131},{"name":"y2","type":"int","value":131},{"name":"next","type":"int","value":0},{"name":"prev","type":"int","value":0}],"polyline":[{"x":0,"y":0},{"x":37,"y":0}]},{"id":45,"x":-345,"y":150,"visible":true,"properties":[{"name":"layer","type":"int","value":2},{"name":"group","type":"int","value":1},{"name":"id","type":"int","value":23},{"name":"fh_layer","type":"int","value":2},{"name":"fh_group","type":"int","value":1},{"name":"fh_id","type":"int","value":23},{"name":"x1","type":"int","value":-345},{"name":"x2","type":"int","value":-345},{"name":"y1","type":"int","value":150},{"name":"y2","type":"int","value":-13},{"name":"next","type":"int","value":24},{"name":"prev","type":"int","value":26}],"polyline":[{"x":0,"y":0},{"x":0,"y":-163}]},{"id":46,"x":-345,"y":-13,"visible":true,"properties":[{"name":"layer","type":"int","value":2},{"name":"group","type":"int","value":1},{"name":"id","type":"int","value":24},{"name":"fh_layer","type":"int","value":2},{"name":"fh_group","type":"int","value":1},{"name":"fh_id","type":"int","value":24},{"name":"x1","type":"int","value":-345},{"name":"x2","type":"int","value":-208},{"name":"y1","type":"int","value":-13},{"name":"y2","type":"int","value":-13},{"name":"next","type":"int","value":25},{"name":"prev","type":"int","value":23}],"polyline":[{"x":0,"y":0},{"x":137,"y":0}]},{"id":47,"x":-208,"y":-13,"visible":true,"properties":[{"name":"layer","type":"int","value":2},{"name":"group","type":"int","value":1},{"name":"id","type":"int","value":25},{"name":"fh_layer","type":"int","value":2},{"name":"fh_group","type":"int","value":1},{"name":"fh_id","type":"int","value":25},{"name":"x1","type":"int","value":-208},{"name":"x2","type":"int","value":-208},{"name":"y1","type":"int","value":-13},{"name":"y2","type":"int","value":150},{"name":"next","type":"int","value":26},{"name":"prev","type":"int","value":24}],"polyline":[{"x":0,"y":0},{"x":0,"y":163}]},{"id":48,"x":-208,"y":150,"visible":true,"properties":[{"name":"layer","type":"int","value":2},{"name":"group","type":"int","value":1},{"name":"id","type":"int","value":26},{"name":"fh_layer","type":"int","value":2},{"name":"fh_group","type":"int","value":1},{"name":"fh_id","type":"int","value":26},{"name":"x1","type":"int","value":-208},{"name":"x2","type":"int","value":-345},{"name":"y1","type":"int","value":150},{"name":"y2","type":"int","value":150},{"name":"next","type":"int","value":23},{"name":"prev","type":"int","value":25}],"polyline":[{"x":0,"y":0},{"x":-137,"y":0}]},{"id":49,"x":-400,"y":182,"visible":true,"properties":[{"name":"layer","type":"int","value":2},{"name":"group","type":"int","value":1},{"name":"id","type":"int","value":27},{"name":"fh_layer","type":"int","value":2},{"name":"fh_group","type":"int","value":1},{"name":"fh_id","type":"int","value":27},{"name":"x1","type":"int","value":-400},{"name":"x2","type":"int","value":400},{"name":"y1","type":"int","value":182},{"name":"y2","type":"int","value":182},{"name":"next","type":"int","value":0},{"name":"prev","type":"int","value":0}],"polyline":[{"x":0,"y":0},{"x":800,"y":0}]}],"properties":[]},{"id":7,"name":"ladderRope","type":"objectgroup","visible":true,"opacity":1,"draworder":"index","offsetx":0,"offsety":0,"parallaxx":1,"parallaxy":1,"objects":[{"id":50,"x":75,"y":-261,"visible":true,"properties":[{"name":"ladder_id","type":"int","value":1},{"name":"l","type":"int","value":0},{"name":"x","type":"int","value":75},{"name":"uf","type":"int","value":1},{"name":"y1","type":"int","value":-261},{"name":"y2","type":"int","value":-84},{"name":"page","type":"int","value":2}],"polyline":[{"x":0,"y":0},{"x":0,"y":177}]}],"properties":[]}],"tilesets":[{"firstgid":1,"source":"../tilesets/obj_connect_rope_1.tsj"},{"firstgid":2,"source":"../tilesets/obj_shop_shop_weapon.tsj"},{"firstgid":15,"source":"../tilesets/obj_insideGS_house0_basic.tsj"},{"firstgid":18,"source":"../tilesets/portal_MapHelper.img_portal_game_pv.tsj"}],"properties":[{"name":"bgm","type":"string","value":"Bgm00/Nightmare"},{"name":"town","type":"int","value":1},{"name":"VRTop","type":"int","value":-300},{"name":"cloud","type":"int","value":0},{"name":"VRLeft","type":"int","value":-400},{"name":"VRRight","type":"int","value":400},{"name":"mapMark","type":"string","value":"Perion"},{"name":"mobRate","type":"float","value":1},{"name":"version","type":"int","value":10},{"name":"VRBottom","type":"int","value":300},{"name":"returnMap","type":"int","value":102000000},{"name":"fieldLimit","type":"int","value":0},{"name":"hideMinimap","type":"int","value":0},{"name":"forcedReturn","type":"int","value":999999999}]}