{"type":"map","orientation":"orthogonal","renderorder":"right-down","infinite":false,"tilewidth":1,"tileheight":1,"width":1530,"height":780,"parallaxoriginx":-400,"parallaxoriginy":80,"nextlayerid":10,"nextobjectid":232,"layers":[{"id":1,"name":"layer_0_obj","type":"objectgroup","visible":true,"opacity":1,"draworder":"index","offsetx":0,"offsety":0,"parallaxx":1,"parallaxy":1,"objects":[{"id":65,"x":-416,"y":172,"visible":true,"properties":[{"name":"layer","type":"int","value":0},{"name":"resource_index","type":"int","value":0},{"name":"oS","type":"string","value":"acc2"},{"name":"l0","type":"string","value":"metroCity"},{"name":"l1","type":"string","value":"nightMarket"},{"name":"l2","type":"string","value":"2"},{"name":"z","type":"int","value":5},{"name":"zM","type":"int","value":7},{"name":"f","type":"int","value":0}],"gid":66,"width":800,"height":600},{"id":66,"x":-1215,"y":172,"visible":true,"properties":[{"name":"layer","type":"int","value":0},{"name":"resource_index","type":"int","value":1},{"name":"oS","type":"string","value":"acc2"},{"name":"l0","type":"string","value":"metroCity"},{"name":"l1","type":"string","value":"nightMarket"},{"name":"l2","type":"string","value":"2"},{"name":"z","type":"int","value":5},{"name":"zM","type":"int","value":7},{"name":"f","type":"int","value":0}],"gid":66,"width":800,"height":600},{"id":67,"x":-507,"y":-113,"visible":true,"properties":[{"name":"layer","type":"int","value":0},{"name":"resource_index","type":"int","value":2},{"name":"oS","type":"string","value":"acc2"},{"name":"l0","type":"string","value":"metroCity"},{"name":"l1","type":"string","value":"nightMarket"},{"name":"l2","type":"string","value":"1"},{"name":"z","type":"int","value":9},{"name":"zM","type":"int","value":7},{"name":"f","type":"int","value":0}],"gid":65,"width":105,"height":171},{"id":68,"x":-154,"y":99,"visible":true,"properties":[{"name":"layer","type":"int","value":0},{"name":"resource_index","type":"int","value":3},{"name":"oS","type":"string","value":"acc2"},{"name":"l0","type":"string","value":"metroCity"},{"name":"l1","type":"string","value":"artificiality"},{"name":"l2","type":"string","value":"0"},{"name":"z","type":"int","value":6},{"name":"zM","type":"int","value":7},{"name":"f","type":"int","value":0}],"gid":74,"width":183,"height":538},{"id":69,"x":-648,"y":-110,"visible":true,"properties":[{"name":"layer","type":"int","value":0},{"name":"resource_index","type":"int","value":4},{"name":"oS","type":"string","value":"acc2"},{"name":"l0","type":"string","value":"metroCity"},{"name":"l1","type":"string","value":"nightMarket"},{"name":"l2","type":"string","value":"4"},{"name":"z","type":"int","value":8},{"name":"zM","type":"int","value":7},{"name":"f","type":"int","value":0}],"gid":67,"width":224,"height":255},{"id":70,"x":163,"y":96,"visible":true,"properties":[{"name":"layer","type":"int","value":0},{"name":"resource_index","type":"int","value":5},{"name":"oS","type":"string","value":"acc2"},{"name":"l0","type":"string","value":"metroCity"},{"name":"l1","type":"string","value":"artificiality"},{"name":"l2","type":"string","value":"0"},{"name":"z","type":"int","value":7},{"name":"zM","type":"int","value":7},{"name":"f","type":"int","value":0}],"gid":74,"width":183,"height":538},{"id":71,"x":-49,"y":95,"visible":true,"properties":[{"name":"layer","type":"int","value":0},{"name":"resource_index","type":"int","value":6},{"name":"oS","type":"string","value":"acc2"},{"name":"l0","type":"string","value":"metroCity"},{"name":"l1","type":"string","value":"artificiality"},{"name":"l2","type":"string","value":"22"},{"name":"z","type":"int","value":9},{"name":"zM","type":"int","value":7},{"name":"f","type":"int","value":0}],"gid":92,"width":48,"height":64},{"id":72,"x":233,"y":73,"visible":true,"properties":[{"name":"layer","type":"int","value":0},{"name":"resource_index","type":"int","value":7},{"name":"oS","type":"string","value":"acc2"},{"name":"l0","type":"string","value":"metroCity"},{"name":"l1","type":"string","value":"nightMarket"},{"name":"l2","type":"string","value":"1"},{"name":"z","type":"int","value":10},{"name":"zM","type":"int","value":7},{"name":"f","type":"int","value":0}],"gid":65,"width":105,"height":171}],"properties":[]},{"id":2,"name":"layer_0_tile","type":"objectgroup","visible":true,"opacity":1,"draworder":"index","offsetx":0,"offsety":0,"parallaxx":1,"parallaxy":1,"objects":[{"id":1,"x":-675,"y":-30,"visible":true,"properties":[{"name":"layer","type":"int","value":0},{"name":"resource_index","type":"int","value":0},{"name":"u","type":"string","value":"bsc"},{"name":"no","type":"int","value":4},{"name":"zM","type":"int","value":7}],"gid":8,"width":90,"height":60},{"id":2,"x":-526,"y":150,"visible":true,"properties":[{"name":"layer","type":"int","value":0},{"name":"resource_index","type":"int","value":1},{"name":"u","type":"string","value":"enV0"},{"name":"no","type":"int","value":1},{"name":"zM","type":"int","value":7}],"gid":5,"width":31,"height":60},{"id":3,"x":-495,"y":-30,"visible":true,"properties":[{"name":"layer","type":"int","value":0},{"name":"resource_index","type":"int","value":2},{"name":"u","type":"string","value":"bsc"},{"name":"no","type":"int","value":1},{"name":"zM","type":"int","value":7}],"gid":9,"width":90,"height":60},{"id":4,"x":-495,"y":-90,"visible":true,"properties":[{"name":"layer","type":"int","value":0},{"name":"resource_index","type":"int","value":3},{"name":"u","type":"string","value":"enH0"},{"name":"no","type":"int","value":0},{"name":"zM","type":"int","value":7}],"gid":10,"width":90,"height":27},{"id":5,"x":-585,"y":-90,"visible":true,"properties":[{"name":"layer","type":"int","value":0},{"name":"resource_index","type":"int","value":4},{"name":"u","type":"string","value":"enH0"},{"name":"no","type":"int","value":0},{"name":"zM","type":"int","value":7}],"gid":10,"width":90,"height":27},{"id":6,"x":-585,"y":-30,"visible":true,"properties":[{"name":"layer","type":"int","value":0},{"name":"resource_index","type":"int","value":5},{"name":"u","type":"string","value":"bsc"},{"name":"no","type":"int","value":4},{"name":"zM","type":"int","value":7}],"gid":8,"width":90,"height":60},{"id":7,"x":-519,"y":164,"visible":true,"properties":[{"name":"layer","type":"int","value":0},{"name":"resource_index","type":"int","value":6},{"name":"u","type":"string","value":"edD"},{"name":"no","type":"int","value":0},{"name":"zM","type":"int","value":7}],"gid":15,"width":53,"height":14},{"id":8,"x":-855,"y":120,"visible":true,"properties":[{"name":"layer","type":"int","value":0},{"name":"resource_index","type":"int","value":7},{"name":"u","type":"string","value":"enH1"},{"name":"no","type":"int","value":0},{"name":"zM","type":"int","value":7}],"gid":2,"width":90,"height":30},{"id":9,"x":-765,"y":130,"visible":true,"properties":[{"name":"layer","type":"int","value":0},{"name":"resource_index","type":"int","value":8},{"name":"u","type":"string","value":"enH1"},{"name":"no","type":"int","value":1},{"name":"zM","type":"int","value":7}],"gid":14,"width":90,"height":40},{"id":10,"x":-765,"y":90,"visible":true,"properties":[{"name":"layer","type":"int","value":0},{"name":"resource_index","type":"int","value":9},{"name":"u","type":"string","value":"bsc"},{"name":"no","type":"int","value":1},{"name":"zM","type":"int","value":7}],"gid":9,"width":90,"height":60},{"id":11,"x":-675,"y":30,"visible":true,"properties":[{"name":"layer","type":"int","value":0},{"name":"resource_index","type":"int","value":10},{"name":"u","type":"string","value":"bsc"},{"name":"no","type":"int","value":1},{"name":"zM","type":"int","value":7}],"gid":9,"width":90,"height":60},{"id":12,"x":-765,"y":-30,"visible":true,"properties":[{"name":"layer","type":"int","value":0},{"name":"resource_index","type":"int","value":11},{"name":"u","type":"string","value":"bsc"},{"name":"no","type":"int","value":0},{"name":"zM","type":"int","value":7}],"gid":6,"width":90,"height":60},{"id":13,"x":-315,"y":120,"visible":true,"properties":[{"name":"layer","type":"int","value":0},{"name":"resource_index","type":"int","value":12},{"name":"u","type":"string","value":"enH1"},{"name":"no","type":"int","value":0},{"name":"zM","type":"int","value":7}],"gid":2,"width":90,"height":30},{"id":14,"x":-405,"y":120,"visible":true,"properties":[{"name":"layer","type":"int","value":0},{"name":"resource_index","type":"int","value":13},{"name":"u","type":"string","value":"enH1"},{"name":"no","type":"int","value":0},{"name":"zM","type":"int","value":7}],"gid":2,"width":90,"height":30},{"id":15,"x":-675,"y":90,"visible":true,"properties":[{"name":"layer","type":"int","value":0},{"name":"resource_index","type":"int","value":14},{"name":"u","type":"string","value":"bsc"},{"name":"no","type":"int","value":1},{"name":"zM","type":"int","value":7}],"gid":9,"width":90,"height":60},{"id":16,"x":-585,"y":30,"visible":true,"properties":[{"name":"layer","type":"int","value":0},{"name":"resource_index","type":"int","value":15},{"name":"u","type":"string","value":"bsc"},{"name":"no","type":"int","value":1},{"name":"zM","type":"int","value":7}],"gid":9,"width":90,"height":60},{"id":17,"x":-765,"y":30,"visible":true,"properties":[{"name":"layer","type":"int","value":0},{"name":"resource_index","type":"int","value":16},{"name":"u","type":"string","value":"bsc"},{"name":"no","type":"int","value":3},{"name":"zM","type":"int","value":7}],"gid":7,"width":90,"height":60},{"id":18,"x":-405,"y":90,"visible":true,"properties":[{"name":"layer","type":"int","value":0},{"name":"resource_index","type":"int","value":17},{"name":"u","type":"string","value":"bsc"},{"name":"no","type":"int","value":3},{"name":"zM","type":"int","value":7}],"gid":7,"width":90,"height":60},{"id":19,"x":-495,"y":150,"visible":true,"properties":[{"name":"layer","type":"int","value":0},{"name":"resource_index","type":"int","value":18},{"name":"u","type":"string","value":"bsc"},{"name":"no","type":"int","value":3},{"name":"zM","type":"int","value":7}],"gid":7,"width":90,"height":60},{"id":20,"x":-405,"y":30,"visible":true,"properties":[{"name":"layer","type":"int","value":0},{"name":"resource_index","type":"int","value":19},{"name":"u","type":"string","value":"bsc"},{"name":"no","type":"int","value":1},{"name":"zM","type":"int","value":7}],"gid":9,"width":90,"height":60},{"id":21,"x":-225,"y":120,"visible":true,"properties":[{"name":"layer","type":"int","value":0},{"name":"resource_index","type":"int","value":20},{"name":"u","type":"string","value":"enH1"},{"name":"no","type":"int","value":2},{"name":"zM","type":"int","value":7}],"gid":4,"width":90,"height":30},{"id":22,"x":-675,"y":-90,"visible":true,"properties":[{"name":"layer","type":"int","value":0},{"name":"resource_index","type":"int","value":21},{"name":"u","type":"string","value":"enH0"},{"name":"no","type":"int","value":0},{"name":"zM","type":"int","value":7}],"gid":10,"width":90,"height":27},{"id":23,"x":-585,"y":120,"visible":true,"properties":[{"name":"layer","type":"int","value":0},{"name":"resource_index","type":"int","value":22},{"name":"u","type":"string","value":"enH1"},{"name":"no","type":"int","value":0},{"name":"zM","type":"int","value":7}],"gid":2,"width":90,"height":30},{"id":24,"x":-585,"y":90,"visible":true,"properties":[{"name":"layer","type":"int","value":0},{"name":"resource_index","type":"int","value":23},{"name":"u","type":"string","value":"bsc"},{"name":"no","type":"int","value":0},{"name":"zM","type":"int","value":7}],"gid":6,"width":90,"height":60},{"id":25,"x":-675,"y":120,"visible":true,"properties":[{"name":"layer","type":"int","value":0},{"name":"resource_index","type":"int","value":24},{"name":"u","type":"string","value":"enH1"},{"name":"no","type":"int","value":0},{"name":"zM","type":"int","value":7}],"gid":2,"width":90,"height":30},{"id":26,"x":-495,"y":90,"visible":true,"properties":[{"name":"layer","type":"int","value":0},{"name":"resource_index","type":"int","value":25},{"name":"u","type":"string","value":"bsc"},{"name":"no","type":"int","value":0},{"name":"zM","type":"int","value":7}],"gid":6,"width":90,"height":60},{"id":27,"x":-495,"y":30,"visible":true,"properties":[{"name":"layer","type":"int","value":0},{"name":"resource_index","type":"int","value":26},{"name":"u","type":"string","value":"bsc"},{"name":"no","type":"int","value":2},{"name":"zM","type":"int","value":7}],"gid":3,"width":90,"height":60},{"id":28,"x":-495,"y":180,"visible":true,"properties":[{"name":"layer","type":"int","value":0},{"name":"resource_index","type":"int","value":27},{"name":"u","type":"string","value":"enH1"},{"name":"no","type":"int","value":0},{"name":"zM","type":"int","value":7}],"gid":2,"width":90,"height":30},{"id":29,"x":-427,"y":-90,"visible":true,"properties":[{"name":"layer","type":"int","value":0},{"name":"resource_index","type":"int","value":28},{"name":"u","type":"string","value":"edU"},{"name":"no","type":"int","value":0},{"name":"zM","type":"int","value":7}],"gid":11,"width":45,"height":27},{"id":30,"x":-405,"y":-30,"visible":true,"properties":[{"name":"layer","type":"int","value":0},{"name":"resource_index","type":"int","value":29},{"name":"u","type":"string","value":"enV1"},{"name":"no","type":"int","value":1},{"name":"zM","type":"int","value":7}],"gid":13,"width":30,"height":60},{"id":31,"x":-337,"y":-30,"visible":true,"properties":[{"name":"layer","type":"int","value":0},{"name":"resource_index","type":"int","value":30},{"name":"u","type":"string","value":"edU"},{"name":"no","type":"int","value":0},{"name":"zM","type":"int","value":7}],"gid":11,"width":45,"height":27},{"id":32,"x":-315,"y":30,"visible":true,"properties":[{"name":"layer","type":"int","value":0},{"name":"resource_index","type":"int","value":31},{"name":"u","type":"string","value":"enV1"},{"name":"no","type":"int","value":2},{"name":"zM","type":"int","value":7}],"gid":12,"width":24,"height":60},{"id":33,"x":-405,"y":-30,"visible":true,"properties":[{"name":"layer","type":"int","value":0},{"name":"resource_index","type":"int","value":32},{"name":"u","type":"string","value":"enH0"},{"name":"no","type":"int","value":0},{"name":"zM","type":"int","value":7}],"gid":10,"width":90,"height":27},{"id":34,"x":-247,"y":30,"visible":true,"properties":[{"name":"layer","type":"int","value":0},{"name":"resource_index","type":"int","value":33},{"name":"u","type":"string","value":"edU"},{"name":"no","type":"int","value":0},{"name":"zM","type":"int","value":7}],"gid":11,"width":45,"height":27},{"id":35,"x":-225,"y":90,"visible":true,"properties":[{"name":"layer","type":"int","value":0},{"name":"resource_index","type":"int","value":34},{"name":"u","type":"string","value":"enV1"},{"name":"no","type":"int","value":0},{"name":"zM","type":"int","value":7}],"gid":17,"width":30,"height":60},{"id":36,"x":-315,"y":30,"visible":true,"properties":[{"name":"layer","type":"int","value":0},{"name":"resource_index","type":"int","value":35},{"name":"u","type":"string","value":"enH0"},{"name":"no","type":"int","value":0},{"name":"zM","type":"int","value":7}],"gid":10,"width":90,"height":27},{"id":37,"x":-315,"y":90,"visible":true,"properties":[{"name":"layer","type":"int","value":0},{"name":"resource_index","type":"int","value":36},{"name":"u","type":"string","value":"bsc"},{"name":"no","type":"int","value":1},{"name":"zM","type":"int","value":7}],"gid":9,"width":90,"height":60},{"id":38,"x":-157,"y":90,"visible":true,"properties":[{"name":"layer","type":"int","value":0},{"name":"resource_index","type":"int","value":37},{"name":"u","type":"string","value":"edU"},{"name":"no","type":"int","value":0},{"name":"zM","type":"int","value":7}],"gid":11,"width":45,"height":27},{"id":39,"x":-159,"y":104,"visible":true,"properties":[{"name":"layer","type":"int","value":0},{"name":"resource_index","type":"int","value":38},{"name":"u","type":"string","value":"edD"},{"name":"no","type":"int","value":0},{"name":"zM","type":"int","value":7}],"gid":15,"width":53,"height":14},{"id":40,"x":-225,"y":90,"visible":true,"properties":[{"name":"layer","type":"int","value":0},{"name":"resource_index","type":"int","value":39},{"name":"u","type":"string","value":"enH0"},{"name":"no","type":"int","value":0},{"name":"zM","type":"int","value":7}],"gid":10,"width":90,"height":27},{"id":41,"x":-405,"y":150,"visible":true,"properties":[{"name":"layer","type":"int","value":0},{"name":"resource_index","type":"int","value":40},{"name":"u","type":"string","value":"enV1"},{"name":"no","type":"int","value":0},{"name":"zM","type":"int","value":7}],"gid":17,"width":30,"height":60},{"id":42,"x":-429,"y":164,"visible":true,"properties":[{"name":"layer","type":"int","value":0},{"name":"resource_index","type":"int","value":41},{"name":"u","type":"string","value":"edD"},{"name":"no","type":"int","value":0},{"name":"zM","type":"int","value":7}],"gid":15,"width":53,"height":14},{"id":43,"x":315,"y":150,"visible":true,"properties":[{"name":"layer","type":"int","value":0},{"name":"resource_index","type":"int","value":42},{"name":"u","type":"string","value":"enV1"},{"name":"no","type":"int","value":0},{"name":"zM","type":"int","value":6}],"gid":17,"width":30,"height":60},{"id":44,"x":225,"y":150,"visible":true,"properties":[{"name":"layer","type":"int","value":0},{"name":"resource_index","type":"int","value":43},{"name":"u","type":"string","value":"bsc"},{"name":"no","type":"int","value":2},{"name":"zM","type":"int","value":6}],"gid":3,"width":90,"height":60},{"id":45,"x":104,"y":150,"visible":true,"properties":[{"name":"layer","type":"int","value":0},{"name":"resource_index","type":"int","value":44},{"name":"u","type":"string","value":"enV0"},{"name":"no","type":"int","value":1},{"name":"zM","type":"int","value":6}],"gid":5,"width":31,"height":60},{"id":46,"x":135,"y":150,"visible":true,"properties":[{"name":"layer","type":"int","value":0},{"name":"resource_index","type":"int","value":45},{"name":"u","type":"string","value":"bsc"},{"name":"no","type":"int","value":3},{"name":"zM","type":"int","value":6}],"gid":7,"width":90,"height":60},{"id":47,"x":135,"y":90,"visible":true,"properties":[{"name":"layer","type":"int","value":0},{"name":"resource_index","type":"int","value":46},{"name":"u","type":"string","value":"enH0"},{"name":"no","type":"int","value":0},{"name":"zM","type":"int","value":6}],"gid":10,"width":90,"height":27},{"id":48,"x":113,"y":90,"visible":true,"properties":[{"name":"layer","type":"int","value":0},{"name":"resource_index","type":"int","value":47},{"name":"u","type":"string","value":"edU"},{"name":"no","type":"int","value":0},{"name":"zM","type":"int","value":6}],"gid":11,"width":45,"height":27},{"id":49,"x":225,"y":90,"visible":true,"properties":[{"name":"layer","type":"int","value":0},{"name":"resource_index","type":"int","value":48},{"name":"u","type":"string","value":"enH0"},{"name":"no","type":"int","value":0},{"name":"zM","type":"int","value":6}],"gid":10,"width":90,"height":27},{"id":50,"x":293,"y":90,"visible":true,"properties":[{"name":"layer","type":"int","value":0},{"name":"resource_index","type":"int","value":49},{"name":"u","type":"string","value":"edU"},{"name":"no","type":"int","value":0},{"name":"zM","type":"int","value":6}],"gid":11,"width":45,"height":27},{"id":51,"x":291,"y":164,"visible":true,"properties":[{"name":"layer","type":"int","value":0},{"name":"resource_index","type":"int","value":50},{"name":"u","type":"string","value":"edD"},{"name":"no","type":"int","value":0},{"name":"zM","type":"int","value":6}],"gid":15,"width":53,"height":14},{"id":52,"x":225,"y":190,"visible":true,"properties":[{"name":"layer","type":"int","value":0},{"name":"resource_index","type":"int","value":51},{"name":"u","type":"string","value":"enH1"},{"name":"no","type":"int","value":1},{"name":"zM","type":"int","value":6}],"gid":14,"width":90,"height":40},{"id":53,"x":135,"y":190,"visible":true,"properties":[{"name":"layer","type":"int","value":0},{"name":"resource_index","type":"int","value":52},{"name":"u","type":"string","value":"enH1"},{"name":"no","type":"int","value":1},{"name":"zM","type":"int","value":6}],"gid":14,"width":90,"height":40},{"id":54,"x":111,"y":164,"visible":true,"properties":[{"name":"layer","type":"int","value":0},{"name":"resource_index","type":"int","value":53},{"name":"u","type":"string","value":"edD"},{"name":"no","type":"int","value":0},{"name":"zM","type":"int","value":6}],"gid":15,"width":53,"height":14},{"id":55,"x":-855,"y":-90,"visible":true,"properties":[{"name":"layer","type":"int","value":0},{"name":"resource_index","type":"int","value":54},{"name":"u","type":"string","value":"enH0"},{"name":"no","type":"int","value":0},{"name":"zM","type":"int","value":7}],"gid":10,"width":90,"height":27},{"id":56,"x":-855,"y":-30,"visible":true,"properties":[{"name":"layer","type":"int","value":0},{"name":"resource_index","type":"int","value":55},{"name":"u","type":"string","value":"bsc"},{"name":"no","type":"int","value":3},{"name":"zM","type":"int","value":7}],"gid":7,"width":90,"height":60},{"id":57,"x":-765,"y":-90,"visible":true,"properties":[{"name":"layer","type":"int","value":0},{"name":"resource_index","type":"int","value":56},{"name":"u","type":"string","value":"enH0"},{"name":"no","type":"int","value":0},{"name":"zM","type":"int","value":7}],"gid":10,"width":90,"height":27},{"id":58,"x":-855,"y":30,"visible":true,"properties":[{"name":"layer","type":"int","value":0},{"name":"resource_index","type":"int","value":57},{"name":"u","type":"string","value":"bsc"},{"name":"no","type":"int","value":0},{"name":"zM","type":"int","value":7}],"gid":6,"width":90,"height":60},{"id":59,"x":-877,"y":-90,"visible":true,"properties":[{"name":"layer","type":"int","value":0},{"name":"resource_index","type":"int","value":58},{"name":"u","type":"string","value":"edU"},{"name":"no","type":"int","value":0},{"name":"zM","type":"int","value":7}],"gid":11,"width":45,"height":27},{"id":60,"x":-885,"y":30,"visible":true,"properties":[{"name":"layer","type":"int","value":0},{"name":"resource_index","type":"int","value":59},{"name":"u","type":"string","value":"enV0"},{"name":"no","type":"int","value":0},{"name":"zM","type":"int","value":7}],"gid":16,"width":30,"height":60},{"id":61,"x":-885,"y":-30,"visible":true,"properties":[{"name":"layer","type":"int","value":0},{"name":"resource_index","type":"int","value":60},{"name":"u","type":"string","value":"enV0"},{"name":"no","type":"int","value":0},{"name":"zM","type":"int","value":7}],"gid":16,"width":30,"height":60},{"id":62,"x":-855,"y":90,"visible":true,"properties":[{"name":"layer","type":"int","value":0},{"name":"resource_index","type":"int","value":61},{"name":"u","type":"string","value":"bsc"},{"name":"no","type":"int","value":4},{"name":"zM","type":"int","value":7}],"gid":8,"width":90,"height":60},{"id":63,"x":-885,"y":90,"visible":true,"properties":[{"name":"layer","type":"int","value":0},{"name":"resource_index","type":"int","value":62},{"name":"u","type":"string","value":"enV0"},{"name":"no","type":"int","value":0},{"name":"zM","type":"int","value":7}],"gid":16,"width":30,"height":60},{"id":64,"x":-879,"y":104,"visible":true,"properties":[{"name":"layer","type":"int","value":0},{"name":"resource_index","type":"int","value":63},{"name":"u","type":"string","value":"edD"},{"name":"no","type":"int","value":0},{"name":"zM","type":"int","value":7}],"gid":15,"width":53,"height":14}],"properties":[]},{"id":3,"name":"layer_1_obj","type":"objectgroup","visible":true,"opacity":1,"draworder":"index","offsetx":0,"offsety":0,"parallaxx":1,"parallaxy":1,"objects":[{"id":155,"x":-733,"y":102,"visible":true,"properties":[{"name":"layer","type":"int","value":1},{"name":"resource_index","type":"int","value":0},{"name":"oS","type":"string","value":"acc2"},{"name":"l0","type":"string","value":"metroCity"},{"name":"l1","type":"string","value":"wallacc"},{"name":"l2","type":"string","value":"4"},{"name":"z","type":"int","value":9},{"name":"zM","type":"int","value":0},{"name":"f","type":"int","value":0}],"gid":42,"width":326,"height":162}],"properties":[]},{"id":4,"name":"layer_1_tile","type":"objectgroup","visible":true,"opacity":1,"draworder":"index","offsetx":0,"offsety":0,"parallaxx":1,"parallaxy":1,"objects":[{"id":73,"x":-90,"y":180,"visible":true,"properties":[{"name":"layer","type":"int","value":1},{"name":"resource_index","type":"int","value":0},{"name":"u","type":"string","value":"bsc"},{"name":"no","type":"int","value":4},{"name":"zM","type":"int","value":0}],"gid":22,"width":90,"height":60},{"id":74,"x":-90,"y":120,"visible":true,"properties":[{"name":"layer","type":"int","value":1},{"name":"resource_index","type":"int","value":1},{"name":"u","type":"string","value":"enH0"},{"name":"no","type":"int","value":2},{"name":"zM","type":"int","value":0}],"gid":26,"width":90,"height":27},{"id":75,"x":270,"y":300,"visible":true,"properties":[{"name":"layer","type":"int","value":1},{"name":"resource_index","type":"int","value":2},{"name":"u","type":"string","value":"bsc"},{"name":"no","type":"int","value":4},{"name":"zM","type":"int","value":0}],"gid":22,"width":90,"height":60},{"id":76,"x":270,"y":330,"visible":true,"properties":[{"name":"layer","type":"int","value":1},{"name":"resource_index","type":"int","value":3},{"name":"u","type":"string","value":"enH1"},{"name":"no","type":"int","value":0},{"name":"zM","type":"int","value":0}],"gid":30,"width":90,"height":30},{"id":77,"x":-720,"y":240,"visible":true,"properties":[{"name":"layer","type":"int","value":1},{"name":"resource_index","type":"int","value":4},{"name":"u","type":"string","value":"bsc"},{"name":"no","type":"int","value":2},{"name":"zM","type":"int","value":0}],"gid":25,"width":90,"height":60},{"id":78,"x":-630,"y":120,"visible":true,"properties":[{"name":"layer","type":"int","value":1},{"name":"resource_index","type":"int","value":5},{"name":"u","type":"string","value":"enH0"},{"name":"no","type":"int","value":1},{"name":"zM","type":"int","value":0}],"gid":19,"width":90,"height":27},{"id":79,"x":-180,"y":180,"visible":true,"properties":[{"name":"layer","type":"int","value":1},{"name":"resource_index","type":"int","value":6},{"name":"u","type":"string","value":"bsc"},{"name":"no","type":"int","value":3},{"name":"zM","type":"int","value":0}],"gid":21,"width":90,"height":60},{"id":80,"x":-180,"y":120,"visible":true,"properties":[{"name":"layer","type":"int","value":1},{"name":"resource_index","type":"int","value":7},{"name":"u","type":"string","value":"enH0"},{"name":"no","type":"int","value":0},{"name":"zM","type":"int","value":0}],"gid":27,"width":90,"height":27},{"id":81,"x":0,"y":180,"visible":true,"properties":[{"name":"layer","type":"int","value":1},{"name":"resource_index","type":"int","value":8},{"name":"u","type":"string","value":"bsc"},{"name":"no","type":"int","value":2},{"name":"zM","type":"int","value":0}],"gid":25,"width":90,"height":60},{"id":82,"x":0,"y":120,"visible":true,"properties":[{"name":"layer","type":"int","value":1},{"name":"resource_index","type":"int","value":9},{"name":"u","type":"string","value":"enH0"},{"name":"no","type":"int","value":1},{"name":"zM","type":"int","value":0}],"gid":19,"width":90,"height":27},{"id":83,"x":-360,"y":180,"visible":true,"properties":[{"name":"layer","type":"int","value":1},{"name":"resource_index","type":"int","value":10},{"name":"u","type":"string","value":"bsc"},{"name":"no","type":"int","value":4},{"name":"zM","type":"int","value":0}],"gid":22,"width":90,"height":60},{"id":84,"x":-360,"y":120,"visible":true,"properties":[{"name":"layer","type":"int","value":1},{"name":"resource_index","type":"int","value":11},{"name":"u","type":"string","value":"enH0"},{"name":"no","type":"int","value":0},{"name":"zM","type":"int","value":0}],"gid":27,"width":90,"height":27},{"id":85,"x":-270,"y":120,"visible":true,"properties":[{"name":"layer","type":"int","value":1},{"name":"resource_index","type":"int","value":12},{"name":"u","type":"string","value":"enH0"},{"name":"no","type":"int","value":2},{"name":"zM","type":"int","value":0}],"gid":26,"width":90,"height":27},{"id":86,"x":-270,"y":180,"visible":true,"properties":[{"name":"layer","type":"int","value":1},{"name":"resource_index","type":"int","value":13},{"name":"u","type":"string","value":"bsc"},{"name":"no","type":"int","value":1},{"name":"zM","type":"int","value":0}],"gid":24,"width":90,"height":60},{"id":87,"x":-450,"y":180,"visible":true,"properties":[{"name":"layer","type":"int","value":1},{"name":"resource_index","type":"int","value":14},{"name":"u","type":"string","value":"bsc"},{"name":"no","type":"int","value":2},{"name":"zM","type":"int","value":0}],"gid":25,"width":90,"height":60},{"id":88,"x":-450,"y":120,"visible":true,"properties":[{"name":"layer","type":"int","value":1},{"name":"resource_index","type":"int","value":15},{"name":"u","type":"string","value":"enH0"},{"name":"no","type":"int","value":2},{"name":"zM","type":"int","value":0}],"gid":26,"width":90,"height":27},{"id":89,"x":270,"y":240,"visible":true,"properties":[{"name":"layer","type":"int","value":1},{"name":"resource_index","type":"int","value":16},{"name":"u","type":"string","value":"bsc"},{"name":"no","type":"int","value":3},{"name":"zM","type":"int","value":0}],"gid":21,"width":90,"height":60},{"id":90,"x":-630,"y":300,"visible":true,"properties":[{"name":"layer","type":"int","value":1},{"name":"resource_index","type":"int","value":17},{"name":"u","type":"string","value":"bsc"},{"name":"no","type":"int","value":1},{"name":"zM","type":"int","value":0}],"gid":24,"width":90,"height":60},{"id":91,"x":-720,"y":340,"visible":true,"properties":[{"name":"layer","type":"int","value":1},{"name":"resource_index","type":"int","value":18},{"name":"u","type":"string","value":"enH1"},{"name":"no","type":"int","value":1},{"name":"zM","type":"int","value":0}],"gid":28,"width":90,"height":40},{"id":92,"x":-540,"y":330,"visible":true,"properties":[{"name":"layer","type":"int","value":1},{"name":"resource_index","type":"int","value":19},{"name":"u","type":"string","value":"enH1"},{"name":"no","type":"int","value":2},{"name":"zM","type":"int","value":0}],"gid":18,"width":90,"height":30},{"id":93,"x":180,"y":330,"visible":true,"properties":[{"name":"layer","type":"int","value":1},{"name":"resource_index","type":"int","value":20},{"name":"u","type":"string","value":"enH1"},{"name":"no","type":"int","value":0},{"name":"zM","type":"int","value":0}],"gid":30,"width":90,"height":30},{"id":94,"x":0,"y":300,"visible":true,"properties":[{"name":"layer","type":"int","value":1},{"name":"resource_index","type":"int","value":21},{"name":"u","type":"string","value":"bsc"},{"name":"no","type":"int","value":1},{"name":"zM","type":"int","value":0}],"gid":24,"width":90,"height":60},{"id":95,"x":90,"y":300,"visible":true,"properties":[{"name":"layer","type":"int","value":1},{"name":"resource_index","type":"int","value":22},{"name":"u","type":"string","value":"bsc"},{"name":"no","type":"int","value":0},{"name":"zM","type":"int","value":0}],"gid":23,"width":90,"height":60},{"id":96,"x":-450,"y":330,"visible":true,"properties":[{"name":"layer","type":"int","value":1},{"name":"resource_index","type":"int","value":23},{"name":"u","type":"string","value":"enH1"},{"name":"no","type":"int","value":2},{"name":"zM","type":"int","value":0}],"gid":18,"width":90,"height":30},{"id":97,"x":-450,"y":300,"visible":true,"properties":[{"name":"layer","type":"int","value":1},{"name":"resource_index","type":"int","value":24},{"name":"u","type":"string","value":"bsc"},{"name":"no","type":"int","value":2},{"name":"zM","type":"int","value":0}],"gid":25,"width":90,"height":60},{"id":98,"x":-360,"y":300,"visible":true,"properties":[{"name":"layer","type":"int","value":1},{"name":"resource_index","type":"int","value":25},{"name":"u","type":"string","value":"bsc"},{"name":"no","type":"int","value":4},{"name":"zM","type":"int","value":0}],"gid":22,"width":90,"height":60},{"id":99,"x":-180,"y":300,"visible":true,"properties":[{"name":"layer","type":"int","value":1},{"name":"resource_index","type":"int","value":26},{"name":"u","type":"string","value":"bsc"},{"name":"no","type":"int","value":0},{"name":"zM","type":"int","value":0}],"gid":23,"width":90,"height":60},{"id":100,"x":-90,"y":330,"visible":true,"properties":[{"name":"layer","type":"int","value":1},{"name":"resource_index","type":"int","value":27},{"name":"u","type":"string","value":"enH1"},{"name":"no","type":"int","value":0},{"name":"zM","type":"int","value":0}],"gid":30,"width":90,"height":30},{"id":101,"x":-450,"y":240,"visible":true,"properties":[{"name":"layer","type":"int","value":1},{"name":"resource_index","type":"int","value":28},{"name":"u","type":"string","value":"bsc"},{"name":"no","type":"int","value":4},{"name":"zM","type":"int","value":0}],"gid":22,"width":90,"height":60},{"id":102,"x":-630,"y":330,"visible":true,"properties":[{"name":"layer","type":"int","value":1},{"name":"resource_index","type":"int","value":29},{"name":"u","type":"string","value":"enH1"},{"name":"no","type":"int","value":0},{"name":"zM","type":"int","value":0}],"gid":30,"width":90,"height":30},{"id":103,"x":90,"y":240,"visible":true,"properties":[{"name":"layer","type":"int","value":1},{"name":"resource_index","type":"int","value":30},{"name":"u","type":"string","value":"bsc"},{"name":"no","type":"int","value":1},{"name":"zM","type":"int","value":0}],"gid":24,"width":90,"height":60},{"id":104,"x":-360,"y":330,"visible":true,"properties":[{"name":"layer","type":"int","value":1},{"name":"resource_index","type":"int","value":31},{"name":"u","type":"string","value":"enH1"},{"name":"no","type":"int","value":2},{"name":"zM","type":"int","value":0}],"gid":18,"width":90,"height":30},{"id":105,"x":-270,"y":240,"visible":true,"properties":[{"name":"layer","type":"int","value":1},{"name":"resource_index","type":"int","value":32},{"name":"u","type":"string","value":"bsc"},{"name":"no","type":"int","value":4},{"name":"zM","type":"int","value":0}],"gid":22,"width":90,"height":60},{"id":106,"x":-270,"y":330,"visible":true,"properties":[{"name":"layer","type":"int","value":1},{"name":"resource_index","type":"int","value":33},{"name":"u","type":"string","value":"enH1"},{"name":"no","type":"int","value":2},{"name":"zM","type":"int","value":0}],"gid":18,"width":90,"height":30},{"id":107,"x":-540,"y":300,"visible":true,"properties":[{"name":"layer","type":"int","value":1},{"name":"resource_index","type":"int","value":34},{"name":"u","type":"string","value":"bsc"},{"name":"no","type":"int","value":0},{"name":"zM","type":"int","value":0}],"gid":23,"width":90,"height":60},{"id":108,"x":-360,"y":240,"visible":true,"properties":[{"name":"layer","type":"int","value":1},{"name":"resource_index","type":"int","value":35},{"name":"u","type":"string","value":"bsc"},{"name":"no","type":"int","value":3},{"name":"zM","type":"int","value":0}],"gid":21,"width":90,"height":60},{"id":109,"x":0,"y":240,"visible":true,"properties":[{"name":"layer","type":"int","value":1},{"name":"resource_index","type":"int","value":36},{"name":"u","type":"string","value":"bsc"},{"name":"no","type":"int","value":2},{"name":"zM","type":"int","value":0}],"gid":25,"width":90,"height":60},{"id":110,"x":-180,"y":240,"visible":true,"properties":[{"name":"layer","type":"int","value":1},{"name":"resource_index","type":"int","value":37},{"name":"u","type":"string","value":"bsc"},{"name":"no","type":"int","value":2},{"name":"zM","type":"int","value":0}],"gid":25,"width":90,"height":60},{"id":111,"x":0,"y":330,"visible":true,"properties":[{"name":"layer","type":"int","value":1},{"name":"resource_index","type":"int","value":38},{"name":"u","type":"string","value":"enH1"},{"name":"no","type":"int","value":2},{"name":"zM","type":"int","value":0}],"gid":18,"width":90,"height":30},{"id":112,"x":-270,"y":300,"visible":true,"properties":[{"name":"layer","type":"int","value":1},{"name":"resource_index","type":"int","value":39},{"name":"u","type":"string","value":"bsc"},{"name":"no","type":"int","value":3},{"name":"zM","type":"int","value":0}],"gid":21,"width":90,"height":60},{"id":113,"x":-90,"y":300,"visible":true,"properties":[{"name":"layer","type":"int","value":1},{"name":"resource_index","type":"int","value":40},{"name":"u","type":"string","value":"bsc"},{"name":"no","type":"int","value":4},{"name":"zM","type":"int","value":0}],"gid":22,"width":90,"height":60},{"id":114,"x":-180,"y":330,"visible":true,"properties":[{"name":"layer","type":"int","value":1},{"name":"resource_index","type":"int","value":41},{"name":"u","type":"string","value":"enH1"},{"name":"no","type":"int","value":2},{"name":"zM","type":"int","value":0}],"gid":18,"width":90,"height":30},{"id":115,"x":-90,"y":240,"visible":true,"properties":[{"name":"layer","type":"int","value":1},{"name":"resource_index","type":"int","value":42},{"name":"u","type":"string","value":"bsc"},{"name":"no","type":"int","value":2},{"name":"zM","type":"int","value":0}],"gid":25,"width":90,"height":60},{"id":116,"x":90,"y":330,"visible":true,"properties":[{"name":"layer","type":"int","value":1},{"name":"resource_index","type":"int","value":43},{"name":"u","type":"string","value":"enH1"},{"name":"no","type":"int","value":2},{"name":"zM","type":"int","value":0}],"gid":18,"width":90,"height":30},{"id":117,"x":180,"y":300,"visible":true,"properties":[{"name":"layer","type":"int","value":1},{"name":"resource_index","type":"int","value":44},{"name":"u","type":"string","value":"bsc"},{"name":"no","type":"int","value":1},{"name":"zM","type":"int","value":0}],"gid":24,"width":90,"height":60},{"id":118,"x":180,"y":240,"visible":true,"properties":[{"name":"layer","type":"int","value":1},{"name":"resource_index","type":"int","value":45},{"name":"u","type":"string","value":"bsc"},{"name":"no","type":"int","value":2},{"name":"zM","type":"int","value":0}],"gid":25,"width":90,"height":60},{"id":119,"x":-720,"y":300,"visible":true,"properties":[{"name":"layer","type":"int","value":1},{"name":"resource_index","type":"int","value":46},{"name":"u","type":"string","value":"bsc"},{"name":"no","type":"int","value":1},{"name":"zM","type":"int","value":0}],"gid":24,"width":90,"height":60},{"id":120,"x":-720,"y":180,"visible":true,"properties":[{"name":"layer","type":"int","value":1},{"name":"resource_index","type":"int","value":47},{"name":"u","type":"string","value":"bsc"},{"name":"no","type":"int","value":2},{"name":"zM","type":"int","value":0}],"gid":25,"width":90,"height":60},{"id":121,"x":-630,"y":240,"visible":true,"properties":[{"name":"layer","type":"int","value":1},{"name":"resource_index","type":"int","value":48},{"name":"u","type":"string","value":"bsc"},{"name":"no","type":"int","value":1},{"name":"zM","type":"int","value":0}],"gid":24,"width":90,"height":60},{"id":122,"x":-540,"y":180,"visible":true,"properties":[{"name":"layer","type":"int","value":1},{"name":"resource_index","type":"int","value":49},{"name":"u","type":"string","value":"bsc"},{"name":"no","type":"int","value":2},{"name":"zM","type":"int","value":0}],"gid":25,"width":90,"height":60},{"id":123,"x":-540,"y":120,"visible":true,"properties":[{"name":"layer","type":"int","value":1},{"name":"resource_index","type":"int","value":50},{"name":"u","type":"string","value":"enH0"},{"name":"no","type":"int","value":2},{"name":"zM","type":"int","value":0}],"gid":26,"width":90,"height":27},{"id":124,"x":-720,"y":120,"visible":true,"properties":[{"name":"layer","type":"int","value":1},{"name":"resource_index","type":"int","value":51},{"name":"u","type":"string","value":"enH0"},{"name":"no","type":"int","value":2},{"name":"zM","type":"int","value":0}],"gid":26,"width":90,"height":27},{"id":125,"x":-630,"y":180,"visible":true,"properties":[{"name":"layer","type":"int","value":1},{"name":"resource_index","type":"int","value":52},{"name":"u","type":"string","value":"bsc"},{"name":"no","type":"int","value":3},{"name":"zM","type":"int","value":0}],"gid":21,"width":90,"height":60},{"id":126,"x":-540,"y":240,"visible":true,"properties":[{"name":"layer","type":"int","value":1},{"name":"resource_index","type":"int","value":53},{"name":"u","type":"string","value":"bsc"},{"name":"no","type":"int","value":2},{"name":"zM","type":"int","value":0}],"gid":25,"width":90,"height":60},{"id":127,"x":90,"y":180,"visible":true,"properties":[{"name":"layer","type":"int","value":1},{"name":"resource_index","type":"int","value":54},{"name":"u","type":"string","value":"slRU"},{"name":"no","type":"int","value":0},{"name":"zM","type":"int","value":0}],"gid":38,"width":90,"height":86},{"id":128,"x":180,"y":180,"visible":true,"properties":[{"name":"layer","type":"int","value":1},{"name":"resource_index","type":"int","value":55},{"name":"u","type":"string","value":"enH0"},{"name":"no","type":"int","value":1},{"name":"zM","type":"int","value":0}],"gid":19,"width":90,"height":27},{"id":129,"x":270,"y":180,"visible":true,"properties":[{"name":"layer","type":"int","value":1},{"name":"resource_index","type":"int","value":56},{"name":"u","type":"string","value":"enH0"},{"name":"no","type":"int","value":0},{"name":"zM","type":"int","value":0}],"gid":27,"width":90,"height":27},{"id":130,"x":-990,"y":240,"visible":true,"properties":[{"name":"layer","type":"int","value":1},{"name":"resource_index","type":"int","value":57},{"name":"u","type":"string","value":"bsc"},{"name":"no","type":"int","value":0},{"name":"zM","type":"int","value":0}],"gid":23,"width":90,"height":60},{"id":131,"x":-810,"y":240,"visible":true,"properties":[{"name":"layer","type":"int","value":1},{"name":"resource_index","type":"int","value":58},{"name":"u","type":"string","value":"bsc"},{"name":"no","type":"int","value":2},{"name":"zM","type":"int","value":0}],"gid":25,"width":90,"height":60},{"id":132,"x":-990,"y":300,"visible":true,"properties":[{"name":"layer","type":"int","value":1},{"name":"resource_index","type":"int","value":59},{"name":"u","type":"string","value":"bsc"},{"name":"no","type":"int","value":0},{"name":"zM","type":"int","value":0}],"gid":23,"width":90,"height":60},{"id":133,"x":-810,"y":300,"visible":true,"properties":[{"name":"layer","type":"int","value":1},{"name":"resource_index","type":"int","value":60},{"name":"u","type":"string","value":"bsc"},{"name":"no","type":"int","value":0},{"name":"zM","type":"int","value":0}],"gid":23,"width":90,"height":60},{"id":134,"x":-900,"y":180,"visible":true,"properties":[{"name":"layer","type":"int","value":1},{"name":"resource_index","type":"int","value":61},{"name":"u","type":"string","value":"bsc"},{"name":"no","type":"int","value":2},{"name":"zM","type":"int","value":0}],"gid":25,"width":90,"height":60},{"id":135,"x":-900,"y":240,"visible":true,"properties":[{"name":"layer","type":"int","value":1},{"name":"resource_index","type":"int","value":62},{"name":"u","type":"string","value":"bsc"},{"name":"no","type":"int","value":0},{"name":"zM","type":"int","value":0}],"gid":23,"width":90,"height":60},{"id":136,"x":-810,"y":180,"visible":true,"properties":[{"name":"layer","type":"int","value":1},{"name":"resource_index","type":"int","value":63},{"name":"u","type":"string","value":"bsc"},{"name":"no","type":"int","value":4},{"name":"zM","type":"int","value":0}],"gid":22,"width":90,"height":60},{"id":137,"x":-810,"y":120,"visible":true,"properties":[{"name":"layer","type":"int","value":1},{"name":"resource_index","type":"int","value":64},{"name":"u","type":"string","value":"enH0"},{"name":"no","type":"int","value":2},{"name":"zM","type":"int","value":0}],"gid":26,"width":90,"height":27},{"id":138,"x":-1080,"y":180,"visible":true,"properties":[{"name":"layer","type":"int","value":1},{"name":"resource_index","type":"int","value":65},{"name":"u","type":"string","value":"bsc"},{"name":"no","type":"int","value":2},{"name":"zM","type":"int","value":0}],"gid":25,"width":90,"height":60},{"id":139,"x":-990,"y":120,"visible":true,"properties":[{"name":"layer","type":"int","value":1},{"name":"resource_index","type":"int","value":66},{"name":"u","type":"string","value":"enH0"},{"name":"no","type":"int","value":2},{"name":"zM","type":"int","value":0}],"gid":26,"width":90,"height":27},{"id":140,"x":-990,"y":330,"visible":true,"properties":[{"name":"layer","type":"int","value":1},{"name":"resource_index","type":"int","value":67},{"name":"u","type":"string","value":"enH1"},{"name":"no","type":"int","value":0},{"name":"zM","type":"int","value":0}],"gid":30,"width":90,"height":30},{"id":141,"x":-1170,"y":120,"visible":true,"properties":[{"name":"layer","type":"int","value":1},{"name":"resource_index","type":"int","value":68},{"name":"u","type":"string","value":"enH0"},{"name":"no","type":"int","value":2},{"name":"zM","type":"int","value":0}],"gid":26,"width":90,"height":27},{"id":142,"x":-1170,"y":180,"visible":true,"properties":[{"name":"layer","type":"int","value":1},{"name":"resource_index","type":"int","value":69},{"name":"u","type":"string","value":"bsc"},{"name":"no","type":"int","value":2},{"name":"zM","type":"int","value":0}],"gid":25,"width":90,"height":60},{"id":143,"x":-1080,"y":240,"visible":true,"properties":[{"name":"layer","type":"int","value":1},{"name":"resource_index","type":"int","value":70},{"name":"u","type":"string","value":"bsc"},{"name":"no","type":"int","value":1},{"name":"zM","type":"int","value":0}],"gid":24,"width":90,"height":60},{"id":144,"x":-1080,"y":300,"visible":true,"properties":[{"name":"layer","type":"int","value":1},{"name":"resource_index","type":"int","value":71},{"name":"u","type":"string","value":"bsc"},{"name":"no","type":"int","value":4},{"name":"zM","type":"int","value":0}],"gid":22,"width":90,"height":60},{"id":145,"x":-1170,"y":330,"visible":true,"properties":[{"name":"layer","type":"int","value":1},{"name":"resource_index","type":"int","value":72},{"name":"u","type":"string","value":"enH1"},{"name":"no","type":"int","value":2},{"name":"zM","type":"int","value":0}],"gid":18,"width":90,"height":30},{"id":146,"x":-1170,"y":240,"visible":true,"properties":[{"name":"layer","type":"int","value":1},{"name":"resource_index","type":"int","value":73},{"name":"u","type":"string","value":"bsc"},{"name":"no","type":"int","value":0},{"name":"zM","type":"int","value":0}],"gid":23,"width":90,"height":60},{"id":147,"x":-1080,"y":330,"visible":true,"properties":[{"name":"layer","type":"int","value":1},{"name":"resource_index","type":"int","value":74},{"name":"u","type":"string","value":"enH1"},{"name":"no","type":"int","value":2},{"name":"zM","type":"int","value":0}],"gid":18,"width":90,"height":30},{"id":148,"x":-900,"y":300,"visible":true,"properties":[{"name":"layer","type":"int","value":1},{"name":"resource_index","type":"int","value":75},{"name":"u","type":"string","value":"bsc"},{"name":"no","type":"int","value":1},{"name":"zM","type":"int","value":0}],"gid":24,"width":90,"height":60},{"id":149,"x":-1170,"y":300,"visible":true,"properties":[{"name":"layer","type":"int","value":1},{"name":"resource_index","type":"int","value":76},{"name":"u","type":"string","value":"bsc"},{"name":"no","type":"int","value":3},{"name":"zM","type":"int","value":0}],"gid":21,"width":90,"height":60},{"id":150,"x":-1080,"y":120,"visible":true,"properties":[{"name":"layer","type":"int","value":1},{"name":"resource_index","type":"int","value":77},{"name":"u","type":"string","value":"enH0"},{"name":"no","type":"int","value":0},{"name":"zM","type":"int","value":0}],"gid":27,"width":90,"height":27},{"id":151,"x":-990,"y":180,"visible":true,"properties":[{"name":"layer","type":"int","value":1},{"name":"resource_index","type":"int","value":78},{"name":"u","type":"string","value":"bsc"},{"name":"no","type":"int","value":1},{"name":"zM","type":"int","value":0}],"gid":24,"width":90,"height":60},{"id":152,"x":-900,"y":120,"visible":true,"properties":[{"name":"layer","type":"int","value":1},{"name":"resource_index","type":"int","value":79},{"name":"u","type":"string","value":"enH0"},{"name":"no","type":"int","value":1},{"name":"zM","type":"int","value":0}],"gid":19,"width":90,"height":27},{"id":153,"x":-900,"y":330,"visible":true,"properties":[{"name":"layer","type":"int","value":1},{"name":"resource_index","type":"int","value":80},{"name":"u","type":"string","value":"enH1"},{"name":"no","type":"int","value":2},{"name":"zM","type":"int","value":0}],"gid":18,"width":90,"height":30},{"id":154,"x":-810,"y":330,"visible":true,"properties":[{"name":"layer","type":"int","value":1},{"name":"resource_index","type":"int","value":81},{"name":"u","type":"string","value":"enH1"},{"name":"no","type":"int","value":0},{"name":"zM","type":"int","value":0}],"gid":30,"width":90,"height":30}],"properties":[]},{"id":5,"name":"layer_2_obj","type":"objectgroup","visible":true,"opacity":1,"draworder":"index","offsetx":0,"offsety":0,"parallaxx":1,"parallaxy":1,"objects":[{"id":156,"x":-721,"y":193,"visible":true,"properties":[{"name":"layer","type":"int","value":2},{"name":"resource_index","type":"int","value":0},{"name":"oS","type":"string","value":"acc2"},{"name":"l0","type":"string","value":"metroCity"},{"name":"l1","type":"string","value":"wallacc"},{"name":"l2","type":"string","value":"9"},{"name":"z","type":"int","value":9},{"name":"zM","type":"int","value":5},{"name":"f","type":"int","value":0}],"gid":56,"width":270,"height":36},{"id":157,"x":-451,"y":212,"visible":true,"properties":[{"name":"layer","type":"int","value":2},{"name":"resource_index","type":"int","value":1},{"name":"oS","type":"string","value":"acc2"},{"name":"l0","type":"string","value":"metroCity"},{"name":"l1","type":"string","value":"wallacc"},{"name":"l2","type":"string","value":"10"},{"name":"z","type":"int","value":9},{"name":"zM","type":"int","value":4},{"name":"f","type":"int","value":0}],"gid":58,"width":57,"height":54},{"id":158,"x":-358,"y":239,"visible":true,"properties":[{"name":"layer","type":"int","value":2},{"name":"resource_index","type":"int","value":2},{"name":"oS","type":"string","value":"acc2"},{"name":"l0","type":"string","value":"metroCity"},{"name":"l1","type":"string","value":"wallacc"},{"name":"l2","type":"string","value":"8"},{"name":"z","type":"int","value":9},{"name":"zM","type":"int","value":2},{"name":"f","type":"int","value":0}],"gid":57,"width":39,"height":48},{"id":159,"x":-319,"y":225,"visible":true,"properties":[{"name":"layer","type":"int","value":2},{"name":"resource_index","type":"int","value":3},{"name":"oS","type":"string","value":"acc2"},{"name":"l0","type":"string","value":"metroCity"},{"name":"l1","type":"string","value":"wallacc"},{"name":"l2","type":"string","value":"6"},{"name":"z","type":"int","value":9},{"name":"zM","type":"int","value":3},{"name":"f","type":"int","value":0}],"gid":61,"width":270,"height":50},{"id":160,"x":-51,"y":226,"visible":true,"properties":[{"name":"layer","type":"int","value":2},{"name":"resource_index","type":"int","value":4},{"name":"oS","type":"string","value":"acc2"},{"name":"l0","type":"string","value":"metroCity"},{"name":"l1","type":"string","value":"wallacc"},{"name":"l2","type":"string","value":"9"},{"name":"z","type":"int","value":9},{"name":"zM","type":"int","value":3},{"name":"f","type":"int","value":0}],"gid":56,"width":270,"height":36},{"id":161,"x":217,"y":211,"visible":true,"properties":[{"name":"layer","type":"int","value":2},{"name":"resource_index","type":"int","value":5},{"name":"oS","type":"string","value":"acc2"},{"name":"l0","type":"string","value":"metroCity"},{"name":"l1","type":"string","value":"wallacc"},{"name":"l2","type":"string","value":"7"},{"name":"z","type":"int","value":9},{"name":"zM","type":"int","value":3},{"name":"f","type":"int","value":0}],"gid":62,"width":54,"height":19},{"id":162,"x":322,"y":259,"visible":true,"properties":[{"name":"layer","type":"int","value":2},{"name":"resource_index","type":"int","value":6},{"name":"oS","type":"string","value":"acc2"},{"name":"l0","type":"string","value":"metroCity"},{"name":"l1","type":"string","value":"wallacc"},{"name":"l2","type":"string","value":"8"},{"name":"z","type":"int","value":9},{"name":"zM","type":"int","value":1},{"name":"f","type":"int","value":0}],"gid":57,"width":39,"height":48}],"properties":[]},{"id":6,"name":"portal","type":"objectgroup","visible":true,"opacity":1,"draworder":"index","offsetx":0,"offsety":0,"parallaxx":1,"parallaxy":1,"objects":[{"id":163,"x":-692,"y":48,"visible":true,"properties":[{"name":"x","type":"int","value":-692},{"name":"y","type":"int","value":48},{"name":"pn","type":"string","value":"sp"},{"name":"pt","type":"int","value":0},{"name":"tm","type":"int","value":999999999},{"name":"tn","type":"string","value":""}],"point":true},{"id":164,"x":-595,"y":50,"visible":true,"properties":[{"name":"x","type":"int","value":-595},{"name":"y","type":"int","value":50},{"name":"pn","type":"string","value":"sp"},{"name":"pt","type":"int","value":0},{"name":"tm","type":"int","value":999999999},{"name":"tn","type":"string","value":""}],"point":true},{"id":165,"x":-483,"y":62,"visible":true,"properties":[{"name":"x","type":"int","value":-483},{"name":"y","type":"int","value":62},{"name":"pn","type":"string","value":"sp"},{"name":"pt","type":"int","value":0},{"name":"tm","type":"int","value":999999999},{"name":"tn","type":"string","value":""}],"point":true},{"id":166,"x":-1112,"y":103,"visible":true,"properties":[{"name":"x","type":"int","value":-1068},{"name":"y","type":"int","value":94},{"name":"pn","type":"string","value":"out00"},{"name":"pt","type":"int","value":2},{"name":"tm","type":"int","value":103000000},{"name":"tn","type":"string","value":"night00"}],"gid":96,"width":89,"height":257}],"properties":[]},{"id":7,"name":"life","type":"objectgroup","visible":true,"opacity":1,"draworder":"index","offsetx":0,"offsety":0,"parallaxx":1,"parallaxy":1,"objects":[{"id":167,"x":274,"y":63,"visible":true,"properties":[{"name":"f","type":"int","value":0},{"name":"x","type":"int","value":274},{"name":"y","type":"int","value":63},{"name":"cy","type":"int","value":66},{"name":"fh","type":"int","value":39},{"name":"id","type":"int","value":9330021},{"name":"rx0","type":"int","value":224},{"name":"rx1","type":"int","value":324},{"name":"hide","type":"int","value":0},{"name":"type","type":"string","value":"n"},{"name":"mobTime","type":"int","value":0},{"name":"npc_aseprite","type":"file","value":"../../Npc/9330021.img/animation.aseprite"}],"point":true},{"id":168,"x":168,"y":60,"visible":true,"properties":[{"name":"f","type":"int","value":0},{"name":"x","type":"int","value":168},{"name":"y","type":"int","value":60},{"name":"cy","type":"int","value":66},{"name":"fh","type":"int","value":35},{"name":"id","type":"int","value":9330022},{"name":"rx0","type":"int","value":120},{"name":"rx1","type":"int","value":218},{"name":"hide","type":"int","value":0},{"name":"type","type":"string","value":"n"},{"name":"mobTime","type":"int","value":0},{"name":"npc_aseprite","type":"file","value":"../../Npc/9330022.img/animation.aseprite"}],"point":true},{"id":169,"x":-465,"y":-122,"visible":true,"properties":[{"name":"f","type":"int","value":0},{"name":"x","type":"int","value":-465},{"name":"y","type":"int","value":-122},{"name":"cy","type":"int","value":-114},{"name":"fh","type":"int","value":1},{"name":"id","type":"int","value":9330023},{"name":"rx0","type":"int","value":-515},{"name":"rx1","type":"int","value":-415},{"name":"hide","type":"int","value":0},{"name":"type","type":"string","value":"n"},{"name":"mobTime","type":"int","value":0},{"name":"npc_aseprite","type":"file","value":"../../Npc/9330023.img/animation.aseprite"}],"point":true},{"id":170,"x":-773,"y":85,"visible":true,"properties":[{"name":"f","type":"int","value":0},{"name":"x","type":"int","value":-773},{"name":"y","type":"int","value":85},{"name":"cy","type":"int","value":96},{"name":"fh","type":"int","value":55},{"name":"id","type":"int","value":9330025},{"name":"rx0","type":"int","value":-823},{"name":"rx1","type":"int","value":-723},{"name":"hide","type":"int","value":0},{"name":"type","type":"string","value":"n"},{"name":"mobTime","type":"int","value":0},{"name":"npc_aseprite","type":"file","value":"../../Npc/9330025.img/animation.aseprite"}],"point":true},{"id":171,"x":-583,"y":-121,"visible":true,"properties":[{"name":"f","type":"int","value":0},{"name":"x","type":"int","value":-583},{"name":"y","type":"int","value":-121},{"name":"cy","type":"int","value":-114},{"name":"fh","type":"int","value":2},{"name":"id","type":"int","value":9330024},{"name":"rx0","type":"int","value":-633},{"name":"rx1","type":"int","value":-533},{"name":"hide","type":"int","value":0},{"name":"type","type":"string","value":"n"},{"name":"mobTime","type":"int","value":0},{"name":"npc_aseprite","type":"file","value":"../../Npc/9330024.img/animation.aseprite"}],"point":true}],"properties":[]},{"id":8,"name":"foothold","type":"objectgroup","visible":true,"opacity":1,"draworder":"index","offsetx":0,"offsety":0,"parallaxx":1,"parallaxy":1,"objects":[{"id":172,"x":350,"y":90,"visible":true,"properties":[{"name":"layer","type":"int","value":0},{"name":"group","type":"int","value":6},{"name":"id","type":"int","value":33},{"name":"fh_layer","type":"int","value":0},{"name":"fh_group","type":"int","value":6},{"name":"fh_id","type":"int","value":33},{"name":"x1","type":"int","value":350},{"name":"x2","type":"int","value":350},{"name":"y1","type":"int","value":90},{"name":"y2","type":"int","value":150},{"name":"next","type":"int","value":0},{"name":"prev","type":"int","value":42}],"polyline":[{"x":0,"y":0},{"x":0,"y":60}]},{"id":173,"x":100,"y":150,"visible":true,"properties":[{"name":"layer","type":"int","value":0},{"name":"group","type":"int","value":6},{"name":"id","type":"int","value":34},{"name":"fh_layer","type":"int","value":0},{"name":"fh_group","type":"int","value":6},{"name":"fh_id","type":"int","value":34},{"name":"x1","type":"int","value":100},{"name":"x2","type":"int","value":100},{"name":"y1","type":"int","value":150},{"name":"y2","type":"int","value":90},{"name":"next","type":"int","value":36},{"name":"prev","type":"int","value":0}],"polyline":[{"x":0,"y":0},{"x":0,"y":-60}]},{"id":174,"x":135,"y":66,"visible":true,"properties":[{"name":"layer","type":"int","value":0},{"name":"group","type":"int","value":6},{"name":"id","type":"int","value":35},{"name":"fh_layer","type":"int","value":0},{"name":"fh_group","type":"int","value":6},{"name":"fh_id","type":"int","value":35},{"name":"x1","type":"int","value":135},{"name":"x2","type":"int","value":170},{"name":"y1","type":"int","value":66},{"name":"y2","type":"int","value":66},{"name":"next","type":"int","value":38},{"name":"prev","type":"int","value":37}],"polyline":[{"x":0,"y":0},{"x":35,"y":0}]},{"id":175,"x":100,"y":90,"visible":true,"properties":[{"name":"layer","type":"int","value":0},{"name":"group","type":"int","value":6},{"name":"id","type":"int","value":36},{"name":"fh_layer","type":"int","value":0},{"name":"fh_group","type":"int","value":6},{"name":"fh_id","type":"int","value":36},{"name":"x1","type":"int","value":100},{"name":"x2","type":"int","value":100},{"name":"y1","type":"int","value":90},{"name":"y2","type":"int","value":66},{"name":"next","type":"int","value":37},{"name":"prev","type":"int","value":34}],"polyline":[{"x":0,"y":0},{"x":0,"y":-24}]},{"id":176,"x":100,"y":66,"visible":true,"properties":[{"name":"layer","type":"int","value":0},{"name":"group","type":"int","value":6},{"name":"id","type":"int","value":37},{"name":"fh_layer","type":"int","value":0},{"name":"fh_group","type":"int","value":6},{"name":"fh_id","type":"int","value":37},{"name":"x1","type":"int","value":100},{"name":"x2","type":"int","value":135},{"name":"y1","type":"int","value":66},{"name":"y2","type":"int","value":66},{"name":"next","type":"int","value":35},{"name":"prev","type":"int","value":36}],"polyline":[{"x":0,"y":0},{"x":35,"y":0}]},{"id":177,"x":170,"y":66,"visible":true,"properties":[{"name":"layer","type":"int","value":0},{"name":"group","type":"int","value":6},{"name":"id","type":"int","value":38},{"name":"fh_layer","type":"int","value":0},{"name":"fh_group","type":"int","value":6},{"name":"fh_id","type":"int","value":38},{"name":"x1","type":"int","value":170},{"name":"x2","type":"int","value":225},{"name":"y1","type":"int","value":66},{"name":"y2","type":"int","value":66},{"name":"next","type":"int","value":39},{"name":"prev","type":"int","value":35}],"polyline":[{"x":0,"y":0},{"x":55,"y":0}]},{"id":178,"x":225,"y":66,"visible":true,"properties":[{"name":"layer","type":"int","value":0},{"name":"group","type":"int","value":6},{"name":"id","type":"int","value":39},{"name":"fh_layer","type":"int","value":0},{"name":"fh_group","type":"int","value":6},{"name":"fh_id","type":"int","value":39},{"name":"x1","type":"int","value":225},{"name":"x2","type":"int","value":280},{"name":"y1","type":"int","value":66},{"name":"y2","type":"int","value":66},{"name":"next","type":"int","value":40},{"name":"prev","type":"int","value":38}],"polyline":[{"x":0,"y":0},{"x":55,"y":0}]},{"id":179,"x":280,"y":66,"visible":true,"properties":[{"name":"layer","type":"int","value":0},{"name":"group","type":"int","value":6},{"name":"id","type":"int","value":40},{"name":"fh_layer","type":"int","value":0},{"name":"fh_group","type":"int","value":6},{"name":"fh_id","type":"int","value":40},{"name":"x1","type":"int","value":280},{"name":"x2","type":"int","value":315},{"name":"y1","type":"int","value":66},{"name":"y2","type":"int","value":66},{"name":"next","type":"int","value":41},{"name":"prev","type":"int","value":39}],"polyline":[{"x":0,"y":0},{"x":35,"y":0}]},{"id":180,"x":315,"y":66,"visible":true,"properties":[{"name":"layer","type":"int","value":0},{"name":"group","type":"int","value":6},{"name":"id","type":"int","value":41},{"name":"fh_layer","type":"int","value":0},{"name":"fh_group","type":"int","value":6},{"name":"fh_id","type":"int","value":41},{"name":"x1","type":"int","value":315},{"name":"x2","type":"int","value":350},{"name":"y1","type":"int","value":66},{"name":"y2","type":"int","value":66},{"name":"next","type":"int","value":42},{"name":"prev","type":"int","value":40}],"polyline":[{"x":0,"y":0},{"x":35,"y":0}]},{"id":181,"x":350,"y":66,"visible":true,"properties":[{"name":"layer","type":"int","value":0},{"name":"group","type":"int","value":6},{"name":"id","type":"int","value":42},{"name":"fh_layer","type":"int","value":0},{"name":"fh_group","type":"int","value":6},{"name":"fh_id","type":"int","value":42},{"name":"x1","type":"int","value":350},{"name":"x2","type":"int","value":350},{"name":"y1","type":"int","value":66},{"name":"y2","type":"int","value":90},{"name":"next","type":"int","value":33},{"name":"prev","type":"int","value":41}],"polyline":[{"x":0,"y":0},{"x":0,"y":24}]},{"id":182,"x":-495,"y":-114,"visible":true,"properties":[{"name":"layer","type":"int","value":0},{"name":"group","type":"int","value":7},{"name":"id","type":"int","value":1},{"name":"fh_layer","type":"int","value":0},{"name":"fh_group","type":"int","value":7},{"name":"fh_id","type":"int","value":1},{"name":"x1","type":"int","value":-495},{"name":"x2","type":"int","value":-440},{"name":"y1","type":"int","value":-114},{"name":"y2","type":"int","value":-114},{"name":"next","type":"int","value":4},{"name":"prev","type":"int","value":2}],"polyline":[{"x":0,"y":0},{"x":55,"y":0}]},{"id":183,"x":-585,"y":-114,"visible":true,"properties":[{"name":"layer","type":"int","value":0},{"name":"group","type":"int","value":7},{"name":"id","type":"int","value":2},{"name":"fh_layer","type":"int","value":0},{"name":"fh_group","type":"int","value":7},{"name":"fh_id","type":"int","value":2},{"name":"x1","type":"int","value":-585},{"name":"x2","type":"int","value":-495},{"name":"y1","type":"int","value":-114},{"name":"y2","type":"int","value":-114},{"name":"next","type":"int","value":1},{"name":"prev","type":"int","value":3}],"polyline":[{"x":0,"y":0},{"x":90,"y":0}]},{"id":184,"x":-675,"y":-114,"visible":true,"properties":[{"name":"layer","type":"int","value":0},{"name":"group","type":"int","value":7},{"name":"id","type":"int","value":3},{"name":"fh_layer","type":"int","value":0},{"name":"fh_group","type":"int","value":7},{"name":"fh_id","type":"int","value":3},{"name":"x1","type":"int","value":-675},{"name":"x2","type":"int","value":-585},{"name":"y1","type":"int","value":-114},{"name":"y2","type":"int","value":-114},{"name":"next","type":"int","value":2},{"name":"prev","type":"int","value":20}],"polyline":[{"x":0,"y":0},{"x":90,"y":0}]},{"id":185,"x":-440,"y":-114,"visible":true,"properties":[{"name":"layer","type":"int","value":0},{"name":"group","type":"int","value":7},{"name":"id","type":"int","value":4},{"name":"fh_layer","type":"int","value":0},{"name":"fh_group","type":"int","value":7},{"name":"fh_id","type":"int","value":4},{"name":"x1","type":"int","value":-440},{"name":"x2","type":"int","value":-405},{"name":"y1","type":"int","value":-114},{"name":"y2","type":"int","value":-114},{"name":"next","type":"int","value":5},{"name":"prev","type":"int","value":1}],"polyline":[{"x":0,"y":0},{"x":35,"y":0}]},{"id":186,"x":-405,"y":-114,"visible":true,"properties":[{"name":"layer","type":"int","value":0},{"name":"group","type":"int","value":7},{"name":"id","type":"int","value":5},{"name":"fh_layer","type":"int","value":0},{"name":"fh_group","type":"int","value":7},{"name":"fh_id","type":"int","value":5},{"name":"x1","type":"int","value":-405},{"name":"x2","type":"int","value":-370},{"name":"y1","type":"int","value":-114},{"name":"y2","type":"int","value":-114},{"name":"next","type":"int","value":6},{"name":"prev","type":"int","value":4}],"polyline":[{"x":0,"y":0},{"x":35,"y":0}]},{"id":187,"x":-370,"y":-114,"visible":true,"properties":[{"name":"layer","type":"int","value":0},{"name":"group","type":"int","value":7},{"name":"id","type":"int","value":6},{"name":"fh_layer","type":"int","value":0},{"name":"fh_group","type":"int","value":7},{"name":"fh_id","type":"int","value":6},{"name":"x1","type":"int","value":-370},{"name":"x2","type":"int","value":-370},{"name":"y1","type":"int","value":-114},{"name":"y2","type":"int","value":-89},{"name":"next","type":"int","value":7},{"name":"prev","type":"int","value":5}],"polyline":[{"x":0,"y":0},{"x":0,"y":25}]},{"id":188,"x":-370,"y":-89,"visible":true,"properties":[{"name":"layer","type":"int","value":0},{"name":"group","type":"int","value":7},{"name":"id","type":"int","value":7},{"name":"fh_layer","type":"int","value":0},{"name":"fh_group","type":"int","value":7},{"name":"fh_id","type":"int","value":7},{"name":"x1","type":"int","value":-370},{"name":"x2","type":"int","value":-370},{"name":"y1","type":"int","value":-89},{"name":"y2","type":"int","value":-54},{"name":"next","type":"int","value":11},{"name":"prev","type":"int","value":6}],"polyline":[{"x":0,"y":0},{"x":0,"y":35}]},{"id":189,"x":-350,"y":-54,"visible":true,"properties":[{"name":"layer","type":"int","value":0},{"name":"group","type":"int","value":7},{"name":"id","type":"int","value":8},{"name":"fh_layer","type":"int","value":0},{"name":"fh_group","type":"int","value":7},{"name":"fh_id","type":"int","value":8},{"name":"x1","type":"int","value":-350},{"name":"x2","type":"int","value":-280},{"name":"y1","type":"int","value":-54},{"name":"y2","type":"int","value":-54},{"name":"next","type":"int","value":9},{"name":"prev","type":"int","value":11}],"polyline":[{"x":0,"y":0},{"x":70,"y":0}]},{"id":190,"x":-280,"y":-54,"visible":true,"properties":[{"name":"layer","type":"int","value":0},{"name":"group","type":"int","value":7},{"name":"id","type":"int","value":9},{"name":"fh_layer","type":"int","value":0},{"name":"fh_group","type":"int","value":7},{"name":"fh_id","type":"int","value":9},{"name":"x1","type":"int","value":-280},{"name":"x2","type":"int","value":-280},{"name":"y1","type":"int","value":-54},{"name":"y2","type":"int","value":-29},{"name":"next","type":"int","value":10},{"name":"prev","type":"int","value":8}],"polyline":[{"x":0,"y":0},{"x":0,"y":25}]},{"id":191,"x":-280,"y":-29,"visible":true,"properties":[{"name":"layer","type":"int","value":0},{"name":"group","type":"int","value":7},{"name":"id","type":"int","value":10},{"name":"fh_layer","type":"int","value":0},{"name":"fh_group","type":"int","value":7},{"name":"fh_id","type":"int","value":10},{"name":"x1","type":"int","value":-280},{"name":"x2","type":"int","value":-280},{"name":"y1","type":"int","value":-29},{"name":"y2","type":"int","value":6},{"name":"next","type":"int","value":15},{"name":"prev","type":"int","value":9}],"polyline":[{"x":0,"y":0},{"x":0,"y":35}]},{"id":192,"x":-370,"y":-54,"visible":true,"properties":[{"name":"layer","type":"int","value":0},{"name":"group","type":"int","value":7},{"name":"id","type":"int","value":11},{"name":"fh_layer","type":"int","value":0},{"name":"fh_group","type":"int","value":7},{"name":"fh_id","type":"int","value":11},{"name":"x1","type":"int","value":-370},{"name":"x2","type":"int","value":-350},{"name":"y1","type":"int","value":-54},{"name":"y2","type":"int","value":-54},{"name":"next","type":"int","value":8},{"name":"prev","type":"int","value":7}],"polyline":[{"x":0,"y":0},{"x":20,"y":0}]},{"id":193,"x":-260,"y":6,"visible":true,"properties":[{"name":"layer","type":"int","value":0},{"name":"group","type":"int","value":7},{"name":"id","type":"int","value":12},{"name":"fh_layer","type":"int","value":0},{"name":"fh_group","type":"int","value":7},{"name":"fh_id","type":"int","value":12},{"name":"x1","type":"int","value":-260},{"name":"x2","type":"int","value":-190},{"name":"y1","type":"int","value":6},{"name":"y2","type":"int","value":6},{"name":"next","type":"int","value":13},{"name":"prev","type":"int","value":15}],"polyline":[{"x":0,"y":0},{"x":70,"y":0}]},{"id":194,"x":-190,"y":6,"visible":true,"properties":[{"name":"layer","type":"int","value":0},{"name":"group","type":"int","value":7},{"name":"id","type":"int","value":13},{"name":"fh_layer","type":"int","value":0},{"name":"fh_group","type":"int","value":7},{"name":"fh_id","type":"int","value":13},{"name":"x1","type":"int","value":-190},{"name":"x2","type":"int","value":-190},{"name":"y1","type":"int","value":6},{"name":"y2","type":"int","value":31},{"name":"next","type":"int","value":14},{"name":"prev","type":"int","value":12}],"polyline":[{"x":0,"y":0},{"x":0,"y":25}]},{"id":195,"x":-190,"y":31,"visible":true,"properties":[{"name":"layer","type":"int","value":0},{"name":"group","type":"int","value":7},{"name":"id","type":"int","value":14},{"name":"fh_layer","type":"int","value":0},{"name":"fh_group","type":"int","value":7},{"name":"fh_id","type":"int","value":14},{"name":"x1","type":"int","value":-190},{"name":"x2","type":"int","value":-190},{"name":"y1","type":"int","value":31},{"name":"y2","type":"int","value":66},{"name":"next","type":"int","value":18},{"name":"prev","type":"int","value":13}],"polyline":[{"x":0,"y":0},{"x":0,"y":35}]},{"id":196,"x":-280,"y":6,"visible":true,"properties":[{"name":"layer","type":"int","value":0},{"name":"group","type":"int","value":7},{"name":"id","type":"int","value":15},{"name":"fh_layer","type":"int","value":0},{"name":"fh_group","type":"int","value":7},{"name":"fh_id","type":"int","value":15},{"name":"x1","type":"int","value":-280},{"name":"x2","type":"int","value":-260},{"name":"y1","type":"int","value":6},{"name":"y2","type":"int","value":6},{"name":"next","type":"int","value":12},{"name":"prev","type":"int","value":10}],"polyline":[{"x":0,"y":0},{"x":20,"y":0}]},{"id":197,"x":-170,"y":66,"visible":true,"properties":[{"name":"layer","type":"int","value":0},{"name":"group","type":"int","value":7},{"name":"id","type":"int","value":16},{"name":"fh_layer","type":"int","value":0},{"name":"fh_group","type":"int","value":7},{"name":"fh_id","type":"int","value":16},{"name":"x1","type":"int","value":-170},{"name":"x2","type":"int","value":-100},{"name":"y1","type":"int","value":66},{"name":"y2","type":"int","value":66},{"name":"next","type":"int","value":17},{"name":"prev","type":"int","value":18}],"polyline":[{"x":0,"y":0},{"x":70,"y":0}]},{"id":198,"x":-100,"y":66,"visible":true,"properties":[{"name":"layer","type":"int","value":0},{"name":"group","type":"int","value":7},{"name":"id","type":"int","value":17},{"name":"fh_layer","type":"int","value":0},{"name":"fh_group","type":"int","value":7},{"name":"fh_id","type":"int","value":17},{"name":"x1","type":"int","value":-100},{"name":"x2","type":"int","value":-100},{"name":"y1","type":"int","value":66},{"name":"y2","type":"int","value":91},{"name":"next","type":"int","value":0},{"name":"prev","type":"int","value":16}],"polyline":[{"x":0,"y":0},{"x":0,"y":25}]},{"id":199,"x":-190,"y":66,"visible":true,"properties":[{"name":"layer","type":"int","value":0},{"name":"group","type":"int","value":7},{"name":"id","type":"int","value":18},{"name":"fh_layer","type":"int","value":0},{"name":"fh_group","type":"int","value":7},{"name":"fh_id","type":"int","value":18},{"name":"x1","type":"int","value":-190},{"name":"x2","type":"int","value":-170},{"name":"y1","type":"int","value":66},{"name":"y2","type":"int","value":66},{"name":"next","type":"int","value":16},{"name":"prev","type":"int","value":14}],"polyline":[{"x":0,"y":0},{"x":20,"y":0}]},{"id":200,"x":-855,"y":-114,"visible":true,"properties":[{"name":"layer","type":"int","value":0},{"name":"group","type":"int","value":7},{"name":"id","type":"int","value":19},{"name":"fh_layer","type":"int","value":0},{"name":"fh_group","type":"int","value":7},{"name":"fh_id","type":"int","value":19},{"name":"x1","type":"int","value":-855},{"name":"x2","type":"int","value":-820},{"name":"y1","type":"int","value":-114},{"name":"y2","type":"int","value":-114},{"name":"next","type":"int","value":23},{"name":"prev","type":"int","value":22}],"polyline":[{"x":0,"y":0},{"x":35,"y":0}]},{"id":201,"x":-765,"y":-114,"visible":true,"properties":[{"name":"layer","type":"int","value":0},{"name":"group","type":"int","value":7},{"name":"id","type":"int","value":20},{"name":"fh_layer","type":"int","value":0},{"name":"fh_group","type":"int","value":7},{"name":"fh_id","type":"int","value":20},{"name":"x1","type":"int","value":-765},{"name":"x2","type":"int","value":-675},{"name":"y1","type":"int","value":-114},{"name":"y2","type":"int","value":-114},{"name":"next","type":"int","value":3},{"name":"prev","type":"int","value":23}],"polyline":[{"x":0,"y":0},{"x":90,"y":0}]},{"id":202,"x":-890,"y":-89,"visible":true,"properties":[{"name":"layer","type":"int","value":0},{"name":"group","type":"int","value":7},{"name":"id","type":"int","value":21},{"name":"fh_layer","type":"int","value":0},{"name":"fh_group","type":"int","value":7},{"name":"fh_id","type":"int","value":21},{"name":"x1","type":"int","value":-890},{"name":"x2","type":"int","value":-890},{"name":"y1","type":"int","value":-89},{"name":"y2","type":"int","value":-114},{"name":"next","type":"int","value":22},{"name":"prev","type":"int","value":25}],"polyline":[{"x":0,"y":0},{"x":0,"y":-25}]},{"id":203,"x":-890,"y":-114,"visible":true,"properties":[{"name":"layer","type":"int","value":0},{"name":"group","type":"int","value":7},{"name":"id","type":"int","value":22},{"name":"fh_layer","type":"int","value":0},{"name":"fh_group","type":"int","value":7},{"name":"fh_id","type":"int","value":22},{"name":"x1","type":"int","value":-890},{"name":"x2","type":"int","value":-855},{"name":"y1","type":"int","value":-114},{"name":"y2","type":"int","value":-114},{"name":"next","type":"int","value":19},{"name":"prev","type":"int","value":21}],"polyline":[{"x":0,"y":0},{"x":35,"y":0}]},{"id":204,"x":-820,"y":-114,"visible":true,"properties":[{"name":"layer","type":"int","value":0},{"name":"group","type":"int","value":7},{"name":"id","type":"int","value":23},{"name":"fh_layer","type":"int","value":0},{"name":"fh_group","type":"int","value":7},{"name":"fh_id","type":"int","value":23},{"name":"x1","type":"int","value":-820},{"name":"x2","type":"int","value":-765},{"name":"y1","type":"int","value":-114},{"name":"y2","type":"int","value":-114},{"name":"next","type":"int","value":20},{"name":"prev","type":"int","value":19}],"polyline":[{"x":0,"y":0},{"x":55,"y":0}]},{"id":205,"x":-890,"y":30,"visible":true,"properties":[{"name":"layer","type":"int","value":0},{"name":"group","type":"int","value":7},{"name":"id","type":"int","value":24},{"name":"fh_layer","type":"int","value":0},{"name":"fh_group","type":"int","value":7},{"name":"fh_id","type":"int","value":24},{"name":"x1","type":"int","value":-890},{"name":"x2","type":"int","value":-890},{"name":"y1","type":"int","value":30},{"name":"y2","type":"int","value":-30},{"name":"next","type":"int","value":25},{"name":"prev","type":"int","value":26}],"polyline":[{"x":0,"y":0},{"x":0,"y":-60}]},{"id":206,"x":-890,"y":-30,"visible":true,"properties":[{"name":"layer","type":"int","value":0},{"name":"group","type":"int","value":7},{"name":"id","type":"int","value":25},{"name":"fh_layer","type":"int","value":0},{"name":"fh_group","type":"int","value":7},{"name":"fh_id","type":"int","value":25},{"name":"x1","type":"int","value":-890},{"name":"x2","type":"int","value":-890},{"name":"y1","type":"int","value":-30},{"name":"y2","type":"int","value":-89},{"name":"next","type":"int","value":21},{"name":"prev","type":"int","value":24}],"polyline":[{"x":0,"y":0},{"x":0,"y":-59}]},{"id":207,"x":-890,"y":90,"visible":true,"properties":[{"name":"layer","type":"int","value":0},{"name":"group","type":"int","value":7},{"name":"id","type":"int","value":26},{"name":"fh_layer","type":"int","value":0},{"name":"fh_group","type":"int","value":7},{"name":"fh_id","type":"int","value":26},{"name":"x1","type":"int","value":-890},{"name":"x2","type":"int","value":-890},{"name":"y1","type":"int","value":90},{"name":"y2","type":"int","value":30},{"name":"next","type":"int","value":24},{"name":"prev","type":"int","value":0}],"polyline":[{"x":0,"y":0},{"x":0,"y":-60}]},{"id":208,"x":-72,"y":-438,"visible":true,"properties":[{"name":"layer","type":"int","value":0},{"name":"group","type":"int","value":7},{"name":"id","type":"int","value":27},{"name":"fh_layer","type":"int","value":0},{"name":"fh_group","type":"int","value":7},{"name":"fh_id","type":"int","value":27},{"name":"x1","type":"int","value":-72},{"name":"x2","type":"int","value":-43},{"name":"y1","type":"int","value":-438},{"name":"y2","type":"int","value":-438},{"name":"next","type":"int","value":0},{"name":"prev","type":"int","value":0}],"polyline":[{"x":0,"y":0},{"x":29,"y":0}]},{"id":209,"x":-154,"y":-399,"visible":true,"properties":[{"name":"layer","type":"int","value":0},{"name":"group","type":"int","value":7},{"name":"id","type":"int","value":28},{"name":"fh_layer","type":"int","value":0},{"name":"fh_group","type":"int","value":7},{"name":"fh_id","type":"int","value":28},{"name":"x1","type":"int","value":-154},{"name":"x2","type":"int","value":-149},{"name":"y1","type":"int","value":-399},{"name":"y2","type":"int","value":-402},{"name":"next","type":"int","value":29},{"name":"prev","type":"int","value":0}],"polyline":[{"x":0,"y":0},{"x":5,"y":-3}]},{"id":210,"x":-149,"y":-402,"visible":true,"properties":[{"name":"layer","type":"int","value":0},{"name":"group","type":"int","value":7},{"name":"id","type":"int","value":29},{"name":"fh_layer","type":"int","value":0},{"name":"fh_group","type":"int","value":7},{"name":"fh_id","type":"int","value":29},{"name":"x1","type":"int","value":-149},{"name":"x2","type":"int","value":29},{"name":"y1","type":"int","value":-402},{"name":"y2","type":"int","value":-402},{"name":"next","type":"int","value":0},{"name":"prev","type":"int","value":28}],"polyline":[{"x":0,"y":0},{"x":178,"y":0}]},{"id":211,"x":245,"y":-441,"visible":true,"properties":[{"name":"layer","type":"int","value":0},{"name":"group","type":"int","value":7},{"name":"id","type":"int","value":30},{"name":"fh_layer","type":"int","value":0},{"name":"fh_group","type":"int","value":7},{"name":"fh_id","type":"int","value":30},{"name":"x1","type":"int","value":245},{"name":"x2","type":"int","value":274},{"name":"y1","type":"int","value":-441},{"name":"y2","type":"int","value":-441},{"name":"next","type":"int","value":0},{"name":"prev","type":"int","value":0}],"polyline":[{"x":0,"y":0},{"x":29,"y":0}]},{"id":212,"x":163,"y":-402,"visible":true,"properties":[{"name":"layer","type":"int","value":0},{"name":"group","type":"int","value":7},{"name":"id","type":"int","value":31},{"name":"fh_layer","type":"int","value":0},{"name":"fh_group","type":"int","value":7},{"name":"fh_id","type":"int","value":31},{"name":"x1","type":"int","value":163},{"name":"x2","type":"int","value":168},{"name":"y1","type":"int","value":-402},{"name":"y2","type":"int","value":-405},{"name":"next","type":"int","value":32},{"name":"prev","type":"int","value":0}],"polyline":[{"x":0,"y":0},{"x":5,"y":-3}]},{"id":213,"x":168,"y":-405,"visible":true,"properties":[{"name":"layer","type":"int","value":0},{"name":"group","type":"int","value":7},{"name":"id","type":"int","value":32},{"name":"fh_layer","type":"int","value":0},{"name":"fh_group","type":"int","value":7},{"name":"fh_id","type":"int","value":32},{"name":"x1","type":"int","value":168},{"name":"x2","type":"int","value":346},{"name":"y1","type":"int","value":-405},{"name":"y2","type":"int","value":-405},{"name":"next","type":"int","value":0},{"name":"prev","type":"int","value":31}],"polyline":[{"x":0,"y":0},{"x":178,"y":0}]},{"id":214,"x":-90,"y":96,"visible":true,"properties":[{"name":"layer","type":"int","value":1},{"name":"group","type":"int","value":0},{"name":"id","type":"int","value":43},{"name":"fh_layer","type":"int","value":1},{"name":"fh_group","type":"int","value":0},{"name":"fh_id","type":"int","value":43},{"name":"x1","type":"int","value":-90},{"name":"x2","type":"int","value":0},{"name":"y1","type":"int","value":96},{"name":"y2","type":"int","value":96},{"name":"next","type":"int","value":46},{"name":"prev","type":"int","value":45}],"polyline":[{"x":0,"y":0},{"x":90,"y":0}]},{"id":215,"x":-630,"y":96,"visible":true,"properties":[{"name":"layer","type":"int","value":1},{"name":"group","type":"int","value":0},{"name":"id","type":"int","value":44},{"name":"fh_layer","type":"int","value":1},{"name":"fh_group","type":"int","value":0},{"name":"fh_id","type":"int","value":44},{"name":"x1","type":"int","value":-630},{"name":"x2","type":"int","value":-540},{"name":"y1","type":"int","value":96},{"name":"y2","type":"int","value":96},{"name":"next","type":"int","value":50},{"name":"prev","type":"int","value":51}],"polyline":[{"x":0,"y":0},{"x":90,"y":0}]},{"id":216,"x":-180,"y":96,"visible":true,"properties":[{"name":"layer","type":"int","value":1},{"name":"group","type":"int","value":0},{"name":"id","type":"int","value":45},{"name":"fh_layer","type":"int","value":1},{"name":"fh_group","type":"int","value":0},{"name":"fh_id","type":"int","value":45},{"name":"x1","type":"int","value":-180},{"name":"x2","type":"int","value":-90},{"name":"y1","type":"int","value":96},{"name":"y2","type":"int","value":96},{"name":"next","type":"int","value":43},{"name":"prev","type":"int","value":48}],"polyline":[{"x":0,"y":0},{"x":90,"y":0}]},{"id":217,"x":0,"y":96,"visible":true,"properties":[{"name":"layer","type":"int","value":1},{"name":"group","type":"int","value":0},{"name":"id","type":"int","value":46},{"name":"fh_layer","type":"int","value":1},{"name":"fh_group","type":"int","value":0},{"name":"fh_id","type":"int","value":46},{"name":"x1","type":"int","value":0},{"name":"x2","type":"int","value":90},{"name":"y1","type":"int","value":96},{"name":"y2","type":"int","value":96},{"name":"next","type":"int","value":52},{"name":"prev","type":"int","value":43}],"polyline":[{"x":0,"y":0},{"x":90,"y":0}]},{"id":218,"x":-360,"y":96,"visible":true,"properties":[{"name":"layer","type":"int","value":1},{"name":"group","type":"int","value":0},{"name":"id","type":"int","value":47},{"name":"fh_layer","type":"int","value":1},{"name":"fh_group","type":"int","value":0},{"name":"fh_id","type":"int","value":47},{"name":"x1","type":"int","value":-360},{"name":"x2","type":"int","value":-270},{"name":"y1","type":"int","value":96},{"name":"y2","type":"int","value":96},{"name":"next","type":"int","value":48},{"name":"prev","type":"int","value":49}],"polyline":[{"x":0,"y":0},{"x":90,"y":0}]},{"id":219,"x":-270,"y":96,"visible":true,"properties":[{"name":"layer","type":"int","value":1},{"name":"group","type":"int","value":0},{"name":"id","type":"int","value":48},{"name":"fh_layer","type":"int","value":1},{"name":"fh_group","type":"int","value":0},{"name":"fh_id","type":"int","value":48},{"name":"x1","type":"int","value":-270},{"name":"x2","type":"int","value":-180},{"name":"y1","type":"int","value":96},{"name":"y2","type":"int","value":96},{"name":"next","type":"int","value":45},{"name":"prev","type":"int","value":47}],"polyline":[{"x":0,"y":0},{"x":90,"y":0}]},{"id":220,"x":-450,"y":96,"visible":true,"properties":[{"name":"layer","type":"int","value":1},{"name":"group","type":"int","value":0},{"name":"id","type":"int","value":49},{"name":"fh_layer","type":"int","value":1},{"name":"fh_group","type":"int","value":0},{"name":"fh_id","type":"int","value":49},{"name":"x1","type":"int","value":-450},{"name":"x2","type":"int","value":-360},{"name":"y1","type":"int","value":96},{"name":"y2","type":"int","value":96},{"name":"next","type":"int","value":47},{"name":"prev","type":"int","value":50}],"polyline":[{"x":0,"y":0},{"x":90,"y":0}]},{"id":221,"x":-540,"y":96,"visible":true,"properties":[{"name":"layer","type":"int","value":1},{"name":"group","type":"int","value":0},{"name":"id","type":"int","value":50},{"name":"fh_layer","type":"int","value":1},{"name":"fh_group","type":"int","value":0},{"name":"fh_id","type":"int","value":50},{"name":"x1","type":"int","value":-540},{"name":"x2","type":"int","value":-450},{"name":"y1","type":"int","value":96},{"name":"y2","type":"int","value":96},{"name":"next","type":"int","value":49},{"name":"prev","type":"int","value":44}],"polyline":[{"x":0,"y":0},{"x":90,"y":0}]},{"id":222,"x":-720,"y":96,"visible":true,"properties":[{"name":"layer","type":"int","value":1},{"name":"group","type":"int","value":0},{"name":"id","type":"int","value":51},{"name":"fh_layer","type":"int","value":1},{"name":"fh_group","type":"int","value":0},{"name":"fh_id","type":"int","value":51},{"name":"x1","type":"int","value":-720},{"name":"x2","type":"int","value":-630},{"name":"y1","type":"int","value":96},{"name":"y2","type":"int","value":96},{"name":"next","type":"int","value":44},{"name":"prev","type":"int","value":55}],"polyline":[{"x":0,"y":0},{"x":90,"y":0}]},{"id":223,"x":90,"y":96,"visible":true,"properties":[{"name":"layer","type":"int","value":1},{"name":"group","type":"int","value":0},{"name":"id","type":"int","value":52},{"name":"fh_layer","type":"int","value":1},{"name":"fh_group","type":"int","value":0},{"name":"fh_id","type":"int","value":52},{"name":"x1","type":"int","value":90},{"name":"x2","type":"int","value":180},{"name":"y1","type":"int","value":96},{"name":"y2","type":"int","value":156},{"name":"next","type":"int","value":53},{"name":"prev","type":"int","value":46}],"polyline":[{"x":0,"y":0},{"x":90,"y":60}]},{"id":224,"x":180,"y":156,"visible":true,"properties":[{"name":"layer","type":"int","value":1},{"name":"group","type":"int","value":0},{"name":"id","type":"int","value":53},{"name":"fh_layer","type":"int","value":1},{"name":"fh_group","type":"int","value":0},{"name":"fh_id","type":"int","value":53},{"name":"x1","type":"int","value":180},{"name":"x2","type":"int","value":270},{"name":"y1","type":"int","value":156},{"name":"y2","type":"int","value":156},{"name":"next","type":"int","value":54},{"name":"prev","type":"int","value":52}],"polyline":[{"x":0,"y":0},{"x":90,"y":0}]},{"id":225,"x":270,"y":156,"visible":true,"properties":[{"name":"layer","type":"int","value":1},{"name":"group","type":"int","value":0},{"name":"id","type":"int","value":54},{"name":"fh_layer","type":"int","value":1},{"name":"fh_group","type":"int","value":0},{"name":"fh_id","type":"int","value":54},{"name":"x1","type":"int","value":270},{"name":"x2","type":"int","value":360},{"name":"y1","type":"int","value":156},{"name":"y2","type":"int","value":156},{"name":"next","type":"int","value":0},{"name":"prev","type":"int","value":53}],"polyline":[{"x":0,"y":0},{"x":90,"y":0}]},{"id":226,"x":-810,"y":96,"visible":true,"properties":[{"name":"layer","type":"int","value":1},{"name":"group","type":"int","value":0},{"name":"id","type":"int","value":55},{"name":"fh_layer","type":"int","value":1},{"name":"fh_group","type":"int","value":0},{"name":"fh_id","type":"int","value":55},{"name":"x1","type":"int","value":-810},{"name":"x2","type":"int","value":-720},{"name":"y1","type":"int","value":96},{"name":"y2","type":"int","value":96},{"name":"next","type":"int","value":51},{"name":"prev","type":"int","value":59}],"polyline":[{"x":0,"y":0},{"x":90,"y":0}]},{"id":227,"x":-990,"y":96,"visible":true,"properties":[{"name":"layer","type":"int","value":1},{"name":"group","type":"int","value":0},{"name":"id","type":"int","value":56},{"name":"fh_layer","type":"int","value":1},{"name":"fh_group","type":"int","value":0},{"name":"fh_id","type":"int","value":56},{"name":"x1","type":"int","value":-990},{"name":"x2","type":"int","value":-900},{"name":"y1","type":"int","value":96},{"name":"y2","type":"int","value":96},{"name":"next","type":"int","value":59},{"name":"prev","type":"int","value":58}],"polyline":[{"x":0,"y":0},{"x":90,"y":0}]},{"id":228,"x":-1170,"y":96,"visible":true,"properties":[{"name":"layer","type":"int","value":1},{"name":"group","type":"int","value":0},{"name":"id","type":"int","value":57},{"name":"fh_layer","type":"int","value":1},{"name":"fh_group","type":"int","value":0},{"name":"fh_id","type":"int","value":57},{"name":"x1","type":"int","value":-1170},{"name":"x2","type":"int","value":-1080},{"name":"y1","type":"int","value":96},{"name":"y2","type":"int","value":96},{"name":"next","type":"int","value":58},{"name":"prev","type":"int","value":0}],"polyline":[{"x":0,"y":0},{"x":90,"y":0}]},{"id":229,"x":-1080,"y":96,"visible":true,"properties":[{"name":"layer","type":"int","value":1},{"name":"group","type":"int","value":0},{"name":"id","type":"int","value":58},{"name":"fh_layer","type":"int","value":1},{"name":"fh_group","type":"int","value":0},{"name":"fh_id","type":"int","value":58},{"name":"x1","type":"int","value":-1080},{"name":"x2","type":"int","value":-990},{"name":"y1","type":"int","value":96},{"name":"y2","type":"int","value":96},{"name":"next","type":"int","value":56},{"name":"prev","type":"int","value":57}],"polyline":[{"x":0,"y":0},{"x":90,"y":0}]},{"id":230,"x":-900,"y":96,"visible":true,"properties":[{"name":"layer","type":"int","value":1},{"name":"group","type":"int","value":0},{"name":"id","type":"int","value":59},{"name":"fh_layer","type":"int","value":1},{"name":"fh_group","type":"int","value":0},{"name":"fh_id","type":"int","value":59},{"name":"x1","type":"int","value":-900},{"name":"x2","type":"int","value":-810},{"name":"y1","type":"int","value":96},{"name":"y2","type":"int","value":96},{"name":"next","type":"int","value":55},{"name":"prev","type":"int","value":56}],"polyline":[{"x":0,"y":0},{"x":90,"y":0}]}],"properties":[]},{"id":9,"name":"miniMap","type":"objectgroup","visible":true,"opacity":1,"draworder":"index","offsetx":0,"offsety":0,"parallaxx":1,"parallaxy":1,"objects":[{"id":231,"x":1263,"y":592,"visible":true,"properties":[{"name":"mag","type":"int","value":4},{"name":"centerX","type":"int","value":1263},{"name":"centerY","type":"int","value":592},{"name":"canvas_path","type":"string","value":"../images/30490.png"},{"name":"canvas_width","type":"int","value":105},{"name":"canvas_height","type":"int","value":61},{"name":"canvas_origin_x","type":"int","value":0},{"name":"canvas_origin_y","type":"int","value":0}],"point":true}],"properties":[]}],"tilesets":[{"firstgid":1,"source":"../tilesets/tile_holeBrick.tsj"},{"firstgid":18,"source":"../tilesets/tile_brownBrick.tsj"},{"firstgid":39,"source":"../tilesets/obj_acc2_metroCity_wallacc.tsj"},{"firstgid":65,"source":"../tilesets/obj_acc2_metroCity_nightMarket.tsj"},{"firstgid":68,"source":"../tilesets/obj_acc2_metroCity_artificiality.tsj"},{"firstgid":96,"source":"../tilesets/portal_MapHelper.img_portal_game_pv.tsj"}],"properties":[{"name":"bgm","type":"string","value":"Bgm00/FloralLife"},{"name":"fly","type":"int","value":0},{"name":"swim","type":"int","value":0},{"name":"town","type":"int","value":1},{"name":"VRTop","type":"int","value":-450},{"name":"cloud","type":"int","value":0},{"name":"VRLeft","type":"int","value":-1170},{"name":"VRRight","type":"int","value":360},{"name":"mapMark","type":"string","value":"KerningCity"},{"name":"mobRate","type":"float","value":1},{"name":"version","type":"int","value":10},{"name":"VRBottom","type":"int","value":330},{"name":"returnMap","type":"int","value":103000000},{"name":"fieldLimit","type":"int","value":0},{"name":"hideMinimap","type":"int","value":0},{"name":"onUserEnter","type":"string","value":""},{"name":"forcedReturn","type":"int","value":999999999},{"name":"onFirstUserEnter","type":"string","value":""}]}