{"type":"map","orientation":"orthogonal","renderorder":"right-down","infinite":false,"tilewidth":1,"tileheight":1,"width":2508,"height":2865,"parallaxoriginx":-400,"parallaxoriginy":80,"nextlayerid":14,"nextobjectid":641,"layers":[{"id":1,"name":"background_back_0","type":"imagelayer","visible":true,"opacity":1,"image":"../images/27707.png","imagewidth":128,"imageheight":128,"offsetx":-64,"offsety":16,"repeatx":true,"repeaty":true,"parallaxx":0,"parallaxy":0,"properties":[{"name":"a","type":"int","value":255},{"name":"f","type":"int","value":0},{"name":"x","type":"int","value":0},{"name":"y","type":"int","value":0},{"name":"bS","type":"string","value":"midForest"},{"name":"cx","type":"int","value":0},{"name":"cy","type":"int","value":0},{"name":"no","type":"int","value":0},{"name":"rx","type":"int","value":0},{"name":"ry","type":"int","value":0},{"name":"ani","type":"int","value":0},{"name":"type","type":"int","value":3},{"name":"front","type":"int","value":0}]},{"id":2,"name":"background_back_1","type":"imagelayer","visible":true,"opacity":1,"image":"../images/27708.png","imagewidth":635,"imageheight":719,"offsetx":-339,"offsety":-460,"repeatx":true,"repeaty":true,"parallaxx":0.05,"parallaxy":0.05,"properties":[{"name":"a","type":"int","value":255},{"name":"f","type":"int","value":0},{"name":"x","type":"int","value":-22},{"name":"y","type":"int","value":-181},{"name":"bS","type":"string","value":"midForest"},{"name":"cx","type":"int","value":0},{"name":"cy","type":"int","value":0},{"name":"no","type":"int","value":1},{"name":"rx","type":"int","value":-5},{"name":"ry","type":"int","value":-5},{"name":"ani","type":"int","value":0},{"name":"type","type":"int","value":3},{"name":"front","type":"int","value":0}]},{"id":3,"name":"background_back_2","type":"imagelayer","visible":true,"opacity":1,"image":"../images/27709.png","imagewidth":1024,"imageheight":439,"offsetx":-498,"offsety":-136,"repeatx":true,"repeaty":false,"parallaxx":0.15,"parallaxy":0.08,"properties":[{"name":"a","type":"int","value":255},{"name":"f","type":"int","value":0},{"name":"x","type":"int","value":14},{"name":"y","type":"int","value":3},{"name":"bS","type":"string","value":"midForest"},{"name":"cx","type":"int","value":0},{"name":"cy","type":"int","value":0},{"name":"no","type":"int","value":2},{"name":"rx","type":"int","value":-15},{"name":"ry","type":"int","value":-8},{"name":"ani","type":"int","value":0},{"name":"type","type":"int","value":1},{"name":"front","type":"int","value":0}]},{"id":4,"name":"background_back_3","type":"imagelayer","visible":true,"opacity":1,"image":"../images/27711.png","imagewidth":1025,"imageheight":503,"offsetx":-686,"offsety":-110,"repeatx":false,"repeaty":false,"parallaxx":0.2,"parallaxy":0.1,"properties":[{"name":"a","type":"int","value":255},{"name":"f","type":"int","value":0},{"name":"x","type":"int","value":-174},{"name":"y","type":"int","value":61},{"name":"bS","type":"string","value":"midForest"},{"name":"cx","type":"int","value":0},{"name":"cy","type":"int","value":0},{"name":"no","type":"int","value":4},{"name":"rx","type":"int","value":-20},{"name":"ry","type":"int","value":-10},{"name":"ani","type":"int","value":0},{"name":"type","type":"int","value":0},{"name":"front","type":"int","value":0}]},{"id":5,"name":"background_back_4","type":"imagelayer","visible":true,"opacity":1,"image":"../images/27710.png","imagewidth":1024,"imageheight":502,"offsetx":338,"offsety":-108,"repeatx":false,"repeaty":false,"parallaxx":0.2,"parallaxy":0.1,"properties":[{"name":"a","type":"int","value":255},{"name":"f","type":"int","value":0},{"name":"x","type":"int","value":850},{"name":"y","type":"int","value":63},{"name":"bS","type":"string","value":"midForest"},{"name":"cx","type":"int","value":0},{"name":"cy","type":"int","value":0},{"name":"no","type":"int","value":3},{"name":"rx","type":"int","value":-20},{"name":"ry","type":"int","value":-10},{"name":"ani","type":"int","value":0},{"name":"type","type":"int","value":0},{"name":"front","type":"int","value":0}]},{"id":6,"name":"layer_0_obj","type":"objectgroup","visible":true,"opacity":1,"draworder":"index","offsetx":0,"offsety":0,"parallaxx":1,"parallaxy":1,"objects":[{"id":357,"x":224,"y":193,"visible":true,"properties":[{"name":"layer","type":"int","value":0},{"name":"resource_index","type":"int","value":0},{"name":"oS","type":"string","value":"acc1"},{"name":"l0","type":"string","value":"midForest"},{"name":"l1","type":"string","value":"nature"},{"name":"l2","type":"string","value":"3"},{"name":"z","type":"int","value":3},{"name":"zM","type":"int","value":0},{"name":"f","type":"int","value":0}],"gid":36,"width":306,"height":316},{"id":358,"x":1770,"y":-895,"visible":true,"properties":[{"name":"layer","type":"int","value":0},{"name":"resource_index","type":"int","value":1},{"name":"oS","type":"string","value":"acc1"},{"name":"l0","type":"string","value":"grassySoil"},{"name":"l1","type":"string","value":"nature"},{"name":"l2","type":"string","value":"0"},{"name":"z","type":"int","value":3},{"name":"zM","type":"int","value":39},{"name":"f","type":"int","value":0}],"gid":55,"width":131,"height":39},{"id":359,"x":1607,"y":192,"visible":true,"properties":[{"name":"layer","type":"int","value":0},{"name":"resource_index","type":"int","value":2},{"name":"oS","type":"string","value":"acc1"},{"name":"l0","type":"string","value":"midForest"},{"name":"l1","type":"string","value":"nature"},{"name":"l2","type":"string","value":"4"},{"name":"z","type":"int","value":3},{"name":"zM","type":"int","value":0},{"name":"f","type":"int","value":0}],"gid":35,"width":306,"height":316},{"id":360,"x":1147,"y":-1038,"visible":true,"properties":[{"name":"layer","type":"int","value":0},{"name":"resource_index","type":"int","value":3},{"name":"oS","type":"string","value":"acc1"},{"name":"l0","type":"string","value":"grassySoil"},{"name":"l1","type":"string","value":"nature"},{"name":"l2","type":"string","value":"13"},{"name":"z","type":"int","value":0},{"name":"zM","type":"int","value":44},{"name":"f","type":"int","value":0}],"gid":47,"width":223,"height":128},{"id":361,"x":1866,"y":-895,"visible":true,"properties":[{"name":"layer","type":"int","value":0},{"name":"resource_index","type":"int","value":4},{"name":"oS","type":"string","value":"acc1"},{"name":"l0","type":"string","value":"grassySoil"},{"name":"l1","type":"string","value":"nature"},{"name":"l2","type":"string","value":"0"},{"name":"z","type":"int","value":5},{"name":"zM","type":"int","value":39},{"name":"f","type":"int","value":0}],"gid":55,"width":131,"height":39},{"id":362,"x":1977,"y":-896,"visible":true,"properties":[{"name":"layer","type":"int","value":0},{"name":"resource_index","type":"int","value":5},{"name":"oS","type":"string","value":"acc1"},{"name":"l0","type":"string","value":"grassySoil"},{"name":"l1","type":"string","value":"nature"},{"name":"l2","type":"string","value":"0"},{"name":"z","type":"int","value":3},{"name":"zM","type":"int","value":39},{"name":"f","type":"int","value":0}],"gid":55,"width":131,"height":39},{"id":363,"x":569,"y":206,"visible":true,"properties":[{"name":"layer","type":"int","value":0},{"name":"resource_index","type":"int","value":6},{"name":"oS","type":"string","value":"acc1"},{"name":"l0","type":"string","value":"grassySoil"},{"name":"l1","type":"string","value":"nature"},{"name":"l2","type":"string","value":"13"},{"name":"z","type":"int","value":3},{"name":"zM","type":"int","value":0},{"name":"f","type":"int","value":0}],"gid":47,"width":223,"height":128},{"id":364,"x":1788,"y":205,"visible":true,"properties":[{"name":"layer","type":"int","value":0},{"name":"resource_index","type":"int","value":7},{"name":"oS","type":"string","value":"acc1"},{"name":"l0","type":"string","value":"grassySoil"},{"name":"l1","type":"string","value":"nature"},{"name":"l2","type":"string","value":"13"},{"name":"z","type":"int","value":4},{"name":"zM","type":"int","value":0},{"name":"f","type":"int","value":0}],"gid":47,"width":223,"height":128},{"id":365,"x":698,"y":183,"visible":true,"properties":[{"name":"layer","type":"int","value":0},{"name":"resource_index","type":"int","value":8},{"name":"oS","type":"string","value":"acc1"},{"name":"l0","type":"string","value":"midForest"},{"name":"l1","type":"string","value":"nature"},{"name":"l2","type":"string","value":"4"},{"name":"z","type":"int","value":3},{"name":"zM","type":"int","value":0},{"name":"f","type":"int","value":0}],"gid":35,"width":306,"height":316},{"id":366,"x":1166,"y":187,"visible":true,"properties":[{"name":"layer","type":"int","value":0},{"name":"resource_index","type":"int","value":9},{"name":"oS","type":"string","value":"acc1"},{"name":"l0","type":"string","value":"midForest"},{"name":"l1","type":"string","value":"nature"},{"name":"l2","type":"string","value":"3"},{"name":"z","type":"int","value":4},{"name":"zM","type":"int","value":0},{"name":"f","type":"int","value":0}],"gid":36,"width":306,"height":316},{"id":367,"x":987,"y":188,"visible":true,"properties":[{"name":"layer","type":"int","value":0},{"name":"resource_index","type":"int","value":10},{"name":"oS","type":"string","value":"acc1"},{"name":"l0","type":"string","value":"midForest"},{"name":"l1","type":"string","value":"nature"},{"name":"l2","type":"string","value":"3"},{"name":"z","type":"int","value":3},{"name":"zM","type":"int","value":0},{"name":"f","type":"int","value":0}],"gid":36,"width":306,"height":316},{"id":368,"x":859,"y":192,"visible":true,"properties":[{"name":"layer","type":"int","value":0},{"name":"resource_index","type":"int","value":11},{"name":"oS","type":"string","value":"acc1"},{"name":"l0","type":"string","value":"midForest"},{"name":"l1","type":"string","value":"nature"},{"name":"l2","type":"string","value":"4"},{"name":"z","type":"int","value":4},{"name":"zM","type":"int","value":0},{"name":"f","type":"int","value":0}],"gid":35,"width":306,"height":316},{"id":369,"x":553,"y":-986,"visible":true,"properties":[{"name":"layer","type":"int","value":0},{"name":"resource_index","type":"int","value":12},{"name":"oS","type":"string","value":"acc1"},{"name":"l0","type":"string","value":"grassySoil"},{"name":"l1","type":"string","value":"nature"},{"name":"l2","type":"string","value":"13"},{"name":"z","type":"int","value":0},{"name":"zM","type":"int","value":44},{"name":"f","type":"int","value":0}],"gid":47,"width":223,"height":128},{"id":370,"x":1260,"y":-1067,"visible":true,"properties":[{"name":"layer","type":"int","value":0},{"name":"resource_index","type":"int","value":13},{"name":"oS","type":"string","value":"acc1"},{"name":"l0","type":"string","value":"grassySoil"},{"name":"l1","type":"string","value":"nature"},{"name":"l2","type":"string","value":"13"},{"name":"z","type":"int","value":1},{"name":"zM","type":"int","value":44},{"name":"f","type":"int","value":0}],"gid":47,"width":223,"height":128},{"id":371,"x":660,"y":-112,"visible":true,"properties":[{"name":"layer","type":"int","value":0},{"name":"resource_index","type":"int","value":14},{"name":"oS","type":"string","value":"acc1"},{"name":"l0","type":"string","value":"grassySoil"},{"name":"l1","type":"string","value":"nature"},{"name":"l2","type":"string","value":"0"},{"name":"z","type":"int","value":3},{"name":"zM","type":"int","value":0},{"name":"f","type":"int","value":0}],"gid":55,"width":131,"height":39},{"id":372,"x":1354,"y":-1079,"visible":true,"properties":[{"name":"layer","type":"int","value":0},{"name":"resource_index","type":"int","value":15},{"name":"oS","type":"string","value":"guide"},{"name":"l0","type":"string","value":"midForest"},{"name":"l1","type":"string","value":"danger"},{"name":"l2","type":"string","value":"2"},{"name":"z","type":"int","value":5},{"name":"zM","type":"int","value":44},{"name":"f","type":"int","value":0}],"gid":73,"width":67,"height":77},{"id":373,"x":423,"y":-996,"visible":true,"properties":[{"name":"layer","type":"int","value":0},{"name":"resource_index","type":"int","value":16},{"name":"oS","type":"string","value":"acc1"},{"name":"l0","type":"string","value":"midForest"},{"name":"l1","type":"string","value":"nature"},{"name":"l2","type":"string","value":"0"},{"name":"z","type":"int","value":6},{"name":"zM","type":"int","value":44},{"name":"f","type":"int","value":0}],"gid":37,"width":241,"height":340},{"id":374,"x":1089,"y":-354,"visible":true,"properties":[{"name":"layer","type":"int","value":0},{"name":"resource_index","type":"int","value":17},{"name":"oS","type":"string","value":"acc1"},{"name":"l0","type":"string","value":"midForest"},{"name":"l1","type":"string","value":"nature"},{"name":"l2","type":"string","value":"4"},{"name":"z","type":"int","value":3},{"name":"zM","type":"int","value":17},{"name":"f","type":"int","value":0}],"gid":35,"width":306,"height":316},{"id":375,"x":1229,"y":-352,"visible":true,"properties":[{"name":"layer","type":"int","value":0},{"name":"resource_index","type":"int","value":18},{"name":"oS","type":"string","value":"acc1"},{"name":"l0","type":"string","value":"midForest"},{"name":"l1","type":"string","value":"nature"},{"name":"l2","type":"string","value":"3"},{"name":"z","type":"int","value":2},{"name":"zM","type":"int","value":17},{"name":"f","type":"int","value":0}],"gid":36,"width":306,"height":316},{"id":376,"x":1491,"y":-356,"visible":true,"properties":[{"name":"layer","type":"int","value":0},{"name":"resource_index","type":"int","value":19},{"name":"oS","type":"string","value":"acc1"},{"name":"l0","type":"string","value":"midForest"},{"name":"l1","type":"string","value":"nature"},{"name":"l2","type":"string","value":"4"},{"name":"z","type":"int","value":5},{"name":"zM","type":"int","value":17},{"name":"f","type":"int","value":0}],"gid":35,"width":306,"height":316},{"id":377,"x":1498,"y":-307,"visible":true,"properties":[{"name":"layer","type":"int","value":0},{"name":"resource_index","type":"int","value":20},{"name":"oS","type":"string","value":"acc1"},{"name":"l0","type":"string","value":"grassySoil"},{"name":"l1","type":"string","value":"nature"},{"name":"l2","type":"string","value":"13"},{"name":"z","type":"int","value":3},{"name":"zM","type":"int","value":17},{"name":"f","type":"int","value":0}],"gid":47,"width":223,"height":128},{"id":378,"x":1555,"y":-971,"visible":true,"properties":[{"name":"layer","type":"int","value":0},{"name":"resource_index","type":"int","value":21},{"name":"oS","type":"string","value":"acc1"},{"name":"l0","type":"string","value":"midForest"},{"name":"l1","type":"string","value":"nature"},{"name":"l2","type":"string","value":"2"},{"name":"z","type":"int","value":4},{"name":"zM","type":"int","value":45},{"name":"f","type":"int","value":0}],"gid":41,"width":187,"height":244},{"id":379,"x":588,"y":-1071,"visible":true,"properties":[{"name":"layer","type":"int","value":0},{"name":"resource_index","type":"int","value":22},{"name":"oS","type":"string","value":"acc1"},{"name":"l0","type":"string","value":"midForest"},{"name":"l1","type":"string","value":"nature"},{"name":"l2","type":"string","value":"3"},{"name":"z","type":"int","value":2},{"name":"zM","type":"int","value":44},{"name":"f","type":"int","value":0}],"gid":36,"width":306,"height":316},{"id":380,"x":503,"y":-530,"visible":true,"properties":[{"name":"layer","type":"int","value":0},{"name":"resource_index","type":"int","value":23},{"name":"oS","type":"string","value":"acc1"},{"name":"l0","type":"string","value":"grassySoil"},{"name":"l1","type":"string","value":"nature"},{"name":"l2","type":"string","value":"10"},{"name":"z","type":"int","value":3},{"name":"zM","type":"int","value":23},{"name":"f","type":"int","value":0}],"gid":53,"width":83,"height":59},{"id":381,"x":768,"y":-1061,"visible":true,"properties":[{"name":"layer","type":"int","value":0},{"name":"resource_index","type":"int","value":24},{"name":"oS","type":"string","value":"acc1"},{"name":"l0","type":"string","value":"grassySoil"},{"name":"l1","type":"string","value":"nature"},{"name":"l2","type":"string","value":"13"},{"name":"z","type":"int","value":3},{"name":"zM","type":"int","value":44},{"name":"f","type":"int","value":0}],"gid":47,"width":223,"height":128},{"id":382,"x":906,"y":-1046,"visible":true,"properties":[{"name":"layer","type":"int","value":0},{"name":"resource_index","type":"int","value":25},{"name":"oS","type":"string","value":"acc1"},{"name":"l0","type":"string","value":"grassySoil"},{"name":"l1","type":"string","value":"nature"},{"name":"l2","type":"string","value":"13"},{"name":"z","type":"int","value":5},{"name":"zM","type":"int","value":44},{"name":"f","type":"int","value":0}],"gid":47,"width":223,"height":128},{"id":383,"x":573,"y":-534,"visible":true,"properties":[{"name":"layer","type":"int","value":0},{"name":"resource_index","type":"int","value":26},{"name":"oS","type":"string","value":"acc1"},{"name":"l0","type":"string","value":"grassySoil"},{"name":"l1","type":"string","value":"nature"},{"name":"l2","type":"string","value":"10"},{"name":"z","type":"int","value":3},{"name":"zM","type":"int","value":23},{"name":"f","type":"int","value":0}],"gid":53,"width":83,"height":59},{"id":384,"x":532,"y":-547,"visible":true,"properties":[{"name":"layer","type":"int","value":0},{"name":"resource_index","type":"int","value":27},{"name":"oS","type":"string","value":"acc1"},{"name":"l0","type":"string","value":"grassySoil"},{"name":"l1","type":"string","value":"nature"},{"name":"l2","type":"string","value":"10"},{"name":"z","type":"int","value":1},{"name":"zM","type":"int","value":23},{"name":"f","type":"int","value":0}],"gid":53,"width":83,"height":59},{"id":385,"x":310,"y":-467,"visible":true,"properties":[{"name":"layer","type":"int","value":0},{"name":"resource_index","type":"int","value":28},{"name":"oS","type":"string","value":"acc1"},{"name":"l0","type":"string","value":"grassySoil"},{"name":"l1","type":"string","value":"nature"},{"name":"l2","type":"string","value":"13"},{"name":"z","type":"int","value":0},{"name":"zM","type":"int","value":23},{"name":"f","type":"int","value":0}],"gid":47,"width":223,"height":128},{"id":386,"x":465,"y":-476,"visible":true,"properties":[{"name":"layer","type":"int","value":0},{"name":"resource_index","type":"int","value":29},{"name":"oS","type":"string","value":"acc1"},{"name":"l0","type":"string","value":"grassySoil"},{"name":"l1","type":"string","value":"nature"},{"name":"l2","type":"string","value":"13"},{"name":"z","type":"int","value":0},{"name":"zM","type":"int","value":23},{"name":"f","type":"int","value":0}],"gid":47,"width":223,"height":128},{"id":387,"x":451,"y":-537,"visible":true,"properties":[{"name":"layer","type":"int","value":0},{"name":"resource_index","type":"int","value":30},{"name":"oS","type":"string","value":"acc1"},{"name":"l0","type":"string","value":"grassySoil"},{"name":"l1","type":"string","value":"nature"},{"name":"l2","type":"string","value":"6"},{"name":"z","type":"int","value":3},{"name":"zM","type":"int","value":23},{"name":"f","type":"int","value":0}],"gid":59,"width":56,"height":52},{"id":388,"x":801,"y":-1076,"visible":true,"properties":[{"name":"layer","type":"int","value":0},{"name":"resource_index","type":"int","value":31},{"name":"oS","type":"string","value":"acc1"},{"name":"l0","type":"string","value":"midForest"},{"name":"l1","type":"string","value":"nature"},{"name":"l2","type":"string","value":"5"},{"name":"z","type":"int","value":4},{"name":"zM","type":"int","value":44},{"name":"f","type":"int","value":0}],"gid":38,"width":217,"height":310},{"id":389,"x":435,"y":-536,"visible":true,"properties":[{"name":"layer","type":"int","value":0},{"name":"resource_index","type":"int","value":32},{"name":"oS","type":"string","value":"acc1"},{"name":"l0","type":"string","value":"grassySoil"},{"name":"l1","type":"string","value":"nature"},{"name":"l2","type":"string","value":"5"},{"name":"z","type":"int","value":1},{"name":"zM","type":"int","value":23},{"name":"f","type":"int","value":0}],"gid":60,"width":47,"height":66},{"id":390,"x":373,"y":-536,"visible":true,"properties":[{"name":"layer","type":"int","value":0},{"name":"resource_index","type":"int","value":33},{"name":"oS","type":"string","value":"acc1"},{"name":"l0","type":"string","value":"grassySoil"},{"name":"l1","type":"string","value":"nature"},{"name":"l2","type":"string","value":"6"},{"name":"z","type":"int","value":2},{"name":"zM","type":"int","value":23},{"name":"f","type":"int","value":1}],"gid":59,"width":56,"height":52},{"id":391,"x":1913,"y":-895,"visible":true,"properties":[{"name":"layer","type":"int","value":0},{"name":"resource_index","type":"int","value":34},{"name":"oS","type":"string","value":"acc1"},{"name":"l0","type":"string","value":"grassySoil"},{"name":"l1","type":"string","value":"nature"},{"name":"l2","type":"string","value":"23"},{"name":"z","type":"int","value":2},{"name":"zM","type":"int","value":39},{"name":"f","type":"int","value":0}],"gid":64,"width":63,"height":88},{"id":392,"x":1947,"y":-896,"visible":true,"properties":[{"name":"layer","type":"int","value":0},{"name":"resource_index","type":"int","value":35},{"name":"oS","type":"string","value":"acc1"},{"name":"l0","type":"string","value":"grassySoil"},{"name":"l1","type":"string","value":"nature"},{"name":"l2","type":"string","value":"24"},{"name":"z","type":"int","value":3},{"name":"zM","type":"int","value":39},{"name":"f","type":"int","value":0}],"gid":63,"width":50,"height":77},{"id":393,"x":1900,"y":-873,"visible":true,"properties":[{"name":"layer","type":"int","value":0},{"name":"resource_index","type":"int","value":36},{"name":"oS","type":"string","value":"acc1"},{"name":"l0","type":"string","value":"grassySoil"},{"name":"l1","type":"string","value":"nature"},{"name":"l2","type":"string","value":"23"},{"name":"z","type":"int","value":1},{"name":"zM","type":"int","value":39},{"name":"f","type":"int","value":0}],"gid":64,"width":63,"height":88},{"id":394,"x":1964,"y":-1010,"visible":true,"properties":[{"name":"layer","type":"int","value":0},{"name":"resource_index","type":"int","value":37},{"name":"oS","type":"string","value":"acc1"},{"name":"l0","type":"string","value":"grassySoil"},{"name":"l1","type":"string","value":"nature"},{"name":"l2","type":"string","value":"19"},{"name":"z","type":"int","value":7},{"name":"zM","type":"int","value":46},{"name":"f","type":"int","value":0}],"gid":52,"width":33,"height":16},{"id":395,"x":398,"y":-532,"visible":true,"properties":[{"name":"layer","type":"int","value":0},{"name":"resource_index","type":"int","value":38},{"name":"oS","type":"string","value":"acc1"},{"name":"l0","type":"string","value":"grassySoil"},{"name":"l1","type":"string","value":"nature"},{"name":"l2","type":"string","value":"5"},{"name":"z","type":"int","value":3},{"name":"zM","type":"int","value":23},{"name":"f","type":"int","value":0}],"gid":60,"width":47,"height":66},{"id":396,"x":414,"y":-536,"visible":true,"properties":[{"name":"layer","type":"int","value":0},{"name":"resource_index","type":"int","value":39},{"name":"oS","type":"string","value":"acc1"},{"name":"l0","type":"string","value":"grassySoil"},{"name":"l1","type":"string","value":"nature"},{"name":"l2","type":"string","value":"6"},{"name":"z","type":"int","value":4},{"name":"zM","type":"int","value":23},{"name":"f","type":"int","value":0}],"gid":59,"width":56,"height":52},{"id":397,"x":476,"y":-624,"visible":true,"properties":[{"name":"layer","type":"int","value":0},{"name":"resource_index","type":"int","value":40},{"name":"oS","type":"string","value":"acc1"},{"name":"l0","type":"string","value":"grassySoil"},{"name":"l1","type":"string","value":"nature"},{"name":"l2","type":"string","value":"19"},{"name":"z","type":"int","value":7},{"name":"zM","type":"int","value":34},{"name":"f","type":"int","value":0}],"gid":52,"width":33,"height":16},{"id":398,"x":1249,"y":-1071,"visible":true,"properties":[{"name":"layer","type":"int","value":0},{"name":"resource_index","type":"int","value":41},{"name":"oS","type":"string","value":"acc1"},{"name":"l0","type":"string","value":"midForest"},{"name":"l1","type":"string","value":"nature"},{"name":"l2","type":"string","value":"4"},{"name":"z","type":"int","value":2},{"name":"zM","type":"int","value":44},{"name":"f","type":"int","value":0}],"gid":35,"width":306,"height":316},{"id":399,"x":1480,"y":-1026,"visible":true,"properties":[{"name":"layer","type":"int","value":0},{"name":"resource_index","type":"int","value":42},{"name":"oS","type":"string","value":"acc1"},{"name":"l0","type":"string","value":"midForest"},{"name":"l1","type":"string","value":"nature"},{"name":"l2","type":"string","value":"1"},{"name":"z","type":"int","value":3},{"name":"zM","type":"int","value":44},{"name":"f","type":"int","value":0}],"gid":40,"width":180,"height":281},{"id":400,"x":1059,"y":-1077,"visible":true,"properties":[{"name":"layer","type":"int","value":0},{"name":"resource_index","type":"int","value":43},{"name":"oS","type":"string","value":"acc1"},{"name":"l0","type":"string","value":"midForest"},{"name":"l1","type":"string","value":"nature"},{"name":"l2","type":"string","value":"3"},{"name":"z","type":"int","value":4},{"name":"zM","type":"int","value":44},{"name":"f","type":"int","value":0}],"gid":36,"width":306,"height":316},{"id":401,"x":1802,"y":186,"visible":true,"properties":[{"name":"layer","type":"int","value":0},{"name":"resource_index","type":"int","value":44},{"name":"oS","type":"string","value":"guide"},{"name":"l0","type":"string","value":"milepost"},{"name":"l1","type":"string","value":"common"},{"name":"l2","type":"string","value":"1"},{"name":"z","type":"int","value":8},{"name":"zM","type":"int","value":0},{"name":"f","type":"int","value":0}],"gid":45,"width":21,"height":60},{"id":402,"x":1802,"y":140,"visible":true,"properties":[{"name":"layer","type":"int","value":0},{"name":"resource_index","type":"int","value":45},{"name":"oS","type":"string","value":"guide"},{"name":"l0","type":"string","value":"milepost"},{"name":"l1","type":"string","value":"common"},{"name":"l2","type":"string","value":"1"},{"name":"z","type":"int","value":8},{"name":"zM","type":"int","value":0},{"name":"f","type":"int","value":0}],"gid":45,"width":21,"height":60},{"id":403,"x":1777,"y":111,"visible":true,"properties":[{"name":"layer","type":"int","value":0},{"name":"resource_index","type":"int","value":46},{"name":"oS","type":"string","value":"guide"},{"name":"l0","type":"string","value":"milepost"},{"name":"l1","type":"string","value":"backcho"},{"name":"l2","type":"string","value":"1"},{"name":"z","type":"int","value":9},{"name":"zM","type":"int","value":0},{"name":"f","type":"int","value":0}],"gid":75,"width":62,"height":52},{"id":404,"x":1773,"y":160,"visible":true,"properties":[{"name":"layer","type":"int","value":0},{"name":"resource_index","type":"int","value":47},{"name":"oS","type":"string","value":"guide"},{"name":"l0","type":"string","value":"milepost"},{"name":"l1","type":"string","value":"backcho"},{"name":"l2","type":"string","value":"2"},{"name":"z","type":"int","value":9},{"name":"zM","type":"int","value":0},{"name":"f","type":"int","value":0}],"gid":76,"width":63,"height":40}],"properties":[]},{"id":7,"name":"layer_0_tile","type":"objectgroup","visible":true,"opacity":1,"draworder":"index","offsetx":0,"offsety":0,"parallaxx":1,"parallaxy":1,"objects":[{"id":1,"x":855,"y":-665,"visible":true,"properties":[{"name":"layer","type":"int","value":0},{"name":"resource_index","type":"int","value":0},{"name":"u","type":"string","value":"enH1"},{"name":"no","type":"int","value":0},{"name":"zM","type":"int","value":37}],"gid":8,"width":90,"height":25},{"id":2,"x":1935,"y":-725,"visible":true,"properties":[{"name":"layer","type":"int","value":0},{"name":"resource_index","type":"int","value":1},{"name":"u","type":"string","value":"enH1"},{"name":"no","type":"int","value":0},{"name":"zM","type":"int","value":39}],"gid":8,"width":90,"height":25},{"id":3,"x":646,"y":-90,"visible":true,"properties":[{"name":"layer","type":"int","value":0},{"name":"resource_index","type":"int","value":2},{"name":"u","type":"string","value":"edU"},{"name":"no","type":"int","value":0},{"name":"zM","type":"int","value":14}],"gid":6,"width":54,"height":37},{"id":4,"x":675,"y":-90,"visible":true,"properties":[{"name":"layer","type":"int","value":0},{"name":"resource_index","type":"int","value":3},{"name":"u","type":"string","value":"enH0"},{"name":"no","type":"int","value":0},{"name":"zM","type":"int","value":14}],"gid":9,"width":90,"height":38},{"id":5,"x":831,"y":-673,"visible":true,"properties":[{"name":"layer","type":"int","value":0},{"name":"resource_index","type":"int","value":4},{"name":"u","type":"string","value":"edD"},{"name":"no","type":"int","value":0},{"name":"zM","type":"int","value":37}],"gid":7,"width":48,"height":17},{"id":6,"x":855,"y":-930,"visible":true,"properties":[{"name":"layer","type":"int","value":0},{"name":"resource_index","type":"int","value":5},{"name":"u","type":"string","value":"bsc"},{"name":"no","type":"int","value":2},{"name":"zM","type":"int","value":44}],"gid":14,"width":90,"height":60},{"id":7,"x":855,"y":-690,"visible":true,"properties":[{"name":"layer","type":"int","value":0},{"name":"resource_index","type":"int","value":6},{"name":"u","type":"string","value":"enH0"},{"name":"no","type":"int","value":0},{"name":"zM","type":"int","value":37}],"gid":9,"width":90,"height":38},{"id":8,"x":1305,"y":-930,"visible":true,"properties":[{"name":"layer","type":"int","value":0},{"name":"resource_index","type":"int","value":7},{"name":"u","type":"string","value":"bsc"},{"name":"no","type":"int","value":0},{"name":"zM","type":"int","value":44}],"gid":17,"width":90,"height":60},{"id":9,"x":826,"y":-689,"visible":true,"properties":[{"name":"layer","type":"int","value":0},{"name":"resource_index","type":"int","value":8},{"name":"u","type":"string","value":"edU"},{"name":"no","type":"int","value":1},{"name":"zM","type":"int","value":37}],"gid":12,"width":55,"height":38},{"id":10,"x":916,"y":-689,"visible":true,"properties":[{"name":"layer","type":"int","value":0},{"name":"resource_index","type":"int","value":9},{"name":"u","type":"string","value":"edU"},{"name":"no","type":"int","value":1},{"name":"zM","type":"int","value":37}],"gid":12,"width":55,"height":38},{"id":11,"x":921,"y":-673,"visible":true,"properties":[{"name":"layer","type":"int","value":0},{"name":"resource_index","type":"int","value":10},{"name":"u","type":"string","value":"edD"},{"name":"no","type":"int","value":0},{"name":"zM","type":"int","value":37}],"gid":7,"width":48,"height":17},{"id":12,"x":1395,"y":-930,"visible":true,"properties":[{"name":"layer","type":"int","value":0},{"name":"resource_index","type":"int","value":11},{"name":"u","type":"string","value":"bsc"},{"name":"no","type":"int","value":0},{"name":"zM","type":"int","value":44}],"gid":17,"width":90,"height":60},{"id":13,"x":651,"y":-73,"visible":true,"properties":[{"name":"layer","type":"int","value":0},{"name":"resource_index","type":"int","value":12},{"name":"u","type":"string","value":"edD"},{"name":"no","type":"int","value":0},{"name":"zM","type":"int","value":14}],"gid":7,"width":48,"height":17},{"id":14,"x":1575,"y":-904,"visible":true,"properties":[{"name":"layer","type":"int","value":0},{"name":"resource_index","type":"int","value":13},{"name":"u","type":"string","value":"enH1"},{"name":"no","type":"int","value":1},{"name":"zM","type":"int","value":44}],"gid":11,"width":90,"height":26},{"id":15,"x":466,"y":-929,"visible":true,"properties":[{"name":"layer","type":"int","value":0},{"name":"resource_index","type":"int","value":14},{"name":"u","type":"string","value":"edU"},{"name":"no","type":"int","value":1},{"name":"zM","type":"int","value":44}],"gid":12,"width":55,"height":38},{"id":16,"x":1575,"y":-930,"visible":true,"properties":[{"name":"layer","type":"int","value":0},{"name":"resource_index","type":"int","value":15},{"name":"u","type":"string","value":"slRU"},{"name":"no","type":"int","value":0},{"name":"zM","type":"int","value":44}],"gid":25,"width":90,"height":94},{"id":17,"x":855,"y":-905,"visible":true,"properties":[{"name":"layer","type":"int","value":0},{"name":"resource_index","type":"int","value":16},{"name":"u","type":"string","value":"enH1"},{"name":"no","type":"int","value":0},{"name":"zM","type":"int","value":44}],"gid":8,"width":90,"height":25},{"id":18,"x":1485,"y":-904,"visible":true,"properties":[{"name":"layer","type":"int","value":0},{"name":"resource_index","type":"int","value":17},{"name":"u","type":"string","value":"enH1"},{"name":"no","type":"int","value":1},{"name":"zM","type":"int","value":44}],"gid":11,"width":90,"height":26},{"id":19,"x":1575,"y":-725,"visible":true,"properties":[{"name":"layer","type":"int","value":0},{"name":"resource_index","type":"int","value":18},{"name":"u","type":"string","value":"enH1"},{"name":"no","type":"int","value":0},{"name":"zM","type":"int","value":39}],"gid":8,"width":90,"height":25},{"id":20,"x":1485,"y":-930,"visible":true,"properties":[{"name":"layer","type":"int","value":0},{"name":"resource_index","type":"int","value":19},{"name":"u","type":"string","value":"bsc"},{"name":"no","type":"int","value":1},{"name":"zM","type":"int","value":44}],"gid":16,"width":90,"height":60},{"id":21,"x":1665,"y":-810,"visible":true,"properties":[{"name":"layer","type":"int","value":0},{"name":"resource_index","type":"int","value":20},{"name":"u","type":"string","value":"slLU"},{"name":"no","type":"int","value":0},{"name":"zM","type":"int","value":39}],"gid":24,"width":90,"height":94},{"id":22,"x":1215,"y":-1050,"visible":true,"properties":[{"name":"layer","type":"int","value":0},{"name":"resource_index","type":"int","value":21},{"name":"u","type":"string","value":"enH0"},{"name":"no","type":"int","value":0},{"name":"zM","type":"int","value":44}],"gid":9,"width":90,"height":38},{"id":23,"x":1215,"y":-990,"visible":true,"properties":[{"name":"layer","type":"int","value":0},{"name":"resource_index","type":"int","value":22},{"name":"u","type":"string","value":"bsc"},{"name":"no","type":"int","value":2},{"name":"zM","type":"int","value":44}],"gid":14,"width":90,"height":60},{"id":24,"x":1395,"y":-904,"visible":true,"properties":[{"name":"layer","type":"int","value":0},{"name":"resource_index","type":"int","value":23},{"name":"u","type":"string","value":"enH1"},{"name":"no","type":"int","value":1},{"name":"zM","type":"int","value":44}],"gid":11,"width":90,"height":26},{"id":25,"x":1395,"y":-990,"visible":true,"properties":[{"name":"layer","type":"int","value":0},{"name":"resource_index","type":"int","value":24},{"name":"u","type":"string","value":"bsc"},{"name":"no","type":"int","value":1},{"name":"zM","type":"int","value":44}],"gid":16,"width":90,"height":60},{"id":26,"x":675,"y":-904,"visible":true,"properties":[{"name":"layer","type":"int","value":0},{"name":"resource_index","type":"int","value":25},{"name":"u","type":"string","value":"enH1"},{"name":"no","type":"int","value":1},{"name":"zM","type":"int","value":44}],"gid":11,"width":90,"height":26},{"id":27,"x":585,"y":-990,"visible":true,"properties":[{"name":"layer","type":"int","value":0},{"name":"resource_index","type":"int","value":26},{"name":"u","type":"string","value":"slLU"},{"name":"no","type":"int","value":0},{"name":"zM","type":"int","value":44}],"gid":24,"width":90,"height":94},{"id":28,"x":945,"y":-904,"visible":true,"properties":[{"name":"layer","type":"int","value":0},{"name":"resource_index","type":"int","value":27},{"name":"u","type":"string","value":"enH1"},{"name":"no","type":"int","value":1},{"name":"zM","type":"int","value":44}],"gid":11,"width":90,"height":26},{"id":29,"x":495,"y":-930,"visible":true,"properties":[{"name":"layer","type":"int","value":0},{"name":"resource_index","type":"int","value":28},{"name":"u","type":"string","value":"slLU"},{"name":"no","type":"int","value":0},{"name":"zM","type":"int","value":44}],"gid":24,"width":90,"height":94},{"id":30,"x":495,"y":-904,"visible":true,"properties":[{"name":"layer","type":"int","value":0},{"name":"resource_index","type":"int","value":29},{"name":"u","type":"string","value":"enH1"},{"name":"no","type":"int","value":1},{"name":"zM","type":"int","value":44}],"gid":11,"width":90,"height":26},{"id":31,"x":471,"y":-913,"visible":true,"properties":[{"name":"layer","type":"int","value":0},{"name":"resource_index","type":"int","value":30},{"name":"u","type":"string","value":"edD"},{"name":"no","type":"int","value":0},{"name":"zM","type":"int","value":44}],"gid":7,"width":48,"height":17},{"id":32,"x":675,"y":-65,"visible":true,"properties":[{"name":"layer","type":"int","value":0},{"name":"resource_index","type":"int","value":31},{"name":"u","type":"string","value":"enH1"},{"name":"no","type":"int","value":0},{"name":"zM","type":"int","value":14}],"gid":8,"width":90,"height":25},{"id":33,"x":466,"y":-30,"visible":true,"properties":[{"name":"layer","type":"int","value":0},{"name":"resource_index","type":"int","value":32},{"name":"u","type":"string","value":"edU"},{"name":"no","type":"int","value":0},{"name":"zM","type":"int","value":8}],"gid":6,"width":54,"height":37},{"id":34,"x":471,"y":-13,"visible":true,"properties":[{"name":"layer","type":"int","value":0},{"name":"resource_index","type":"int","value":33},{"name":"u","type":"string","value":"edD"},{"name":"no","type":"int","value":0},{"name":"zM","type":"int","value":8}],"gid":7,"width":48,"height":17},{"id":35,"x":1305,"y":-905,"visible":true,"properties":[{"name":"layer","type":"int","value":0},{"name":"resource_index","type":"int","value":34},{"name":"u","type":"string","value":"enH1"},{"name":"no","type":"int","value":0},{"name":"zM","type":"int","value":44}],"gid":8,"width":90,"height":25},{"id":36,"x":1125,"y":-904,"visible":true,"properties":[{"name":"layer","type":"int","value":0},{"name":"resource_index","type":"int","value":35},{"name":"u","type":"string","value":"enH1"},{"name":"no","type":"int","value":1},{"name":"zM","type":"int","value":44}],"gid":11,"width":90,"height":26},{"id":37,"x":2025,"y":-725,"visible":true,"properties":[{"name":"layer","type":"int","value":0},{"name":"resource_index","type":"int","value":36},{"name":"u","type":"string","value":"enH1"},{"name":"no","type":"int","value":0},{"name":"zM","type":"int","value":39}],"gid":8,"width":90,"height":25},{"id":38,"x":1485,"y":-990,"visible":true,"properties":[{"name":"layer","type":"int","value":0},{"name":"resource_index","type":"int","value":37},{"name":"u","type":"string","value":"slRU"},{"name":"no","type":"int","value":0},{"name":"zM","type":"int","value":44}],"gid":25,"width":90,"height":94},{"id":39,"x":1215,"y":-904,"visible":true,"properties":[{"name":"layer","type":"int","value":0},{"name":"resource_index","type":"int","value":38},{"name":"u","type":"string","value":"enH1"},{"name":"no","type":"int","value":1},{"name":"zM","type":"int","value":44}],"gid":11,"width":90,"height":26},{"id":40,"x":736,"y":-89,"visible":true,"properties":[{"name":"layer","type":"int","value":0},{"name":"resource_index","type":"int","value":39},{"name":"u","type":"string","value":"edU"},{"name":"no","type":"int","value":1},{"name":"zM","type":"int","value":14}],"gid":12,"width":55,"height":38},{"id":41,"x":741,"y":-73,"visible":true,"properties":[{"name":"layer","type":"int","value":0},{"name":"resource_index","type":"int","value":40},{"name":"u","type":"string","value":"edD"},{"name":"no","type":"int","value":0},{"name":"zM","type":"int","value":14}],"gid":7,"width":48,"height":17},{"id":42,"x":585,"y":-930,"visible":true,"properties":[{"name":"layer","type":"int","value":0},{"name":"resource_index","type":"int","value":41},{"name":"u","type":"string","value":"bsc"},{"name":"no","type":"int","value":3},{"name":"zM","type":"int","value":44}],"gid":13,"width":90,"height":60},{"id":43,"x":495,"y":-4,"visible":true,"properties":[{"name":"layer","type":"int","value":0},{"name":"resource_index","type":"int","value":42},{"name":"u","type":"string","value":"enH1"},{"name":"no","type":"int","value":1},{"name":"zM","type":"int","value":8}],"gid":11,"width":90,"height":26},{"id":44,"x":1125,"y":-1050,"visible":true,"properties":[{"name":"layer","type":"int","value":0},{"name":"resource_index","type":"int","value":43},{"name":"u","type":"string","value":"enH0"},{"name":"no","type":"int","value":1},{"name":"zM","type":"int","value":44}],"gid":10,"width":90,"height":39},{"id":45,"x":1035,"y":-930,"visible":true,"properties":[{"name":"layer","type":"int","value":0},{"name":"resource_index","type":"int","value":44},{"name":"u","type":"string","value":"bsc"},{"name":"no","type":"int","value":4},{"name":"zM","type":"int","value":44}],"gid":15,"width":90,"height":60},{"id":46,"x":1755,"y":-724,"visible":true,"properties":[{"name":"layer","type":"int","value":0},{"name":"resource_index","type":"int","value":45},{"name":"u","type":"string","value":"enH1"},{"name":"no","type":"int","value":1},{"name":"zM","type":"int","value":39}],"gid":11,"width":90,"height":26},{"id":47,"x":495,"y":-30,"visible":true,"properties":[{"name":"layer","type":"int","value":0},{"name":"resource_index","type":"int","value":46},{"name":"u","type":"string","value":"enH0"},{"name":"no","type":"int","value":1},{"name":"zM","type":"int","value":8}],"gid":10,"width":90,"height":39},{"id":48,"x":561,"y":-13,"visible":true,"properties":[{"name":"layer","type":"int","value":0},{"name":"resource_index","type":"int","value":47},{"name":"u","type":"string","value":"edD"},{"name":"no","type":"int","value":0},{"name":"zM","type":"int","value":8}],"gid":7,"width":48,"height":17},{"id":49,"x":556,"y":-29,"visible":true,"properties":[{"name":"layer","type":"int","value":0},{"name":"resource_index","type":"int","value":48},{"name":"u","type":"string","value":"edU"},{"name":"no","type":"int","value":1},{"name":"zM","type":"int","value":8}],"gid":12,"width":55,"height":38},{"id":50,"x":1125,"y":-990,"visible":true,"properties":[{"name":"layer","type":"int","value":0},{"name":"resource_index","type":"int","value":49},{"name":"u","type":"string","value":"bsc"},{"name":"no","type":"int","value":1},{"name":"zM","type":"int","value":44}],"gid":16,"width":90,"height":60},{"id":51,"x":1935,"y":-750,"visible":true,"properties":[{"name":"layer","type":"int","value":0},{"name":"resource_index","type":"int","value":50},{"name":"u","type":"string","value":"bsc"},{"name":"no","type":"int","value":3},{"name":"zM","type":"int","value":39}],"gid":13,"width":90,"height":60},{"id":52,"x":1575,"y":-750,"visible":true,"properties":[{"name":"layer","type":"int","value":0},{"name":"resource_index","type":"int","value":51},{"name":"u","type":"string","value":"slLU"},{"name":"no","type":"int","value":0},{"name":"zM","type":"int","value":39}],"gid":24,"width":90,"height":94},{"id":53,"x":945,"y":-124,"visible":true,"properties":[{"name":"layer","type":"int","value":0},{"name":"resource_index","type":"int","value":52},{"name":"u","type":"string","value":"enH1"},{"name":"no","type":"int","value":1},{"name":"zM","type":"int","value":17}],"gid":11,"width":90,"height":26},{"id":54,"x":945,"y":-150,"visible":true,"properties":[{"name":"layer","type":"int","value":0},{"name":"resource_index","type":"int","value":53},{"name":"u","type":"string","value":"bsc"},{"name":"no","type":"int","value":2},{"name":"zM","type":"int","value":17}],"gid":14,"width":90,"height":60},{"id":55,"x":831,"y":-133,"visible":true,"properties":[{"name":"layer","type":"int","value":0},{"name":"resource_index","type":"int","value":54},{"name":"u","type":"string","value":"edD"},{"name":"no","type":"int","value":0},{"name":"zM","type":"int","value":17}],"gid":7,"width":48,"height":17},{"id":56,"x":826,"y":-149,"visible":true,"properties":[{"name":"layer","type":"int","value":0},{"name":"resource_index","type":"int","value":55},{"name":"u","type":"string","value":"edU"},{"name":"no","type":"int","value":1},{"name":"zM","type":"int","value":17}],"gid":12,"width":55,"height":38},{"id":57,"x":1845,"y":-124,"visible":true,"properties":[{"name":"layer","type":"int","value":0},{"name":"resource_index","type":"int","value":56},{"name":"u","type":"string","value":"enH1"},{"name":"no","type":"int","value":1},{"name":"zM","type":"int","value":17}],"gid":11,"width":90,"height":26},{"id":58,"x":1845,"y":-210,"visible":true,"properties":[{"name":"layer","type":"int","value":0},{"name":"resource_index","type":"int","value":57},{"name":"u","type":"string","value":"slRU"},{"name":"no","type":"int","value":0},{"name":"zM","type":"int","value":17}],"gid":25,"width":90,"height":94},{"id":59,"x":1665,"y":-125,"visible":true,"properties":[{"name":"layer","type":"int","value":0},{"name":"resource_index","type":"int","value":58},{"name":"u","type":"string","value":"enH1"},{"name":"no","type":"int","value":0},{"name":"zM","type":"int","value":17}],"gid":8,"width":90,"height":25},{"id":60,"x":1665,"y":-150,"visible":true,"properties":[{"name":"layer","type":"int","value":0},{"name":"resource_index","type":"int","value":59},{"name":"u","type":"string","value":"bsc"},{"name":"no","type":"int","value":2},{"name":"zM","type":"int","value":17}],"gid":14,"width":90,"height":60},{"id":61,"x":1395,"y":-125,"visible":true,"properties":[{"name":"layer","type":"int","value":0},{"name":"resource_index","type":"int","value":60},{"name":"u","type":"string","value":"enH1"},{"name":"no","type":"int","value":0},{"name":"zM","type":"int","value":17}],"gid":8,"width":90,"height":25},{"id":62,"x":1485,"y":-210,"visible":true,"properties":[{"name":"layer","type":"int","value":0},{"name":"resource_index","type":"int","value":61},{"name":"u","type":"string","value":"bsc"},{"name":"no","type":"int","value":2},{"name":"zM","type":"int","value":17}],"gid":14,"width":90,"height":60},{"id":63,"x":1755,"y":-150,"visible":true,"properties":[{"name":"layer","type":"int","value":0},{"name":"resource_index","type":"int","value":62},{"name":"u","type":"string","value":"bsc"},{"name":"no","type":"int","value":2},{"name":"zM","type":"int","value":17}],"gid":14,"width":90,"height":60},{"id":64,"x":1755,"y":-124,"visible":true,"properties":[{"name":"layer","type":"int","value":0},{"name":"resource_index","type":"int","value":63},{"name":"u","type":"string","value":"enH1"},{"name":"no","type":"int","value":1},{"name":"zM","type":"int","value":17}],"gid":11,"width":90,"height":26},{"id":65,"x":1575,"y":-124,"visible":true,"properties":[{"name":"layer","type":"int","value":0},{"name":"resource_index","type":"int","value":64},{"name":"u","type":"string","value":"enH1"},{"name":"no","type":"int","value":1},{"name":"zM","type":"int","value":17}],"gid":11,"width":90,"height":26},{"id":66,"x":1485,"y":-150,"visible":true,"properties":[{"name":"layer","type":"int","value":0},{"name":"resource_index","type":"int","value":65},{"name":"u","type":"string","value":"bsc"},{"name":"no","type":"int","value":2},{"name":"zM","type":"int","value":17}],"gid":14,"width":90,"height":60},{"id":67,"x":1485,"y":-124,"visible":true,"properties":[{"name":"layer","type":"int","value":0},{"name":"resource_index","type":"int","value":66},{"name":"u","type":"string","value":"enH1"},{"name":"no","type":"int","value":1},{"name":"zM","type":"int","value":17}],"gid":11,"width":90,"height":26},{"id":68,"x":1215,"y":-150,"visible":true,"properties":[{"name":"layer","type":"int","value":0},{"name":"resource_index","type":"int","value":67},{"name":"u","type":"string","value":"bsc"},{"name":"no","type":"int","value":4},{"name":"zM","type":"int","value":17}],"gid":15,"width":90,"height":60},{"id":69,"x":1215,"y":-125,"visible":true,"properties":[{"name":"layer","type":"int","value":0},{"name":"resource_index","type":"int","value":68},{"name":"u","type":"string","value":"enH1"},{"name":"no","type":"int","value":0},{"name":"zM","type":"int","value":17}],"gid":8,"width":90,"height":25},{"id":70,"x":1305,"y":-210,"visible":true,"properties":[{"name":"layer","type":"int","value":0},{"name":"resource_index","type":"int","value":69},{"name":"u","type":"string","value":"bsc"},{"name":"no","type":"int","value":4},{"name":"zM","type":"int","value":17}],"gid":15,"width":90,"height":60},{"id":71,"x":1305,"y":-124,"visible":true,"properties":[{"name":"layer","type":"int","value":0},{"name":"resource_index","type":"int","value":70},{"name":"u","type":"string","value":"enH1"},{"name":"no","type":"int","value":1},{"name":"zM","type":"int","value":17}],"gid":11,"width":90,"height":26},{"id":72,"x":1125,"y":-150,"visible":true,"properties":[{"name":"layer","type":"int","value":0},{"name":"resource_index","type":"int","value":71},{"name":"u","type":"string","value":"bsc"},{"name":"no","type":"int","value":3},{"name":"zM","type":"int","value":17}],"gid":13,"width":90,"height":60},{"id":73,"x":1125,"y":-124,"visible":true,"properties":[{"name":"layer","type":"int","value":0},{"name":"resource_index","type":"int","value":72},{"name":"u","type":"string","value":"enH1"},{"name":"no","type":"int","value":1},{"name":"zM","type":"int","value":17}],"gid":11,"width":90,"height":26},{"id":74,"x":1035,"y":-124,"visible":true,"properties":[{"name":"layer","type":"int","value":0},{"name":"resource_index","type":"int","value":73},{"name":"u","type":"string","value":"enH1"},{"name":"no","type":"int","value":1},{"name":"zM","type":"int","value":17}],"gid":11,"width":90,"height":26},{"id":75,"x":855,"y":-150,"visible":true,"properties":[{"name":"layer","type":"int","value":0},{"name":"resource_index","type":"int","value":74},{"name":"u","type":"string","value":"slLU"},{"name":"no","type":"int","value":0},{"name":"zM","type":"int","value":17}],"gid":24,"width":90,"height":94},{"id":76,"x":855,"y":-125,"visible":true,"properties":[{"name":"layer","type":"int","value":0},{"name":"resource_index","type":"int","value":75},{"name":"u","type":"string","value":"enH1"},{"name":"no","type":"int","value":0},{"name":"zM","type":"int","value":17}],"gid":8,"width":90,"height":25},{"id":77,"x":1845,"y":-150,"visible":true,"properties":[{"name":"layer","type":"int","value":0},{"name":"resource_index","type":"int","value":76},{"name":"u","type":"string","value":"bsc"},{"name":"no","type":"int","value":2},{"name":"zM","type":"int","value":17}],"gid":14,"width":90,"height":60},{"id":78,"x":1575,"y":-150,"visible":true,"properties":[{"name":"layer","type":"int","value":0},{"name":"resource_index","type":"int","value":77},{"name":"u","type":"string","value":"bsc"},{"name":"no","type":"int","value":3},{"name":"zM","type":"int","value":17}],"gid":13,"width":90,"height":60},{"id":79,"x":1665,"y":-330,"visible":true,"properties":[{"name":"layer","type":"int","value":0},{"name":"resource_index","type":"int","value":78},{"name":"u","type":"string","value":"enH0"},{"name":"no","type":"int","value":0},{"name":"zM","type":"int","value":17}],"gid":9,"width":90,"height":38},{"id":80,"x":1935,"y":-124,"visible":true,"properties":[{"name":"layer","type":"int","value":0},{"name":"resource_index","type":"int","value":79},{"name":"u","type":"string","value":"enH1"},{"name":"no","type":"int","value":1},{"name":"zM","type":"int","value":17}],"gid":11,"width":90,"height":26},{"id":81,"x":1996,"y":-149,"visible":true,"properties":[{"name":"layer","type":"int","value":0},{"name":"resource_index","type":"int","value":80},{"name":"u","type":"string","value":"edU"},{"name":"no","type":"int","value":1},{"name":"zM","type":"int","value":17}],"gid":12,"width":55,"height":38},{"id":82,"x":1665,"y":-270,"visible":true,"properties":[{"name":"layer","type":"int","value":0},{"name":"resource_index","type":"int","value":81},{"name":"u","type":"string","value":"bsc"},{"name":"no","type":"int","value":1},{"name":"zM","type":"int","value":17}],"gid":16,"width":90,"height":60},{"id":83,"x":1665,"y":-210,"visible":true,"properties":[{"name":"layer","type":"int","value":0},{"name":"resource_index","type":"int","value":82},{"name":"u","type":"string","value":"bsc"},{"name":"no","type":"int","value":4},{"name":"zM","type":"int","value":17}],"gid":15,"width":90,"height":60},{"id":84,"x":1755,"y":-270,"visible":true,"properties":[{"name":"layer","type":"int","value":0},{"name":"resource_index","type":"int","value":83},{"name":"u","type":"string","value":"slRU"},{"name":"no","type":"int","value":0},{"name":"zM","type":"int","value":17}],"gid":25,"width":90,"height":94},{"id":85,"x":1755,"y":-210,"visible":true,"properties":[{"name":"layer","type":"int","value":0},{"name":"resource_index","type":"int","value":84},{"name":"u","type":"string","value":"bsc"},{"name":"no","type":"int","value":3},{"name":"zM","type":"int","value":17}],"gid":13,"width":90,"height":60},{"id":86,"x":1575,"y":-210,"visible":true,"properties":[{"name":"layer","type":"int","value":0},{"name":"resource_index","type":"int","value":85},{"name":"u","type":"string","value":"bsc"},{"name":"no","type":"int","value":2},{"name":"zM","type":"int","value":17}],"gid":14,"width":90,"height":60},{"id":87,"x":2001,"y":-133,"visible":true,"properties":[{"name":"layer","type":"int","value":0},{"name":"resource_index","type":"int","value":86},{"name":"u","type":"string","value":"edD"},{"name":"no","type":"int","value":0},{"name":"zM","type":"int","value":17}],"gid":7,"width":48,"height":17},{"id":88,"x":1935,"y":-150,"visible":true,"properties":[{"name":"layer","type":"int","value":0},{"name":"resource_index","type":"int","value":87},{"name":"u","type":"string","value":"slRU"},{"name":"no","type":"int","value":0},{"name":"zM","type":"int","value":17}],"gid":25,"width":90,"height":94},{"id":89,"x":1305,"y":-270,"visible":true,"properties":[{"name":"layer","type":"int","value":0},{"name":"resource_index","type":"int","value":88},{"name":"u","type":"string","value":"bsc"},{"name":"no","type":"int","value":2},{"name":"zM","type":"int","value":17}],"gid":14,"width":90,"height":60},{"id":90,"x":1305,"y":-150,"visible":true,"properties":[{"name":"layer","type":"int","value":0},{"name":"resource_index","type":"int","value":89},{"name":"u","type":"string","value":"bsc"},{"name":"no","type":"int","value":0},{"name":"zM","type":"int","value":17}],"gid":17,"width":90,"height":60},{"id":91,"x":1575,"y":-270,"visible":true,"properties":[{"name":"layer","type":"int","value":0},{"name":"resource_index","type":"int","value":90},{"name":"u","type":"string","value":"bsc"},{"name":"no","type":"int","value":3},{"name":"zM","type":"int","value":17}],"gid":13,"width":90,"height":60},{"id":92,"x":1575,"y":-330,"visible":true,"properties":[{"name":"layer","type":"int","value":0},{"name":"resource_index","type":"int","value":91},{"name":"u","type":"string","value":"enH0"},{"name":"no","type":"int","value":0},{"name":"zM","type":"int","value":17}],"gid":9,"width":90,"height":38},{"id":93,"x":1485,"y":-270,"visible":true,"properties":[{"name":"layer","type":"int","value":0},{"name":"resource_index","type":"int","value":92},{"name":"u","type":"string","value":"bsc"},{"name":"no","type":"int","value":0},{"name":"zM","type":"int","value":17}],"gid":17,"width":90,"height":60},{"id":94,"x":1485,"y":-330,"visible":true,"properties":[{"name":"layer","type":"int","value":0},{"name":"resource_index","type":"int","value":93},{"name":"u","type":"string","value":"enH0"},{"name":"no","type":"int","value":1},{"name":"zM","type":"int","value":17}],"gid":10,"width":90,"height":39},{"id":95,"x":1395,"y":-270,"visible":true,"properties":[{"name":"layer","type":"int","value":0},{"name":"resource_index","type":"int","value":94},{"name":"u","type":"string","value":"bsc"},{"name":"no","type":"int","value":4},{"name":"zM","type":"int","value":17}],"gid":15,"width":90,"height":60},{"id":96,"x":1395,"y":-330,"visible":true,"properties":[{"name":"layer","type":"int","value":0},{"name":"resource_index","type":"int","value":95},{"name":"u","type":"string","value":"enH0"},{"name":"no","type":"int","value":1},{"name":"zM","type":"int","value":17}],"gid":10,"width":90,"height":39},{"id":97,"x":1215,"y":-270,"visible":true,"properties":[{"name":"layer","type":"int","value":0},{"name":"resource_index","type":"int","value":96},{"name":"u","type":"string","value":"bsc"},{"name":"no","type":"int","value":2},{"name":"zM","type":"int","value":17}],"gid":14,"width":90,"height":60},{"id":98,"x":1215,"y":-330,"visible":true,"properties":[{"name":"layer","type":"int","value":0},{"name":"resource_index","type":"int","value":97},{"name":"u","type":"string","value":"enH0"},{"name":"no","type":"int","value":1},{"name":"zM","type":"int","value":17}],"gid":10,"width":90,"height":39},{"id":99,"x":1125,"y":-270,"visible":true,"properties":[{"name":"layer","type":"int","value":0},{"name":"resource_index","type":"int","value":98},{"name":"u","type":"string","value":"bsc"},{"name":"no","type":"int","value":3},{"name":"zM","type":"int","value":17}],"gid":13,"width":90,"height":60},{"id":100,"x":1125,"y":-330,"visible":true,"properties":[{"name":"layer","type":"int","value":0},{"name":"resource_index","type":"int","value":99},{"name":"u","type":"string","value":"enH0"},{"name":"no","type":"int","value":0},{"name":"zM","type":"int","value":17}],"gid":9,"width":90,"height":38},{"id":101,"x":1305,"y":-330,"visible":true,"properties":[{"name":"layer","type":"int","value":0},{"name":"resource_index","type":"int","value":100},{"name":"u","type":"string","value":"enH0"},{"name":"no","type":"int","value":1},{"name":"zM","type":"int","value":17}],"gid":10,"width":90,"height":39},{"id":102,"x":1395,"y":-150,"visible":true,"properties":[{"name":"layer","type":"int","value":0},{"name":"resource_index","type":"int","value":101},{"name":"u","type":"string","value":"bsc"},{"name":"no","type":"int","value":4},{"name":"zM","type":"int","value":17}],"gid":15,"width":90,"height":60},{"id":103,"x":1215,"y":-210,"visible":true,"properties":[{"name":"layer","type":"int","value":0},{"name":"resource_index","type":"int","value":102},{"name":"u","type":"string","value":"bsc"},{"name":"no","type":"int","value":0},{"name":"zM","type":"int","value":17}],"gid":17,"width":90,"height":60},{"id":104,"x":1035,"y":-150,"visible":true,"properties":[{"name":"layer","type":"int","value":0},{"name":"resource_index","type":"int","value":103},{"name":"u","type":"string","value":"bsc"},{"name":"no","type":"int","value":2},{"name":"zM","type":"int","value":17}],"gid":14,"width":90,"height":60},{"id":105,"x":1125,"y":-210,"visible":true,"properties":[{"name":"layer","type":"int","value":0},{"name":"resource_index","type":"int","value":104},{"name":"u","type":"string","value":"bsc"},{"name":"no","type":"int","value":2},{"name":"zM","type":"int","value":17}],"gid":14,"width":90,"height":60},{"id":106,"x":945,"y":-210,"visible":true,"properties":[{"name":"layer","type":"int","value":0},{"name":"resource_index","type":"int","value":105},{"name":"u","type":"string","value":"slLU"},{"name":"no","type":"int","value":0},{"name":"zM","type":"int","value":17}],"gid":24,"width":90,"height":94},{"id":107,"x":1395,"y":-210,"visible":true,"properties":[{"name":"layer","type":"int","value":0},{"name":"resource_index","type":"int","value":106},{"name":"u","type":"string","value":"bsc"},{"name":"no","type":"int","value":2},{"name":"zM","type":"int","value":17}],"gid":14,"width":90,"height":60},{"id":108,"x":1035,"y":-270,"visible":true,"properties":[{"name":"layer","type":"int","value":0},{"name":"resource_index","type":"int","value":107},{"name":"u","type":"string","value":"slLU"},{"name":"no","type":"int","value":0},{"name":"zM","type":"int","value":17}],"gid":24,"width":90,"height":94},{"id":109,"x":1035,"y":-210,"visible":true,"properties":[{"name":"layer","type":"int","value":0},{"name":"resource_index","type":"int","value":108},{"name":"u","type":"string","value":"bsc"},{"name":"no","type":"int","value":1},{"name":"zM","type":"int","value":17}],"gid":16,"width":90,"height":60},{"id":110,"x":916,"y":-329,"visible":true,"properties":[{"name":"layer","type":"int","value":0},{"name":"resource_index","type":"int","value":109},{"name":"u","type":"string","value":"edU"},{"name":"no","type":"int","value":1},{"name":"zM","type":"int","value":23}],"gid":12,"width":55,"height":38},{"id":111,"x":921,"y":-313,"visible":true,"properties":[{"name":"layer","type":"int","value":0},{"name":"resource_index","type":"int","value":110},{"name":"u","type":"string","value":"edD"},{"name":"no","type":"int","value":0},{"name":"zM","type":"int","value":23}],"gid":7,"width":48,"height":17},{"id":112,"x":855,"y":-304,"visible":true,"properties":[{"name":"layer","type":"int","value":0},{"name":"resource_index","type":"int","value":111},{"name":"u","type":"string","value":"enH1"},{"name":"no","type":"int","value":1},{"name":"zM","type":"int","value":23}],"gid":11,"width":90,"height":26},{"id":113,"x":855,"y":-330,"visible":true,"properties":[{"name":"layer","type":"int","value":0},{"name":"resource_index","type":"int","value":112},{"name":"u","type":"string","value":"slRU"},{"name":"no","type":"int","value":0},{"name":"zM","type":"int","value":23}],"gid":25,"width":90,"height":94},{"id":114,"x":765,"y":-304,"visible":true,"properties":[{"name":"layer","type":"int","value":0},{"name":"resource_index","type":"int","value":113},{"name":"u","type":"string","value":"enH1"},{"name":"no","type":"int","value":1},{"name":"zM","type":"int","value":23}],"gid":11,"width":90,"height":26},{"id":115,"x":405,"y":-510,"visible":true,"properties":[{"name":"layer","type":"int","value":0},{"name":"resource_index","type":"int","value":114},{"name":"u","type":"string","value":"enH0"},{"name":"no","type":"int","value":0},{"name":"zM","type":"int","value":23}],"gid":9,"width":90,"height":38},{"id":116,"x":585,"y":-304,"visible":true,"properties":[{"name":"layer","type":"int","value":0},{"name":"resource_index","type":"int","value":115},{"name":"u","type":"string","value":"enH1"},{"name":"no","type":"int","value":1},{"name":"zM","type":"int","value":23}],"gid":11,"width":90,"height":26},{"id":117,"x":585,"y":-390,"visible":true,"properties":[{"name":"layer","type":"int","value":0},{"name":"resource_index","type":"int","value":116},{"name":"u","type":"string","value":"bsc"},{"name":"no","type":"int","value":4},{"name":"zM","type":"int","value":23}],"gid":15,"width":90,"height":60},{"id":118,"x":495,"y":-304,"visible":true,"properties":[{"name":"layer","type":"int","value":0},{"name":"resource_index","type":"int","value":117},{"name":"u","type":"string","value":"enH1"},{"name":"no","type":"int","value":1},{"name":"zM","type":"int","value":23}],"gid":11,"width":90,"height":26},{"id":119,"x":675,"y":-330,"visible":true,"properties":[{"name":"layer","type":"int","value":0},{"name":"resource_index","type":"int","value":118},{"name":"u","type":"string","value":"bsc"},{"name":"no","type":"int","value":3},{"name":"zM","type":"int","value":23}],"gid":13,"width":90,"height":60},{"id":120,"x":765,"y":-390,"visible":true,"properties":[{"name":"layer","type":"int","value":0},{"name":"resource_index","type":"int","value":119},{"name":"u","type":"string","value":"slRU"},{"name":"no","type":"int","value":0},{"name":"zM","type":"int","value":23}],"gid":25,"width":90,"height":94},{"id":121,"x":675,"y":-304,"visible":true,"properties":[{"name":"layer","type":"int","value":0},{"name":"resource_index","type":"int","value":120},{"name":"u","type":"string","value":"enH1"},{"name":"no","type":"int","value":1},{"name":"zM","type":"int","value":23}],"gid":11,"width":90,"height":26},{"id":122,"x":16,"y":-329,"visible":true,"properties":[{"name":"layer","type":"int","value":0},{"name":"resource_index","type":"int","value":121},{"name":"u","type":"string","value":"edU"},{"name":"no","type":"int","value":1},{"name":"zM","type":"int","value":23}],"gid":12,"width":55,"height":38},{"id":123,"x":21,"y":-313,"visible":true,"properties":[{"name":"layer","type":"int","value":0},{"name":"resource_index","type":"int","value":122},{"name":"u","type":"string","value":"edD"},{"name":"no","type":"int","value":0},{"name":"zM","type":"int","value":23}],"gid":7,"width":48,"height":17},{"id":124,"x":135,"y":-304,"visible":true,"properties":[{"name":"layer","type":"int","value":0},{"name":"resource_index","type":"int","value":123},{"name":"u","type":"string","value":"enH1"},{"name":"no","type":"int","value":1},{"name":"zM","type":"int","value":23}],"gid":11,"width":90,"height":26},{"id":125,"x":135,"y":-330,"visible":true,"properties":[{"name":"layer","type":"int","value":0},{"name":"resource_index","type":"int","value":124},{"name":"u","type":"string","value":"bsc"},{"name":"no","type":"int","value":4},{"name":"zM","type":"int","value":23}],"gid":15,"width":90,"height":60},{"id":126,"x":315,"y":-305,"visible":true,"properties":[{"name":"layer","type":"int","value":0},{"name":"resource_index","type":"int","value":125},{"name":"u","type":"string","value":"enH1"},{"name":"no","type":"int","value":0},{"name":"zM","type":"int","value":23}],"gid":8,"width":90,"height":25},{"id":127,"x":765,"y":-330,"visible":true,"properties":[{"name":"layer","type":"int","value":0},{"name":"resource_index","type":"int","value":126},{"name":"u","type":"string","value":"bsc"},{"name":"no","type":"int","value":4},{"name":"zM","type":"int","value":23}],"gid":15,"width":90,"height":60},{"id":128,"x":405,"y":-304,"visible":true,"properties":[{"name":"layer","type":"int","value":0},{"name":"resource_index","type":"int","value":127},{"name":"u","type":"string","value":"enH1"},{"name":"no","type":"int","value":1},{"name":"zM","type":"int","value":23}],"gid":11,"width":90,"height":26},{"id":129,"x":585,"y":-330,"visible":true,"properties":[{"name":"layer","type":"int","value":0},{"name":"resource_index","type":"int","value":128},{"name":"u","type":"string","value":"bsc"},{"name":"no","type":"int","value":3},{"name":"zM","type":"int","value":23}],"gid":13,"width":90,"height":60},{"id":130,"x":45,"y":-304,"visible":true,"properties":[{"name":"layer","type":"int","value":0},{"name":"resource_index","type":"int","value":129},{"name":"u","type":"string","value":"enH1"},{"name":"no","type":"int","value":1},{"name":"zM","type":"int","value":23}],"gid":11,"width":90,"height":26},{"id":131,"x":45,"y":-330,"visible":true,"properties":[{"name":"layer","type":"int","value":0},{"name":"resource_index","type":"int","value":130},{"name":"u","type":"string","value":"slLU"},{"name":"no","type":"int","value":0},{"name":"zM","type":"int","value":23}],"gid":24,"width":90,"height":94},{"id":132,"x":225,"y":-304,"visible":true,"properties":[{"name":"layer","type":"int","value":0},{"name":"resource_index","type":"int","value":131},{"name":"u","type":"string","value":"enH1"},{"name":"no","type":"int","value":1},{"name":"zM","type":"int","value":23}],"gid":11,"width":90,"height":26},{"id":133,"x":225,"y":-330,"visible":true,"properties":[{"name":"layer","type":"int","value":0},{"name":"resource_index","type":"int","value":132},{"name":"u","type":"string","value":"bsc"},{"name":"no","type":"int","value":3},{"name":"zM","type":"int","value":23}],"gid":13,"width":90,"height":60},{"id":134,"x":315,"y":-510,"visible":true,"properties":[{"name":"layer","type":"int","value":0},{"name":"resource_index","type":"int","value":133},{"name":"u","type":"string","value":"enH0"},{"name":"no","type":"int","value":0},{"name":"zM","type":"int","value":23}],"gid":9,"width":90,"height":38},{"id":135,"x":135,"y":-390,"visible":true,"properties":[{"name":"layer","type":"int","value":0},{"name":"resource_index","type":"int","value":134},{"name":"u","type":"string","value":"slLU"},{"name":"no","type":"int","value":0},{"name":"zM","type":"int","value":23}],"gid":24,"width":90,"height":94},{"id":136,"x":585,"y":-450,"visible":true,"properties":[{"name":"layer","type":"int","value":0},{"name":"resource_index","type":"int","value":135},{"name":"u","type":"string","value":"bsc"},{"name":"no","type":"int","value":0},{"name":"zM","type":"int","value":23}],"gid":17,"width":90,"height":60},{"id":137,"x":225,"y":-390,"visible":true,"properties":[{"name":"layer","type":"int","value":0},{"name":"resource_index","type":"int","value":136},{"name":"u","type":"string","value":"bsc"},{"name":"no","type":"int","value":4},{"name":"zM","type":"int","value":23}],"gid":15,"width":90,"height":60},{"id":138,"x":315,"y":-330,"visible":true,"properties":[{"name":"layer","type":"int","value":0},{"name":"resource_index","type":"int","value":137},{"name":"u","type":"string","value":"bsc"},{"name":"no","type":"int","value":1},{"name":"zM","type":"int","value":23}],"gid":16,"width":90,"height":60},{"id":139,"x":405,"y":-450,"visible":true,"properties":[{"name":"layer","type":"int","value":0},{"name":"resource_index","type":"int","value":138},{"name":"u","type":"string","value":"bsc"},{"name":"no","type":"int","value":4},{"name":"zM","type":"int","value":23}],"gid":15,"width":90,"height":60},{"id":140,"x":405,"y":-330,"visible":true,"properties":[{"name":"layer","type":"int","value":0},{"name":"resource_index","type":"int","value":139},{"name":"u","type":"string","value":"bsc"},{"name":"no","type":"int","value":3},{"name":"zM","type":"int","value":23}],"gid":13,"width":90,"height":60},{"id":141,"x":405,"y":-390,"visible":true,"properties":[{"name":"layer","type":"int","value":0},{"name":"resource_index","type":"int","value":140},{"name":"u","type":"string","value":"bsc"},{"name":"no","type":"int","value":3},{"name":"zM","type":"int","value":23}],"gid":13,"width":90,"height":60},{"id":142,"x":315,"y":-390,"visible":true,"properties":[{"name":"layer","type":"int","value":0},{"name":"resource_index","type":"int","value":141},{"name":"u","type":"string","value":"bsc"},{"name":"no","type":"int","value":2},{"name":"zM","type":"int","value":23}],"gid":14,"width":90,"height":60},{"id":143,"x":495,"y":-330,"visible":true,"properties":[{"name":"layer","type":"int","value":0},{"name":"resource_index","type":"int","value":142},{"name":"u","type":"string","value":"bsc"},{"name":"no","type":"int","value":3},{"name":"zM","type":"int","value":23}],"gid":13,"width":90,"height":60},{"id":144,"x":495,"y":-390,"visible":true,"properties":[{"name":"layer","type":"int","value":0},{"name":"resource_index","type":"int","value":143},{"name":"u","type":"string","value":"bsc"},{"name":"no","type":"int","value":2},{"name":"zM","type":"int","value":23}],"gid":14,"width":90,"height":60},{"id":145,"x":585,"y":-510,"visible":true,"properties":[{"name":"layer","type":"int","value":0},{"name":"resource_index","type":"int","value":144},{"name":"u","type":"string","value":"enH0"},{"name":"no","type":"int","value":0},{"name":"zM","type":"int","value":23}],"gid":9,"width":90,"height":38},{"id":146,"x":315,"y":-450,"visible":true,"properties":[{"name":"layer","type":"int","value":0},{"name":"resource_index","type":"int","value":145},{"name":"u","type":"string","value":"bsc"},{"name":"no","type":"int","value":4},{"name":"zM","type":"int","value":23}],"gid":15,"width":90,"height":60},{"id":147,"x":225,"y":-450,"visible":true,"properties":[{"name":"layer","type":"int","value":0},{"name":"resource_index","type":"int","value":146},{"name":"u","type":"string","value":"slLU"},{"name":"no","type":"int","value":0},{"name":"zM","type":"int","value":23}],"gid":24,"width":90,"height":94},{"id":148,"x":495,"y":-510,"visible":true,"properties":[{"name":"layer","type":"int","value":0},{"name":"resource_index","type":"int","value":147},{"name":"u","type":"string","value":"enH0"},{"name":"no","type":"int","value":1},{"name":"zM","type":"int","value":23}],"gid":10,"width":90,"height":39},{"id":149,"x":495,"y":-450,"visible":true,"properties":[{"name":"layer","type":"int","value":0},{"name":"resource_index","type":"int","value":148},{"name":"u","type":"string","value":"bsc"},{"name":"no","type":"int","value":2},{"name":"zM","type":"int","value":23}],"gid":14,"width":90,"height":60},{"id":150,"x":675,"y":-390,"visible":true,"properties":[{"name":"layer","type":"int","value":0},{"name":"resource_index","type":"int","value":149},{"name":"u","type":"string","value":"bsc"},{"name":"no","type":"int","value":4},{"name":"zM","type":"int","value":23}],"gid":15,"width":90,"height":60},{"id":151,"x":675,"y":-450,"visible":true,"properties":[{"name":"layer","type":"int","value":0},{"name":"resource_index","type":"int","value":150},{"name":"u","type":"string","value":"slRU"},{"name":"no","type":"int","value":0},{"name":"zM","type":"int","value":23}],"gid":25,"width":90,"height":94},{"id":152,"x":1845,"y":-870,"visible":true,"properties":[{"name":"layer","type":"int","value":0},{"name":"resource_index","type":"int","value":151},{"name":"u","type":"string","value":"enH0"},{"name":"no","type":"int","value":1},{"name":"zM","type":"int","value":39}],"gid":10,"width":90,"height":39},{"id":153,"x":675,"y":-1050,"visible":true,"properties":[{"name":"layer","type":"int","value":0},{"name":"resource_index","type":"int","value":152},{"name":"u","type":"string","value":"enH0"},{"name":"no","type":"int","value":0},{"name":"zM","type":"int","value":44}],"gid":9,"width":90,"height":38},{"id":154,"x":1845,"y":-810,"visible":true,"properties":[{"name":"layer","type":"int","value":0},{"name":"resource_index","type":"int","value":153},{"name":"u","type":"string","value":"bsc"},{"name":"no","type":"int","value":1},{"name":"zM","type":"int","value":39}],"gid":16,"width":90,"height":60},{"id":155,"x":1845,"y":-724,"visible":true,"properties":[{"name":"layer","type":"int","value":0},{"name":"resource_index","type":"int","value":154},{"name":"u","type":"string","value":"enH1"},{"name":"no","type":"int","value":1},{"name":"zM","type":"int","value":39}],"gid":11,"width":90,"height":26},{"id":156,"x":1935,"y":-810,"visible":true,"properties":[{"name":"layer","type":"int","value":0},{"name":"resource_index","type":"int","value":155},{"name":"u","type":"string","value":"bsc"},{"name":"no","type":"int","value":2},{"name":"zM","type":"int","value":39}],"gid":14,"width":90,"height":60},{"id":157,"x":1035,"y":-904,"visible":true,"properties":[{"name":"layer","type":"int","value":0},{"name":"resource_index","type":"int","value":156},{"name":"u","type":"string","value":"enH1"},{"name":"no","type":"int","value":1},{"name":"zM","type":"int","value":44}],"gid":11,"width":90,"height":26},{"id":158,"x":2025,"y":-870,"visible":true,"properties":[{"name":"layer","type":"int","value":0},{"name":"resource_index","type":"int","value":157},{"name":"u","type":"string","value":"enH0"},{"name":"no","type":"int","value":1},{"name":"zM","type":"int","value":39}],"gid":10,"width":90,"height":39},{"id":159,"x":2025,"y":-810,"visible":true,"properties":[{"name":"layer","type":"int","value":0},{"name":"resource_index","type":"int","value":158},{"name":"u","type":"string","value":"bsc"},{"name":"no","type":"int","value":4},{"name":"zM","type":"int","value":39}],"gid":15,"width":90,"height":60},{"id":160,"x":675,"y":-990,"visible":true,"properties":[{"name":"layer","type":"int","value":0},{"name":"resource_index","type":"int","value":159},{"name":"u","type":"string","value":"bsc"},{"name":"no","type":"int","value":4},{"name":"zM","type":"int","value":44}],"gid":15,"width":90,"height":60},{"id":161,"x":765,"y":-904,"visible":true,"properties":[{"name":"layer","type":"int","value":0},{"name":"resource_index","type":"int","value":160},{"name":"u","type":"string","value":"enH1"},{"name":"no","type":"int","value":1},{"name":"zM","type":"int","value":44}],"gid":11,"width":90,"height":26},{"id":162,"x":945,"y":-990,"visible":true,"properties":[{"name":"layer","type":"int","value":0},{"name":"resource_index","type":"int","value":161},{"name":"u","type":"string","value":"bsc"},{"name":"no","type":"int","value":3},{"name":"zM","type":"int","value":44}],"gid":13,"width":90,"height":60},{"id":163,"x":1935,"y":-870,"visible":true,"properties":[{"name":"layer","type":"int","value":0},{"name":"resource_index","type":"int","value":162},{"name":"u","type":"string","value":"enH0"},{"name":"no","type":"int","value":0},{"name":"zM","type":"int","value":39}],"gid":9,"width":90,"height":38},{"id":164,"x":1755,"y":-750,"visible":true,"properties":[{"name":"layer","type":"int","value":0},{"name":"resource_index","type":"int","value":163},{"name":"u","type":"string","value":"bsc"},{"name":"no","type":"int","value":4},{"name":"zM","type":"int","value":39}],"gid":15,"width":90,"height":60},{"id":165,"x":1551,"y":-733,"visible":true,"properties":[{"name":"layer","type":"int","value":0},{"name":"resource_index","type":"int","value":164},{"name":"u","type":"string","value":"edD"},{"name":"no","type":"int","value":0},{"name":"zM","type":"int","value":39}],"gid":7,"width":48,"height":17},{"id":166,"x":1755,"y":-810,"visible":true,"properties":[{"name":"layer","type":"int","value":0},{"name":"resource_index","type":"int","value":165},{"name":"u","type":"string","value":"bsc"},{"name":"no","type":"int","value":1},{"name":"zM","type":"int","value":39}],"gid":16,"width":90,"height":60},{"id":167,"x":1755,"y":-870,"visible":true,"properties":[{"name":"layer","type":"int","value":0},{"name":"resource_index","type":"int","value":166},{"name":"u","type":"string","value":"enH0"},{"name":"no","type":"int","value":1},{"name":"zM","type":"int","value":39}],"gid":10,"width":90,"height":39},{"id":168,"x":675,"y":-930,"visible":true,"properties":[{"name":"layer","type":"int","value":0},{"name":"resource_index","type":"int","value":167},{"name":"u","type":"string","value":"bsc"},{"name":"no","type":"int","value":0},{"name":"zM","type":"int","value":44}],"gid":17,"width":90,"height":60},{"id":169,"x":1546,"y":-750,"visible":true,"properties":[{"name":"layer","type":"int","value":0},{"name":"resource_index","type":"int","value":168},{"name":"u","type":"string","value":"edU"},{"name":"no","type":"int","value":0},{"name":"zM","type":"int","value":39}],"gid":6,"width":54,"height":37},{"id":170,"x":585,"y":-905,"visible":true,"properties":[{"name":"layer","type":"int","value":0},{"name":"resource_index","type":"int","value":169},{"name":"u","type":"string","value":"enH1"},{"name":"no","type":"int","value":0},{"name":"zM","type":"int","value":44}],"gid":8,"width":90,"height":25},{"id":171,"x":1845,"y":-750,"visible":true,"properties":[{"name":"layer","type":"int","value":0},{"name":"resource_index","type":"int","value":170},{"name":"u","type":"string","value":"bsc"},{"name":"no","type":"int","value":2},{"name":"zM","type":"int","value":39}],"gid":14,"width":90,"height":60},{"id":172,"x":1665,"y":-750,"visible":true,"properties":[{"name":"layer","type":"int","value":0},{"name":"resource_index","type":"int","value":171},{"name":"u","type":"string","value":"bsc"},{"name":"no","type":"int","value":4},{"name":"zM","type":"int","value":39}],"gid":15,"width":90,"height":60},{"id":173,"x":1665,"y":-725,"visible":true,"properties":[{"name":"layer","type":"int","value":0},{"name":"resource_index","type":"int","value":172},{"name":"u","type":"string","value":"enH1"},{"name":"no","type":"int","value":0},{"name":"zM","type":"int","value":39}],"gid":8,"width":90,"height":25},{"id":174,"x":1636,"y":-930,"visible":true,"properties":[{"name":"layer","type":"int","value":0},{"name":"resource_index","type":"int","value":173},{"name":"u","type":"string","value":"edU"},{"name":"no","type":"int","value":0},{"name":"zM","type":"int","value":44}],"gid":6,"width":54,"height":37},{"id":175,"x":765,"y":-1050,"visible":true,"properties":[{"name":"layer","type":"int","value":0},{"name":"resource_index","type":"int","value":174},{"name":"u","type":"string","value":"enH0"},{"name":"no","type":"int","value":1},{"name":"zM","type":"int","value":44}],"gid":10,"width":90,"height":39},{"id":176,"x":765,"y":-990,"visible":true,"properties":[{"name":"layer","type":"int","value":0},{"name":"resource_index","type":"int","value":175},{"name":"u","type":"string","value":"bsc"},{"name":"no","type":"int","value":3},{"name":"zM","type":"int","value":44}],"gid":13,"width":90,"height":60},{"id":177,"x":945,"y":-930,"visible":true,"properties":[{"name":"layer","type":"int","value":0},{"name":"resource_index","type":"int","value":176},{"name":"u","type":"string","value":"bsc"},{"name":"no","type":"int","value":2},{"name":"zM","type":"int","value":44}],"gid":14,"width":90,"height":60},{"id":178,"x":855,"y":-990,"visible":true,"properties":[{"name":"layer","type":"int","value":0},{"name":"resource_index","type":"int","value":177},{"name":"u","type":"string","value":"bsc"},{"name":"no","type":"int","value":4},{"name":"zM","type":"int","value":44}],"gid":15,"width":90,"height":60},{"id":179,"x":1641,"y":-913,"visible":true,"properties":[{"name":"layer","type":"int","value":0},{"name":"resource_index","type":"int","value":178},{"name":"u","type":"string","value":"edD"},{"name":"no","type":"int","value":0},{"name":"zM","type":"int","value":44}],"gid":7,"width":48,"height":17},{"id":180,"x":1305,"y":-990,"visible":true,"properties":[{"name":"layer","type":"int","value":0},{"name":"resource_index","type":"int","value":179},{"name":"u","type":"string","value":"bsc"},{"name":"no","type":"int","value":4},{"name":"zM","type":"int","value":44}],"gid":15,"width":90,"height":60},{"id":181,"x":1125,"y":-930,"visible":true,"properties":[{"name":"layer","type":"int","value":0},{"name":"resource_index","type":"int","value":180},{"name":"u","type":"string","value":"bsc"},{"name":"no","type":"int","value":1},{"name":"zM","type":"int","value":44}],"gid":16,"width":90,"height":60},{"id":182,"x":1035,"y":-990,"visible":true,"properties":[{"name":"layer","type":"int","value":0},{"name":"resource_index","type":"int","value":181},{"name":"u","type":"string","value":"bsc"},{"name":"no","type":"int","value":2},{"name":"zM","type":"int","value":44}],"gid":14,"width":90,"height":60},{"id":183,"x":1035,"y":-1050,"visible":true,"properties":[{"name":"layer","type":"int","value":0},{"name":"resource_index","type":"int","value":182},{"name":"u","type":"string","value":"enH0"},{"name":"no","type":"int","value":0},{"name":"zM","type":"int","value":44}],"gid":9,"width":90,"height":38},{"id":184,"x":1395,"y":-1050,"visible":true,"properties":[{"name":"layer","type":"int","value":0},{"name":"resource_index","type":"int","value":183},{"name":"u","type":"string","value":"enH0"},{"name":"no","type":"int","value":0},{"name":"zM","type":"int","value":44}],"gid":9,"width":90,"height":38},{"id":185,"x":1305,"y":-1050,"visible":true,"properties":[{"name":"layer","type":"int","value":0},{"name":"resource_index","type":"int","value":184},{"name":"u","type":"string","value":"enH0"},{"name":"no","type":"int","value":0},{"name":"zM","type":"int","value":44}],"gid":9,"width":90,"height":38},{"id":186,"x":945,"y":-1050,"visible":true,"properties":[{"name":"layer","type":"int","value":0},{"name":"resource_index","type":"int","value":185},{"name":"u","type":"string","value":"enH0"},{"name":"no","type":"int","value":0},{"name":"zM","type":"int","value":44}],"gid":9,"width":90,"height":38},{"id":187,"x":855,"y":-1050,"visible":true,"properties":[{"name":"layer","type":"int","value":0},{"name":"resource_index","type":"int","value":186},{"name":"u","type":"string","value":"enH0"},{"name":"no","type":"int","value":1},{"name":"zM","type":"int","value":44}],"gid":10,"width":90,"height":39},{"id":188,"x":765,"y":-930,"visible":true,"properties":[{"name":"layer","type":"int","value":0},{"name":"resource_index","type":"int","value":187},{"name":"u","type":"string","value":"bsc"},{"name":"no","type":"int","value":0},{"name":"zM","type":"int","value":44}],"gid":17,"width":90,"height":60},{"id":189,"x":1215,"y":-930,"visible":true,"properties":[{"name":"layer","type":"int","value":0},{"name":"resource_index","type":"int","value":188},{"name":"u","type":"string","value":"bsc"},{"name":"no","type":"int","value":4},{"name":"zM","type":"int","value":44}],"gid":15,"width":90,"height":60},{"id":190,"x":945,"y":415,"visible":true,"properties":[{"name":"layer","type":"int","value":0},{"name":"resource_index","type":"int","value":189},{"name":"u","type":"string","value":"enH1"},{"name":"no","type":"int","value":0},{"name":"zM","type":"int","value":0}],"gid":8,"width":90,"height":25},{"id":191,"x":1035,"y":416,"visible":true,"properties":[{"name":"layer","type":"int","value":0},{"name":"resource_index","type":"int","value":190},{"name":"u","type":"string","value":"enH1"},{"name":"no","type":"int","value":1},{"name":"zM","type":"int","value":0}],"gid":11,"width":90,"height":26},{"id":192,"x":2115,"y":-725,"visible":true,"properties":[{"name":"layer","type":"int","value":0},{"name":"resource_index","type":"int","value":191},{"name":"u","type":"string","value":"enH1"},{"name":"no","type":"int","value":0},{"name":"zM","type":"int","value":39}],"gid":8,"width":90,"height":25},{"id":193,"x":2205,"y":-725,"visible":true,"properties":[{"name":"layer","type":"int","value":0},{"name":"resource_index","type":"int","value":192},{"name":"u","type":"string","value":"enH1"},{"name":"no","type":"int","value":0},{"name":"zM","type":"int","value":39}],"gid":8,"width":90,"height":25},{"id":194,"x":2025,"y":-750,"visible":true,"properties":[{"name":"layer","type":"int","value":0},{"name":"resource_index","type":"int","value":193},{"name":"u","type":"string","value":"bsc"},{"name":"no","type":"int","value":1},{"name":"zM","type":"int","value":39}],"gid":16,"width":90,"height":60},{"id":195,"x":495,"y":390,"visible":true,"properties":[{"name":"layer","type":"int","value":0},{"name":"resource_index","type":"int","value":194},{"name":"u","type":"string","value":"bsc"},{"name":"no","type":"int","value":2},{"name":"zM","type":"int","value":0}],"gid":14,"width":90,"height":60},{"id":196,"x":765,"y":415,"visible":true,"properties":[{"name":"layer","type":"int","value":0},{"name":"resource_index","type":"int","value":195},{"name":"u","type":"string","value":"enH1"},{"name":"no","type":"int","value":0},{"name":"zM","type":"int","value":0}],"gid":8,"width":90,"height":25},{"id":197,"x":2115,"y":-810,"visible":true,"properties":[{"name":"layer","type":"int","value":0},{"name":"resource_index","type":"int","value":196},{"name":"u","type":"string","value":"slRU"},{"name":"no","type":"int","value":0},{"name":"zM","type":"int","value":39}],"gid":25,"width":90,"height":94},{"id":198,"x":2115,"y":-750,"visible":true,"properties":[{"name":"layer","type":"int","value":0},{"name":"resource_index","type":"int","value":197},{"name":"u","type":"string","value":"bsc"},{"name":"no","type":"int","value":2},{"name":"zM","type":"int","value":39}],"gid":14,"width":90,"height":60},{"id":199,"x":2266,"y":-750,"visible":true,"properties":[{"name":"layer","type":"int","value":0},{"name":"resource_index","type":"int","value":198},{"name":"u","type":"string","value":"edU"},{"name":"no","type":"int","value":0},{"name":"zM","type":"int","value":39}],"gid":6,"width":54,"height":37},{"id":200,"x":2271,"y":-733,"visible":true,"properties":[{"name":"layer","type":"int","value":0},{"name":"resource_index","type":"int","value":199},{"name":"u","type":"string","value":"edD"},{"name":"no","type":"int","value":0},{"name":"zM","type":"int","value":39}],"gid":7,"width":48,"height":17},{"id":201,"x":2205,"y":-750,"visible":true,"properties":[{"name":"layer","type":"int","value":0},{"name":"resource_index","type":"int","value":200},{"name":"u","type":"string","value":"slRU"},{"name":"no","type":"int","value":0},{"name":"zM","type":"int","value":39}],"gid":25,"width":90,"height":94},{"id":202,"x":1935,"y":390,"visible":true,"properties":[{"name":"layer","type":"int","value":0},{"name":"resource_index","type":"int","value":201},{"name":"u","type":"string","value":"bsc"},{"name":"no","type":"int","value":1},{"name":"zM","type":"int","value":0}],"gid":16,"width":90,"height":60},{"id":203,"x":1845,"y":330,"visible":true,"properties":[{"name":"layer","type":"int","value":0},{"name":"resource_index","type":"int","value":202},{"name":"u","type":"string","value":"bsc"},{"name":"no","type":"int","value":4},{"name":"zM","type":"int","value":0}],"gid":15,"width":90,"height":60},{"id":204,"x":1215,"y":415,"visible":true,"properties":[{"name":"layer","type":"int","value":0},{"name":"resource_index","type":"int","value":203},{"name":"u","type":"string","value":"enH1"},{"name":"no","type":"int","value":0},{"name":"zM","type":"int","value":0}],"gid":8,"width":90,"height":25},{"id":205,"x":2025,"y":330,"visible":true,"properties":[{"name":"layer","type":"int","value":0},{"name":"resource_index","type":"int","value":204},{"name":"u","type":"string","value":"bsc"},{"name":"no","type":"int","value":3},{"name":"zM","type":"int","value":0}],"gid":13,"width":90,"height":60},{"id":206,"x":1935,"y":270,"visible":true,"properties":[{"name":"layer","type":"int","value":0},{"name":"resource_index","type":"int","value":205},{"name":"u","type":"string","value":"bsc"},{"name":"no","type":"int","value":1},{"name":"zM","type":"int","value":0}],"gid":16,"width":90,"height":60},{"id":207,"x":2115,"y":330,"visible":true,"properties":[{"name":"layer","type":"int","value":0},{"name":"resource_index","type":"int","value":206},{"name":"u","type":"string","value":"slRU"},{"name":"no","type":"int","value":0},{"name":"zM","type":"int","value":0}],"gid":25,"width":90,"height":94},{"id":208,"x":1935,"y":210,"visible":true,"properties":[{"name":"layer","type":"int","value":0},{"name":"resource_index","type":"int","value":207},{"name":"u","type":"string","value":"enH0"},{"name":"no","type":"int","value":1},{"name":"zM","type":"int","value":0}],"gid":10,"width":90,"height":39},{"id":209,"x":1665,"y":330,"visible":true,"properties":[{"name":"layer","type":"int","value":0},{"name":"resource_index","type":"int","value":208},{"name":"u","type":"string","value":"bsc"},{"name":"no","type":"int","value":2},{"name":"zM","type":"int","value":0}],"gid":14,"width":90,"height":60},{"id":210,"x":2205,"y":390,"visible":true,"properties":[{"name":"layer","type":"int","value":0},{"name":"resource_index","type":"int","value":209},{"name":"u","type":"string","value":"slRU"},{"name":"no","type":"int","value":0},{"name":"zM","type":"int","value":0}],"gid":25,"width":90,"height":94},{"id":211,"x":2266,"y":390,"visible":true,"properties":[{"name":"layer","type":"int","value":0},{"name":"resource_index","type":"int","value":210},{"name":"u","type":"string","value":"edU"},{"name":"no","type":"int","value":0},{"name":"zM","type":"int","value":0}],"gid":6,"width":54,"height":37},{"id":212,"x":1665,"y":415,"visible":true,"properties":[{"name":"layer","type":"int","value":0},{"name":"resource_index","type":"int","value":211},{"name":"u","type":"string","value":"enH1"},{"name":"no","type":"int","value":0},{"name":"zM","type":"int","value":0}],"gid":8,"width":90,"height":25},{"id":213,"x":2205,"y":416,"visible":true,"properties":[{"name":"layer","type":"int","value":0},{"name":"resource_index","type":"int","value":212},{"name":"u","type":"string","value":"enH1"},{"name":"no","type":"int","value":1},{"name":"zM","type":"int","value":0}],"gid":11,"width":90,"height":26},{"id":214,"x":1125,"y":416,"visible":true,"properties":[{"name":"layer","type":"int","value":0},{"name":"resource_index","type":"int","value":213},{"name":"u","type":"string","value":"enH1"},{"name":"no","type":"int","value":1},{"name":"zM","type":"int","value":0}],"gid":11,"width":90,"height":26},{"id":215,"x":1755,"y":416,"visible":true,"properties":[{"name":"layer","type":"int","value":0},{"name":"resource_index","type":"int","value":214},{"name":"u","type":"string","value":"enH1"},{"name":"no","type":"int","value":1},{"name":"zM","type":"int","value":0}],"gid":11,"width":90,"height":26},{"id":216,"x":1845,"y":390,"visible":true,"properties":[{"name":"layer","type":"int","value":0},{"name":"resource_index","type":"int","value":215},{"name":"u","type":"string","value":"bsc"},{"name":"no","type":"int","value":0},{"name":"zM","type":"int","value":0}],"gid":17,"width":90,"height":60},{"id":217,"x":2115,"y":390,"visible":true,"properties":[{"name":"layer","type":"int","value":0},{"name":"resource_index","type":"int","value":216},{"name":"u","type":"string","value":"bsc"},{"name":"no","type":"int","value":4},{"name":"zM","type":"int","value":0}],"gid":15,"width":90,"height":60},{"id":218,"x":1935,"y":415,"visible":true,"properties":[{"name":"layer","type":"int","value":0},{"name":"resource_index","type":"int","value":217},{"name":"u","type":"string","value":"enH1"},{"name":"no","type":"int","value":0},{"name":"zM","type":"int","value":0}],"gid":8,"width":90,"height":25},{"id":219,"x":2271,"y":407,"visible":true,"properties":[{"name":"layer","type":"int","value":0},{"name":"resource_index","type":"int","value":218},{"name":"u","type":"string","value":"edD"},{"name":"no","type":"int","value":0},{"name":"zM","type":"int","value":0}],"gid":7,"width":48,"height":17},{"id":220,"x":2025,"y":416,"visible":true,"properties":[{"name":"layer","type":"int","value":0},{"name":"resource_index","type":"int","value":219},{"name":"u","type":"string","value":"enH1"},{"name":"no","type":"int","value":1},{"name":"zM","type":"int","value":0}],"gid":11,"width":90,"height":26},{"id":221,"x":2115,"y":416,"visible":true,"properties":[{"name":"layer","type":"int","value":0},{"name":"resource_index","type":"int","value":220},{"name":"u","type":"string","value":"enH1"},{"name":"no","type":"int","value":1},{"name":"zM","type":"int","value":0}],"gid":11,"width":90,"height":26},{"id":222,"x":1485,"y":390,"visible":true,"properties":[{"name":"layer","type":"int","value":0},{"name":"resource_index","type":"int","value":221},{"name":"u","type":"string","value":"bsc"},{"name":"no","type":"int","value":1},{"name":"zM","type":"int","value":0}],"gid":16,"width":90,"height":60},{"id":223,"x":1305,"y":390,"visible":true,"properties":[{"name":"layer","type":"int","value":0},{"name":"resource_index","type":"int","value":222},{"name":"u","type":"string","value":"bsc"},{"name":"no","type":"int","value":2},{"name":"zM","type":"int","value":0}],"gid":14,"width":90,"height":60},{"id":224,"x":1935,"y":330,"visible":true,"properties":[{"name":"layer","type":"int","value":0},{"name":"resource_index","type":"int","value":223},{"name":"u","type":"string","value":"bsc"},{"name":"no","type":"int","value":2},{"name":"zM","type":"int","value":0}],"gid":14,"width":90,"height":60},{"id":225,"x":2025,"y":390,"visible":true,"properties":[{"name":"layer","type":"int","value":0},{"name":"resource_index","type":"int","value":224},{"name":"u","type":"string","value":"bsc"},{"name":"no","type":"int","value":2},{"name":"zM","type":"int","value":0}],"gid":14,"width":90,"height":60},{"id":226,"x":1755,"y":330,"visible":true,"properties":[{"name":"layer","type":"int","value":0},{"name":"resource_index","type":"int","value":225},{"name":"u","type":"string","value":"bsc"},{"name":"no","type":"int","value":4},{"name":"zM","type":"int","value":0}],"gid":15,"width":90,"height":60},{"id":227,"x":1575,"y":330,"visible":true,"properties":[{"name":"layer","type":"int","value":0},{"name":"resource_index","type":"int","value":226},{"name":"u","type":"string","value":"bsc"},{"name":"no","type":"int","value":2},{"name":"zM","type":"int","value":0}],"gid":14,"width":90,"height":60},{"id":228,"x":1845,"y":270,"visible":true,"properties":[{"name":"layer","type":"int","value":0},{"name":"resource_index","type":"int","value":227},{"name":"u","type":"string","value":"bsc"},{"name":"no","type":"int","value":2},{"name":"zM","type":"int","value":0}],"gid":14,"width":90,"height":60},{"id":229,"x":1845,"y":210,"visible":true,"properties":[{"name":"layer","type":"int","value":0},{"name":"resource_index","type":"int","value":228},{"name":"u","type":"string","value":"enH0"},{"name":"no","type":"int","value":0},{"name":"zM","type":"int","value":0}],"gid":9,"width":90,"height":38},{"id":230,"x":1755,"y":270,"visible":true,"properties":[{"name":"layer","type":"int","value":0},{"name":"resource_index","type":"int","value":229},{"name":"u","type":"string","value":"bsc"},{"name":"no","type":"int","value":3},{"name":"zM","type":"int","value":0}],"gid":13,"width":90,"height":60},{"id":231,"x":1755,"y":210,"visible":true,"properties":[{"name":"layer","type":"int","value":0},{"name":"resource_index","type":"int","value":230},{"name":"u","type":"string","value":"enH0"},{"name":"no","type":"int","value":0},{"name":"zM","type":"int","value":0}],"gid":9,"width":90,"height":38},{"id":232,"x":1665,"y":210,"visible":true,"properties":[{"name":"layer","type":"int","value":0},{"name":"resource_index","type":"int","value":231},{"name":"u","type":"string","value":"enH0"},{"name":"no","type":"int","value":1},{"name":"zM","type":"int","value":0}],"gid":10,"width":90,"height":39},{"id":233,"x":1575,"y":270,"visible":true,"properties":[{"name":"layer","type":"int","value":0},{"name":"resource_index","type":"int","value":232},{"name":"u","type":"string","value":"bsc"},{"name":"no","type":"int","value":3},{"name":"zM","type":"int","value":0}],"gid":13,"width":90,"height":60},{"id":234,"x":1575,"y":210,"visible":true,"properties":[{"name":"layer","type":"int","value":0},{"name":"resource_index","type":"int","value":233},{"name":"u","type":"string","value":"enH0"},{"name":"no","type":"int","value":1},{"name":"zM","type":"int","value":0}],"gid":10,"width":90,"height":39},{"id":235,"x":1305,"y":270,"visible":true,"properties":[{"name":"layer","type":"int","value":0},{"name":"resource_index","type":"int","value":234},{"name":"u","type":"string","value":"bsc"},{"name":"no","type":"int","value":2},{"name":"zM","type":"int","value":0}],"gid":14,"width":90,"height":60},{"id":236,"x":1305,"y":210,"visible":true,"properties":[{"name":"layer","type":"int","value":0},{"name":"resource_index","type":"int","value":235},{"name":"u","type":"string","value":"enH0"},{"name":"no","type":"int","value":1},{"name":"zM","type":"int","value":0}],"gid":10,"width":90,"height":39},{"id":237,"x":1485,"y":210,"visible":true,"properties":[{"name":"layer","type":"int","value":0},{"name":"resource_index","type":"int","value":236},{"name":"u","type":"string","value":"enH0"},{"name":"no","type":"int","value":1},{"name":"zM","type":"int","value":0}],"gid":10,"width":90,"height":39},{"id":238,"x":1485,"y":270,"visible":true,"properties":[{"name":"layer","type":"int","value":0},{"name":"resource_index","type":"int","value":237},{"name":"u","type":"string","value":"bsc"},{"name":"no","type":"int","value":1},{"name":"zM","type":"int","value":0}],"gid":16,"width":90,"height":60},{"id":239,"x":1665,"y":270,"visible":true,"properties":[{"name":"layer","type":"int","value":0},{"name":"resource_index","type":"int","value":238},{"name":"u","type":"string","value":"bsc"},{"name":"no","type":"int","value":0},{"name":"zM","type":"int","value":0}],"gid":17,"width":90,"height":60},{"id":240,"x":1665,"y":390,"visible":true,"properties":[{"name":"layer","type":"int","value":0},{"name":"resource_index","type":"int","value":239},{"name":"u","type":"string","value":"bsc"},{"name":"no","type":"int","value":2},{"name":"zM","type":"int","value":0}],"gid":14,"width":90,"height":60},{"id":241,"x":1215,"y":330,"visible":true,"properties":[{"name":"layer","type":"int","value":0},{"name":"resource_index","type":"int","value":240},{"name":"u","type":"string","value":"bsc"},{"name":"no","type":"int","value":3},{"name":"zM","type":"int","value":0}],"gid":13,"width":90,"height":60},{"id":242,"x":1575,"y":390,"visible":true,"properties":[{"name":"layer","type":"int","value":0},{"name":"resource_index","type":"int","value":241},{"name":"u","type":"string","value":"bsc"},{"name":"no","type":"int","value":4},{"name":"zM","type":"int","value":0}],"gid":15,"width":90,"height":60},{"id":243,"x":945,"y":390,"visible":true,"properties":[{"name":"layer","type":"int","value":0},{"name":"resource_index","type":"int","value":242},{"name":"u","type":"string","value":"bsc"},{"name":"no","type":"int","value":3},{"name":"zM","type":"int","value":0}],"gid":13,"width":90,"height":60},{"id":244,"x":1305,"y":330,"visible":true,"properties":[{"name":"layer","type":"int","value":0},{"name":"resource_index","type":"int","value":243},{"name":"u","type":"string","value":"bsc"},{"name":"no","type":"int","value":1},{"name":"zM","type":"int","value":0}],"gid":16,"width":90,"height":60},{"id":245,"x":1755,"y":390,"visible":true,"properties":[{"name":"layer","type":"int","value":0},{"name":"resource_index","type":"int","value":244},{"name":"u","type":"string","value":"bsc"},{"name":"no","type":"int","value":3},{"name":"zM","type":"int","value":0}],"gid":13,"width":90,"height":60},{"id":246,"x":1395,"y":390,"visible":true,"properties":[{"name":"layer","type":"int","value":0},{"name":"resource_index","type":"int","value":245},{"name":"u","type":"string","value":"bsc"},{"name":"no","type":"int","value":3},{"name":"zM","type":"int","value":0}],"gid":13,"width":90,"height":60},{"id":247,"x":1395,"y":270,"visible":true,"properties":[{"name":"layer","type":"int","value":0},{"name":"resource_index","type":"int","value":246},{"name":"u","type":"string","value":"bsc"},{"name":"no","type":"int","value":3},{"name":"zM","type":"int","value":0}],"gid":13,"width":90,"height":60},{"id":248,"x":1395,"y":210,"visible":true,"properties":[{"name":"layer","type":"int","value":0},{"name":"resource_index","type":"int","value":247},{"name":"u","type":"string","value":"enH0"},{"name":"no","type":"int","value":1},{"name":"zM","type":"int","value":0}],"gid":10,"width":90,"height":39},{"id":249,"x":1395,"y":330,"visible":true,"properties":[{"name":"layer","type":"int","value":0},{"name":"resource_index","type":"int","value":248},{"name":"u","type":"string","value":"bsc"},{"name":"no","type":"int","value":3},{"name":"zM","type":"int","value":0}],"gid":13,"width":90,"height":60},{"id":250,"x":675,"y":330,"visible":true,"properties":[{"name":"layer","type":"int","value":0},{"name":"resource_index","type":"int","value":249},{"name":"u","type":"string","value":"bsc"},{"name":"no","type":"int","value":1},{"name":"zM","type":"int","value":0}],"gid":16,"width":90,"height":60},{"id":251,"x":1215,"y":270,"visible":true,"properties":[{"name":"layer","type":"int","value":0},{"name":"resource_index","type":"int","value":250},{"name":"u","type":"string","value":"bsc"},{"name":"no","type":"int","value":1},{"name":"zM","type":"int","value":0}],"gid":16,"width":90,"height":60},{"id":252,"x":1485,"y":330,"visible":true,"properties":[{"name":"layer","type":"int","value":0},{"name":"resource_index","type":"int","value":251},{"name":"u","type":"string","value":"bsc"},{"name":"no","type":"int","value":4},{"name":"zM","type":"int","value":0}],"gid":15,"width":90,"height":60},{"id":253,"x":585,"y":415,"visible":true,"properties":[{"name":"layer","type":"int","value":0},{"name":"resource_index","type":"int","value":252},{"name":"u","type":"string","value":"enH1"},{"name":"no","type":"int","value":0},{"name":"zM","type":"int","value":0}],"gid":8,"width":90,"height":25},{"id":254,"x":1215,"y":390,"visible":true,"properties":[{"name":"layer","type":"int","value":0},{"name":"resource_index","type":"int","value":253},{"name":"u","type":"string","value":"bsc"},{"name":"no","type":"int","value":1},{"name":"zM","type":"int","value":0}],"gid":16,"width":90,"height":60},{"id":255,"x":585,"y":270,"visible":true,"properties":[{"name":"layer","type":"int","value":0},{"name":"resource_index","type":"int","value":254},{"name":"u","type":"string","value":"bsc"},{"name":"no","type":"int","value":0},{"name":"zM","type":"int","value":0}],"gid":17,"width":90,"height":60},{"id":256,"x":585,"y":210,"visible":true,"properties":[{"name":"layer","type":"int","value":0},{"name":"resource_index","type":"int","value":255},{"name":"u","type":"string","value":"enH0"},{"name":"no","type":"int","value":1},{"name":"zM","type":"int","value":0}],"gid":10,"width":90,"height":39},{"id":257,"x":855,"y":270,"visible":true,"properties":[{"name":"layer","type":"int","value":0},{"name":"resource_index","type":"int","value":256},{"name":"u","type":"string","value":"bsc"},{"name":"no","type":"int","value":2},{"name":"zM","type":"int","value":0}],"gid":14,"width":90,"height":60},{"id":258,"x":855,"y":210,"visible":true,"properties":[{"name":"layer","type":"int","value":0},{"name":"resource_index","type":"int","value":257},{"name":"u","type":"string","value":"enH0"},{"name":"no","type":"int","value":0},{"name":"zM","type":"int","value":0}],"gid":9,"width":90,"height":38},{"id":259,"x":945,"y":210,"visible":true,"properties":[{"name":"layer","type":"int","value":0},{"name":"resource_index","type":"int","value":258},{"name":"u","type":"string","value":"enH0"},{"name":"no","type":"int","value":1},{"name":"zM","type":"int","value":0}],"gid":10,"width":90,"height":39},{"id":260,"x":945,"y":270,"visible":true,"properties":[{"name":"layer","type":"int","value":0},{"name":"resource_index","type":"int","value":259},{"name":"u","type":"string","value":"bsc"},{"name":"no","type":"int","value":4},{"name":"zM","type":"int","value":0}],"gid":15,"width":90,"height":60},{"id":261,"x":1035,"y":270,"visible":true,"properties":[{"name":"layer","type":"int","value":0},{"name":"resource_index","type":"int","value":260},{"name":"u","type":"string","value":"bsc"},{"name":"no","type":"int","value":0},{"name":"zM","type":"int","value":0}],"gid":17,"width":90,"height":60},{"id":262,"x":1035,"y":210,"visible":true,"properties":[{"name":"layer","type":"int","value":0},{"name":"resource_index","type":"int","value":261},{"name":"u","type":"string","value":"enH0"},{"name":"no","type":"int","value":0},{"name":"zM","type":"int","value":0}],"gid":9,"width":90,"height":38},{"id":263,"x":1125,"y":270,"visible":true,"properties":[{"name":"layer","type":"int","value":0},{"name":"resource_index","type":"int","value":262},{"name":"u","type":"string","value":"bsc"},{"name":"no","type":"int","value":1},{"name":"zM","type":"int","value":0}],"gid":16,"width":90,"height":60},{"id":264,"x":1125,"y":210,"visible":true,"properties":[{"name":"layer","type":"int","value":0},{"name":"resource_index","type":"int","value":263},{"name":"u","type":"string","value":"enH0"},{"name":"no","type":"int","value":0},{"name":"zM","type":"int","value":0}],"gid":9,"width":90,"height":38},{"id":265,"x":1215,"y":210,"visible":true,"properties":[{"name":"layer","type":"int","value":0},{"name":"resource_index","type":"int","value":264},{"name":"u","type":"string","value":"enH0"},{"name":"no","type":"int","value":1},{"name":"zM","type":"int","value":0}],"gid":10,"width":90,"height":39},{"id":266,"x":765,"y":270,"visible":true,"properties":[{"name":"layer","type":"int","value":0},{"name":"resource_index","type":"int","value":265},{"name":"u","type":"string","value":"bsc"},{"name":"no","type":"int","value":2},{"name":"zM","type":"int","value":0}],"gid":14,"width":90,"height":60},{"id":267,"x":765,"y":210,"visible":true,"properties":[{"name":"layer","type":"int","value":0},{"name":"resource_index","type":"int","value":266},{"name":"u","type":"string","value":"enH0"},{"name":"no","type":"int","value":1},{"name":"zM","type":"int","value":0}],"gid":10,"width":90,"height":39},{"id":268,"x":675,"y":210,"visible":true,"properties":[{"name":"layer","type":"int","value":0},{"name":"resource_index","type":"int","value":267},{"name":"u","type":"string","value":"enH0"},{"name":"no","type":"int","value":0},{"name":"zM","type":"int","value":0}],"gid":9,"width":90,"height":38},{"id":269,"x":675,"y":270,"visible":true,"properties":[{"name":"layer","type":"int","value":0},{"name":"resource_index","type":"int","value":268},{"name":"u","type":"string","value":"bsc"},{"name":"no","type":"int","value":1},{"name":"zM","type":"int","value":0}],"gid":16,"width":90,"height":60},{"id":270,"x":945,"y":330,"visible":true,"properties":[{"name":"layer","type":"int","value":0},{"name":"resource_index","type":"int","value":269},{"name":"u","type":"string","value":"bsc"},{"name":"no","type":"int","value":3},{"name":"zM","type":"int","value":0}],"gid":13,"width":90,"height":60},{"id":271,"x":1035,"y":330,"visible":true,"properties":[{"name":"layer","type":"int","value":0},{"name":"resource_index","type":"int","value":270},{"name":"u","type":"string","value":"bsc"},{"name":"no","type":"int","value":0},{"name":"zM","type":"int","value":0}],"gid":17,"width":90,"height":60},{"id":272,"x":1125,"y":330,"visible":true,"properties":[{"name":"layer","type":"int","value":0},{"name":"resource_index","type":"int","value":271},{"name":"u","type":"string","value":"bsc"},{"name":"no","type":"int","value":2},{"name":"zM","type":"int","value":0}],"gid":14,"width":90,"height":60},{"id":273,"x":765,"y":390,"visible":true,"properties":[{"name":"layer","type":"int","value":0},{"name":"resource_index","type":"int","value":272},{"name":"u","type":"string","value":"bsc"},{"name":"no","type":"int","value":0},{"name":"zM","type":"int","value":0}],"gid":17,"width":90,"height":60},{"id":274,"x":855,"y":390,"visible":true,"properties":[{"name":"layer","type":"int","value":0},{"name":"resource_index","type":"int","value":273},{"name":"u","type":"string","value":"bsc"},{"name":"no","type":"int","value":4},{"name":"zM","type":"int","value":0}],"gid":15,"width":90,"height":60},{"id":275,"x":1035,"y":390,"visible":true,"properties":[{"name":"layer","type":"int","value":0},{"name":"resource_index","type":"int","value":274},{"name":"u","type":"string","value":"bsc"},{"name":"no","type":"int","value":3},{"name":"zM","type":"int","value":0}],"gid":13,"width":90,"height":60},{"id":276,"x":1125,"y":390,"visible":true,"properties":[{"name":"layer","type":"int","value":0},{"name":"resource_index","type":"int","value":275},{"name":"u","type":"string","value":"bsc"},{"name":"no","type":"int","value":2},{"name":"zM","type":"int","value":0}],"gid":14,"width":90,"height":60},{"id":277,"x":405,"y":416,"visible":true,"properties":[{"name":"layer","type":"int","value":0},{"name":"resource_index","type":"int","value":276},{"name":"u","type":"string","value":"enH1"},{"name":"no","type":"int","value":1},{"name":"zM","type":"int","value":0}],"gid":11,"width":90,"height":26},{"id":278,"x":855,"y":330,"visible":true,"properties":[{"name":"layer","type":"int","value":0},{"name":"resource_index","type":"int","value":277},{"name":"u","type":"string","value":"bsc"},{"name":"no","type":"int","value":0},{"name":"zM","type":"int","value":0}],"gid":17,"width":90,"height":60},{"id":279,"x":765,"y":330,"visible":true,"properties":[{"name":"layer","type":"int","value":0},{"name":"resource_index","type":"int","value":278},{"name":"u","type":"string","value":"bsc"},{"name":"no","type":"int","value":1},{"name":"zM","type":"int","value":0}],"gid":16,"width":90,"height":60},{"id":280,"x":675,"y":416,"visible":true,"properties":[{"name":"layer","type":"int","value":0},{"name":"resource_index","type":"int","value":279},{"name":"u","type":"string","value":"enH1"},{"name":"no","type":"int","value":1},{"name":"zM","type":"int","value":0}],"gid":11,"width":90,"height":26},{"id":281,"x":585,"y":330,"visible":true,"properties":[{"name":"layer","type":"int","value":0},{"name":"resource_index","type":"int","value":280},{"name":"u","type":"string","value":"bsc"},{"name":"no","type":"int","value":4},{"name":"zM","type":"int","value":0}],"gid":15,"width":90,"height":60},{"id":282,"x":2025,"y":270,"visible":true,"properties":[{"name":"layer","type":"int","value":0},{"name":"resource_index","type":"int","value":281},{"name":"u","type":"string","value":"slRU"},{"name":"no","type":"int","value":0},{"name":"zM","type":"int","value":0}],"gid":25,"width":90,"height":94},{"id":283,"x":1395,"y":416,"visible":true,"properties":[{"name":"layer","type":"int","value":0},{"name":"resource_index","type":"int","value":282},{"name":"u","type":"string","value":"enH1"},{"name":"no","type":"int","value":1},{"name":"zM","type":"int","value":0}],"gid":11,"width":90,"height":26},{"id":284,"x":1485,"y":415,"visible":true,"properties":[{"name":"layer","type":"int","value":0},{"name":"resource_index","type":"int","value":283},{"name":"u","type":"string","value":"enH1"},{"name":"no","type":"int","value":0},{"name":"zM","type":"int","value":0}],"gid":8,"width":90,"height":25},{"id":285,"x":135,"y":390,"visible":true,"properties":[{"name":"layer","type":"int","value":0},{"name":"resource_index","type":"int","value":284},{"name":"u","type":"string","value":"bsc"},{"name":"no","type":"int","value":1},{"name":"zM","type":"int","value":0}],"gid":16,"width":90,"height":60},{"id":286,"x":1305,"y":415,"visible":true,"properties":[{"name":"layer","type":"int","value":0},{"name":"resource_index","type":"int","value":285},{"name":"u","type":"string","value":"enH1"},{"name":"no","type":"int","value":0},{"name":"zM","type":"int","value":0}],"gid":8,"width":90,"height":25},{"id":287,"x":495,"y":415,"visible":true,"properties":[{"name":"layer","type":"int","value":0},{"name":"resource_index","type":"int","value":286},{"name":"u","type":"string","value":"enH1"},{"name":"no","type":"int","value":0},{"name":"zM","type":"int","value":0}],"gid":8,"width":90,"height":25},{"id":288,"x":405,"y":270,"visible":true,"properties":[{"name":"layer","type":"int","value":0},{"name":"resource_index","type":"int","value":287},{"name":"u","type":"string","value":"bsc"},{"name":"no","type":"int","value":0},{"name":"zM","type":"int","value":0}],"gid":17,"width":90,"height":60},{"id":289,"x":405,"y":210,"visible":true,"properties":[{"name":"layer","type":"int","value":0},{"name":"resource_index","type":"int","value":288},{"name":"u","type":"string","value":"enH0"},{"name":"no","type":"int","value":1},{"name":"zM","type":"int","value":0}],"gid":10,"width":90,"height":39},{"id":290,"x":405,"y":330,"visible":true,"properties":[{"name":"layer","type":"int","value":0},{"name":"resource_index","type":"int","value":289},{"name":"u","type":"string","value":"bsc"},{"name":"no","type":"int","value":1},{"name":"zM","type":"int","value":0}],"gid":16,"width":90,"height":60},{"id":291,"x":495,"y":330,"visible":true,"properties":[{"name":"layer","type":"int","value":0},{"name":"resource_index","type":"int","value":290},{"name":"u","type":"string","value":"bsc"},{"name":"no","type":"int","value":0},{"name":"zM","type":"int","value":0}],"gid":17,"width":90,"height":60},{"id":292,"x":495,"y":270,"visible":true,"properties":[{"name":"layer","type":"int","value":0},{"name":"resource_index","type":"int","value":291},{"name":"u","type":"string","value":"bsc"},{"name":"no","type":"int","value":0},{"name":"zM","type":"int","value":0}],"gid":17,"width":90,"height":60},{"id":293,"x":495,"y":210,"visible":true,"properties":[{"name":"layer","type":"int","value":0},{"name":"resource_index","type":"int","value":292},{"name":"u","type":"string","value":"enH0"},{"name":"no","type":"int","value":1},{"name":"zM","type":"int","value":0}],"gid":10,"width":90,"height":39},{"id":294,"x":315,"y":210,"visible":true,"properties":[{"name":"layer","type":"int","value":0},{"name":"resource_index","type":"int","value":293},{"name":"u","type":"string","value":"enH0"},{"name":"no","type":"int","value":0},{"name":"zM","type":"int","value":0}],"gid":9,"width":90,"height":38},{"id":295,"x":315,"y":270,"visible":true,"properties":[{"name":"layer","type":"int","value":0},{"name":"resource_index","type":"int","value":294},{"name":"u","type":"string","value":"bsc"},{"name":"no","type":"int","value":2},{"name":"zM","type":"int","value":0}],"gid":14,"width":90,"height":60},{"id":296,"x":225,"y":270,"visible":true,"properties":[{"name":"layer","type":"int","value":0},{"name":"resource_index","type":"int","value":295},{"name":"u","type":"string","value":"slLU"},{"name":"no","type":"int","value":0},{"name":"zM","type":"int","value":0}],"gid":24,"width":90,"height":94},{"id":297,"x":315,"y":330,"visible":true,"properties":[{"name":"layer","type":"int","value":0},{"name":"resource_index","type":"int","value":296},{"name":"u","type":"string","value":"bsc"},{"name":"no","type":"int","value":3},{"name":"zM","type":"int","value":0}],"gid":13,"width":90,"height":60},{"id":298,"x":45,"y":415,"visible":true,"properties":[{"name":"layer","type":"int","value":0},{"name":"resource_index","type":"int","value":297},{"name":"u","type":"string","value":"enH1"},{"name":"no","type":"int","value":0},{"name":"zM","type":"int","value":0}],"gid":8,"width":90,"height":25},{"id":299,"x":45,"y":390,"visible":true,"properties":[{"name":"layer","type":"int","value":0},{"name":"resource_index","type":"int","value":298},{"name":"u","type":"string","value":"slLU"},{"name":"no","type":"int","value":0},{"name":"zM","type":"int","value":0}],"gid":24,"width":90,"height":94},{"id":300,"x":1845,"y":415,"visible":true,"properties":[{"name":"layer","type":"int","value":0},{"name":"resource_index","type":"int","value":299},{"name":"u","type":"string","value":"enH1"},{"name":"no","type":"int","value":0},{"name":"zM","type":"int","value":0}],"gid":8,"width":90,"height":25},{"id":301,"x":135,"y":330,"visible":true,"properties":[{"name":"layer","type":"int","value":0},{"name":"resource_index","type":"int","value":300},{"name":"u","type":"string","value":"slLU"},{"name":"no","type":"int","value":0},{"name":"zM","type":"int","value":0}],"gid":24,"width":90,"height":94},{"id":302,"x":1575,"y":415,"visible":true,"properties":[{"name":"layer","type":"int","value":0},{"name":"resource_index","type":"int","value":301},{"name":"u","type":"string","value":"enH1"},{"name":"no","type":"int","value":0},{"name":"zM","type":"int","value":0}],"gid":8,"width":90,"height":25},{"id":303,"x":135,"y":415,"visible":true,"properties":[{"name":"layer","type":"int","value":0},{"name":"resource_index","type":"int","value":302},{"name":"u","type":"string","value":"enH1"},{"name":"no","type":"int","value":0},{"name":"zM","type":"int","value":0}],"gid":8,"width":90,"height":25},{"id":304,"x":315,"y":390,"visible":true,"properties":[{"name":"layer","type":"int","value":0},{"name":"resource_index","type":"int","value":303},{"name":"u","type":"string","value":"bsc"},{"name":"no","type":"int","value":4},{"name":"zM","type":"int","value":0}],"gid":15,"width":90,"height":60},{"id":305,"x":21,"y":407,"visible":true,"properties":[{"name":"layer","type":"int","value":0},{"name":"resource_index","type":"int","value":304},{"name":"u","type":"string","value":"edD"},{"name":"no","type":"int","value":0},{"name":"zM","type":"int","value":0}],"gid":7,"width":48,"height":17},{"id":306,"x":225,"y":330,"visible":true,"properties":[{"name":"layer","type":"int","value":0},{"name":"resource_index","type":"int","value":305},{"name":"u","type":"string","value":"bsc"},{"name":"no","type":"int","value":2},{"name":"zM","type":"int","value":0}],"gid":14,"width":90,"height":60},{"id":307,"x":225,"y":390,"visible":true,"properties":[{"name":"layer","type":"int","value":0},{"name":"resource_index","type":"int","value":306},{"name":"u","type":"string","value":"bsc"},{"name":"no","type":"int","value":4},{"name":"zM","type":"int","value":0}],"gid":15,"width":90,"height":60},{"id":308,"x":405,"y":390,"visible":true,"properties":[{"name":"layer","type":"int","value":0},{"name":"resource_index","type":"int","value":307},{"name":"u","type":"string","value":"bsc"},{"name":"no","type":"int","value":0},{"name":"zM","type":"int","value":0}],"gid":17,"width":90,"height":60},{"id":309,"x":855,"y":415,"visible":true,"properties":[{"name":"layer","type":"int","value":0},{"name":"resource_index","type":"int","value":308},{"name":"u","type":"string","value":"enH1"},{"name":"no","type":"int","value":0},{"name":"zM","type":"int","value":0}],"gid":8,"width":90,"height":25},{"id":310,"x":675,"y":390,"visible":true,"properties":[{"name":"layer","type":"int","value":0},{"name":"resource_index","type":"int","value":309},{"name":"u","type":"string","value":"bsc"},{"name":"no","type":"int","value":2},{"name":"zM","type":"int","value":0}],"gid":14,"width":90,"height":60},{"id":311,"x":16,"y":390,"visible":true,"properties":[{"name":"layer","type":"int","value":0},{"name":"resource_index","type":"int","value":310},{"name":"u","type":"string","value":"edU"},{"name":"no","type":"int","value":0},{"name":"zM","type":"int","value":0}],"gid":6,"width":54,"height":37},{"id":312,"x":585,"y":390,"visible":true,"properties":[{"name":"layer","type":"int","value":0},{"name":"resource_index","type":"int","value":311},{"name":"u","type":"string","value":"bsc"},{"name":"no","type":"int","value":1},{"name":"zM","type":"int","value":0}],"gid":16,"width":90,"height":60},{"id":313,"x":315,"y":416,"visible":true,"properties":[{"name":"layer","type":"int","value":0},{"name":"resource_index","type":"int","value":312},{"name":"u","type":"string","value":"enH1"},{"name":"no","type":"int","value":1},{"name":"zM","type":"int","value":0}],"gid":11,"width":90,"height":26},{"id":314,"x":225,"y":416,"visible":true,"properties":[{"name":"layer","type":"int","value":0},{"name":"resource_index","type":"int","value":313},{"name":"u","type":"string","value":"enH1"},{"name":"no","type":"int","value":1},{"name":"zM","type":"int","value":0}],"gid":11,"width":90,"height":26},{"id":315,"x":646,"y":-749,"visible":true,"properties":[{"name":"layer","type":"int","value":0},{"name":"resource_index","type":"int","value":314},{"name":"u","type":"string","value":"edU"},{"name":"no","type":"int","value":1},{"name":"zM","type":"int","value":40}],"gid":12,"width":55,"height":38},{"id":316,"x":651,"y":-733,"visible":true,"properties":[{"name":"layer","type":"int","value":0},{"name":"resource_index","type":"int","value":315},{"name":"u","type":"string","value":"edD"},{"name":"no","type":"int","value":0},{"name":"zM","type":"int","value":40}],"gid":7,"width":48,"height":17},{"id":317,"x":736,"y":-750,"visible":true,"properties":[{"name":"layer","type":"int","value":0},{"name":"resource_index","type":"int","value":316},{"name":"u","type":"string","value":"edU"},{"name":"no","type":"int","value":0},{"name":"zM","type":"int","value":40}],"gid":6,"width":54,"height":37},{"id":318,"x":741,"y":-733,"visible":true,"properties":[{"name":"layer","type":"int","value":0},{"name":"resource_index","type":"int","value":317},{"name":"u","type":"string","value":"edD"},{"name":"no","type":"int","value":0},{"name":"zM","type":"int","value":40}],"gid":7,"width":48,"height":17},{"id":319,"x":675,"y":-750,"visible":true,"properties":[{"name":"layer","type":"int","value":0},{"name":"resource_index","type":"int","value":318},{"name":"u","type":"string","value":"enH0"},{"name":"no","type":"int","value":0},{"name":"zM","type":"int","value":40}],"gid":9,"width":90,"height":38},{"id":320,"x":675,"y":-725,"visible":true,"properties":[{"name":"layer","type":"int","value":0},{"name":"resource_index","type":"int","value":319},{"name":"u","type":"string","value":"enH1"},{"name":"no","type":"int","value":0},{"name":"zM","type":"int","value":40}],"gid":8,"width":90,"height":25},{"id":321,"x":466,"y":-810,"visible":true,"properties":[{"name":"layer","type":"int","value":0},{"name":"resource_index","type":"int","value":320},{"name":"u","type":"string","value":"edU"},{"name":"no","type":"int","value":0},{"name":"zM","type":"int","value":42}],"gid":6,"width":54,"height":37},{"id":322,"x":471,"y":-793,"visible":true,"properties":[{"name":"layer","type":"int","value":0},{"name":"resource_index","type":"int","value":321},{"name":"u","type":"string","value":"edD"},{"name":"no","type":"int","value":0},{"name":"zM","type":"int","value":42}],"gid":7,"width":48,"height":17},{"id":323,"x":556,"y":-810,"visible":true,"properties":[{"name":"layer","type":"int","value":0},{"name":"resource_index","type":"int","value":322},{"name":"u","type":"string","value":"edU"},{"name":"no","type":"int","value":0},{"name":"zM","type":"int","value":42}],"gid":6,"width":54,"height":37},{"id":324,"x":561,"y":-793,"visible":true,"properties":[{"name":"layer","type":"int","value":0},{"name":"resource_index","type":"int","value":323},{"name":"u","type":"string","value":"edD"},{"name":"no","type":"int","value":0},{"name":"zM","type":"int","value":42}],"gid":7,"width":48,"height":17},{"id":325,"x":495,"y":-810,"visible":true,"properties":[{"name":"layer","type":"int","value":0},{"name":"resource_index","type":"int","value":324},{"name":"u","type":"string","value":"enH0"},{"name":"no","type":"int","value":0},{"name":"zM","type":"int","value":42}],"gid":9,"width":90,"height":38},{"id":326,"x":495,"y":-785,"visible":true,"properties":[{"name":"layer","type":"int","value":0},{"name":"resource_index","type":"int","value":325},{"name":"u","type":"string","value":"enH1"},{"name":"no","type":"int","value":0},{"name":"zM","type":"int","value":42}],"gid":8,"width":90,"height":25},{"id":327,"x":286,"y":-869,"visible":true,"properties":[{"name":"layer","type":"int","value":0},{"name":"resource_index","type":"int","value":326},{"name":"u","type":"string","value":"edU"},{"name":"no","type":"int","value":1},{"name":"zM","type":"int","value":43}],"gid":12,"width":55,"height":38},{"id":328,"x":291,"y":-853,"visible":true,"properties":[{"name":"layer","type":"int","value":0},{"name":"resource_index","type":"int","value":327},{"name":"u","type":"string","value":"edD"},{"name":"no","type":"int","value":0},{"name":"zM","type":"int","value":43}],"gid":7,"width":48,"height":17},{"id":329,"x":376,"y":-869,"visible":true,"properties":[{"name":"layer","type":"int","value":0},{"name":"resource_index","type":"int","value":328},{"name":"u","type":"string","value":"edU"},{"name":"no","type":"int","value":1},{"name":"zM","type":"int","value":43}],"gid":12,"width":55,"height":38},{"id":330,"x":381,"y":-853,"visible":true,"properties":[{"name":"layer","type":"int","value":0},{"name":"resource_index","type":"int","value":329},{"name":"u","type":"string","value":"edD"},{"name":"no","type":"int","value":0},{"name":"zM","type":"int","value":43}],"gid":7,"width":48,"height":17},{"id":331,"x":315,"y":-870,"visible":true,"properties":[{"name":"layer","type":"int","value":0},{"name":"resource_index","type":"int","value":330},{"name":"u","type":"string","value":"enH0"},{"name":"no","type":"int","value":0},{"name":"zM","type":"int","value":43}],"gid":9,"width":90,"height":38},{"id":332,"x":315,"y":-845,"visible":true,"properties":[{"name":"layer","type":"int","value":0},{"name":"resource_index","type":"int","value":331},{"name":"u","type":"string","value":"enH1"},{"name":"no","type":"int","value":0},{"name":"zM","type":"int","value":43}],"gid":8,"width":90,"height":25},{"id":333,"x":1366,"y":-690,"visible":true,"properties":[{"name":"layer","type":"int","value":0},{"name":"resource_index","type":"int","value":332},{"name":"u","type":"string","value":"edU"},{"name":"no","type":"int","value":0},{"name":"zM","type":"int","value":36}],"gid":6,"width":54,"height":37},{"id":334,"x":1371,"y":-673,"visible":true,"properties":[{"name":"layer","type":"int","value":0},{"name":"resource_index","type":"int","value":333},{"name":"u","type":"string","value":"edD"},{"name":"no","type":"int","value":0},{"name":"zM","type":"int","value":36}],"gid":7,"width":48,"height":17},{"id":335,"x":1456,"y":-690,"visible":true,"properties":[{"name":"layer","type":"int","value":0},{"name":"resource_index","type":"int","value":334},{"name":"u","type":"string","value":"edU"},{"name":"no","type":"int","value":0},{"name":"zM","type":"int","value":36}],"gid":6,"width":54,"height":37},{"id":336,"x":1461,"y":-673,"visible":true,"properties":[{"name":"layer","type":"int","value":0},{"name":"resource_index","type":"int","value":335},{"name":"u","type":"string","value":"edD"},{"name":"no","type":"int","value":0},{"name":"zM","type":"int","value":36}],"gid":7,"width":48,"height":17},{"id":337,"x":1395,"y":-690,"visible":true,"properties":[{"name":"layer","type":"int","value":0},{"name":"resource_index","type":"int","value":336},{"name":"u","type":"string","value":"enH0"},{"name":"no","type":"int","value":0},{"name":"zM","type":"int","value":36}],"gid":9,"width":90,"height":38},{"id":338,"x":1395,"y":-665,"visible":true,"properties":[{"name":"layer","type":"int","value":0},{"name":"resource_index","type":"int","value":337},{"name":"u","type":"string","value":"enH1"},{"name":"no","type":"int","value":0},{"name":"zM","type":"int","value":36}],"gid":8,"width":90,"height":25},{"id":339,"x":1276,"y":-630,"visible":true,"properties":[{"name":"layer","type":"int","value":0},{"name":"resource_index","type":"int","value":338},{"name":"u","type":"string","value":"edU"},{"name":"no","type":"int","value":0},{"name":"zM","type":"int","value":30}],"gid":6,"width":54,"height":37},{"id":340,"x":1281,"y":-613,"visible":true,"properties":[{"name":"layer","type":"int","value":0},{"name":"resource_index","type":"int","value":339},{"name":"u","type":"string","value":"edD"},{"name":"no","type":"int","value":0},{"name":"zM","type":"int","value":30}],"gid":7,"width":48,"height":17},{"id":341,"x":1186,"y":-630,"visible":true,"properties":[{"name":"layer","type":"int","value":0},{"name":"resource_index","type":"int","value":340},{"name":"u","type":"string","value":"edU"},{"name":"no","type":"int","value":0},{"name":"zM","type":"int","value":30}],"gid":6,"width":54,"height":37},{"id":342,"x":1191,"y":-613,"visible":true,"properties":[{"name":"layer","type":"int","value":0},{"name":"resource_index","type":"int","value":341},{"name":"u","type":"string","value":"edD"},{"name":"no","type":"int","value":0},{"name":"zM","type":"int","value":30}],"gid":7,"width":48,"height":17},{"id":343,"x":1215,"y":-630,"visible":true,"properties":[{"name":"layer","type":"int","value":0},{"name":"resource_index","type":"int","value":342},{"name":"u","type":"string","value":"enH0"},{"name":"no","type":"int","value":0},{"name":"zM","type":"int","value":30}],"gid":9,"width":90,"height":38},{"id":344,"x":1215,"y":-605,"visible":true,"properties":[{"name":"layer","type":"int","value":0},{"name":"resource_index","type":"int","value":343},{"name":"u","type":"string","value":"enH1"},{"name":"no","type":"int","value":0},{"name":"zM","type":"int","value":30}],"gid":8,"width":90,"height":25},{"id":345,"x":1006,"y":-570,"visible":true,"properties":[{"name":"layer","type":"int","value":0},{"name":"resource_index","type":"int","value":344},{"name":"u","type":"string","value":"edU"},{"name":"no","type":"int","value":0},{"name":"zM","type":"int","value":27}],"gid":6,"width":54,"height":37},{"id":346,"x":1011,"y":-553,"visible":true,"properties":[{"name":"layer","type":"int","value":0},{"name":"resource_index","type":"int","value":345},{"name":"u","type":"string","value":"edD"},{"name":"no","type":"int","value":0},{"name":"zM","type":"int","value":27}],"gid":7,"width":48,"height":17},{"id":347,"x":1096,"y":-569,"visible":true,"properties":[{"name":"layer","type":"int","value":0},{"name":"resource_index","type":"int","value":346},{"name":"u","type":"string","value":"edU"},{"name":"no","type":"int","value":1},{"name":"zM","type":"int","value":27}],"gid":12,"width":55,"height":38},{"id":348,"x":1101,"y":-553,"visible":true,"properties":[{"name":"layer","type":"int","value":0},{"name":"resource_index","type":"int","value":347},{"name":"u","type":"string","value":"edD"},{"name":"no","type":"int","value":0},{"name":"zM","type":"int","value":27}],"gid":7,"width":48,"height":17},{"id":349,"x":1035,"y":-570,"visible":true,"properties":[{"name":"layer","type":"int","value":0},{"name":"resource_index","type":"int","value":348},{"name":"u","type":"string","value":"enH0"},{"name":"no","type":"int","value":0},{"name":"zM","type":"int","value":27}],"gid":9,"width":90,"height":38},{"id":350,"x":1035,"y":-544,"visible":true,"properties":[{"name":"layer","type":"int","value":0},{"name":"resource_index","type":"int","value":349},{"name":"u","type":"string","value":"enH1"},{"name":"no","type":"int","value":1},{"name":"zM","type":"int","value":27}],"gid":11,"width":90,"height":26},{"id":351,"x":916,"y":-630,"visible":true,"properties":[{"name":"layer","type":"int","value":0},{"name":"resource_index","type":"int","value":350},{"name":"u","type":"string","value":"edU"},{"name":"no","type":"int","value":0},{"name":"zM","type":"int","value":31}],"gid":6,"width":54,"height":37},{"id":352,"x":921,"y":-613,"visible":true,"properties":[{"name":"layer","type":"int","value":0},{"name":"resource_index","type":"int","value":351},{"name":"u","type":"string","value":"edD"},{"name":"no","type":"int","value":0},{"name":"zM","type":"int","value":31}],"gid":7,"width":48,"height":17},{"id":353,"x":1006,"y":-629,"visible":true,"properties":[{"name":"layer","type":"int","value":0},{"name":"resource_index","type":"int","value":352},{"name":"u","type":"string","value":"edU"},{"name":"no","type":"int","value":1},{"name":"zM","type":"int","value":31}],"gid":12,"width":55,"height":38},{"id":354,"x":1011,"y":-613,"visible":true,"properties":[{"name":"layer","type":"int","value":0},{"name":"resource_index","type":"int","value":353},{"name":"u","type":"string","value":"edD"},{"name":"no","type":"int","value":0},{"name":"zM","type":"int","value":31}],"gid":7,"width":48,"height":17},{"id":355,"x":945,"y":-630,"visible":true,"properties":[{"name":"layer","type":"int","value":0},{"name":"resource_index","type":"int","value":354},{"name":"u","type":"string","value":"enH0"},{"name":"no","type":"int","value":0},{"name":"zM","type":"int","value":31}],"gid":9,"width":90,"height":38},{"id":356,"x":945,"y":-605,"visible":true,"properties":[{"name":"layer","type":"int","value":0},{"name":"resource_index","type":"int","value":355},{"name":"u","type":"string","value":"enH1"},{"name":"no","type":"int","value":0},{"name":"zM","type":"int","value":31}],"gid":8,"width":90,"height":25}],"properties":[]},{"id":8,"name":"layer_2_obj","type":"objectgroup","visible":true,"opacity":1,"draworder":"index","offsetx":0,"offsety":0,"parallaxx":1,"parallaxy":1,"objects":[{"id":405,"x":500,"y":-4,"visible":true,"properties":[{"name":"layer","type":"int","value":2},{"name":"resource_index","type":"int","value":0},{"name":"oS","type":"string","value":"connect"},{"name":"l0","type":"string","value":"ladder"},{"name":"l1","type":"string","value":"0"},{"name":"l2","type":"string","value":"1"},{"name":"z","type":"int","value":3},{"name":"zM","type":"int","value":9},{"name":"f","type":"int","value":0}],"gid":31,"width":54,"height":48},{"id":406,"x":499,"y":52,"visible":true,"properties":[{"name":"layer","type":"int","value":2},{"name":"resource_index","type":"int","value":1},{"name":"oS","type":"string","value":"connect"},{"name":"l0","type":"string","value":"ladder"},{"name":"l1","type":"string","value":"0"},{"name":"l2","type":"string","value":"2"},{"name":"z","type":"int","value":3},{"name":"zM","type":"int","value":5},{"name":"f","type":"int","value":0}],"gid":32,"width":53,"height":56},{"id":407,"x":500,"y":99,"visible":true,"properties":[{"name":"layer","type":"int","value":2},{"name":"resource_index","type":"int","value":2},{"name":"oS","type":"string","value":"connect"},{"name":"l0","type":"string","value":"ladder"},{"name":"l1","type":"string","value":"0"},{"name":"l2","type":"string","value":"1"},{"name":"z","type":"int","value":3},{"name":"zM","type":"int","value":5},{"name":"f","type":"int","value":0}],"gid":31,"width":54,"height":48},{"id":408,"x":503,"y":114,"visible":true,"properties":[{"name":"layer","type":"int","value":2},{"name":"resource_index","type":"int","value":3},{"name":"oS","type":"string","value":"connect"},{"name":"l0","type":"string","value":"ladder"},{"name":"l1","type":"string","value":"0"},{"name":"l2","type":"string","value":"3"},{"name":"z","type":"int","value":3},{"name":"zM","type":"int","value":3},{"name":"f","type":"int","value":0}],"gid":33,"width":47,"height":14},{"id":409,"x":501,"y":-51,"visible":true,"properties":[{"name":"layer","type":"int","value":2},{"name":"resource_index","type":"int","value":4},{"name":"oS","type":"string","value":"connect"},{"name":"l0","type":"string","value":"ladder"},{"name":"l1","type":"string","value":"0"},{"name":"l2","type":"string","value":"0"},{"name":"z","type":"int","value":2},{"name":"zM","type":"int","value":9},{"name":"f","type":"int","value":0}],"gid":30,"width":48,"height":23},{"id":410,"x":852,"y":-664,"visible":true,"properties":[{"name":"layer","type":"int","value":2},{"name":"resource_index","type":"int","value":5},{"name":"oS","type":"string","value":"connect"},{"name":"l0","type":"string","value":"ladder"},{"name":"l1","type":"string","value":"0"},{"name":"l2","type":"string","value":"1"},{"name":"z","type":"int","value":3},{"name":"zM","type":"int","value":38},{"name":"f","type":"int","value":0}],"gid":31,"width":54,"height":48},{"id":411,"x":851,"y":-608,"visible":true,"properties":[{"name":"layer","type":"int","value":2},{"name":"resource_index","type":"int","value":6},{"name":"oS","type":"string","value":"connect"},{"name":"l0","type":"string","value":"ladder"},{"name":"l1","type":"string","value":"0"},{"name":"l2","type":"string","value":"2"},{"name":"z","type":"int","value":3},{"name":"zM","type":"int","value":32},{"name":"f","type":"int","value":0}],"gid":32,"width":53,"height":56},{"id":412,"x":852,"y":-560,"visible":true,"properties":[{"name":"layer","type":"int","value":2},{"name":"resource_index","type":"int","value":7},{"name":"oS","type":"string","value":"connect"},{"name":"l0","type":"string","value":"ladder"},{"name":"l1","type":"string","value":"0"},{"name":"l2","type":"string","value":"1"},{"name":"z","type":"int","value":3},{"name":"zM","type":"int","value":29},{"name":"f","type":"int","value":0}],"gid":31,"width":54,"height":48},{"id":413,"x":851,"y":-504,"visible":true,"properties":[{"name":"layer","type":"int","value":2},{"name":"resource_index","type":"int","value":8},{"name":"oS","type":"string","value":"connect"},{"name":"l0","type":"string","value":"ladder"},{"name":"l1","type":"string","value":"0"},{"name":"l2","type":"string","value":"2"},{"name":"z","type":"int","value":3},{"name":"zM","type":"int","value":26},{"name":"f","type":"int","value":0}],"gid":32,"width":53,"height":56},{"id":414,"x":852,"y":-457,"visible":true,"properties":[{"name":"layer","type":"int","value":2},{"name":"resource_index","type":"int","value":9},{"name":"oS","type":"string","value":"connect"},{"name":"l0","type":"string","value":"ladder"},{"name":"l1","type":"string","value":"0"},{"name":"l2","type":"string","value":"1"},{"name":"z","type":"int","value":3},{"name":"zM","type":"int","value":26},{"name":"f","type":"int","value":0}],"gid":31,"width":54,"height":48},{"id":415,"x":855,"y":-444,"visible":true,"properties":[{"name":"layer","type":"int","value":2},{"name":"resource_index","type":"int","value":10},{"name":"oS","type":"string","value":"connect"},{"name":"l0","type":"string","value":"ladder"},{"name":"l1","type":"string","value":"0"},{"name":"l2","type":"string","value":"3"},{"name":"z","type":"int","value":3},{"name":"zM","type":"int","value":26},{"name":"f","type":"int","value":0}],"gid":33,"width":47,"height":14},{"id":416,"x":853,"y":-709,"visible":true,"properties":[{"name":"layer","type":"int","value":2},{"name":"resource_index","type":"int","value":11},{"name":"oS","type":"string","value":"connect"},{"name":"l0","type":"string","value":"ladder"},{"name":"l1","type":"string","value":"0"},{"name":"l2","type":"string","value":"0"},{"name":"z","type":"int","value":2},{"name":"zM","type":"int","value":38},{"name":"f","type":"int","value":0}],"gid":30,"width":48,"height":23},{"id":417,"x":1262,"y":-167,"visible":true,"properties":[{"name":"layer","type":"int","value":2},{"name":"resource_index","type":"int","value":12},{"name":"oS","type":"string","value":"connect"},{"name":"l0","type":"string","value":"rope"},{"name":"l1","type":"string","value":"0"},{"name":"l2","type":"string","value":"0"},{"name":"z","type":"int","value":3},{"name":"zM","type":"int","value":19},{"name":"f","type":"int","value":0}],"gid":26,"width":19,"height":49},{"id":418,"x":1265,"y":-47,"visible":true,"properties":[{"name":"layer","type":"int","value":2},{"name":"resource_index","type":"int","value":13},{"name":"oS","type":"string","value":"connect"},{"name":"l0","type":"string","value":"rope"},{"name":"l1","type":"string","value":"0"},{"name":"l2","type":"string","value":"3"},{"name":"z","type":"int","value":3},{"name":"zM","type":"int","value":12},{"name":"f","type":"int","value":0}],"gid":27,"width":5,"height":120},{"id":419,"x":1265,"y":73,"visible":true,"properties":[{"name":"layer","type":"int","value":2},{"name":"resource_index","type":"int","value":14},{"name":"oS","type":"string","value":"connect"},{"name":"l0","type":"string","value":"rope"},{"name":"l1","type":"string","value":"0"},{"name":"l2","type":"string","value":"3"},{"name":"z","type":"int","value":3},{"name":"zM","type":"int","value":4},{"name":"f","type":"int","value":0}],"gid":27,"width":5,"height":120},{"id":420,"x":1265,"y":102,"visible":true,"properties":[{"name":"layer","type":"int","value":2},{"name":"resource_index","type":"int","value":15},{"name":"oS","type":"string","value":"connect"},{"name":"l0","type":"string","value":"rope"},{"name":"l1","type":"string","value":"0"},{"name":"l2","type":"string","value":"1"},{"name":"z","type":"int","value":3},{"name":"zM","type":"int","value":4},{"name":"f","type":"int","value":0}],"gid":29,"width":5,"height":30},{"id":421,"x":1265,"y":132,"visible":true,"properties":[{"name":"layer","type":"int","value":2},{"name":"resource_index","type":"int","value":16},{"name":"oS","type":"string","value":"connect"},{"name":"l0","type":"string","value":"rope"},{"name":"l1","type":"string","value":"0"},{"name":"l2","type":"string","value":"1"},{"name":"z","type":"int","value":3},{"name":"zM","type":"int","value":2},{"name":"f","type":"int","value":0}],"gid":29,"width":5,"height":30},{"id":422,"x":1263,"y":162,"visible":true,"properties":[{"name":"layer","type":"int","value":2},{"name":"resource_index","type":"int","value":17},{"name":"oS","type":"string","value":"connect"},{"name":"l0","type":"string","value":"rope"},{"name":"l1","type":"string","value":"0"},{"name":"l2","type":"string","value":"2"},{"name":"z","type":"int","value":3},{"name":"zM","type":"int","value":1},{"name":"f","type":"int","value":0}],"gid":28,"width":11,"height":30},{"id":423,"x":1351,"y":-229,"visible":true,"properties":[{"name":"layer","type":"int","value":2},{"name":"resource_index","type":"int","value":18},{"name":"oS","type":"string","value":"connect"},{"name":"l0","type":"string","value":"rope"},{"name":"l1","type":"string","value":"0"},{"name":"l2","type":"string","value":"0"},{"name":"z","type":"int","value":3},{"name":"zM","type":"int","value":21},{"name":"f","type":"int","value":0}],"gid":26,"width":19,"height":49},{"id":424,"x":1354,"y":-109,"visible":true,"properties":[{"name":"layer","type":"int","value":2},{"name":"resource_index","type":"int","value":19},{"name":"oS","type":"string","value":"connect"},{"name":"l0","type":"string","value":"rope"},{"name":"l1","type":"string","value":"0"},{"name":"l2","type":"string","value":"3"},{"name":"z","type":"int","value":3},{"name":"zM","type":"int","value":16},{"name":"f","type":"int","value":0}],"gid":27,"width":5,"height":120},{"id":425,"x":1354,"y":11,"visible":true,"properties":[{"name":"layer","type":"int","value":2},{"name":"resource_index","type":"int","value":20},{"name":"oS","type":"string","value":"connect"},{"name":"l0","type":"string","value":"rope"},{"name":"l1","type":"string","value":"0"},{"name":"l2","type":"string","value":"3"},{"name":"z","type":"int","value":3},{"name":"zM","type":"int","value":7},{"name":"f","type":"int","value":0}],"gid":27,"width":5,"height":120},{"id":426,"x":1352,"y":41,"visible":true,"properties":[{"name":"layer","type":"int","value":2},{"name":"resource_index","type":"int","value":21},{"name":"oS","type":"string","value":"connect"},{"name":"l0","type":"string","value":"rope"},{"name":"l1","type":"string","value":"0"},{"name":"l2","type":"string","value":"2"},{"name":"z","type":"int","value":3},{"name":"zM","type":"int","value":6},{"name":"f","type":"int","value":0}],"gid":28,"width":11,"height":30},{"id":427,"x":1445,"y":-286,"visible":true,"properties":[{"name":"layer","type":"int","value":2},{"name":"resource_index","type":"int","value":22},{"name":"oS","type":"string","value":"connect"},{"name":"l0","type":"string","value":"rope"},{"name":"l1","type":"string","value":"0"},{"name":"l2","type":"string","value":"0"},{"name":"z","type":"int","value":3},{"name":"zM","type":"int","value":22},{"name":"f","type":"int","value":0}],"gid":26,"width":19,"height":49},{"id":428,"x":1448,"y":-166,"visible":true,"properties":[{"name":"layer","type":"int","value":2},{"name":"resource_index","type":"int","value":23},{"name":"oS","type":"string","value":"connect"},{"name":"l0","type":"string","value":"rope"},{"name":"l1","type":"string","value":"0"},{"name":"l2","type":"string","value":"3"},{"name":"z","type":"int","value":3},{"name":"zM","type":"int","value":18},{"name":"f","type":"int","value":0}],"gid":27,"width":5,"height":120},{"id":429,"x":1448,"y":-46,"visible":true,"properties":[{"name":"layer","type":"int","value":2},{"name":"resource_index","type":"int","value":24},{"name":"oS","type":"string","value":"connect"},{"name":"l0","type":"string","value":"rope"},{"name":"l1","type":"string","value":"0"},{"name":"l2","type":"string","value":"3"},{"name":"z","type":"int","value":3},{"name":"zM","type":"int","value":11},{"name":"f","type":"int","value":0}],"gid":27,"width":5,"height":120},{"id":430,"x":1446,"y":-16,"visible":true,"properties":[{"name":"layer","type":"int","value":2},{"name":"resource_index","type":"int","value":25},{"name":"oS","type":"string","value":"connect"},{"name":"l0","type":"string","value":"rope"},{"name":"l1","type":"string","value":"0"},{"name":"l2","type":"string","value":"2"},{"name":"z","type":"int","value":3},{"name":"zM","type":"int","value":10},{"name":"f","type":"int","value":0}],"gid":28,"width":11,"height":30},{"id":431,"x":1542,"y":-329,"visible":true,"properties":[{"name":"layer","type":"int","value":2},{"name":"resource_index","type":"int","value":26},{"name":"oS","type":"string","value":"connect"},{"name":"l0","type":"string","value":"rope"},{"name":"l1","type":"string","value":"0"},{"name":"l2","type":"string","value":"0"},{"name":"z","type":"int","value":3},{"name":"zM","type":"int","value":24},{"name":"f","type":"int","value":0}],"gid":26,"width":19,"height":49},{"id":432,"x":1545,"y":-209,"visible":true,"properties":[{"name":"layer","type":"int","value":2},{"name":"resource_index","type":"int","value":27},{"name":"oS","type":"string","value":"connect"},{"name":"l0","type":"string","value":"rope"},{"name":"l1","type":"string","value":"0"},{"name":"l2","type":"string","value":"3"},{"name":"z","type":"int","value":3},{"name":"zM","type":"int","value":20},{"name":"f","type":"int","value":0}],"gid":27,"width":5,"height":120},{"id":433,"x":1545,"y":-89,"visible":true,"properties":[{"name":"layer","type":"int","value":2},{"name":"resource_index","type":"int","value":28},{"name":"oS","type":"string","value":"connect"},{"name":"l0","type":"string","value":"rope"},{"name":"l1","type":"string","value":"0"},{"name":"l2","type":"string","value":"3"},{"name":"z","type":"int","value":3},{"name":"zM","type":"int","value":15},{"name":"f","type":"int","value":0}],"gid":27,"width":5,"height":120},{"id":434,"x":1543,"y":-59,"visible":true,"properties":[{"name":"layer","type":"int","value":2},{"name":"resource_index","type":"int","value":29},{"name":"oS","type":"string","value":"connect"},{"name":"l0","type":"string","value":"rope"},{"name":"l1","type":"string","value":"0"},{"name":"l2","type":"string","value":"2"},{"name":"z","type":"int","value":3},{"name":"zM","type":"int","value":13},{"name":"f","type":"int","value":0}],"gid":28,"width":11,"height":30},{"id":435,"x":518,"y":-829,"visible":true,"properties":[{"name":"layer","type":"int","value":2},{"name":"resource_index","type":"int","value":30},{"name":"oS","type":"string","value":"connect"},{"name":"l0","type":"string","value":"ladder"},{"name":"l1","type":"string","value":"0"},{"name":"l2","type":"string","value":"0"},{"name":"z","type":"int","value":3},{"name":"zM","type":"int","value":41},{"name":"f","type":"int","value":0}],"gid":30,"width":48,"height":23},{"id":436,"x":517,"y":-782,"visible":true,"properties":[{"name":"layer","type":"int","value":2},{"name":"resource_index","type":"int","value":31},{"name":"oS","type":"string","value":"connect"},{"name":"l0","type":"string","value":"ladder"},{"name":"l1","type":"string","value":"0"},{"name":"l2","type":"string","value":"1"},{"name":"z","type":"int","value":3},{"name":"zM","type":"int","value":41},{"name":"f","type":"int","value":0}],"gid":31,"width":54,"height":48},{"id":437,"x":516,"y":-726,"visible":true,"properties":[{"name":"layer","type":"int","value":2},{"name":"resource_index","type":"int","value":32},{"name":"oS","type":"string","value":"connect"},{"name":"l0","type":"string","value":"ladder"},{"name":"l1","type":"string","value":"0"},{"name":"l2","type":"string","value":"2"},{"name":"z","type":"int","value":3},{"name":"zM","type":"int","value":35},{"name":"f","type":"int","value":0}],"gid":32,"width":53,"height":56},{"id":438,"x":517,"y":-681,"visible":true,"properties":[{"name":"layer","type":"int","value":2},{"name":"resource_index","type":"int","value":33},{"name":"oS","type":"string","value":"connect"},{"name":"l0","type":"string","value":"ladder"},{"name":"l1","type":"string","value":"0"},{"name":"l2","type":"string","value":"1"},{"name":"z","type":"int","value":3},{"name":"zM","type":"int","value":35},{"name":"f","type":"int","value":0}],"gid":31,"width":54,"height":48},{"id":439,"x":516,"y":-626,"visible":true,"properties":[{"name":"layer","type":"int","value":2},{"name":"resource_index","type":"int","value":34},{"name":"oS","type":"string","value":"connect"},{"name":"l0","type":"string","value":"ladder"},{"name":"l1","type":"string","value":"0"},{"name":"l2","type":"string","value":"2"},{"name":"z","type":"int","value":3},{"name":"zM","type":"int","value":35},{"name":"f","type":"int","value":0}],"gid":32,"width":53,"height":56},{"id":440,"x":520,"y":-612,"visible":true,"properties":[{"name":"layer","type":"int","value":2},{"name":"resource_index","type":"int","value":35},{"name":"oS","type":"string","value":"connect"},{"name":"l0","type":"string","value":"ladder"},{"name":"l1","type":"string","value":"0"},{"name":"l2","type":"string","value":"3"},{"name":"z","type":"int","value":3},{"name":"zM","type":"int","value":33},{"name":"f","type":"int","value":0}],"gid":33,"width":47,"height":14},{"id":441,"x":1256,"y":-648,"visible":true,"properties":[{"name":"layer","type":"int","value":2},{"name":"resource_index","type":"int","value":36},{"name":"oS","type":"string","value":"connect"},{"name":"l0","type":"string","value":"ladder"},{"name":"l1","type":"string","value":"0"},{"name":"l2","type":"string","value":"0"},{"name":"z","type":"int","value":3},{"name":"zM","type":"int","value":28},{"name":"f","type":"int","value":0}],"gid":30,"width":48,"height":23},{"id":442,"x":1255,"y":-601,"visible":true,"properties":[{"name":"layer","type":"int","value":2},{"name":"resource_index","type":"int","value":37},{"name":"oS","type":"string","value":"connect"},{"name":"l0","type":"string","value":"ladder"},{"name":"l1","type":"string","value":"0"},{"name":"l2","type":"string","value":"1"},{"name":"z","type":"int","value":3},{"name":"zM","type":"int","value":28},{"name":"f","type":"int","value":0}],"gid":31,"width":54,"height":48},{"id":443,"x":1254,"y":-546,"visible":true,"properties":[{"name":"layer","type":"int","value":2},{"name":"resource_index","type":"int","value":38},{"name":"oS","type":"string","value":"connect"},{"name":"l0","type":"string","value":"ladder"},{"name":"l1","type":"string","value":"0"},{"name":"l2","type":"string","value":"2"},{"name":"z","type":"int","value":3},{"name":"zM","type":"int","value":28},{"name":"f","type":"int","value":0}],"gid":32,"width":53,"height":56},{"id":444,"x":1255,"y":-498,"visible":true,"properties":[{"name":"layer","type":"int","value":2},{"name":"resource_index","type":"int","value":39},{"name":"oS","type":"string","value":"connect"},{"name":"l0","type":"string","value":"ladder"},{"name":"l1","type":"string","value":"0"},{"name":"l2","type":"string","value":"1"},{"name":"z","type":"int","value":3},{"name":"zM","type":"int","value":25},{"name":"f","type":"int","value":0}],"gid":31,"width":54,"height":48},{"id":445,"x":1254,"y":-443,"visible":true,"properties":[{"name":"layer","type":"int","value":2},{"name":"resource_index","type":"int","value":40},{"name":"oS","type":"string","value":"connect"},{"name":"l0","type":"string","value":"ladder"},{"name":"l1","type":"string","value":"0"},{"name":"l2","type":"string","value":"2"},{"name":"z","type":"int","value":3},{"name":"zM","type":"int","value":25},{"name":"f","type":"int","value":0}],"gid":32,"width":53,"height":56},{"id":446,"x":1258,"y":-431,"visible":true,"properties":[{"name":"layer","type":"int","value":2},{"name":"resource_index","type":"int","value":41},{"name":"oS","type":"string","value":"connect"},{"name":"l0","type":"string","value":"ladder"},{"name":"l1","type":"string","value":"0"},{"name":"l2","type":"string","value":"3"},{"name":"z","type":"int","value":3},{"name":"zM","type":"int","value":25},{"name":"f","type":"int","value":0}],"gid":33,"width":47,"height":14}],"properties":[]},{"id":9,"name":"portal","type":"objectgroup","visible":true,"opacity":1,"draworder":"index","offsetx":0,"offsety":0,"parallaxx":1,"parallaxy":1,"objects":[{"id":447,"x":1133,"y":105,"visible":true,"properties":[{"name":"x","type":"int","value":1133},{"name":"y","type":"int","value":105},{"name":"pn","type":"string","value":"sp"},{"name":"pt","type":"int","value":0},{"name":"tm","type":"int","value":999999999},{"name":"tn","type":"string","value":""}],"point":true},{"id":448,"x":1201,"y":103,"visible":true,"properties":[{"name":"x","type":"int","value":1201},{"name":"y","type":"int","value":103},{"name":"pn","type":"string","value":"sp"},{"name":"pt","type":"int","value":0},{"name":"tm","type":"int","value":999999999},{"name":"tn","type":"string","value":""}],"point":true},{"id":449,"x":1327,"y":105,"visible":true,"properties":[{"name":"x","type":"int","value":1327},{"name":"y","type":"int","value":105},{"name":"pn","type":"string","value":"sp"},{"name":"pt","type":"int","value":0},{"name":"tm","type":"int","value":999999999},{"name":"tn","type":"string","value":""}],"point":true},{"id":450,"x":1406,"y":101,"visible":true,"properties":[{"name":"x","type":"int","value":1406},{"name":"y","type":"int","value":101},{"name":"pn","type":"string","value":"sp"},{"name":"pt","type":"int","value":0},{"name":"tm","type":"int","value":999999999},{"name":"tn","type":"string","value":""}],"point":true},{"id":451,"x":1472,"y":112,"visible":true,"properties":[{"name":"x","type":"int","value":1472},{"name":"y","type":"int","value":112},{"name":"pn","type":"string","value":"sp"},{"name":"pt","type":"int","value":0},{"name":"tm","type":"int","value":999999999},{"name":"tn","type":"string","value":""}],"point":true},{"id":452,"x":1670,"y":108,"visible":true,"properties":[{"name":"x","type":"int","value":1670},{"name":"y","type":"int","value":108},{"name":"pn","type":"string","value":"sp"},{"name":"pt","type":"int","value":0},{"name":"tm","type":"int","value":999999999},{"name":"tn","type":"string","value":""}],"point":true},{"id":453,"x":1742,"y":105,"visible":true,"properties":[{"name":"x","type":"int","value":1742},{"name":"y","type":"int","value":105},{"name":"pn","type":"string","value":"sp"},{"name":"pt","type":"int","value":0},{"name":"tm","type":"int","value":999999999},{"name":"tn","type":"string","value":""}],"point":true},{"id":454,"x":1308,"y":-1065,"visible":true,"properties":[{"name":"x","type":"int","value":1352},{"name":"y","type":"int","value":-1074},{"name":"pn","type":"string","value":"in00"},{"name":"pt","type":"int","value":2},{"name":"tm","type":"int","value":103030200},{"name":"tn","type":"string","value":"out00"}],"gid":81,"width":89,"height":257},{"id":455,"x":1538,"y":192,"visible":true,"properties":[{"name":"x","type":"int","value":1582},{"name":"y","type":"int","value":183},{"name":"pn","type":"string","value":"out00"},{"name":"pt","type":"int","value":2},{"name":"tm","type":"int","value":103030000},{"name":"tn","type":"string","value":"in00"}],"gid":81,"width":89,"height":257}],"properties":[]},{"id":10,"name":"life","type":"objectgroup","visible":true,"opacity":1,"draworder":"index","offsetx":0,"offsety":0,"parallaxx":1,"parallaxy":1,"objects":[{"id":456,"x":204,"y":184,"visible":true,"properties":[{"name":"f","type":"int","value":0},{"name":"x","type":"int","value":204},{"name":"y","type":"int","value":184},{"name":"cy","type":"int","value":259},{"name":"fh","type":"int","value":106},{"name":"id","type":"int","value":1110100},{"name":"rx0","type":"int","value":26},{"name":"rx1","type":"int","value":2314},{"name":"hide","type":"int","value":0},{"name":"type","type":"string","value":"m"},{"name":"mobTime","type":"int","value":0}],"point":true},{"id":457,"x":465,"y":118,"visible":true,"properties":[{"name":"f","type":"int","value":0},{"name":"x","type":"int","value":465},{"name":"y","type":"int","value":118},{"name":"cy","type":"int","value":185},{"name":"fh","type":"int","value":101},{"name":"id","type":"int","value":1110100},{"name":"rx0","type":"int","value":26},{"name":"rx1","type":"int","value":2314},{"name":"hide","type":"int","value":0},{"name":"type","type":"string","value":"m"},{"name":"mobTime","type":"int","value":0}],"point":true},{"id":458,"x":673,"y":104,"visible":true,"properties":[{"name":"f","type":"int","value":0},{"name":"x","type":"int","value":673},{"name":"y","type":"int","value":104},{"name":"cy","type":"int","value":185},{"name":"fh","type":"int","value":92},{"name":"id","type":"int","value":1110100},{"name":"rx0","type":"int","value":26},{"name":"rx1","type":"int","value":2314},{"name":"hide","type":"int","value":0},{"name":"type","type":"string","value":"m"},{"name":"mobTime","type":"int","value":0}],"point":true},{"id":459,"x":849,"y":127,"visible":true,"properties":[{"name":"f","type":"int","value":0},{"name":"x","type":"int","value":849},{"name":"y","type":"int","value":127},{"name":"cy","type":"int","value":185},{"name":"fh","type":"int","value":98},{"name":"id","type":"int","value":1110100},{"name":"rx0","type":"int","value":26},{"name":"rx1","type":"int","value":2314},{"name":"hide","type":"int","value":0},{"name":"type","type":"string","value":"m"},{"name":"mobTime","type":"int","value":0}],"point":true},{"id":460,"x":982,"y":137,"visible":true,"properties":[{"name":"f","type":"int","value":0},{"name":"x","type":"int","value":982},{"name":"y","type":"int","value":137},{"name":"cy","type":"int","value":185},{"name":"fh","type":"int","value":94},{"name":"id","type":"int","value":1110100},{"name":"rx0","type":"int","value":26},{"name":"rx1","type":"int","value":2314},{"name":"hide","type":"int","value":0},{"name":"type","type":"string","value":"m"},{"name":"mobTime","type":"int","value":0}],"point":true},{"id":461,"x":1193,"y":146,"visible":true,"properties":[{"name":"f","type":"int","value":0},{"name":"x","type":"int","value":1193},{"name":"y","type":"int","value":146},{"name":"cy","type":"int","value":185},{"name":"fh","type":"int","value":96},{"name":"id","type":"int","value":1110100},{"name":"rx0","type":"int","value":26},{"name":"rx1","type":"int","value":2314},{"name":"hide","type":"int","value":0},{"name":"type","type":"string","value":"m"},{"name":"mobTime","type":"int","value":0}],"point":true},{"id":462,"x":1923,"y":148,"visible":true,"properties":[{"name":"f","type":"int","value":0},{"name":"x","type":"int","value":1923},{"name":"y","type":"int","value":148},{"name":"cy","type":"int","value":185},{"name":"fh","type":"int","value":85},{"name":"id","type":"int","value":1110100},{"name":"rx0","type":"int","value":26},{"name":"rx1","type":"int","value":2314},{"name":"hide","type":"int","value":0},{"name":"type","type":"string","value":"m"},{"name":"mobTime","type":"int","value":0}],"point":true},{"id":463,"x":2070,"y":171,"visible":true,"properties":[{"name":"f","type":"int","value":0},{"name":"x","type":"int","value":2070},{"name":"y","type":"int","value":171},{"name":"cy","type":"int","value":215},{"name":"fh","type":"int","value":100},{"name":"id","type":"int","value":1110100},{"name":"rx0","type":"int","value":26},{"name":"rx1","type":"int","value":2314},{"name":"hide","type":"int","value":0},{"name":"type","type":"string","value":"m"},{"name":"mobTime","type":"int","value":0}],"point":true},{"id":464,"x":2176,"y":230,"visible":true,"properties":[{"name":"f","type":"int","value":0},{"name":"x","type":"int","value":2176},{"name":"y","type":"int","value":230},{"name":"cy","type":"int","value":285},{"name":"fh","type":"int","value":80},{"name":"id","type":"int","value":1110100},{"name":"rx0","type":"int","value":26},{"name":"rx1","type":"int","value":2314},{"name":"hide","type":"int","value":0},{"name":"type","type":"string","value":"m"},{"name":"mobTime","type":"int","value":0}],"point":true},{"id":465,"x":914,"y":-263,"visible":true,"properties":[{"name":"f","type":"int","value":0},{"name":"x","type":"int","value":914},{"name":"y","type":"int","value":-263},{"name":"cy","type":"int","value":-214},{"name":"fh","type":"int","value":33},{"name":"id","type":"int","value":1110100},{"name":"rx0","type":"int","value":836},{"name":"rx1","type":"int","value":2044},{"name":"hide","type":"int","value":0},{"name":"type","type":"string","value":"m"},{"name":"mobTime","type":"int","value":0}],"point":true},{"id":466,"x":1134,"y":-381,"visible":true,"properties":[{"name":"f","type":"int","value":0},{"name":"x","type":"int","value":1134},{"name":"y","type":"int","value":-381},{"name":"cy","type":"int","value":-355},{"name":"fh","type":"int","value":43},{"name":"id","type":"int","value":1110100},{"name":"rx0","type":"int","value":836},{"name":"rx1","type":"int","value":2044},{"name":"hide","type":"int","value":0},{"name":"type","type":"string","value":"m"},{"name":"mobTime","type":"int","value":0}],"point":true},{"id":467,"x":1341,"y":-369,"visible":true,"properties":[{"name":"f","type":"int","value":0},{"name":"x","type":"int","value":1341},{"name":"y","type":"int","value":-369},{"name":"cy","type":"int","value":-355},{"name":"fh","type":"int","value":44},{"name":"id","type":"int","value":1110100},{"name":"rx0","type":"int","value":836},{"name":"rx1","type":"int","value":2044},{"name":"hide","type":"int","value":0},{"name":"type","type":"string","value":"m"},{"name":"mobTime","type":"int","value":0}],"point":true},{"id":468,"x":1540,"y":-405,"visible":true,"properties":[{"name":"f","type":"int","value":0},{"name":"x","type":"int","value":1540},{"name":"y","type":"int","value":-405},{"name":"cy","type":"int","value":-355},{"name":"fh","type":"int","value":40},{"name":"id","type":"int","value":1110100},{"name":"rx0","type":"int","value":836},{"name":"rx1","type":"int","value":2044},{"name":"hide","type":"int","value":0},{"name":"type","type":"string","value":"m"},{"name":"mobTime","type":"int","value":0}],"point":true},{"id":469,"x":1756,"y":-361,"visible":true,"properties":[{"name":"f","type":"int","value":0},{"name":"x","type":"int","value":1756},{"name":"y","type":"int","value":-361},{"name":"cy","type":"int","value":-355},{"name":"fh","type":"int","value":36},{"name":"id","type":"int","value":1110100},{"name":"rx0","type":"int","value":836},{"name":"rx1","type":"int","value":2044},{"name":"hide","type":"int","value":0},{"name":"type","type":"string","value":"m"},{"name":"mobTime","type":"int","value":0}],"point":true},{"id":470,"x":1898,"y":-352,"visible":true,"properties":[{"name":"f","type":"int","value":0},{"name":"x","type":"int","value":1898},{"name":"y","type":"int","value":-352},{"name":"cy","type":"int","value":-260},{"name":"fh","type":"int","value":32},{"name":"id","type":"int","value":1110100},{"name":"rx0","type":"int","value":836},{"name":"rx1","type":"int","value":2044},{"name":"hide","type":"int","value":0},{"name":"type","type":"string","value":"m"},{"name":"mobTime","type":"int","value":0}],"point":true},{"id":471,"x":391,"y":-599,"visible":true,"properties":[{"name":"f","type":"int","value":0},{"name":"x","type":"int","value":391},{"name":"y","type":"int","value":-599},{"name":"cy","type":"int","value":-535},{"name":"fh","type":"int","value":55},{"name":"id","type":"int","value":1110100},{"name":"rx0","type":"int","value":26},{"name":"rx1","type":"int","value":964},{"name":"hide","type":"int","value":0},{"name":"type","type":"string","value":"m"},{"name":"mobTime","type":"int","value":0}],"point":true},{"id":472,"x":604,"y":-556,"visible":true,"properties":[{"name":"f","type":"int","value":0},{"name":"x","type":"int","value":604},{"name":"y","type":"int","value":-556},{"name":"cy","type":"int","value":-535},{"name":"fh","type":"int","value":57},{"name":"id","type":"int","value":1110100},{"name":"rx0","type":"int","value":26},{"name":"rx1","type":"int","value":964},{"name":"hide","type":"int","value":0},{"name":"type","type":"string","value":"m"},{"name":"mobTime","type":"int","value":0}],"point":true},{"id":473,"x":152,"y":-514,"visible":true,"properties":[{"name":"f","type":"int","value":0},{"name":"x","type":"int","value":152},{"name":"y","type":"int","value":-514},{"name":"cy","type":"int","value":-426},{"name":"fh","type":"int","value":56},{"name":"id","type":"int","value":1210103},{"name":"rx0","type":"int","value":26},{"name":"rx1","type":"int","value":964},{"name":"hide","type":"int","value":0},{"name":"type","type":"string","value":"m"},{"name":"mobTime","type":"int","value":0}],"point":true},{"id":474,"x":764,"y":-505,"visible":true,"properties":[{"name":"f","type":"int","value":0},{"name":"x","type":"int","value":764},{"name":"y","type":"int","value":-505},{"name":"cy","type":"int","value":-476},{"name":"fh","type":"int","value":60},{"name":"id","type":"int","value":1210103},{"name":"rx0","type":"int","value":26},{"name":"rx1","type":"int","value":964},{"name":"hide","type":"int","value":0},{"name":"type","type":"string","value":"m"},{"name":"mobTime","type":"int","value":0}],"point":true},{"id":475,"x":1113,"y":-385,"visible":true,"properties":[{"name":"f","type":"int","value":0},{"name":"x","type":"int","value":1113},{"name":"y","type":"int","value":-385},{"name":"cy","type":"int","value":-347},{"name":"fh","type":"int","value":46},{"name":"id","type":"int","value":1210103},{"name":"rx0","type":"int","value":836},{"name":"rx1","type":"int","value":2044},{"name":"hide","type":"int","value":0},{"name":"type","type":"string","value":"m"},{"name":"mobTime","type":"int","value":0}],"point":true},{"id":476,"x":1467,"y":-424,"visible":true,"properties":[{"name":"f","type":"int","value":0},{"name":"x","type":"int","value":1467},{"name":"y","type":"int","value":-424},{"name":"cy","type":"int","value":-355},{"name":"fh","type":"int","value":41},{"name":"id","type":"int","value":1210103},{"name":"rx0","type":"int","value":836},{"name":"rx1","type":"int","value":2044},{"name":"hide","type":"int","value":0},{"name":"type","type":"string","value":"m"},{"name":"mobTime","type":"int","value":0}],"point":true},{"id":477,"x":1791,"y":-449,"visible":true,"properties":[{"name":"f","type":"int","value":0},{"name":"x","type":"int","value":1791},{"name":"y","type":"int","value":-449},{"name":"cy","type":"int","value":-331},{"name":"fh","type":"int","value":36},{"name":"id","type":"int","value":1210103},{"name":"rx0","type":"int","value":836},{"name":"rx1","type":"int","value":2044},{"name":"hide","type":"int","value":0},{"name":"type","type":"string","value":"m"},{"name":"mobTime","type":"int","value":0}],"point":true},{"id":478,"x":1623,"y":-850,"visible":true,"properties":[{"name":"f","type":"int","value":0},{"name":"x","type":"int","value":1623},{"name":"y","type":"int","value":-850},{"name":"cy","type":"int","value":-807},{"name":"fh","type":"int","value":29},{"name":"id","type":"int","value":1210103},{"name":"rx0","type":"int","value":1556},{"name":"rx1","type":"int","value":2314},{"name":"hide","type":"int","value":0},{"name":"type","type":"string","value":"m"},{"name":"mobTime","type":"int","value":0}],"point":true},{"id":479,"x":1809,"y":-925,"visible":true,"properties":[{"name":"f","type":"int","value":0},{"name":"x","type":"int","value":1809},{"name":"y","type":"int","value":-925},{"name":"cy","type":"int","value":-895},{"name":"fh","type":"int","value":65},{"name":"id","type":"int","value":1210103},{"name":"rx0","type":"int","value":1556},{"name":"rx1","type":"int","value":2314},{"name":"hide","type":"int","value":0},{"name":"type","type":"string","value":"m"},{"name":"mobTime","type":"int","value":0}],"point":true},{"id":480,"x":1970,"y":-957,"visible":true,"properties":[{"name":"f","type":"int","value":0},{"name":"x","type":"int","value":1970},{"name":"y","type":"int","value":-957},{"name":"cy","type":"int","value":-895},{"name":"fh","type":"int","value":64},{"name":"id","type":"int","value":1210103},{"name":"rx0","type":"int","value":1556},{"name":"rx1","type":"int","value":2314},{"name":"hide","type":"int","value":0},{"name":"type","type":"string","value":"m"},{"name":"mobTime","type":"int","value":0}],"point":true},{"id":481,"x":2091,"y":-912,"visible":true,"properties":[{"name":"f","type":"int","value":0},{"name":"x","type":"int","value":2091},{"name":"y","type":"int","value":-912},{"name":"cy","type":"int","value":-895},{"name":"fh","type":"int","value":63},{"name":"id","type":"int","value":1210103},{"name":"rx0","type":"int","value":1556},{"name":"rx1","type":"int","value":2314},{"name":"hide","type":"int","value":0},{"name":"type","type":"string","value":"m"},{"name":"mobTime","type":"int","value":0}],"point":true},{"id":482,"x":2234,"y":-870,"visible":true,"properties":[{"name":"f","type":"int","value":0},{"name":"x","type":"int","value":2234},{"name":"y","type":"int","value":-870},{"name":"cy","type":"int","value":-816},{"name":"fh","type":"int","value":78},{"name":"id","type":"int","value":1210103},{"name":"rx0","type":"int","value":1556},{"name":"rx1","type":"int","value":2314},{"name":"hide","type":"int","value":0},{"name":"type","type":"string","value":"m"},{"name":"mobTime","type":"int","value":0}],"point":true},{"id":483,"x":1281,"y":-1128,"visible":true,"properties":[{"name":"f","type":"int","value":0},{"name":"x","type":"int","value":1281},{"name":"y","type":"int","value":-1128},{"name":"cy","type":"int","value":-1075},{"name":"fh","type":"int","value":15},{"name":"id","type":"int","value":1210103},{"name":"rx0","type":"int","value":476},{"name":"rx1","type":"int","value":1684},{"name":"hide","type":"int","value":0},{"name":"type","type":"string","value":"m"},{"name":"mobTime","type":"int","value":0}],"point":true},{"id":484,"x":1049,"y":-1152,"visible":true,"properties":[{"name":"f","type":"int","value":0},{"name":"x","type":"int","value":1049},{"name":"y","type":"int","value":-1152},{"name":"cy","type":"int","value":-1075},{"name":"fh","type":"int","value":71},{"name":"id","type":"int","value":1210103},{"name":"rx0","type":"int","value":476},{"name":"rx1","type":"int","value":1684},{"name":"hide","type":"int","value":0},{"name":"type","type":"string","value":"m"},{"name":"mobTime","type":"int","value":0}],"point":true},{"id":485,"x":893,"y":-1098,"visible":true,"properties":[{"name":"f","type":"int","value":0},{"name":"x","type":"int","value":893},{"name":"y","type":"int","value":-1098},{"name":"cy","type":"int","value":-1075},{"name":"fh","type":"int","value":75},{"name":"id","type":"int","value":1210103},{"name":"rx0","type":"int","value":476},{"name":"rx1","type":"int","value":1684},{"name":"hide","type":"int","value":0},{"name":"type","type":"string","value":"m"},{"name":"mobTime","type":"int","value":0}],"point":true},{"id":486,"x":770,"y":-1134,"visible":true,"properties":[{"name":"f","type":"int","value":0},{"name":"x","type":"int","value":770},{"name":"y","type":"int","value":-1134},{"name":"cy","type":"int","value":-1075},{"name":"fh","type":"int","value":70},{"name":"id","type":"int","value":1210103},{"name":"rx0","type":"int","value":476},{"name":"rx1","type":"int","value":1684},{"name":"hide","type":"int","value":0},{"name":"type","type":"string","value":"m"},{"name":"mobTime","type":"int","value":0}],"point":true},{"id":487,"x":631,"y":-1109,"visible":true,"properties":[{"name":"f","type":"int","value":0},{"name":"x","type":"int","value":631},{"name":"y","type":"int","value":-1109},{"name":"cy","type":"int","value":-1045},{"name":"fh","type":"int","value":16},{"name":"id","type":"int","value":1210103},{"name":"rx0","type":"int","value":476},{"name":"rx1","type":"int","value":1684},{"name":"hide","type":"int","value":0},{"name":"type","type":"string","value":"m"},{"name":"mobTime","type":"int","value":0}],"point":true},{"id":488,"x":849,"y":-1118,"visible":true,"properties":[{"name":"f","type":"int","value":0},{"name":"x","type":"int","value":849},{"name":"y","type":"int","value":-1118},{"name":"cy","type":"int","value":-1075},{"name":"fh","type":"int","value":70},{"name":"id","type":"int","value":1210103},{"name":"rx0","type":"int","value":476},{"name":"rx1","type":"int","value":1684},{"name":"hide","type":"int","value":0},{"name":"type","type":"string","value":"m"},{"name":"mobTime","type":"int","value":0}],"point":true}],"properties":[]},{"id":11,"name":"foothold","type":"objectgroup","visible":true,"opacity":1,"draworder":"index","offsetx":0,"offsety":0,"parallaxx":1,"parallaxy":1,"objects":[{"id":489,"x":2115,"y":245,"visible":true,"properties":[{"name":"layer","type":"int","value":0},{"name":"group","type":"int","value":0},{"name":"id","type":"int","value":80},{"name":"fh_layer","type":"int","value":0},{"name":"fh_group","type":"int","value":0},{"name":"fh_id","type":"int","value":80},{"name":"x1","type":"int","value":2115},{"name":"x2","type":"int","value":2205},{"name":"y1","type":"int","value":245},{"name":"y2","type":"int","value":305},{"name":"next","type":"int","value":82},{"name":"prev","type":"int","value":100}],"polyline":[{"x":0,"y":0},{"x":90,"y":60}]},{"id":490,"x":1935,"y":185,"visible":true,"properties":[{"name":"layer","type":"int","value":0},{"name":"group","type":"int","value":0},{"name":"id","type":"int","value":81},{"name":"fh_layer","type":"int","value":0},{"name":"fh_group","type":"int","value":0},{"name":"fh_id","type":"int","value":81},{"name":"x1","type":"int","value":1935},{"name":"x2","type":"int","value":2025},{"name":"y1","type":"int","value":185},{"name":"y2","type":"int","value":185},{"name":"next","type":"int","value":100},{"name":"prev","type":"int","value":85}],"polyline":[{"x":0,"y":0},{"x":90,"y":0}]},{"id":491,"x":2205,"y":305,"visible":true,"properties":[{"name":"layer","type":"int","value":0},{"name":"group","type":"int","value":0},{"name":"id","type":"int","value":82},{"name":"fh_layer","type":"int","value":0},{"name":"fh_group","type":"int","value":0},{"name":"fh_id","type":"int","value":82},{"name":"x1","type":"int","value":2205},{"name":"x2","type":"int","value":2295},{"name":"y1","type":"int","value":305},{"name":"y2","type":"int","value":365},{"name":"next","type":"int","value":83},{"name":"prev","type":"int","value":80}],"polyline":[{"x":0,"y":0},{"x":90,"y":60}]},{"id":492,"x":2295,"y":365,"visible":true,"properties":[{"name":"layer","type":"int","value":0},{"name":"group","type":"int","value":0},{"name":"id","type":"int","value":83},{"name":"fh_layer","type":"int","value":0},{"name":"fh_group","type":"int","value":0},{"name":"fh_id","type":"int","value":83},{"name":"x1","type":"int","value":2295},{"name":"x2","type":"int","value":2334},{"name":"y1","type":"int","value":365},{"name":"y2","type":"int","value":365},{"name":"next","type":"int","value":84},{"name":"prev","type":"int","value":82}],"polyline":[{"x":0,"y":0},{"x":39,"y":0}]},{"id":493,"x":2334,"y":365,"visible":true,"properties":[{"name":"layer","type":"int","value":0},{"name":"group","type":"int","value":0},{"name":"id","type":"int","value":84},{"name":"fh_layer","type":"int","value":0},{"name":"fh_group","type":"int","value":0},{"name":"fh_id","type":"int","value":84},{"name":"x1","type":"int","value":2334},{"name":"x2","type":"int","value":2334},{"name":"y1","type":"int","value":365},{"name":"y2","type":"int","value":390},{"name":"next","type":"int","value":0},{"name":"prev","type":"int","value":83}],"polyline":[{"x":0,"y":0},{"x":0,"y":25}]},{"id":494,"x":1845,"y":185,"visible":true,"properties":[{"name":"layer","type":"int","value":0},{"name":"group","type":"int","value":0},{"name":"id","type":"int","value":85},{"name":"fh_layer","type":"int","value":0},{"name":"fh_group","type":"int","value":0},{"name":"fh_id","type":"int","value":85},{"name":"x1","type":"int","value":1845},{"name":"x2","type":"int","value":1935},{"name":"y1","type":"int","value":185},{"name":"y2","type":"int","value":185},{"name":"next","type":"int","value":81},{"name":"prev","type":"int","value":86}],"polyline":[{"x":0,"y":0},{"x":90,"y":0}]},{"id":495,"x":1755,"y":185,"visible":true,"properties":[{"name":"layer","type":"int","value":0},{"name":"group","type":"int","value":0},{"name":"id","type":"int","value":86},{"name":"fh_layer","type":"int","value":0},{"name":"fh_group","type":"int","value":0},{"name":"fh_id","type":"int","value":86},{"name":"x1","type":"int","value":1755},{"name":"x2","type":"int","value":1845},{"name":"y1","type":"int","value":185},{"name":"y2","type":"int","value":185},{"name":"next","type":"int","value":85},{"name":"prev","type":"int","value":87}],"polyline":[{"x":0,"y":0},{"x":90,"y":0}]},{"id":496,"x":1665,"y":185,"visible":true,"properties":[{"name":"layer","type":"int","value":0},{"name":"group","type":"int","value":0},{"name":"id","type":"int","value":87},{"name":"fh_layer","type":"int","value":0},{"name":"fh_group","type":"int","value":0},{"name":"fh_id","type":"int","value":87},{"name":"x1","type":"int","value":1665},{"name":"x2","type":"int","value":1755},{"name":"y1","type":"int","value":185},{"name":"y2","type":"int","value":185},{"name":"next","type":"int","value":86},{"name":"prev","type":"int","value":88}],"polyline":[{"x":0,"y":0},{"x":90,"y":0}]},{"id":497,"x":1575,"y":185,"visible":true,"properties":[{"name":"layer","type":"int","value":0},{"name":"group","type":"int","value":0},{"name":"id","type":"int","value":88},{"name":"fh_layer","type":"int","value":0},{"name":"fh_group","type":"int","value":0},{"name":"fh_id","type":"int","value":88},{"name":"x1","type":"int","value":1575},{"name":"x2","type":"int","value":1665},{"name":"y1","type":"int","value":185},{"name":"y2","type":"int","value":185},{"name":"next","type":"int","value":87},{"name":"prev","type":"int","value":90}],"polyline":[{"x":0,"y":0},{"x":90,"y":0}]},{"id":498,"x":1305,"y":185,"visible":true,"properties":[{"name":"layer","type":"int","value":0},{"name":"group","type":"int","value":0},{"name":"id","type":"int","value":89},{"name":"fh_layer","type":"int","value":0},{"name":"fh_group","type":"int","value":0},{"name":"fh_id","type":"int","value":89},{"name":"x1","type":"int","value":1305},{"name":"x2","type":"int","value":1395},{"name":"y1","type":"int","value":185},{"name":"y2","type":"int","value":185},{"name":"next","type":"int","value":91},{"name":"prev","type":"int","value":97}],"polyline":[{"x":0,"y":0},{"x":90,"y":0}]},{"id":499,"x":1485,"y":185,"visible":true,"properties":[{"name":"layer","type":"int","value":0},{"name":"group","type":"int","value":0},{"name":"id","type":"int","value":90},{"name":"fh_layer","type":"int","value":0},{"name":"fh_group","type":"int","value":0},{"name":"fh_id","type":"int","value":90},{"name":"x1","type":"int","value":1485},{"name":"x2","type":"int","value":1575},{"name":"y1","type":"int","value":185},{"name":"y2","type":"int","value":185},{"name":"next","type":"int","value":88},{"name":"prev","type":"int","value":91}],"polyline":[{"x":0,"y":0},{"x":90,"y":0}]},{"id":500,"x":1395,"y":185,"visible":true,"properties":[{"name":"layer","type":"int","value":0},{"name":"group","type":"int","value":0},{"name":"id","type":"int","value":91},{"name":"fh_layer","type":"int","value":0},{"name":"fh_group","type":"int","value":0},{"name":"fh_id","type":"int","value":91},{"name":"x1","type":"int","value":1395},{"name":"x2","type":"int","value":1485},{"name":"y1","type":"int","value":185},{"name":"y2","type":"int","value":185},{"name":"next","type":"int","value":90},{"name":"prev","type":"int","value":89}],"polyline":[{"x":0,"y":0},{"x":90,"y":0}]},{"id":501,"x":585,"y":185,"visible":true,"properties":[{"name":"layer","type":"int","value":0},{"name":"group","type":"int","value":0},{"name":"id","type":"int","value":92},{"name":"fh_layer","type":"int","value":0},{"name":"fh_group","type":"int","value":0},{"name":"fh_id","type":"int","value":92},{"name":"x1","type":"int","value":585},{"name":"x2","type":"int","value":675},{"name":"y1","type":"int","value":185},{"name":"y2","type":"int","value":185},{"name":"next","type":"int","value":99},{"name":"prev","type":"int","value":102}],"polyline":[{"x":0,"y":0},{"x":90,"y":0}]},{"id":502,"x":855,"y":185,"visible":true,"properties":[{"name":"layer","type":"int","value":0},{"name":"group","type":"int","value":0},{"name":"id","type":"int","value":93},{"name":"fh_layer","type":"int","value":0},{"name":"fh_group","type":"int","value":0},{"name":"fh_id","type":"int","value":93},{"name":"x1","type":"int","value":855},{"name":"x2","type":"int","value":945},{"name":"y1","type":"int","value":185},{"name":"y2","type":"int","value":185},{"name":"next","type":"int","value":94},{"name":"prev","type":"int","value":98}],"polyline":[{"x":0,"y":0},{"x":90,"y":0}]},{"id":503,"x":945,"y":185,"visible":true,"properties":[{"name":"layer","type":"int","value":0},{"name":"group","type":"int","value":0},{"name":"id","type":"int","value":94},{"name":"fh_layer","type":"int","value":0},{"name":"fh_group","type":"int","value":0},{"name":"fh_id","type":"int","value":94},{"name":"x1","type":"int","value":945},{"name":"x2","type":"int","value":1035},{"name":"y1","type":"int","value":185},{"name":"y2","type":"int","value":185},{"name":"next","type":"int","value":95},{"name":"prev","type":"int","value":93}],"polyline":[{"x":0,"y":0},{"x":90,"y":0}]},{"id":504,"x":1035,"y":185,"visible":true,"properties":[{"name":"layer","type":"int","value":0},{"name":"group","type":"int","value":0},{"name":"id","type":"int","value":95},{"name":"fh_layer","type":"int","value":0},{"name":"fh_group","type":"int","value":0},{"name":"fh_id","type":"int","value":95},{"name":"x1","type":"int","value":1035},{"name":"x2","type":"int","value":1125},{"name":"y1","type":"int","value":185},{"name":"y2","type":"int","value":185},{"name":"next","type":"int","value":96},{"name":"prev","type":"int","value":94}],"polyline":[{"x":0,"y":0},{"x":90,"y":0}]},{"id":505,"x":1125,"y":185,"visible":true,"properties":[{"name":"layer","type":"int","value":0},{"name":"group","type":"int","value":0},{"name":"id","type":"int","value":96},{"name":"fh_layer","type":"int","value":0},{"name":"fh_group","type":"int","value":0},{"name":"fh_id","type":"int","value":96},{"name":"x1","type":"int","value":1125},{"name":"x2","type":"int","value":1215},{"name":"y1","type":"int","value":185},{"name":"y2","type":"int","value":185},{"name":"next","type":"int","value":97},{"name":"prev","type":"int","value":95}],"polyline":[{"x":0,"y":0},{"x":90,"y":0}]},{"id":506,"x":1215,"y":185,"visible":true,"properties":[{"name":"layer","type":"int","value":0},{"name":"group","type":"int","value":0},{"name":"id","type":"int","value":97},{"name":"fh_layer","type":"int","value":0},{"name":"fh_group","type":"int","value":0},{"name":"fh_id","type":"int","value":97},{"name":"x1","type":"int","value":1215},{"name":"x2","type":"int","value":1305},{"name":"y1","type":"int","value":185},{"name":"y2","type":"int","value":185},{"name":"next","type":"int","value":89},{"name":"prev","type":"int","value":96}],"polyline":[{"x":0,"y":0},{"x":90,"y":0}]},{"id":507,"x":765,"y":185,"visible":true,"properties":[{"name":"layer","type":"int","value":0},{"name":"group","type":"int","value":0},{"name":"id","type":"int","value":98},{"name":"fh_layer","type":"int","value":0},{"name":"fh_group","type":"int","value":0},{"name":"fh_id","type":"int","value":98},{"name":"x1","type":"int","value":765},{"name":"x2","type":"int","value":855},{"name":"y1","type":"int","value":185},{"name":"y2","type":"int","value":185},{"name":"next","type":"int","value":93},{"name":"prev","type":"int","value":99}],"polyline":[{"x":0,"y":0},{"x":90,"y":0}]},{"id":508,"x":675,"y":185,"visible":true,"properties":[{"name":"layer","type":"int","value":0},{"name":"group","type":"int","value":0},{"name":"id","type":"int","value":99},{"name":"fh_layer","type":"int","value":0},{"name":"fh_group","type":"int","value":0},{"name":"fh_id","type":"int","value":99},{"name":"x1","type":"int","value":675},{"name":"x2","type":"int","value":765},{"name":"y1","type":"int","value":185},{"name":"y2","type":"int","value":185},{"name":"next","type":"int","value":98},{"name":"prev","type":"int","value":92}],"polyline":[{"x":0,"y":0},{"x":90,"y":0}]},{"id":509,"x":2025,"y":185,"visible":true,"properties":[{"name":"layer","type":"int","value":0},{"name":"group","type":"int","value":0},{"name":"id","type":"int","value":100},{"name":"fh_layer","type":"int","value":0},{"name":"fh_group","type":"int","value":0},{"name":"fh_id","type":"int","value":100},{"name":"x1","type":"int","value":2025},{"name":"x2","type":"int","value":2115},{"name":"y1","type":"int","value":185},{"name":"y2","type":"int","value":245},{"name":"next","type":"int","value":80},{"name":"prev","type":"int","value":81}],"polyline":[{"x":0,"y":0},{"x":90,"y":60}]},{"id":510,"x":405,"y":185,"visible":true,"properties":[{"name":"layer","type":"int","value":0},{"name":"group","type":"int","value":0},{"name":"id","type":"int","value":101},{"name":"fh_layer","type":"int","value":0},{"name":"fh_group","type":"int","value":0},{"name":"fh_id","type":"int","value":101},{"name":"x1","type":"int","value":405},{"name":"x2","type":"int","value":495},{"name":"y1","type":"int","value":185},{"name":"y2","type":"int","value":185},{"name":"next","type":"int","value":102},{"name":"prev","type":"int","value":103}],"polyline":[{"x":0,"y":0},{"x":90,"y":0}]},{"id":511,"x":495,"y":185,"visible":true,"properties":[{"name":"layer","type":"int","value":0},{"name":"group","type":"int","value":0},{"name":"id","type":"int","value":102},{"name":"fh_layer","type":"int","value":0},{"name":"fh_group","type":"int","value":0},{"name":"fh_id","type":"int","value":102},{"name":"x1","type":"int","value":495},{"name":"x2","type":"int","value":585},{"name":"y1","type":"int","value":185},{"name":"y2","type":"int","value":185},{"name":"next","type":"int","value":92},{"name":"prev","type":"int","value":101}],"polyline":[{"x":0,"y":0},{"x":90,"y":0}]},{"id":512,"x":315,"y":185,"visible":true,"properties":[{"name":"layer","type":"int","value":0},{"name":"group","type":"int","value":0},{"name":"id","type":"int","value":103},{"name":"fh_layer","type":"int","value":0},{"name":"fh_group","type":"int","value":0},{"name":"fh_id","type":"int","value":103},{"name":"x1","type":"int","value":315},{"name":"x2","type":"int","value":405},{"name":"y1","type":"int","value":185},{"name":"y2","type":"int","value":185},{"name":"next","type":"int","value":101},{"name":"prev","type":"int","value":104}],"polyline":[{"x":0,"y":0},{"x":90,"y":0}]},{"id":513,"x":225,"y":245,"visible":true,"properties":[{"name":"layer","type":"int","value":0},{"name":"group","type":"int","value":0},{"name":"id","type":"int","value":104},{"name":"fh_layer","type":"int","value":0},{"name":"fh_group","type":"int","value":0},{"name":"fh_id","type":"int","value":104},{"name":"x1","type":"int","value":225},{"name":"x2","type":"int","value":315},{"name":"y1","type":"int","value":245},{"name":"y2","type":"int","value":185},{"name":"next","type":"int","value":103},{"name":"prev","type":"int","value":106}],"polyline":[{"x":0,"y":0},{"x":90,"y":-60}]},{"id":514,"x":45,"y":365,"visible":true,"properties":[{"name":"layer","type":"int","value":0},{"name":"group","type":"int","value":0},{"name":"id","type":"int","value":105},{"name":"fh_layer","type":"int","value":0},{"name":"fh_group","type":"int","value":0},{"name":"fh_id","type":"int","value":105},{"name":"x1","type":"int","value":45},{"name":"x2","type":"int","value":135},{"name":"y1","type":"int","value":365},{"name":"y2","type":"int","value":305},{"name":"next","type":"int","value":106},{"name":"prev","type":"int","value":108}],"polyline":[{"x":0,"y":0},{"x":90,"y":-60}]},{"id":515,"x":135,"y":305,"visible":true,"properties":[{"name":"layer","type":"int","value":0},{"name":"group","type":"int","value":0},{"name":"id","type":"int","value":106},{"name":"fh_layer","type":"int","value":0},{"name":"fh_group","type":"int","value":0},{"name":"fh_id","type":"int","value":106},{"name":"x1","type":"int","value":135},{"name":"x2","type":"int","value":225},{"name":"y1","type":"int","value":305},{"name":"y2","type":"int","value":245},{"name":"next","type":"int","value":104},{"name":"prev","type":"int","value":105}],"polyline":[{"x":0,"y":0},{"x":90,"y":-60}]},{"id":516,"x":6,"y":390,"visible":true,"properties":[{"name":"layer","type":"int","value":0},{"name":"group","type":"int","value":0},{"name":"id","type":"int","value":107},{"name":"fh_layer","type":"int","value":0},{"name":"fh_group","type":"int","value":0},{"name":"fh_id","type":"int","value":107},{"name":"x1","type":"int","value":6},{"name":"x2","type":"int","value":6},{"name":"y1","type":"int","value":390},{"name":"y2","type":"int","value":365},{"name":"next","type":"int","value":108},{"name":"prev","type":"int","value":0}],"polyline":[{"x":0,"y":0},{"x":0,"y":-25}]},{"id":517,"x":6,"y":365,"visible":true,"properties":[{"name":"layer","type":"int","value":0},{"name":"group","type":"int","value":0},{"name":"id","type":"int","value":108},{"name":"fh_layer","type":"int","value":0},{"name":"fh_group","type":"int","value":0},{"name":"fh_id","type":"int","value":108},{"name":"x1","type":"int","value":6},{"name":"x2","type":"int","value":45},{"name":"y1","type":"int","value":365},{"name":"y2","type":"int","value":365},{"name":"next","type":"int","value":105},{"name":"prev","type":"int","value":107}],"polyline":[{"x":0,"y":0},{"x":39,"y":0}]},{"id":518,"x":456,"y":-30,"visible":true,"properties":[{"name":"layer","type":"int","value":0},{"name":"group","type":"int","value":8},{"name":"id","type":"int","value":18},{"name":"fh_layer","type":"int","value":0},{"name":"fh_group","type":"int","value":8},{"name":"fh_id","type":"int","value":18},{"name":"x1","type":"int","value":456},{"name":"x2","type":"int","value":456},{"name":"y1","type":"int","value":-30},{"name":"y2","type":"int","value":-55},{"name":"next","type":"int","value":19},{"name":"prev","type":"int","value":0}],"polyline":[{"x":0,"y":0},{"x":0,"y":-25}]},{"id":519,"x":456,"y":-55,"visible":true,"properties":[{"name":"layer","type":"int","value":0},{"name":"group","type":"int","value":8},{"name":"id","type":"int","value":19},{"name":"fh_layer","type":"int","value":0},{"name":"fh_group","type":"int","value":8},{"name":"fh_id","type":"int","value":19},{"name":"x1","type":"int","value":456},{"name":"x2","type":"int","value":534},{"name":"y1","type":"int","value":-55},{"name":"y2","type":"int","value":-55},{"name":"next","type":"int","value":25},{"name":"prev","type":"int","value":18}],"polyline":[{"x":0,"y":0},{"x":78,"y":0}]},{"id":520,"x":534,"y":-55,"visible":true,"properties":[{"name":"layer","type":"int","value":0},{"name":"group","type":"int","value":8},{"name":"id","type":"int","value":25},{"name":"fh_layer","type":"int","value":0},{"name":"fh_group","type":"int","value":8},{"name":"fh_id","type":"int","value":25},{"name":"x1","type":"int","value":534},{"name":"x2","type":"int","value":546},{"name":"y1","type":"int","value":-55},{"name":"y2","type":"int","value":-55},{"name":"next","type":"int","value":26},{"name":"prev","type":"int","value":19}],"polyline":[{"x":0,"y":0},{"x":12,"y":0}]},{"id":521,"x":546,"y":-55,"visible":true,"properties":[{"name":"layer","type":"int","value":0},{"name":"group","type":"int","value":8},{"name":"id","type":"int","value":26},{"name":"fh_layer","type":"int","value":0},{"name":"fh_group","type":"int","value":8},{"name":"fh_id","type":"int","value":26},{"name":"x1","type":"int","value":546},{"name":"x2","type":"int","value":585},{"name":"y1","type":"int","value":-55},{"name":"y2","type":"int","value":-55},{"name":"next","type":"int","value":27},{"name":"prev","type":"int","value":25}],"polyline":[{"x":0,"y":0},{"x":39,"y":0}]},{"id":522,"x":585,"y":-55,"visible":true,"properties":[{"name":"layer","type":"int","value":0},{"name":"group","type":"int","value":8},{"name":"id","type":"int","value":27},{"name":"fh_layer","type":"int","value":0},{"name":"fh_group","type":"int","value":8},{"name":"fh_id","type":"int","value":27},{"name":"x1","type":"int","value":585},{"name":"x2","type":"int","value":624},{"name":"y1","type":"int","value":-55},{"name":"y2","type":"int","value":-55},{"name":"next","type":"int","value":28},{"name":"prev","type":"int","value":26}],"polyline":[{"x":0,"y":0},{"x":39,"y":0}]},{"id":523,"x":624,"y":-55,"visible":true,"properties":[{"name":"layer","type":"int","value":0},{"name":"group","type":"int","value":8},{"name":"id","type":"int","value":28},{"name":"fh_layer","type":"int","value":0},{"name":"fh_group","type":"int","value":8},{"name":"fh_id","type":"int","value":28},{"name":"x1","type":"int","value":624},{"name":"x2","type":"int","value":624},{"name":"y1","type":"int","value":-55},{"name":"y2","type":"int","value":-30},{"name":"next","type":"int","value":0},{"name":"prev","type":"int","value":27}],"polyline":[{"x":0,"y":0},{"x":0,"y":25}]},{"id":524,"x":636,"y":-90,"visible":true,"properties":[{"name":"layer","type":"int","value":0},{"name":"group","type":"int","value":14},{"name":"id","type":"int","value":1},{"name":"fh_layer","type":"int","value":0},{"name":"fh_group","type":"int","value":14},{"name":"fh_id","type":"int","value":1},{"name":"x1","type":"int","value":636},{"name":"x2","type":"int","value":636},{"name":"y1","type":"int","value":-90},{"name":"y2","type":"int","value":-115},{"name":"next","type":"int","value":2},{"name":"prev","type":"int","value":0}],"polyline":[{"x":0,"y":0},{"x":0,"y":-25}]},{"id":525,"x":636,"y":-115,"visible":true,"properties":[{"name":"layer","type":"int","value":0},{"name":"group","type":"int","value":14},{"name":"id","type":"int","value":2},{"name":"fh_layer","type":"int","value":0},{"name":"fh_group","type":"int","value":14},{"name":"fh_id","type":"int","value":2},{"name":"x1","type":"int","value":636},{"name":"x2","type":"int","value":714},{"name":"y1","type":"int","value":-115},{"name":"y2","type":"int","value":-115},{"name":"next","type":"int","value":3},{"name":"prev","type":"int","value":1}],"polyline":[{"x":0,"y":0},{"x":78,"y":0}]},{"id":526,"x":714,"y":-115,"visible":true,"properties":[{"name":"layer","type":"int","value":0},{"name":"group","type":"int","value":14},{"name":"id","type":"int","value":3},{"name":"fh_layer","type":"int","value":0},{"name":"fh_group","type":"int","value":14},{"name":"fh_id","type":"int","value":3},{"name":"x1","type":"int","value":714},{"name":"x2","type":"int","value":726},{"name":"y1","type":"int","value":-115},{"name":"y2","type":"int","value":-115},{"name":"next","type":"int","value":21},{"name":"prev","type":"int","value":2}],"polyline":[{"x":0,"y":0},{"x":12,"y":0}]},{"id":527,"x":726,"y":-115,"visible":true,"properties":[{"name":"layer","type":"int","value":0},{"name":"group","type":"int","value":14},{"name":"id","type":"int","value":21},{"name":"fh_layer","type":"int","value":0},{"name":"fh_group","type":"int","value":14},{"name":"fh_id","type":"int","value":21},{"name":"x1","type":"int","value":726},{"name":"x2","type":"int","value":765},{"name":"y1","type":"int","value":-115},{"name":"y2","type":"int","value":-115},{"name":"next","type":"int","value":22},{"name":"prev","type":"int","value":3}],"polyline":[{"x":0,"y":0},{"x":39,"y":0}]},{"id":528,"x":765,"y":-115,"visible":true,"properties":[{"name":"layer","type":"int","value":0},{"name":"group","type":"int","value":14},{"name":"id","type":"int","value":22},{"name":"fh_layer","type":"int","value":0},{"name":"fh_group","type":"int","value":14},{"name":"fh_id","type":"int","value":22},{"name":"x1","type":"int","value":765},{"name":"x2","type":"int","value":804},{"name":"y1","type":"int","value":-115},{"name":"y2","type":"int","value":-115},{"name":"next","type":"int","value":23},{"name":"prev","type":"int","value":21}],"polyline":[{"x":0,"y":0},{"x":39,"y":0}]},{"id":529,"x":804,"y":-115,"visible":true,"properties":[{"name":"layer","type":"int","value":0},{"name":"group","type":"int","value":14},{"name":"id","type":"int","value":23},{"name":"fh_layer","type":"int","value":0},{"name":"fh_group","type":"int","value":14},{"name":"fh_id","type":"int","value":23},{"name":"x1","type":"int","value":804},{"name":"x2","type":"int","value":804},{"name":"y1","type":"int","value":-115},{"name":"y2","type":"int","value":-90},{"name":"next","type":"int","value":0},{"name":"prev","type":"int","value":22}],"polyline":[{"x":0,"y":0},{"x":0,"y":25}]},{"id":530,"x":816,"y":-150,"visible":true,"properties":[{"name":"layer","type":"int","value":0},{"name":"group","type":"int","value":17},{"name":"id","type":"int","value":30},{"name":"fh_layer","type":"int","value":0},{"name":"fh_group","type":"int","value":17},{"name":"fh_id","type":"int","value":30},{"name":"x1","type":"int","value":816},{"name":"x2","type":"int","value":816},{"name":"y1","type":"int","value":-150},{"name":"y2","type":"int","value":-175},{"name":"next","type":"int","value":31},{"name":"prev","type":"int","value":0}],"polyline":[{"x":0,"y":0},{"x":0,"y":-25}]},{"id":531,"x":816,"y":-175,"visible":true,"properties":[{"name":"layer","type":"int","value":0},{"name":"group","type":"int","value":17},{"name":"id","type":"int","value":31},{"name":"fh_layer","type":"int","value":0},{"name":"fh_group","type":"int","value":17},{"name":"fh_id","type":"int","value":31},{"name":"x1","type":"int","value":816},{"name":"x2","type":"int","value":855},{"name":"y1","type":"int","value":-175},{"name":"y2","type":"int","value":-175},{"name":"next","type":"int","value":33},{"name":"prev","type":"int","value":30}],"polyline":[{"x":0,"y":0},{"x":39,"y":0}]},{"id":532,"x":1845,"y":-295,"visible":true,"properties":[{"name":"layer","type":"int","value":0},{"name":"group","type":"int","value":17},{"name":"id","type":"int","value":32},{"name":"fh_layer","type":"int","value":0},{"name":"fh_group","type":"int","value":17},{"name":"fh_id","type":"int","value":32},{"name":"x1","type":"int","value":1845},{"name":"x2","type":"int","value":1935},{"name":"y1","type":"int","value":-295},{"name":"y2","type":"int","value":-235},{"name":"next","type":"int","value":37},{"name":"prev","type":"int","value":36}],"polyline":[{"x":0,"y":0},{"x":90,"y":60}]},{"id":533,"x":855,"y":-175,"visible":true,"properties":[{"name":"layer","type":"int","value":0},{"name":"group","type":"int","value":17},{"name":"id","type":"int","value":33},{"name":"fh_layer","type":"int","value":0},{"name":"fh_group","type":"int","value":17},{"name":"fh_id","type":"int","value":33},{"name":"x1","type":"int","value":855},{"name":"x2","type":"int","value":945},{"name":"y1","type":"int","value":-175},{"name":"y2","type":"int","value":-235},{"name":"next","type":"int","value":45},{"name":"prev","type":"int","value":31}],"polyline":[{"x":0,"y":0},{"x":90,"y":-60}]},{"id":534,"x":1665,"y":-355,"visible":true,"properties":[{"name":"layer","type":"int","value":0},{"name":"group","type":"int","value":17},{"name":"id","type":"int","value":34},{"name":"fh_layer","type":"int","value":0},{"name":"fh_group","type":"int","value":17},{"name":"fh_id","type":"int","value":34},{"name":"x1","type":"int","value":1665},{"name":"x2","type":"int","value":1755},{"name":"y1","type":"int","value":-355},{"name":"y2","type":"int","value":-355},{"name":"next","type":"int","value":36},{"name":"prev","type":"int","value":39}],"polyline":[{"x":0,"y":0},{"x":90,"y":0}]},{"id":535,"x":2064,"y":-175,"visible":true,"properties":[{"name":"layer","type":"int","value":0},{"name":"group","type":"int","value":17},{"name":"id","type":"int","value":35},{"name":"fh_layer","type":"int","value":0},{"name":"fh_group","type":"int","value":17},{"name":"fh_id","type":"int","value":35},{"name":"x1","type":"int","value":2064},{"name":"x2","type":"int","value":2064},{"name":"y1","type":"int","value":-175},{"name":"y2","type":"int","value":-150},{"name":"next","type":"int","value":0},{"name":"prev","type":"int","value":38}],"polyline":[{"x":0,"y":0},{"x":0,"y":25}]},{"id":536,"x":1755,"y":-355,"visible":true,"properties":[{"name":"layer","type":"int","value":0},{"name":"group","type":"int","value":17},{"name":"id","type":"int","value":36},{"name":"fh_layer","type":"int","value":0},{"name":"fh_group","type":"int","value":17},{"name":"fh_id","type":"int","value":36},{"name":"x1","type":"int","value":1755},{"name":"x2","type":"int","value":1845},{"name":"y1","type":"int","value":-355},{"name":"y2","type":"int","value":-295},{"name":"next","type":"int","value":32},{"name":"prev","type":"int","value":34}],"polyline":[{"x":0,"y":0},{"x":90,"y":60}]},{"id":537,"x":1935,"y":-235,"visible":true,"properties":[{"name":"layer","type":"int","value":0},{"name":"group","type":"int","value":17},{"name":"id","type":"int","value":37},{"name":"fh_layer","type":"int","value":0},{"name":"fh_group","type":"int","value":17},{"name":"fh_id","type":"int","value":37},{"name":"x1","type":"int","value":1935},{"name":"x2","type":"int","value":2025},{"name":"y1","type":"int","value":-235},{"name":"y2","type":"int","value":-175},{"name":"next","type":"int","value":38},{"name":"prev","type":"int","value":32}],"polyline":[{"x":0,"y":0},{"x":90,"y":60}]},{"id":538,"x":2025,"y":-175,"visible":true,"properties":[{"name":"layer","type":"int","value":0},{"name":"group","type":"int","value":17},{"name":"id","type":"int","value":38},{"name":"fh_layer","type":"int","value":0},{"name":"fh_group","type":"int","value":17},{"name":"fh_id","type":"int","value":38},{"name":"x1","type":"int","value":2025},{"name":"x2","type":"int","value":2064},{"name":"y1","type":"int","value":-175},{"name":"y2","type":"int","value":-175},{"name":"next","type":"int","value":35},{"name":"prev","type":"int","value":37}],"polyline":[{"x":0,"y":0},{"x":39,"y":0}]},{"id":539,"x":1575,"y":-355,"visible":true,"properties":[{"name":"layer","type":"int","value":0},{"name":"group","type":"int","value":17},{"name":"id","type":"int","value":39},{"name":"fh_layer","type":"int","value":0},{"name":"fh_group","type":"int","value":17},{"name":"fh_id","type":"int","value":39},{"name":"x1","type":"int","value":1575},{"name":"x2","type":"int","value":1665},{"name":"y1","type":"int","value":-355},{"name":"y2","type":"int","value":-355},{"name":"next","type":"int","value":34},{"name":"prev","type":"int","value":40}],"polyline":[{"x":0,"y":0},{"x":90,"y":0}]},{"id":540,"x":1485,"y":-355,"visible":true,"properties":[{"name":"layer","type":"int","value":0},{"name":"group","type":"int","value":17},{"name":"id","type":"int","value":40},{"name":"fh_layer","type":"int","value":0},{"name":"fh_group","type":"int","value":17},{"name":"fh_id","type":"int","value":40},{"name":"x1","type":"int","value":1485},{"name":"x2","type":"int","value":1575},{"name":"y1","type":"int","value":-355},{"name":"y2","type":"int","value":-355},{"name":"next","type":"int","value":39},{"name":"prev","type":"int","value":41}],"polyline":[{"x":0,"y":0},{"x":90,"y":0}]},{"id":541,"x":1395,"y":-355,"visible":true,"properties":[{"name":"layer","type":"int","value":0},{"name":"group","type":"int","value":17},{"name":"id","type":"int","value":41},{"name":"fh_layer","type":"int","value":0},{"name":"fh_group","type":"int","value":17},{"name":"fh_id","type":"int","value":41},{"name":"x1","type":"int","value":1395},{"name":"x2","type":"int","value":1485},{"name":"y1","type":"int","value":-355},{"name":"y2","type":"int","value":-355},{"name":"next","type":"int","value":40},{"name":"prev","type":"int","value":44}],"polyline":[{"x":0,"y":0},{"x":90,"y":0}]},{"id":542,"x":1215,"y":-355,"visible":true,"properties":[{"name":"layer","type":"int","value":0},{"name":"group","type":"int","value":17},{"name":"id","type":"int","value":42},{"name":"fh_layer","type":"int","value":0},{"name":"fh_group","type":"int","value":17},{"name":"fh_id","type":"int","value":42},{"name":"x1","type":"int","value":1215},{"name":"x2","type":"int","value":1305},{"name":"y1","type":"int","value":-355},{"name":"y2","type":"int","value":-355},{"name":"next","type":"int","value":44},{"name":"prev","type":"int","value":43}],"polyline":[{"x":0,"y":0},{"x":90,"y":0}]},{"id":543,"x":1125,"y":-355,"visible":true,"properties":[{"name":"layer","type":"int","value":0},{"name":"group","type":"int","value":17},{"name":"id","type":"int","value":43},{"name":"fh_layer","type":"int","value":0},{"name":"fh_group","type":"int","value":17},{"name":"fh_id","type":"int","value":43},{"name":"x1","type":"int","value":1125},{"name":"x2","type":"int","value":1215},{"name":"y1","type":"int","value":-355},{"name":"y2","type":"int","value":-355},{"name":"next","type":"int","value":42},{"name":"prev","type":"int","value":46}],"polyline":[{"x":0,"y":0},{"x":90,"y":0}]},{"id":544,"x":1305,"y":-355,"visible":true,"properties":[{"name":"layer","type":"int","value":0},{"name":"group","type":"int","value":17},{"name":"id","type":"int","value":44},{"name":"fh_layer","type":"int","value":0},{"name":"fh_group","type":"int","value":17},{"name":"fh_id","type":"int","value":44},{"name":"x1","type":"int","value":1305},{"name":"x2","type":"int","value":1395},{"name":"y1","type":"int","value":-355},{"name":"y2","type":"int","value":-355},{"name":"next","type":"int","value":41},{"name":"prev","type":"int","value":42}],"polyline":[{"x":0,"y":0},{"x":90,"y":0}]},{"id":545,"x":945,"y":-235,"visible":true,"properties":[{"name":"layer","type":"int","value":0},{"name":"group","type":"int","value":17},{"name":"id","type":"int","value":45},{"name":"fh_layer","type":"int","value":0},{"name":"fh_group","type":"int","value":17},{"name":"fh_id","type":"int","value":45},{"name":"x1","type":"int","value":945},{"name":"x2","type":"int","value":1035},{"name":"y1","type":"int","value":-235},{"name":"y2","type":"int","value":-295},{"name":"next","type":"int","value":46},{"name":"prev","type":"int","value":33}],"polyline":[{"x":0,"y":0},{"x":90,"y":-60}]},{"id":546,"x":1035,"y":-295,"visible":true,"properties":[{"name":"layer","type":"int","value":0},{"name":"group","type":"int","value":17},{"name":"id","type":"int","value":46},{"name":"fh_layer","type":"int","value":0},{"name":"fh_group","type":"int","value":17},{"name":"fh_id","type":"int","value":46},{"name":"x1","type":"int","value":1035},{"name":"x2","type":"int","value":1125},{"name":"y1","type":"int","value":-295},{"name":"y2","type":"int","value":-355},{"name":"next","type":"int","value":43},{"name":"prev","type":"int","value":45}],"polyline":[{"x":0,"y":0},{"x":90,"y":-60}]},{"id":547,"x":984,"y":-355,"visible":true,"properties":[{"name":"layer","type":"int","value":0},{"name":"group","type":"int","value":23},{"name":"id","type":"int","value":47},{"name":"fh_layer","type":"int","value":0},{"name":"fh_group","type":"int","value":23},{"name":"fh_id","type":"int","value":47},{"name":"x1","type":"int","value":984},{"name":"x2","type":"int","value":984},{"name":"y1","type":"int","value":-355},{"name":"y2","type":"int","value":-330},{"name":"next","type":"int","value":0},{"name":"prev","type":"int","value":49}],"polyline":[{"x":0,"y":0},{"x":0,"y":25}]},{"id":548,"x":855,"y":-415,"visible":true,"properties":[{"name":"layer","type":"int","value":0},{"name":"group","type":"int","value":23},{"name":"id","type":"int","value":48},{"name":"fh_layer","type":"int","value":0},{"name":"fh_group","type":"int","value":23},{"name":"fh_id","type":"int","value":48},{"name":"x1","type":"int","value":855},{"name":"x2","type":"int","value":945},{"name":"y1","type":"int","value":-415},{"name":"y2","type":"int","value":-355},{"name":"next","type":"int","value":49},{"name":"prev","type":"int","value":51}],"polyline":[{"x":0,"y":0},{"x":90,"y":60}]},{"id":549,"x":945,"y":-355,"visible":true,"properties":[{"name":"layer","type":"int","value":0},{"name":"group","type":"int","value":23},{"name":"id","type":"int","value":49},{"name":"fh_layer","type":"int","value":0},{"name":"fh_group","type":"int","value":23},{"name":"fh_id","type":"int","value":49},{"name":"x1","type":"int","value":945},{"name":"x2","type":"int","value":984},{"name":"y1","type":"int","value":-355},{"name":"y2","type":"int","value":-355},{"name":"next","type":"int","value":47},{"name":"prev","type":"int","value":48}],"polyline":[{"x":0,"y":0},{"x":39,"y":0}]},{"id":550,"x":405,"y":-535,"visible":true,"properties":[{"name":"layer","type":"int","value":0},{"name":"group","type":"int","value":23},{"name":"id","type":"int","value":50},{"name":"fh_layer","type":"int","value":0},{"name":"fh_group","type":"int","value":23},{"name":"fh_id","type":"int","value":50},{"name":"x1","type":"int","value":405},{"name":"x2","type":"int","value":495},{"name":"y1","type":"int","value":-535},{"name":"y2","type":"int","value":-535},{"name":"next","type":"int","value":59},{"name":"prev","type":"int","value":55}],"polyline":[{"x":0,"y":0},{"x":90,"y":0}]},{"id":551,"x":765,"y":-475,"visible":true,"properties":[{"name":"layer","type":"int","value":0},{"name":"group","type":"int","value":23},{"name":"id","type":"int","value":51},{"name":"fh_layer","type":"int","value":0},{"name":"fh_group","type":"int","value":23},{"name":"fh_id","type":"int","value":51},{"name":"x1","type":"int","value":765},{"name":"x2","type":"int","value":855},{"name":"y1","type":"int","value":-475},{"name":"y2","type":"int","value":-415},{"name":"next","type":"int","value":48},{"name":"prev","type":"int","value":60}],"polyline":[{"x":0,"y":0},{"x":90,"y":60}]},{"id":552,"x":6,"y":-330,"visible":true,"properties":[{"name":"layer","type":"int","value":0},{"name":"group","type":"int","value":23},{"name":"id","type":"int","value":52},{"name":"fh_layer","type":"int","value":0},{"name":"fh_group","type":"int","value":23},{"name":"fh_id","type":"int","value":52},{"name":"x1","type":"int","value":6},{"name":"x2","type":"int","value":6},{"name":"y1","type":"int","value":-330},{"name":"y2","type":"int","value":-355},{"name":"next","type":"int","value":53},{"name":"prev","type":"int","value":0}],"polyline":[{"x":0,"y":0},{"x":0,"y":-25}]},{"id":553,"x":6,"y":-355,"visible":true,"properties":[{"name":"layer","type":"int","value":0},{"name":"group","type":"int","value":23},{"name":"id","type":"int","value":53},{"name":"fh_layer","type":"int","value":0},{"name":"fh_group","type":"int","value":23},{"name":"fh_id","type":"int","value":53},{"name":"x1","type":"int","value":6},{"name":"x2","type":"int","value":45},{"name":"y1","type":"int","value":-355},{"name":"y2","type":"int","value":-355},{"name":"next","type":"int","value":54},{"name":"prev","type":"int","value":52}],"polyline":[{"x":0,"y":0},{"x":39,"y":0}]},{"id":554,"x":45,"y":-355,"visible":true,"properties":[{"name":"layer","type":"int","value":0},{"name":"group","type":"int","value":23},{"name":"id","type":"int","value":54},{"name":"fh_layer","type":"int","value":0},{"name":"fh_group","type":"int","value":23},{"name":"fh_id","type":"int","value":54},{"name":"x1","type":"int","value":45},{"name":"x2","type":"int","value":135},{"name":"y1","type":"int","value":-355},{"name":"y2","type":"int","value":-415},{"name":"next","type":"int","value":56},{"name":"prev","type":"int","value":53}],"polyline":[{"x":0,"y":0},{"x":90,"y":-60}]},{"id":555,"x":315,"y":-535,"visible":true,"properties":[{"name":"layer","type":"int","value":0},{"name":"group","type":"int","value":23},{"name":"id","type":"int","value":55},{"name":"fh_layer","type":"int","value":0},{"name":"fh_group","type":"int","value":23},{"name":"fh_id","type":"int","value":55},{"name":"x1","type":"int","value":315},{"name":"x2","type":"int","value":405},{"name":"y1","type":"int","value":-535},{"name":"y2","type":"int","value":-535},{"name":"next","type":"int","value":50},{"name":"prev","type":"int","value":58}],"polyline":[{"x":0,"y":0},{"x":90,"y":0}]},{"id":556,"x":135,"y":-415,"visible":true,"properties":[{"name":"layer","type":"int","value":0},{"name":"group","type":"int","value":23},{"name":"id","type":"int","value":56},{"name":"fh_layer","type":"int","value":0},{"name":"fh_group","type":"int","value":23},{"name":"fh_id","type":"int","value":56},{"name":"x1","type":"int","value":135},{"name":"x2","type":"int","value":225},{"name":"y1","type":"int","value":-415},{"name":"y2","type":"int","value":-475},{"name":"next","type":"int","value":58},{"name":"prev","type":"int","value":54}],"polyline":[{"x":0,"y":0},{"x":90,"y":-60}]},{"id":557,"x":585,"y":-535,"visible":true,"properties":[{"name":"layer","type":"int","value":0},{"name":"group","type":"int","value":23},{"name":"id","type":"int","value":57},{"name":"fh_layer","type":"int","value":0},{"name":"fh_group","type":"int","value":23},{"name":"fh_id","type":"int","value":57},{"name":"x1","type":"int","value":585},{"name":"x2","type":"int","value":675},{"name":"y1","type":"int","value":-535},{"name":"y2","type":"int","value":-535},{"name":"next","type":"int","value":60},{"name":"prev","type":"int","value":59}],"polyline":[{"x":0,"y":0},{"x":90,"y":0}]},{"id":558,"x":225,"y":-475,"visible":true,"properties":[{"name":"layer","type":"int","value":0},{"name":"group","type":"int","value":23},{"name":"id","type":"int","value":58},{"name":"fh_layer","type":"int","value":0},{"name":"fh_group","type":"int","value":23},{"name":"fh_id","type":"int","value":58},{"name":"x1","type":"int","value":225},{"name":"x2","type":"int","value":315},{"name":"y1","type":"int","value":-475},{"name":"y2","type":"int","value":-535},{"name":"next","type":"int","value":55},{"name":"prev","type":"int","value":56}],"polyline":[{"x":0,"y":0},{"x":90,"y":-60}]},{"id":559,"x":495,"y":-535,"visible":true,"properties":[{"name":"layer","type":"int","value":0},{"name":"group","type":"int","value":23},{"name":"id","type":"int","value":59},{"name":"fh_layer","type":"int","value":0},{"name":"fh_group","type":"int","value":23},{"name":"fh_id","type":"int","value":59},{"name":"x1","type":"int","value":495},{"name":"x2","type":"int","value":585},{"name":"y1","type":"int","value":-535},{"name":"y2","type":"int","value":-535},{"name":"next","type":"int","value":57},{"name":"prev","type":"int","value":50}],"polyline":[{"x":0,"y":0},{"x":90,"y":0}]},{"id":560,"x":675,"y":-535,"visible":true,"properties":[{"name":"layer","type":"int","value":0},{"name":"group","type":"int","value":23},{"name":"id","type":"int","value":60},{"name":"fh_layer","type":"int","value":0},{"name":"fh_group","type":"int","value":23},{"name":"fh_id","type":"int","value":60},{"name":"x1","type":"int","value":675},{"name":"x2","type":"int","value":765},{"name":"y1","type":"int","value":-535},{"name":"y2","type":"int","value":-475},{"name":"next","type":"int","value":51},{"name":"prev","type":"int","value":57}],"polyline":[{"x":0,"y":0},{"x":90,"y":60}]},{"id":561,"x":996,"y":-570,"visible":true,"properties":[{"name":"layer","type":"int","value":0},{"name":"group","type":"int","value":27},{"name":"id","type":"int","value":134},{"name":"fh_layer","type":"int","value":0},{"name":"fh_group","type":"int","value":27},{"name":"fh_id","type":"int","value":134},{"name":"x1","type":"int","value":996},{"name":"x2","type":"int","value":996},{"name":"y1","type":"int","value":-570},{"name":"y2","type":"int","value":-595},{"name":"next","type":"int","value":135},{"name":"prev","type":"int","value":0}],"polyline":[{"x":0,"y":0},{"x":0,"y":-25}]},{"id":562,"x":996,"y":-595,"visible":true,"properties":[{"name":"layer","type":"int","value":0},{"name":"group","type":"int","value":27},{"name":"id","type":"int","value":135},{"name":"fh_layer","type":"int","value":0},{"name":"fh_group","type":"int","value":27},{"name":"fh_id","type":"int","value":135},{"name":"x1","type":"int","value":996},{"name":"x2","type":"int","value":1074},{"name":"y1","type":"int","value":-595},{"name":"y2","type":"int","value":-595},{"name":"next","type":"int","value":138},{"name":"prev","type":"int","value":134}],"polyline":[{"x":0,"y":0},{"x":78,"y":0}]},{"id":563,"x":1086,"y":-595,"visible":true,"properties":[{"name":"layer","type":"int","value":0},{"name":"group","type":"int","value":27},{"name":"id","type":"int","value":136},{"name":"fh_layer","type":"int","value":0},{"name":"fh_group","type":"int","value":27},{"name":"fh_id","type":"int","value":136},{"name":"x1","type":"int","value":1086},{"name":"x2","type":"int","value":1164},{"name":"y1","type":"int","value":-595},{"name":"y2","type":"int","value":-595},{"name":"next","type":"int","value":137},{"name":"prev","type":"int","value":138}],"polyline":[{"x":0,"y":0},{"x":78,"y":0}]},{"id":564,"x":1164,"y":-595,"visible":true,"properties":[{"name":"layer","type":"int","value":0},{"name":"group","type":"int","value":27},{"name":"id","type":"int","value":137},{"name":"fh_layer","type":"int","value":0},{"name":"fh_group","type":"int","value":27},{"name":"fh_id","type":"int","value":137},{"name":"x1","type":"int","value":1164},{"name":"x2","type":"int","value":1164},{"name":"y1","type":"int","value":-595},{"name":"y2","type":"int","value":-570},{"name":"next","type":"int","value":0},{"name":"prev","type":"int","value":136}],"polyline":[{"x":0,"y":0},{"x":0,"y":25}]},{"id":565,"x":1074,"y":-595,"visible":true,"properties":[{"name":"layer","type":"int","value":0},{"name":"group","type":"int","value":27},{"name":"id","type":"int","value":138},{"name":"fh_layer","type":"int","value":0},{"name":"fh_group","type":"int","value":27},{"name":"fh_id","type":"int","value":138},{"name":"x1","type":"int","value":1074},{"name":"x2","type":"int","value":1086},{"name":"y1","type":"int","value":-595},{"name":"y2","type":"int","value":-595},{"name":"next","type":"int","value":136},{"name":"prev","type":"int","value":135}],"polyline":[{"x":0,"y":0},{"x":12,"y":0}]},{"id":566,"x":1266,"y":-655,"visible":true,"properties":[{"name":"layer","type":"int","value":0},{"name":"group","type":"int","value":30},{"name":"id","type":"int","value":129},{"name":"fh_layer","type":"int","value":0},{"name":"fh_group","type":"int","value":30},{"name":"fh_id","type":"int","value":129},{"name":"x1","type":"int","value":1266},{"name":"x2","type":"int","value":1344},{"name":"y1","type":"int","value":-655},{"name":"y2","type":"int","value":-655},{"name":"next","type":"int","value":130},{"name":"prev","type":"int","value":133}],"polyline":[{"x":0,"y":0},{"x":78,"y":0}]},{"id":567,"x":1344,"y":-655,"visible":true,"properties":[{"name":"layer","type":"int","value":0},{"name":"group","type":"int","value":30},{"name":"id","type":"int","value":130},{"name":"fh_layer","type":"int","value":0},{"name":"fh_group","type":"int","value":30},{"name":"fh_id","type":"int","value":130},{"name":"x1","type":"int","value":1344},{"name":"x2","type":"int","value":1344},{"name":"y1","type":"int","value":-655},{"name":"y2","type":"int","value":-630},{"name":"next","type":"int","value":0},{"name":"prev","type":"int","value":129}],"polyline":[{"x":0,"y":0},{"x":0,"y":25}]},{"id":568,"x":1176,"y":-630,"visible":true,"properties":[{"name":"layer","type":"int","value":0},{"name":"group","type":"int","value":30},{"name":"id","type":"int","value":131},{"name":"fh_layer","type":"int","value":0},{"name":"fh_group","type":"int","value":30},{"name":"fh_id","type":"int","value":131},{"name":"x1","type":"int","value":1176},{"name":"x2","type":"int","value":1176},{"name":"y1","type":"int","value":-630},{"name":"y2","type":"int","value":-655},{"name":"next","type":"int","value":132},{"name":"prev","type":"int","value":0}],"polyline":[{"x":0,"y":0},{"x":0,"y":-25}]},{"id":569,"x":1176,"y":-655,"visible":true,"properties":[{"name":"layer","type":"int","value":0},{"name":"group","type":"int","value":30},{"name":"id","type":"int","value":132},{"name":"fh_layer","type":"int","value":0},{"name":"fh_group","type":"int","value":30},{"name":"fh_id","type":"int","value":132},{"name":"x1","type":"int","value":1176},{"name":"x2","type":"int","value":1254},{"name":"y1","type":"int","value":-655},{"name":"y2","type":"int","value":-655},{"name":"next","type":"int","value":133},{"name":"prev","type":"int","value":131}],"polyline":[{"x":0,"y":0},{"x":78,"y":0}]},{"id":570,"x":1254,"y":-655,"visible":true,"properties":[{"name":"layer","type":"int","value":0},{"name":"group","type":"int","value":30},{"name":"id","type":"int","value":133},{"name":"fh_layer","type":"int","value":0},{"name":"fh_group","type":"int","value":30},{"name":"fh_id","type":"int","value":133},{"name":"x1","type":"int","value":1254},{"name":"x2","type":"int","value":1266},{"name":"y1","type":"int","value":-655},{"name":"y2","type":"int","value":-655},{"name":"next","type":"int","value":129},{"name":"prev","type":"int","value":132}],"polyline":[{"x":0,"y":0},{"x":12,"y":0}]},{"id":571,"x":906,"y":-630,"visible":true,"properties":[{"name":"layer","type":"int","value":0},{"name":"group","type":"int","value":31},{"name":"id","type":"int","value":139},{"name":"fh_layer","type":"int","value":0},{"name":"fh_group","type":"int","value":31},{"name":"fh_id","type":"int","value":139},{"name":"x1","type":"int","value":906},{"name":"x2","type":"int","value":906},{"name":"y1","type":"int","value":-630},{"name":"y2","type":"int","value":-655},{"name":"next","type":"int","value":140},{"name":"prev","type":"int","value":0}],"polyline":[{"x":0,"y":0},{"x":0,"y":-25}]},{"id":572,"x":906,"y":-655,"visible":true,"properties":[{"name":"layer","type":"int","value":0},{"name":"group","type":"int","value":31},{"name":"id","type":"int","value":140},{"name":"fh_layer","type":"int","value":0},{"name":"fh_group","type":"int","value":31},{"name":"fh_id","type":"int","value":140},{"name":"x1","type":"int","value":906},{"name":"x2","type":"int","value":984},{"name":"y1","type":"int","value":-655},{"name":"y2","type":"int","value":-655},{"name":"next","type":"int","value":143},{"name":"prev","type":"int","value":139}],"polyline":[{"x":0,"y":0},{"x":78,"y":0}]},{"id":573,"x":996,"y":-655,"visible":true,"properties":[{"name":"layer","type":"int","value":0},{"name":"group","type":"int","value":31},{"name":"id","type":"int","value":141},{"name":"fh_layer","type":"int","value":0},{"name":"fh_group","type":"int","value":31},{"name":"fh_id","type":"int","value":141},{"name":"x1","type":"int","value":996},{"name":"x2","type":"int","value":1074},{"name":"y1","type":"int","value":-655},{"name":"y2","type":"int","value":-655},{"name":"next","type":"int","value":142},{"name":"prev","type":"int","value":143}],"polyline":[{"x":0,"y":0},{"x":78,"y":0}]},{"id":574,"x":1074,"y":-655,"visible":true,"properties":[{"name":"layer","type":"int","value":0},{"name":"group","type":"int","value":31},{"name":"id","type":"int","value":142},{"name":"fh_layer","type":"int","value":0},{"name":"fh_group","type":"int","value":31},{"name":"fh_id","type":"int","value":142},{"name":"x1","type":"int","value":1074},{"name":"x2","type":"int","value":1074},{"name":"y1","type":"int","value":-655},{"name":"y2","type":"int","value":-630},{"name":"next","type":"int","value":0},{"name":"prev","type":"int","value":141}],"polyline":[{"x":0,"y":0},{"x":0,"y":25}]},{"id":575,"x":984,"y":-655,"visible":true,"properties":[{"name":"layer","type":"int","value":0},{"name":"group","type":"int","value":31},{"name":"id","type":"int","value":143},{"name":"fh_layer","type":"int","value":0},{"name":"fh_group","type":"int","value":31},{"name":"fh_id","type":"int","value":143},{"name":"x1","type":"int","value":984},{"name":"x2","type":"int","value":996},{"name":"y1","type":"int","value":-655},{"name":"y2","type":"int","value":-655},{"name":"next","type":"int","value":141},{"name":"prev","type":"int","value":140}],"polyline":[{"x":0,"y":0},{"x":12,"y":0}]},{"id":576,"x":1356,"y":-690,"visible":true,"properties":[{"name":"layer","type":"int","value":0},{"name":"group","type":"int","value":36},{"name":"id","type":"int","value":124},{"name":"fh_layer","type":"int","value":0},{"name":"fh_group","type":"int","value":36},{"name":"fh_id","type":"int","value":124},{"name":"x1","type":"int","value":1356},{"name":"x2","type":"int","value":1356},{"name":"y1","type":"int","value":-690},{"name":"y2","type":"int","value":-715},{"name":"next","type":"int","value":125},{"name":"prev","type":"int","value":0}],"polyline":[{"x":0,"y":0},{"x":0,"y":-25}]},{"id":577,"x":1356,"y":-715,"visible":true,"properties":[{"name":"layer","type":"int","value":0},{"name":"group","type":"int","value":36},{"name":"id","type":"int","value":125},{"name":"fh_layer","type":"int","value":0},{"name":"fh_group","type":"int","value":36},{"name":"fh_id","type":"int","value":125},{"name":"x1","type":"int","value":1356},{"name":"x2","type":"int","value":1434},{"name":"y1","type":"int","value":-715},{"name":"y2","type":"int","value":-715},{"name":"next","type":"int","value":128},{"name":"prev","type":"int","value":124}],"polyline":[{"x":0,"y":0},{"x":78,"y":0}]},{"id":578,"x":1446,"y":-715,"visible":true,"properties":[{"name":"layer","type":"int","value":0},{"name":"group","type":"int","value":36},{"name":"id","type":"int","value":126},{"name":"fh_layer","type":"int","value":0},{"name":"fh_group","type":"int","value":36},{"name":"fh_id","type":"int","value":126},{"name":"x1","type":"int","value":1446},{"name":"x2","type":"int","value":1524},{"name":"y1","type":"int","value":-715},{"name":"y2","type":"int","value":-715},{"name":"next","type":"int","value":127},{"name":"prev","type":"int","value":128}],"polyline":[{"x":0,"y":0},{"x":78,"y":0}]},{"id":579,"x":1524,"y":-715,"visible":true,"properties":[{"name":"layer","type":"int","value":0},{"name":"group","type":"int","value":36},{"name":"id","type":"int","value":127},{"name":"fh_layer","type":"int","value":0},{"name":"fh_group","type":"int","value":36},{"name":"fh_id","type":"int","value":127},{"name":"x1","type":"int","value":1524},{"name":"x2","type":"int","value":1524},{"name":"y1","type":"int","value":-715},{"name":"y2","type":"int","value":-690},{"name":"next","type":"int","value":0},{"name":"prev","type":"int","value":126}],"polyline":[{"x":0,"y":0},{"x":0,"y":25}]},{"id":580,"x":1434,"y":-715,"visible":true,"properties":[{"name":"layer","type":"int","value":0},{"name":"group","type":"int","value":36},{"name":"id","type":"int","value":128},{"name":"fh_layer","type":"int","value":0},{"name":"fh_group","type":"int","value":36},{"name":"fh_id","type":"int","value":128},{"name":"x1","type":"int","value":1434},{"name":"x2","type":"int","value":1446},{"name":"y1","type":"int","value":-715},{"name":"y2","type":"int","value":-715},{"name":"next","type":"int","value":126},{"name":"prev","type":"int","value":125}],"polyline":[{"x":0,"y":0},{"x":12,"y":0}]},{"id":581,"x":855,"y":-715,"visible":true,"properties":[{"name":"layer","type":"int","value":0},{"name":"group","type":"int","value":37},{"name":"id","type":"int","value":4},{"name":"fh_layer","type":"int","value":0},{"name":"fh_group","type":"int","value":37},{"name":"fh_id","type":"int","value":4},{"name":"x1","type":"int","value":855},{"name":"x2","type":"int","value":894},{"name":"y1","type":"int","value":-715},{"name":"y2","type":"int","value":-715},{"name":"next","type":"int","value":7},{"name":"prev","type":"int","value":6}],"polyline":[{"x":0,"y":0},{"x":39,"y":0}]},{"id":582,"x":816,"y":-690,"visible":true,"properties":[{"name":"layer","type":"int","value":0},{"name":"group","type":"int","value":37},{"name":"id","type":"int","value":5},{"name":"fh_layer","type":"int","value":0},{"name":"fh_group","type":"int","value":37},{"name":"fh_id","type":"int","value":5},{"name":"x1","type":"int","value":816},{"name":"x2","type":"int","value":816},{"name":"y1","type":"int","value":-690},{"name":"y2","type":"int","value":-715},{"name":"next","type":"int","value":6},{"name":"prev","type":"int","value":0}],"polyline":[{"x":0,"y":0},{"x":0,"y":-25}]},{"id":583,"x":816,"y":-715,"visible":true,"properties":[{"name":"layer","type":"int","value":0},{"name":"group","type":"int","value":37},{"name":"id","type":"int","value":6},{"name":"fh_layer","type":"int","value":0},{"name":"fh_group","type":"int","value":37},{"name":"fh_id","type":"int","value":6},{"name":"x1","type":"int","value":816},{"name":"x2","type":"int","value":855},{"name":"y1","type":"int","value":-715},{"name":"y2","type":"int","value":-715},{"name":"next","type":"int","value":4},{"name":"prev","type":"int","value":5}],"polyline":[{"x":0,"y":0},{"x":39,"y":0}]},{"id":584,"x":894,"y":-715,"visible":true,"properties":[{"name":"layer","type":"int","value":0},{"name":"group","type":"int","value":37},{"name":"id","type":"int","value":7},{"name":"fh_layer","type":"int","value":0},{"name":"fh_group","type":"int","value":37},{"name":"fh_id","type":"int","value":7},{"name":"x1","type":"int","value":894},{"name":"x2","type":"int","value":906},{"name":"y1","type":"int","value":-715},{"name":"y2","type":"int","value":-715},{"name":"next","type":"int","value":8},{"name":"prev","type":"int","value":4}],"polyline":[{"x":0,"y":0},{"x":12,"y":0}]},{"id":585,"x":906,"y":-715,"visible":true,"properties":[{"name":"layer","type":"int","value":0},{"name":"group","type":"int","value":37},{"name":"id","type":"int","value":8},{"name":"fh_layer","type":"int","value":0},{"name":"fh_group","type":"int","value":37},{"name":"fh_id","type":"int","value":8},{"name":"x1","type":"int","value":906},{"name":"x2","type":"int","value":945},{"name":"y1","type":"int","value":-715},{"name":"y2","type":"int","value":-715},{"name":"next","type":"int","value":9},{"name":"prev","type":"int","value":7}],"polyline":[{"x":0,"y":0},{"x":39,"y":0}]},{"id":586,"x":945,"y":-715,"visible":true,"properties":[{"name":"layer","type":"int","value":0},{"name":"group","type":"int","value":37},{"name":"id","type":"int","value":9},{"name":"fh_layer","type":"int","value":0},{"name":"fh_group","type":"int","value":37},{"name":"fh_id","type":"int","value":9},{"name":"x1","type":"int","value":945},{"name":"x2","type":"int","value":984},{"name":"y1","type":"int","value":-715},{"name":"y2","type":"int","value":-715},{"name":"next","type":"int","value":10},{"name":"prev","type":"int","value":8}],"polyline":[{"x":0,"y":0},{"x":39,"y":0}]},{"id":587,"x":984,"y":-715,"visible":true,"properties":[{"name":"layer","type":"int","value":0},{"name":"group","type":"int","value":37},{"name":"id","type":"int","value":10},{"name":"fh_layer","type":"int","value":0},{"name":"fh_group","type":"int","value":37},{"name":"fh_id","type":"int","value":10},{"name":"x1","type":"int","value":984},{"name":"x2","type":"int","value":984},{"name":"y1","type":"int","value":-715},{"name":"y2","type":"int","value":-690},{"name":"next","type":"int","value":0},{"name":"prev","type":"int","value":9}],"polyline":[{"x":0,"y":0},{"x":0,"y":25}]},{"id":588,"x":1665,"y":-835,"visible":true,"properties":[{"name":"layer","type":"int","value":0},{"name":"group","type":"int","value":39},{"name":"id","type":"int","value":14},{"name":"fh_layer","type":"int","value":0},{"name":"fh_group","type":"int","value":39},{"name":"fh_id","type":"int","value":14},{"name":"x1","type":"int","value":1665},{"name":"x2","type":"int","value":1755},{"name":"y1","type":"int","value":-835},{"name":"y2","type":"int","value":-895},{"name":"next","type":"int","value":65},{"name":"prev","type":"int","value":29}],"polyline":[{"x":0,"y":0},{"x":90,"y":-60}]},{"id":589,"x":1575,"y":-775,"visible":true,"properties":[{"name":"layer","type":"int","value":0},{"name":"group","type":"int","value":39},{"name":"id","type":"int","value":29},{"name":"fh_layer","type":"int","value":0},{"name":"fh_group","type":"int","value":39},{"name":"fh_id","type":"int","value":29},{"name":"x1","type":"int","value":1575},{"name":"x2","type":"int","value":1665},{"name":"y1","type":"int","value":-775},{"name":"y2","type":"int","value":-835},{"name":"next","type":"int","value":14},{"name":"prev","type":"int","value":67}],"polyline":[{"x":0,"y":0},{"x":90,"y":-60}]},{"id":590,"x":1845,"y":-895,"visible":true,"properties":[{"name":"layer","type":"int","value":0},{"name":"group","type":"int","value":39},{"name":"id","type":"int","value":61},{"name":"fh_layer","type":"int","value":0},{"name":"fh_group","type":"int","value":39},{"name":"fh_id","type":"int","value":61},{"name":"x1","type":"int","value":1845},{"name":"x2","type":"int","value":1935},{"name":"y1","type":"int","value":-895},{"name":"y2","type":"int","value":-895},{"name":"next","type":"int","value":64},{"name":"prev","type":"int","value":65}],"polyline":[{"x":0,"y":0},{"x":90,"y":0}]},{"id":591,"x":2025,"y":-895,"visible":true,"properties":[{"name":"layer","type":"int","value":0},{"name":"group","type":"int","value":39},{"name":"id","type":"int","value":63},{"name":"fh_layer","type":"int","value":0},{"name":"fh_group","type":"int","value":39},{"name":"fh_id","type":"int","value":63},{"name":"x1","type":"int","value":2025},{"name":"x2","type":"int","value":2115},{"name":"y1","type":"int","value":-895},{"name":"y2","type":"int","value":-895},{"name":"next","type":"int","value":76},{"name":"prev","type":"int","value":64}],"polyline":[{"x":0,"y":0},{"x":90,"y":0}]},{"id":592,"x":1935,"y":-895,"visible":true,"properties":[{"name":"layer","type":"int","value":0},{"name":"group","type":"int","value":39},{"name":"id","type":"int","value":64},{"name":"fh_layer","type":"int","value":0},{"name":"fh_group","type":"int","value":39},{"name":"fh_id","type":"int","value":64},{"name":"x1","type":"int","value":1935},{"name":"x2","type":"int","value":2025},{"name":"y1","type":"int","value":-895},{"name":"y2","type":"int","value":-895},{"name":"next","type":"int","value":63},{"name":"prev","type":"int","value":61}],"polyline":[{"x":0,"y":0},{"x":90,"y":0}]},{"id":593,"x":1755,"y":-895,"visible":true,"properties":[{"name":"layer","type":"int","value":0},{"name":"group","type":"int","value":39},{"name":"id","type":"int","value":65},{"name":"fh_layer","type":"int","value":0},{"name":"fh_group","type":"int","value":39},{"name":"fh_id","type":"int","value":65},{"name":"x1","type":"int","value":1755},{"name":"x2","type":"int","value":1845},{"name":"y1","type":"int","value":-895},{"name":"y2","type":"int","value":-895},{"name":"next","type":"int","value":61},{"name":"prev","type":"int","value":14}],"polyline":[{"x":0,"y":0},{"x":90,"y":0}]},{"id":594,"x":1536,"y":-750,"visible":true,"properties":[{"name":"layer","type":"int","value":0},{"name":"group","type":"int","value":39},{"name":"id","type":"int","value":66},{"name":"fh_layer","type":"int","value":0},{"name":"fh_group","type":"int","value":39},{"name":"fh_id","type":"int","value":66},{"name":"x1","type":"int","value":1536},{"name":"x2","type":"int","value":1536},{"name":"y1","type":"int","value":-750},{"name":"y2","type":"int","value":-775},{"name":"next","type":"int","value":67},{"name":"prev","type":"int","value":0}],"polyline":[{"x":0,"y":0},{"x":0,"y":-25}]},{"id":595,"x":1536,"y":-775,"visible":true,"properties":[{"name":"layer","type":"int","value":0},{"name":"group","type":"int","value":39},{"name":"id","type":"int","value":67},{"name":"fh_layer","type":"int","value":0},{"name":"fh_group","type":"int","value":39},{"name":"fh_id","type":"int","value":67},{"name":"x1","type":"int","value":1536},{"name":"x2","type":"int","value":1575},{"name":"y1","type":"int","value":-775},{"name":"y2","type":"int","value":-775},{"name":"next","type":"int","value":29},{"name":"prev","type":"int","value":66}],"polyline":[{"x":0,"y":0},{"x":39,"y":0}]},{"id":596,"x":2115,"y":-895,"visible":true,"properties":[{"name":"layer","type":"int","value":0},{"name":"group","type":"int","value":39},{"name":"id","type":"int","value":76},{"name":"fh_layer","type":"int","value":0},{"name":"fh_group","type":"int","value":39},{"name":"fh_id","type":"int","value":76},{"name":"x1","type":"int","value":2115},{"name":"x2","type":"int","value":2205},{"name":"y1","type":"int","value":-895},{"name":"y2","type":"int","value":-835},{"name":"next","type":"int","value":78},{"name":"prev","type":"int","value":63}],"polyline":[{"x":0,"y":0},{"x":90,"y":60}]},{"id":597,"x":2334,"y":-775,"visible":true,"properties":[{"name":"layer","type":"int","value":0},{"name":"group","type":"int","value":39},{"name":"id","type":"int","value":77},{"name":"fh_layer","type":"int","value":0},{"name":"fh_group","type":"int","value":39},{"name":"fh_id","type":"int","value":77},{"name":"x1","type":"int","value":2334},{"name":"x2","type":"int","value":2334},{"name":"y1","type":"int","value":-775},{"name":"y2","type":"int","value":-750},{"name":"next","type":"int","value":0},{"name":"prev","type":"int","value":79}],"polyline":[{"x":0,"y":0},{"x":0,"y":25}]},{"id":598,"x":2205,"y":-835,"visible":true,"properties":[{"name":"layer","type":"int","value":0},{"name":"group","type":"int","value":39},{"name":"id","type":"int","value":78},{"name":"fh_layer","type":"int","value":0},{"name":"fh_group","type":"int","value":39},{"name":"fh_id","type":"int","value":78},{"name":"x1","type":"int","value":2205},{"name":"x2","type":"int","value":2295},{"name":"y1","type":"int","value":-835},{"name":"y2","type":"int","value":-775},{"name":"next","type":"int","value":79},{"name":"prev","type":"int","value":76}],"polyline":[{"x":0,"y":0},{"x":90,"y":60}]},{"id":599,"x":2295,"y":-775,"visible":true,"properties":[{"name":"layer","type":"int","value":0},{"name":"group","type":"int","value":39},{"name":"id","type":"int","value":79},{"name":"fh_layer","type":"int","value":0},{"name":"fh_group","type":"int","value":39},{"name":"fh_id","type":"int","value":79},{"name":"x1","type":"int","value":2295},{"name":"x2","type":"int","value":2334},{"name":"y1","type":"int","value":-775},{"name":"y2","type":"int","value":-775},{"name":"next","type":"int","value":77},{"name":"prev","type":"int","value":78}],"polyline":[{"x":0,"y":0},{"x":39,"y":0}]},{"id":600,"x":636,"y":-750,"visible":true,"properties":[{"name":"layer","type":"int","value":0},{"name":"group","type":"int","value":40},{"name":"id","type":"int","value":109},{"name":"fh_layer","type":"int","value":0},{"name":"fh_group","type":"int","value":40},{"name":"fh_id","type":"int","value":109},{"name":"x1","type":"int","value":636},{"name":"x2","type":"int","value":636},{"name":"y1","type":"int","value":-750},{"name":"y2","type":"int","value":-775},{"name":"next","type":"int","value":110},{"name":"prev","type":"int","value":0}],"polyline":[{"x":0,"y":0},{"x":0,"y":-25}]},{"id":601,"x":636,"y":-775,"visible":true,"properties":[{"name":"layer","type":"int","value":0},{"name":"group","type":"int","value":40},{"name":"id","type":"int","value":110},{"name":"fh_layer","type":"int","value":0},{"name":"fh_group","type":"int","value":40},{"name":"fh_id","type":"int","value":110},{"name":"x1","type":"int","value":636},{"name":"x2","type":"int","value":714},{"name":"y1","type":"int","value":-775},{"name":"y2","type":"int","value":-775},{"name":"next","type":"int","value":113},{"name":"prev","type":"int","value":109}],"polyline":[{"x":0,"y":0},{"x":78,"y":0}]},{"id":602,"x":726,"y":-775,"visible":true,"properties":[{"name":"layer","type":"int","value":0},{"name":"group","type":"int","value":40},{"name":"id","type":"int","value":111},{"name":"fh_layer","type":"int","value":0},{"name":"fh_group","type":"int","value":40},{"name":"fh_id","type":"int","value":111},{"name":"x1","type":"int","value":726},{"name":"x2","type":"int","value":804},{"name":"y1","type":"int","value":-775},{"name":"y2","type":"int","value":-775},{"name":"next","type":"int","value":112},{"name":"prev","type":"int","value":113}],"polyline":[{"x":0,"y":0},{"x":78,"y":0}]},{"id":603,"x":804,"y":-775,"visible":true,"properties":[{"name":"layer","type":"int","value":0},{"name":"group","type":"int","value":40},{"name":"id","type":"int","value":112},{"name":"fh_layer","type":"int","value":0},{"name":"fh_group","type":"int","value":40},{"name":"fh_id","type":"int","value":112},{"name":"x1","type":"int","value":804},{"name":"x2","type":"int","value":804},{"name":"y1","type":"int","value":-775},{"name":"y2","type":"int","value":-750},{"name":"next","type":"int","value":0},{"name":"prev","type":"int","value":111}],"polyline":[{"x":0,"y":0},{"x":0,"y":25}]},{"id":604,"x":714,"y":-775,"visible":true,"properties":[{"name":"layer","type":"int","value":0},{"name":"group","type":"int","value":40},{"name":"id","type":"int","value":113},{"name":"fh_layer","type":"int","value":0},{"name":"fh_group","type":"int","value":40},{"name":"fh_id","type":"int","value":113},{"name":"x1","type":"int","value":714},{"name":"x2","type":"int","value":726},{"name":"y1","type":"int","value":-775},{"name":"y2","type":"int","value":-775},{"name":"next","type":"int","value":111},{"name":"prev","type":"int","value":110}],"polyline":[{"x":0,"y":0},{"x":12,"y":0}]},{"id":605,"x":456,"y":-810,"visible":true,"properties":[{"name":"layer","type":"int","value":0},{"name":"group","type":"int","value":42},{"name":"id","type":"int","value":114},{"name":"fh_layer","type":"int","value":0},{"name":"fh_group","type":"int","value":42},{"name":"fh_id","type":"int","value":114},{"name":"x1","type":"int","value":456},{"name":"x2","type":"int","value":456},{"name":"y1","type":"int","value":-810},{"name":"y2","type":"int","value":-835},{"name":"next","type":"int","value":115},{"name":"prev","type":"int","value":0}],"polyline":[{"x":0,"y":0},{"x":0,"y":-25}]},{"id":606,"x":456,"y":-835,"visible":true,"properties":[{"name":"layer","type":"int","value":0},{"name":"group","type":"int","value":42},{"name":"id","type":"int","value":115},{"name":"fh_layer","type":"int","value":0},{"name":"fh_group","type":"int","value":42},{"name":"fh_id","type":"int","value":115},{"name":"x1","type":"int","value":456},{"name":"x2","type":"int","value":534},{"name":"y1","type":"int","value":-835},{"name":"y2","type":"int","value":-835},{"name":"next","type":"int","value":118},{"name":"prev","type":"int","value":114}],"polyline":[{"x":0,"y":0},{"x":78,"y":0}]},{"id":607,"x":546,"y":-835,"visible":true,"properties":[{"name":"layer","type":"int","value":0},{"name":"group","type":"int","value":42},{"name":"id","type":"int","value":116},{"name":"fh_layer","type":"int","value":0},{"name":"fh_group","type":"int","value":42},{"name":"fh_id","type":"int","value":116},{"name":"x1","type":"int","value":546},{"name":"x2","type":"int","value":624},{"name":"y1","type":"int","value":-835},{"name":"y2","type":"int","value":-835},{"name":"next","type":"int","value":117},{"name":"prev","type":"int","value":118}],"polyline":[{"x":0,"y":0},{"x":78,"y":0}]},{"id":608,"x":624,"y":-835,"visible":true,"properties":[{"name":"layer","type":"int","value":0},{"name":"group","type":"int","value":42},{"name":"id","type":"int","value":117},{"name":"fh_layer","type":"int","value":0},{"name":"fh_group","type":"int","value":42},{"name":"fh_id","type":"int","value":117},{"name":"x1","type":"int","value":624},{"name":"x2","type":"int","value":624},{"name":"y1","type":"int","value":-835},{"name":"y2","type":"int","value":-810},{"name":"next","type":"int","value":0},{"name":"prev","type":"int","value":116}],"polyline":[{"x":0,"y":0},{"x":0,"y":25}]},{"id":609,"x":534,"y":-835,"visible":true,"properties":[{"name":"layer","type":"int","value":0},{"name":"group","type":"int","value":42},{"name":"id","type":"int","value":118},{"name":"fh_layer","type":"int","value":0},{"name":"fh_group","type":"int","value":42},{"name":"fh_id","type":"int","value":118},{"name":"x1","type":"int","value":534},{"name":"x2","type":"int","value":546},{"name":"y1","type":"int","value":-835},{"name":"y2","type":"int","value":-835},{"name":"next","type":"int","value":116},{"name":"prev","type":"int","value":115}],"polyline":[{"x":0,"y":0},{"x":12,"y":0}]},{"id":610,"x":276,"y":-870,"visible":true,"properties":[{"name":"layer","type":"int","value":0},{"name":"group","type":"int","value":43},{"name":"id","type":"int","value":119},{"name":"fh_layer","type":"int","value":0},{"name":"fh_group","type":"int","value":43},{"name":"fh_id","type":"int","value":119},{"name":"x1","type":"int","value":276},{"name":"x2","type":"int","value":276},{"name":"y1","type":"int","value":-870},{"name":"y2","type":"int","value":-895},{"name":"next","type":"int","value":120},{"name":"prev","type":"int","value":0}],"polyline":[{"x":0,"y":0},{"x":0,"y":-25}]},{"id":611,"x":276,"y":-895,"visible":true,"properties":[{"name":"layer","type":"int","value":0},{"name":"group","type":"int","value":43},{"name":"id","type":"int","value":120},{"name":"fh_layer","type":"int","value":0},{"name":"fh_group","type":"int","value":43},{"name":"fh_id","type":"int","value":120},{"name":"x1","type":"int","value":276},{"name":"x2","type":"int","value":354},{"name":"y1","type":"int","value":-895},{"name":"y2","type":"int","value":-895},{"name":"next","type":"int","value":123},{"name":"prev","type":"int","value":119}],"polyline":[{"x":0,"y":0},{"x":78,"y":0}]},{"id":612,"x":366,"y":-895,"visible":true,"properties":[{"name":"layer","type":"int","value":0},{"name":"group","type":"int","value":43},{"name":"id","type":"int","value":121},{"name":"fh_layer","type":"int","value":0},{"name":"fh_group","type":"int","value":43},{"name":"fh_id","type":"int","value":121},{"name":"x1","type":"int","value":366},{"name":"x2","type":"int","value":444},{"name":"y1","type":"int","value":-895},{"name":"y2","type":"int","value":-895},{"name":"next","type":"int","value":122},{"name":"prev","type":"int","value":123}],"polyline":[{"x":0,"y":0},{"x":78,"y":0}]},{"id":613,"x":444,"y":-895,"visible":true,"properties":[{"name":"layer","type":"int","value":0},{"name":"group","type":"int","value":43},{"name":"id","type":"int","value":122},{"name":"fh_layer","type":"int","value":0},{"name":"fh_group","type":"int","value":43},{"name":"fh_id","type":"int","value":122},{"name":"x1","type":"int","value":444},{"name":"x2","type":"int","value":444},{"name":"y1","type":"int","value":-895},{"name":"y2","type":"int","value":-870},{"name":"next","type":"int","value":0},{"name":"prev","type":"int","value":121}],"polyline":[{"x":0,"y":0},{"x":0,"y":25}]},{"id":614,"x":354,"y":-895,"visible":true,"properties":[{"name":"layer","type":"int","value":0},{"name":"group","type":"int","value":43},{"name":"id","type":"int","value":123},{"name":"fh_layer","type":"int","value":0},{"name":"fh_group","type":"int","value":43},{"name":"fh_id","type":"int","value":123},{"name":"x1","type":"int","value":354},{"name":"x2","type":"int","value":366},{"name":"y1","type":"int","value":-895},{"name":"y2","type":"int","value":-895},{"name":"next","type":"int","value":121},{"name":"prev","type":"int","value":120}],"polyline":[{"x":0,"y":0},{"x":12,"y":0}]},{"id":615,"x":456,"y":-930,"visible":true,"properties":[{"name":"layer","type":"int","value":0},{"name":"group","type":"int","value":44},{"name":"id","type":"int","value":11},{"name":"fh_layer","type":"int","value":0},{"name":"fh_group","type":"int","value":44},{"name":"fh_id","type":"int","value":11},{"name":"x1","type":"int","value":456},{"name":"x2","type":"int","value":456},{"name":"y1","type":"int","value":-930},{"name":"y2","type":"int","value":-955},{"name":"next","type":"int","value":12},{"name":"prev","type":"int","value":0}],"polyline":[{"x":0,"y":0},{"x":0,"y":-25}]},{"id":616,"x":456,"y":-955,"visible":true,"properties":[{"name":"layer","type":"int","value":0},{"name":"group","type":"int","value":44},{"name":"id","type":"int","value":12},{"name":"fh_layer","type":"int","value":0},{"name":"fh_group","type":"int","value":44},{"name":"fh_id","type":"int","value":12},{"name":"x1","type":"int","value":456},{"name":"x2","type":"int","value":495},{"name":"y1","type":"int","value":-955},{"name":"y2","type":"int","value":-955},{"name":"next","type":"int","value":17},{"name":"prev","type":"int","value":11}],"polyline":[{"x":0,"y":0},{"x":39,"y":0}]},{"id":617,"x":1575,"y":-1015,"visible":true,"properties":[{"name":"layer","type":"int","value":0},{"name":"group","type":"int","value":44},{"name":"id","type":"int","value":13},{"name":"fh_layer","type":"int","value":0},{"name":"fh_group","type":"int","value":44},{"name":"fh_id","type":"int","value":13},{"name":"x1","type":"int","value":1575},{"name":"x2","type":"int","value":1665},{"name":"y1","type":"int","value":-1015},{"name":"y2","type":"int","value":-955},{"name":"next","type":"int","value":68},{"name":"prev","type":"int","value":20}],"polyline":[{"x":0,"y":0},{"x":90,"y":60}]},{"id":618,"x":1215,"y":-1075,"visible":true,"properties":[{"name":"layer","type":"int","value":0},{"name":"group","type":"int","value":44},{"name":"id","type":"int","value":15},{"name":"fh_layer","type":"int","value":0},{"name":"fh_group","type":"int","value":44},{"name":"fh_id","type":"int","value":15},{"name":"x1","type":"int","value":1215},{"name":"x2","type":"int","value":1305},{"name":"y1","type":"int","value":-1075},{"name":"y2","type":"int","value":-1075},{"name":"next","type":"int","value":73},{"name":"prev","type":"int","value":24}],"polyline":[{"x":0,"y":0},{"x":90,"y":0}]},{"id":619,"x":585,"y":-1015,"visible":true,"properties":[{"name":"layer","type":"int","value":0},{"name":"group","type":"int","value":44},{"name":"id","type":"int","value":16},{"name":"fh_layer","type":"int","value":0},{"name":"fh_group","type":"int","value":44},{"name":"fh_id","type":"int","value":16},{"name":"x1","type":"int","value":585},{"name":"x2","type":"int","value":675},{"name":"y1","type":"int","value":-1015},{"name":"y2","type":"int","value":-1075},{"name":"next","type":"int","value":62},{"name":"prev","type":"int","value":17}],"polyline":[{"x":0,"y":0},{"x":90,"y":-60}]},{"id":620,"x":495,"y":-955,"visible":true,"properties":[{"name":"layer","type":"int","value":0},{"name":"group","type":"int","value":44},{"name":"id","type":"int","value":17},{"name":"fh_layer","type":"int","value":0},{"name":"fh_group","type":"int","value":44},{"name":"fh_id","type":"int","value":17},{"name":"x1","type":"int","value":495},{"name":"x2","type":"int","value":585},{"name":"y1","type":"int","value":-955},{"name":"y2","type":"int","value":-1015},{"name":"next","type":"int","value":16},{"name":"prev","type":"int","value":12}],"polyline":[{"x":0,"y":0},{"x":90,"y":-60}]},{"id":621,"x":1485,"y":-1075,"visible":true,"properties":[{"name":"layer","type":"int","value":0},{"name":"group","type":"int","value":44},{"name":"id","type":"int","value":20},{"name":"fh_layer","type":"int","value":0},{"name":"fh_group","type":"int","value":44},{"name":"fh_id","type":"int","value":20},{"name":"x1","type":"int","value":1485},{"name":"x2","type":"int","value":1575},{"name":"y1","type":"int","value":-1075},{"name":"y2","type":"int","value":-1015},{"name":"next","type":"int","value":13},{"name":"prev","type":"int","value":72}],"polyline":[{"x":0,"y":0},{"x":90,"y":60}]},{"id":622,"x":1125,"y":-1075,"visible":true,"properties":[{"name":"layer","type":"int","value":0},{"name":"group","type":"int","value":44},{"name":"id","type":"int","value":24},{"name":"fh_layer","type":"int","value":0},{"name":"fh_group","type":"int","value":44},{"name":"fh_id","type":"int","value":24},{"name":"x1","type":"int","value":1125},{"name":"x2","type":"int","value":1215},{"name":"y1","type":"int","value":-1075},{"name":"y2","type":"int","value":-1075},{"name":"next","type":"int","value":15},{"name":"prev","type":"int","value":71}],"polyline":[{"x":0,"y":0},{"x":90,"y":0}]},{"id":623,"x":675,"y":-1075,"visible":true,"properties":[{"name":"layer","type":"int","value":0},{"name":"group","type":"int","value":44},{"name":"id","type":"int","value":62},{"name":"fh_layer","type":"int","value":0},{"name":"fh_group","type":"int","value":44},{"name":"fh_id","type":"int","value":62},{"name":"x1","type":"int","value":675},{"name":"x2","type":"int","value":765},{"name":"y1","type":"int","value":-1075},{"name":"y2","type":"int","value":-1075},{"name":"next","type":"int","value":70},{"name":"prev","type":"int","value":16}],"polyline":[{"x":0,"y":0},{"x":90,"y":0}]},{"id":624,"x":1665,"y":-955,"visible":true,"properties":[{"name":"layer","type":"int","value":0},{"name":"group","type":"int","value":44},{"name":"id","type":"int","value":68},{"name":"fh_layer","type":"int","value":0},{"name":"fh_group","type":"int","value":44},{"name":"fh_id","type":"int","value":68},{"name":"x1","type":"int","value":1665},{"name":"x2","type":"int","value":1704},{"name":"y1","type":"int","value":-955},{"name":"y2","type":"int","value":-955},{"name":"next","type":"int","value":69},{"name":"prev","type":"int","value":13}],"polyline":[{"x":0,"y":0},{"x":39,"y":0}]},{"id":625,"x":1704,"y":-955,"visible":true,"properties":[{"name":"layer","type":"int","value":0},{"name":"group","type":"int","value":44},{"name":"id","type":"int","value":69},{"name":"fh_layer","type":"int","value":0},{"name":"fh_group","type":"int","value":44},{"name":"fh_id","type":"int","value":69},{"name":"x1","type":"int","value":1704},{"name":"x2","type":"int","value":1704},{"name":"y1","type":"int","value":-955},{"name":"y2","type":"int","value":-930},{"name":"next","type":"int","value":0},{"name":"prev","type":"int","value":68}],"polyline":[{"x":0,"y":0},{"x":0,"y":25}]},{"id":626,"x":765,"y":-1075,"visible":true,"properties":[{"name":"layer","type":"int","value":0},{"name":"group","type":"int","value":44},{"name":"id","type":"int","value":70},{"name":"fh_layer","type":"int","value":0},{"name":"fh_group","type":"int","value":44},{"name":"fh_id","type":"int","value":70},{"name":"x1","type":"int","value":765},{"name":"x2","type":"int","value":855},{"name":"y1","type":"int","value":-1075},{"name":"y2","type":"int","value":-1075},{"name":"next","type":"int","value":75},{"name":"prev","type":"int","value":62}],"polyline":[{"x":0,"y":0},{"x":90,"y":0}]},{"id":627,"x":1035,"y":-1075,"visible":true,"properties":[{"name":"layer","type":"int","value":0},{"name":"group","type":"int","value":44},{"name":"id","type":"int","value":71},{"name":"fh_layer","type":"int","value":0},{"name":"fh_group","type":"int","value":44},{"name":"fh_id","type":"int","value":71},{"name":"x1","type":"int","value":1035},{"name":"x2","type":"int","value":1125},{"name":"y1","type":"int","value":-1075},{"name":"y2","type":"int","value":-1075},{"name":"next","type":"int","value":24},{"name":"prev","type":"int","value":74}],"polyline":[{"x":0,"y":0},{"x":90,"y":0}]},{"id":628,"x":1395,"y":-1075,"visible":true,"properties":[{"name":"layer","type":"int","value":0},{"name":"group","type":"int","value":44},{"name":"id","type":"int","value":72},{"name":"fh_layer","type":"int","value":0},{"name":"fh_group","type":"int","value":44},{"name":"fh_id","type":"int","value":72},{"name":"x1","type":"int","value":1395},{"name":"x2","type":"int","value":1485},{"name":"y1","type":"int","value":-1075},{"name":"y2","type":"int","value":-1075},{"name":"next","type":"int","value":20},{"name":"prev","type":"int","value":73}],"polyline":[{"x":0,"y":0},{"x":90,"y":0}]},{"id":629,"x":1305,"y":-1075,"visible":true,"properties":[{"name":"layer","type":"int","value":0},{"name":"group","type":"int","value":44},{"name":"id","type":"int","value":73},{"name":"fh_layer","type":"int","value":0},{"name":"fh_group","type":"int","value":44},{"name":"fh_id","type":"int","value":73},{"name":"x1","type":"int","value":1305},{"name":"x2","type":"int","value":1395},{"name":"y1","type":"int","value":-1075},{"name":"y2","type":"int","value":-1075},{"name":"next","type":"int","value":72},{"name":"prev","type":"int","value":15}],"polyline":[{"x":0,"y":0},{"x":90,"y":0}]},{"id":630,"x":945,"y":-1075,"visible":true,"properties":[{"name":"layer","type":"int","value":0},{"name":"group","type":"int","value":44},{"name":"id","type":"int","value":74},{"name":"fh_layer","type":"int","value":0},{"name":"fh_group","type":"int","value":44},{"name":"fh_id","type":"int","value":74},{"name":"x1","type":"int","value":945},{"name":"x2","type":"int","value":1035},{"name":"y1","type":"int","value":-1075},{"name":"y2","type":"int","value":-1075},{"name":"next","type":"int","value":71},{"name":"prev","type":"int","value":75}],"polyline":[{"x":0,"y":0},{"x":90,"y":0}]},{"id":631,"x":855,"y":-1075,"visible":true,"properties":[{"name":"layer","type":"int","value":0},{"name":"group","type":"int","value":44},{"name":"id","type":"int","value":75},{"name":"fh_layer","type":"int","value":0},{"name":"fh_group","type":"int","value":44},{"name":"fh_id","type":"int","value":75},{"name":"x1","type":"int","value":855},{"name":"x2","type":"int","value":945},{"name":"y1","type":"int","value":-1075},{"name":"y2","type":"int","value":-1075},{"name":"next","type":"int","value":74},{"name":"prev","type":"int","value":70}],"polyline":[{"x":0,"y":0},{"x":90,"y":0}]}],"properties":[]},{"id":12,"name":"ladderRope","type":"objectgroup","visible":true,"opacity":1,"draworder":"index","offsetx":0,"offsety":0,"parallaxx":1,"parallaxy":1,"objects":[{"id":632,"x":525,"y":-53,"visible":true,"properties":[{"name":"ladder_id","type":"int","value":1},{"name":"l","type":"int","value":1},{"name":"x","type":"int","value":525},{"name":"uf","type":"int","value":1},{"name":"y1","type":"int","value":-53},{"name":"y2","type":"int","value":136},{"name":"page","type":"int","value":2}],"polyline":[{"x":0,"y":0},{"x":0,"y":189}]},{"id":633,"x":877,"y":-713,"visible":true,"properties":[{"name":"ladder_id","type":"int","value":2},{"name":"l","type":"int","value":1},{"name":"x","type":"int","value":877},{"name":"uf","type":"int","value":1},{"name":"y1","type":"int","value":-713},{"name":"y2","type":"int","value":-422},{"name":"page","type":"int","value":2}],"polyline":[{"x":0,"y":0},{"x":0,"y":291}]},{"id":634,"x":1267,"y":-152,"visible":true,"properties":[{"name":"ladder_id","type":"int","value":3},{"name":"l","type":"int","value":0},{"name":"x","type":"int","value":1267},{"name":"uf","type":"int","value":0},{"name":"y1","type":"int","value":-152},{"name":"y2","type":"int","value":184},{"name":"page","type":"int","value":2}],"polyline":[{"x":0,"y":0},{"x":0,"y":336}]},{"id":635,"x":1356,"y":-214,"visible":true,"properties":[{"name":"ladder_id","type":"int","value":4},{"name":"l","type":"int","value":0},{"name":"x","type":"int","value":1356},{"name":"uf","type":"int","value":0},{"name":"y1","type":"int","value":-214},{"name":"y2","type":"int","value":63},{"name":"page","type":"int","value":2}],"polyline":[{"x":0,"y":0},{"x":0,"y":277}]},{"id":636,"x":1450,"y":-271,"visible":true,"properties":[{"name":"ladder_id","type":"int","value":5},{"name":"l","type":"int","value":0},{"name":"x","type":"int","value":1450},{"name":"uf","type":"int","value":0},{"name":"y1","type":"int","value":-271},{"name":"y2","type":"int","value":6},{"name":"page","type":"int","value":2}],"polyline":[{"x":0,"y":0},{"x":0,"y":277}]},{"id":637,"x":1547,"y":-353,"visible":true,"properties":[{"name":"ladder_id","type":"int","value":6},{"name":"l","type":"int","value":0},{"name":"x","type":"int","value":1547},{"name":"uf","type":"int","value":1},{"name":"y1","type":"int","value":-353},{"name":"y2","type":"int","value":-37},{"name":"page","type":"int","value":2}],"polyline":[{"x":0,"y":0},{"x":0,"y":316}]},{"id":638,"x":542,"y":-833,"visible":true,"properties":[{"name":"ladder_id","type":"int","value":7},{"name":"l","type":"int","value":1},{"name":"x","type":"int","value":542},{"name":"uf","type":"int","value":1},{"name":"y1","type":"int","value":-833},{"name":"y2","type":"int","value":-590},{"name":"page","type":"int","value":2}],"polyline":[{"x":0,"y":0},{"x":0,"y":243}]},{"id":639,"x":1280,"y":-653,"visible":true,"properties":[{"name":"ladder_id","type":"int","value":8},{"name":"l","type":"int","value":1},{"name":"x","type":"int","value":1280},{"name":"uf","type":"int","value":1},{"name":"y1","type":"int","value":-653},{"name":"y2","type":"int","value":-409},{"name":"page","type":"int","value":2}],"polyline":[{"x":0,"y":0},{"x":0,"y":244}]}],"properties":[]},{"id":13,"name":"miniMap","type":"objectgroup","visible":true,"opacity":1,"draworder":"index","offsetx":0,"offsety":0,"parallaxx":1,"parallaxy":1,"objects":[{"id":640,"x":32,"y":1543,"visible":true,"properties":[{"name":"mag","type":"int","value":4},{"name":"centerX","type":"int","value":32},{"name":"centerY","type":"int","value":1543},{"name":"canvas_path","type":"string","value":"../images/30855.png"},{"name":"canvas_width","type":"int","value":150},{"name":"canvas_height","type":"int","value":125},{"name":"canvas_origin_x","type":"int","value":0},{"name":"canvas_origin_y","type":"int","value":0}],"point":true}],"properties":[]}],"tilesets":[{"firstgid":1,"source":"../tilesets/bg_midForest.tsj"},{"firstgid":6,"source":"../tilesets/tile_grassySoil.tsj"},{"firstgid":26,"source":"../tilesets/obj_connect_rope_0.tsj"},{"firstgid":30,"source":"../tilesets/obj_connect_ladder_0.tsj"},{"firstgid":35,"source":"../tilesets/obj_acc1_midForest_nature.tsj"},{"firstgid":45,"source":"../tilesets/obj_guide_milepost_common.tsj"},{"firstgid":47,"source":"../tilesets/obj_acc1_grassySoil_nature.tsj"},{"firstgid":73,"source":"../tilesets/obj_guide_midForest_danger.tsj"},{"firstgid":75,"source":"../tilesets/obj_guide_milepost_backcho.tsj"},{"firstgid":81,"source":"../tilesets/portal_MapHelper.img_portal_game_pv.tsj"}],"properties":[{"name":"bgm","type":"string","value":"Bgm03/BlueSky"},{"name":"town","type":"int","value":0},{"name":"cloud","type":"int","value":0},{"name":"mapDesc","type":"string","value":""},{"name":"mapMark","type":"string","value":"KerningCity"},{"name":"mobRate","type":"float","value":1.1999982595443726},{"name":"version","type":"int","value":10},{"name":"moveLimit","type":"int","value":0},{"name":"returnMap","type":"int","value":103000000},{"name":"hideMinimap","type":"int","value":0},{"name":"forcedReturn","type":"int","value":999999999}]}