{"type":"map","orientation":"orthogonal","renderorder":"right-down","infinite":false,"tilewidth":1,"tileheight":1,"width":2448,"height":600,"parallaxoriginx":-400,"parallaxoriginy":80,"nextlayerid":14,"nextobjectid":154,"layers":[{"id":1,"name":"background_back_0","type":"imagelayer","visible":true,"opacity":1,"image":"../images/27148.png","imagewidth":850,"imageheight":369,"offsetx":-390,"offsety":543,"repeatx":true,"repeaty":false,"parallaxx":0,"parallaxy":0,"properties":[{"name":"a","type":"int","value":255},{"name":"f","type":"int","value":0},{"name":"x","type":"int","value":35},{"name":"y","type":"int","value":647},{"name":"bS","type":"string","value":"department"},{"name":"cx","type":"int","value":0},{"name":"cy","type":"int","value":0},{"name":"no","type":"int","value":0},{"name":"rx","type":"int","value":0},{"name":"ry","type":"int","value":0},{"name":"ani","type":"int","value":0},{"name":"type","type":"int","value":1},{"name":"front","type":"int","value":0}]},{"id":2,"name":"background_back_1","type":"imagelayer","visible":true,"opacity":1,"image":"../images/27148.png","imagewidth":850,"imageheight":369,"offsetx":-413,"offsety":-224,"repeatx":false,"repeaty":false,"parallaxx":0,"parallaxy":0,"properties":[{"name":"a","type":"int","value":255},{"name":"f","type":"int","value":0},{"name":"x","type":"int","value":12},{"name":"y","type":"int","value":-120},{"name":"bS","type":"string","value":"department"},{"name":"cx","type":"int","value":0},{"name":"cy","type":"int","value":0},{"name":"no","type":"int","value":0},{"name":"rx","type":"int","value":0},{"name":"ry","type":"int","value":0},{"name":"ani","type":"int","value":0},{"name":"type","type":"int","value":0},{"name":"front","type":"int","value":0}]},{"id":3,"name":"background_back_2","type":"imagelayer","visible":true,"opacity":1,"image":"../images/27149.png","imagewidth":993,"imageheight":369,"offsetx":-491,"offsety":-223,"repeatx":false,"repeaty":false,"parallaxx":0,"parallaxy":0,"properties":[{"name":"a","type":"int","value":255},{"name":"f","type":"int","value":0},{"name":"x","type":"int","value":3},{"name":"y","type":"int","value":-112},{"name":"bS","type":"string","value":"department"},{"name":"cx","type":"int","value":0},{"name":"cy","type":"int","value":0},{"name":"no","type":"int","value":1},{"name":"rx","type":"int","value":0},{"name":"ry","type":"int","value":0},{"name":"ani","type":"int","value":0},{"name":"type","type":"int","value":0},{"name":"front","type":"int","value":0}]},{"id":4,"name":"background_back_3","type":"imagelayer","visible":true,"opacity":1,"image":"../images/27150.png","imagewidth":993,"imageheight":544,"offsetx":-490,"offsety":25,"repeatx":false,"repeaty":false,"parallaxx":0,"parallaxy":0,"properties":[{"name":"a","type":"int","value":255},{"name":"f","type":"int","value":0},{"name":"x","type":"int","value":6},{"name":"y","type":"int","value":217},{"name":"bS","type":"string","value":"department"},{"name":"cx","type":"int","value":0},{"name":"cy","type":"int","value":0},{"name":"no","type":"int","value":2},{"name":"rx","type":"int","value":0},{"name":"ry","type":"int","value":0},{"name":"ani","type":"int","value":0},{"name":"type","type":"int","value":0},{"name":"front","type":"int","value":0}]},{"id":5,"name":"layer_1_obj","type":"objectgroup","visible":true,"opacity":1,"draworder":"index","offsetx":0,"offsety":0,"parallaxx":1,"parallaxy":1,"objects":[{"id":1,"x":932,"y":-169,"visible":true,"properties":[{"name":"layer","type":"int","value":1},{"name":"resource_index","type":"int","value":0},{"name":"oS","type":"string","value":"Tdungeon3"},{"name":"l0","type":"string","value":"basic"},{"name":"l1","type":"string","value":"foot"},{"name":"l2","type":"string","value":"8"},{"name":"z","type":"int","value":9},{"name":"zM","type":"int","value":50},{"name":"f","type":"int","value":0}],"gid":15,"width":167,"height":88},{"id":2,"x":-1073,"y":-156,"visible":true,"properties":[{"name":"layer","type":"int","value":1},{"name":"resource_index","type":"int","value":1},{"name":"oS","type":"string","value":"Tdungeon3"},{"name":"l0","type":"string","value":"basic"},{"name":"l1","type":"string","value":"foot"},{"name":"l2","type":"string","value":"4"},{"name":"z","type":"int","value":9},{"name":"zM","type":"int","value":42},{"name":"f","type":"int","value":0}],"gid":12,"width":167,"height":13},{"id":3,"x":-739,"y":-156,"visible":true,"properties":[{"name":"layer","type":"int","value":1},{"name":"resource_index","type":"int","value":2},{"name":"oS","type":"string","value":"Tdungeon3"},{"name":"l0","type":"string","value":"basic"},{"name":"l1","type":"string","value":"foot"},{"name":"l2","type":"string","value":"4"},{"name":"z","type":"int","value":9},{"name":"zM","type":"int","value":43},{"name":"f","type":"int","value":0}],"gid":12,"width":167,"height":13},{"id":4,"x":-906,"y":-156,"visible":true,"properties":[{"name":"layer","type":"int","value":1},{"name":"resource_index","type":"int","value":3},{"name":"oS","type":"string","value":"Tdungeon3"},{"name":"l0","type":"string","value":"basic"},{"name":"l1","type":"string","value":"foot"},{"name":"l2","type":"string","value":"4"},{"name":"z","type":"int","value":9},{"name":"zM","type":"int","value":44},{"name":"f","type":"int","value":0}],"gid":12,"width":167,"height":13},{"id":5,"x":-572,"y":-156,"visible":true,"properties":[{"name":"layer","type":"int","value":1},{"name":"resource_index","type":"int","value":4},{"name":"oS","type":"string","value":"Tdungeon3"},{"name":"l0","type":"string","value":"basic"},{"name":"l1","type":"string","value":"foot"},{"name":"l2","type":"string","value":"4"},{"name":"z","type":"int","value":9},{"name":"zM","type":"int","value":45},{"name":"f","type":"int","value":0}],"gid":12,"width":167,"height":13},{"id":6,"x":-238,"y":-156,"visible":true,"properties":[{"name":"layer","type":"int","value":1},{"name":"resource_index","type":"int","value":5},{"name":"oS","type":"string","value":"Tdungeon3"},{"name":"l0","type":"string","value":"basic"},{"name":"l1","type":"string","value":"foot"},{"name":"l2","type":"string","value":"4"},{"name":"z","type":"int","value":9},{"name":"zM","type":"int","value":46},{"name":"f","type":"int","value":0}],"gid":12,"width":167,"height":13},{"id":7,"x":-405,"y":-156,"visible":true,"properties":[{"name":"layer","type":"int","value":1},{"name":"resource_index","type":"int","value":6},{"name":"oS","type":"string","value":"Tdungeon3"},{"name":"l0","type":"string","value":"basic"},{"name":"l1","type":"string","value":"foot"},{"name":"l2","type":"string","value":"4"},{"name":"z","type":"int","value":9},{"name":"zM","type":"int","value":33},{"name":"f","type":"int","value":0}],"gid":12,"width":167,"height":13},{"id":8,"x":-71,"y":-156,"visible":true,"properties":[{"name":"layer","type":"int","value":1},{"name":"resource_index","type":"int","value":7},{"name":"oS","type":"string","value":"Tdungeon3"},{"name":"l0","type":"string","value":"basic"},{"name":"l1","type":"string","value":"foot"},{"name":"l2","type":"string","value":"4"},{"name":"z","type":"int","value":9},{"name":"zM","type":"int","value":34},{"name":"f","type":"int","value":0}],"gid":12,"width":167,"height":13},{"id":9,"x":263,"y":-156,"visible":true,"properties":[{"name":"layer","type":"int","value":1},{"name":"resource_index","type":"int","value":8},{"name":"oS","type":"string","value":"Tdungeon3"},{"name":"l0","type":"string","value":"basic"},{"name":"l1","type":"string","value":"foot"},{"name":"l2","type":"string","value":"4"},{"name":"z","type":"int","value":9},{"name":"zM","type":"int","value":35},{"name":"f","type":"int","value":0}],"gid":12,"width":167,"height":13},{"id":10,"x":96,"y":-156,"visible":true,"properties":[{"name":"layer","type":"int","value":1},{"name":"resource_index","type":"int","value":9},{"name":"oS","type":"string","value":"Tdungeon3"},{"name":"l0","type":"string","value":"basic"},{"name":"l1","type":"string","value":"foot"},{"name":"l2","type":"string","value":"4"},{"name":"z","type":"int","value":9},{"name":"zM","type":"int","value":36},{"name":"f","type":"int","value":0}],"gid":12,"width":167,"height":13},{"id":11,"x":430,"y":-156,"visible":true,"properties":[{"name":"layer","type":"int","value":1},{"name":"resource_index","type":"int","value":10},{"name":"oS","type":"string","value":"Tdungeon3"},{"name":"l0","type":"string","value":"basic"},{"name":"l1","type":"string","value":"foot"},{"name":"l2","type":"string","value":"4"},{"name":"z","type":"int","value":9},{"name":"zM","type":"int","value":37},{"name":"f","type":"int","value":0}],"gid":12,"width":167,"height":13},{"id":12,"x":764,"y":-156,"visible":true,"properties":[{"name":"layer","type":"int","value":1},{"name":"resource_index","type":"int","value":11},{"name":"oS","type":"string","value":"Tdungeon3"},{"name":"l0","type":"string","value":"basic"},{"name":"l1","type":"string","value":"foot"},{"name":"l2","type":"string","value":"4"},{"name":"z","type":"int","value":9},{"name":"zM","type":"int","value":38},{"name":"f","type":"int","value":0}],"gid":12,"width":167,"height":13},{"id":13,"x":597,"y":-156,"visible":true,"properties":[{"name":"layer","type":"int","value":1},{"name":"resource_index","type":"int","value":12},{"name":"oS","type":"string","value":"Tdungeon3"},{"name":"l0","type":"string","value":"basic"},{"name":"l1","type":"string","value":"foot"},{"name":"l2","type":"string","value":"4"},{"name":"z","type":"int","value":9},{"name":"zM","type":"int","value":39},{"name":"f","type":"int","value":0}],"gid":12,"width":167,"height":13},{"id":14,"x":931,"y":-156,"visible":true,"properties":[{"name":"layer","type":"int","value":1},{"name":"resource_index","type":"int","value":13},{"name":"oS","type":"string","value":"Tdungeon3"},{"name":"l0","type":"string","value":"basic"},{"name":"l1","type":"string","value":"foot"},{"name":"l2","type":"string","value":"4"},{"name":"z","type":"int","value":9},{"name":"zM","type":"int","value":40},{"name":"f","type":"int","value":0}],"gid":12,"width":167,"height":13},{"id":15,"x":1171,"y":-156,"visible":true,"properties":[{"name":"layer","type":"int","value":1},{"name":"resource_index","type":"int","value":14},{"name":"oS","type":"string","value":"Tdungeon3"},{"name":"l0","type":"string","value":"basic"},{"name":"l1","type":"string","value":"foot"},{"name":"l2","type":"string","value":"4"},{"name":"z","type":"int","value":9},{"name":"zM","type":"int","value":41},{"name":"f","type":"int","value":0}],"gid":12,"width":167,"height":13},{"id":16,"x":1098,"y":-156,"visible":true,"properties":[{"name":"layer","type":"int","value":1},{"name":"resource_index","type":"int","value":15},{"name":"oS","type":"string","value":"Tdungeon3"},{"name":"l0","type":"string","value":"basic"},{"name":"l1","type":"string","value":"foot"},{"name":"l2","type":"string","value":"4"},{"name":"z","type":"int","value":9},{"name":"zM","type":"int","value":41},{"name":"f","type":"int","value":0}],"gid":12,"width":167,"height":13},{"id":17,"x":1003,"y":-169,"visible":true,"properties":[{"name":"layer","type":"int","value":1},{"name":"resource_index","type":"int","value":16},{"name":"oS","type":"string","value":"Tdungeon3"},{"name":"l0","type":"string","value":"basic"},{"name":"l1","type":"string","value":"foot"},{"name":"l2","type":"string","value":"6"},{"name":"z","type":"int","value":6},{"name":"zM","type":"int","value":50},{"name":"f","type":"int","value":0}],"gid":16,"width":167,"height":72},{"id":18,"x":-1072,"y":-169,"visible":true,"properties":[{"name":"layer","type":"int","value":1},{"name":"resource_index","type":"int","value":17},{"name":"oS","type":"string","value":"Tdungeon3"},{"name":"l0","type":"string","value":"basic"},{"name":"l1","type":"string","value":"foot"},{"name":"l2","type":"string","value":"6"},{"name":"z","type":"int","value":9},{"name":"zM","type":"int","value":51},{"name":"f","type":"int","value":0}],"gid":16,"width":167,"height":72},{"id":19,"x":-905,"y":-166,"visible":true,"properties":[{"name":"layer","type":"int","value":1},{"name":"resource_index","type":"int","value":18},{"name":"oS","type":"string","value":"Tdungeon3"},{"name":"l0","type":"string","value":"basic"},{"name":"l1","type":"string","value":"foot"},{"name":"l2","type":"string","value":"7"},{"name":"z","type":"int","value":9},{"name":"zM","type":"int","value":43},{"name":"f","type":"int","value":0}],"gid":14,"width":167,"height":80},{"id":20,"x":-738,"y":-169,"visible":true,"properties":[{"name":"layer","type":"int","value":1},{"name":"resource_index","type":"int","value":19},{"name":"oS","type":"string","value":"Tdungeon3"},{"name":"l0","type":"string","value":"basic"},{"name":"l1","type":"string","value":"foot"},{"name":"l2","type":"string","value":"8"},{"name":"z","type":"int","value":9},{"name":"zM","type":"int","value":43},{"name":"f","type":"int","value":0}],"gid":15,"width":167,"height":88},{"id":21,"x":-571,"y":-166,"visible":true,"properties":[{"name":"layer","type":"int","value":1},{"name":"resource_index","type":"int","value":20},{"name":"oS","type":"string","value":"Tdungeon3"},{"name":"l0","type":"string","value":"basic"},{"name":"l1","type":"string","value":"foot"},{"name":"l2","type":"string","value":"7"},{"name":"z","type":"int","value":9},{"name":"zM","type":"int","value":45},{"name":"f","type":"int","value":0}],"gid":14,"width":167,"height":80},{"id":22,"x":-404,"y":-169,"visible":true,"properties":[{"name":"layer","type":"int","value":1},{"name":"resource_index","type":"int","value":21},{"name":"oS","type":"string","value":"Tdungeon3"},{"name":"l0","type":"string","value":"basic"},{"name":"l1","type":"string","value":"foot"},{"name":"l2","type":"string","value":"8"},{"name":"z","type":"int","value":9},{"name":"zM","type":"int","value":52},{"name":"f","type":"int","value":0}],"gid":15,"width":167,"height":88},{"id":23,"x":-237,"y":-166,"visible":true,"properties":[{"name":"layer","type":"int","value":1},{"name":"resource_index","type":"int","value":22},{"name":"oS","type":"string","value":"Tdungeon3"},{"name":"l0","type":"string","value":"basic"},{"name":"l1","type":"string","value":"foot"},{"name":"l2","type":"string","value":"7"},{"name":"z","type":"int","value":9},{"name":"zM","type":"int","value":46},{"name":"f","type":"int","value":0}],"gid":14,"width":167,"height":80},{"id":24,"x":-70,"y":-169,"visible":true,"properties":[{"name":"layer","type":"int","value":1},{"name":"resource_index","type":"int","value":23},{"name":"oS","type":"string","value":"Tdungeon3"},{"name":"l0","type":"string","value":"basic"},{"name":"l1","type":"string","value":"foot"},{"name":"l2","type":"string","value":"8"},{"name":"z","type":"int","value":9},{"name":"zM","type":"int","value":47},{"name":"f","type":"int","value":0}],"gid":15,"width":167,"height":88},{"id":25,"x":97,"y":-166,"visible":true,"properties":[{"name":"layer","type":"int","value":1},{"name":"resource_index","type":"int","value":24},{"name":"oS","type":"string","value":"Tdungeon3"},{"name":"l0","type":"string","value":"basic"},{"name":"l1","type":"string","value":"foot"},{"name":"l2","type":"string","value":"7"},{"name":"z","type":"int","value":9},{"name":"zM","type":"int","value":35},{"name":"f","type":"int","value":0}],"gid":14,"width":167,"height":80},{"id":26,"x":431,"y":-166,"visible":true,"properties":[{"name":"layer","type":"int","value":1},{"name":"resource_index","type":"int","value":25},{"name":"oS","type":"string","value":"Tdungeon3"},{"name":"l0","type":"string","value":"basic"},{"name":"l1","type":"string","value":"foot"},{"name":"l2","type":"string","value":"7"},{"name":"z","type":"int","value":9},{"name":"zM","type":"int","value":37},{"name":"f","type":"int","value":0}],"gid":14,"width":167,"height":80},{"id":27,"x":264,"y":-169,"visible":true,"properties":[{"name":"layer","type":"int","value":1},{"name":"resource_index","type":"int","value":26},{"name":"oS","type":"string","value":"Tdungeon3"},{"name":"l0","type":"string","value":"basic"},{"name":"l1","type":"string","value":"foot"},{"name":"l2","type":"string","value":"8"},{"name":"z","type":"int","value":9},{"name":"zM","type":"int","value":35},{"name":"f","type":"int","value":0}],"gid":15,"width":167,"height":88},{"id":28,"x":598,"y":-169,"visible":true,"properties":[{"name":"layer","type":"int","value":1},{"name":"resource_index","type":"int","value":27},{"name":"oS","type":"string","value":"Tdungeon3"},{"name":"l0","type":"string","value":"basic"},{"name":"l1","type":"string","value":"foot"},{"name":"l2","type":"string","value":"8"},{"name":"z","type":"int","value":9},{"name":"zM","type":"int","value":48},{"name":"f","type":"int","value":0}],"gid":15,"width":167,"height":88},{"id":29,"x":765,"y":-166,"visible":true,"properties":[{"name":"layer","type":"int","value":1},{"name":"resource_index","type":"int","value":28},{"name":"oS","type":"string","value":"Tdungeon3"},{"name":"l0","type":"string","value":"basic"},{"name":"l1","type":"string","value":"foot"},{"name":"l2","type":"string","value":"7"},{"name":"z","type":"int","value":9},{"name":"zM","type":"int","value":38},{"name":"f","type":"int","value":0}],"gid":14,"width":167,"height":80},{"id":30,"x":1170,"y":-169,"visible":true,"properties":[{"name":"layer","type":"int","value":1},{"name":"resource_index","type":"int","value":29},{"name":"oS","type":"string","value":"Tdungeon3"},{"name":"l0","type":"string","value":"basic"},{"name":"l1","type":"string","value":"foot"},{"name":"l2","type":"string","value":"9"},{"name":"z","type":"int","value":9},{"name":"zM","type":"int","value":49},{"name":"f","type":"int","value":0}],"gid":13,"width":167,"height":72},{"id":31,"x":-1070,"y":-240,"visible":true,"properties":[{"name":"layer","type":"int","value":1},{"name":"resource_index","type":"int","value":30},{"name":"oS","type":"string","value":"Tdungeon3"},{"name":"l0","type":"string","value":"basic"},{"name":"l1","type":"string","value":"foot"},{"name":"l2","type":"string","value":"6"},{"name":"z","type":"int","value":9},{"name":"zM","type":"int","value":43},{"name":"f","type":"int","value":0}],"gid":16,"width":167,"height":72},{"id":32,"x":-903,"y":-240,"visible":true,"properties":[{"name":"layer","type":"int","value":1},{"name":"resource_index","type":"int","value":31},{"name":"oS","type":"string","value":"Tdungeon3"},{"name":"l0","type":"string","value":"basic"},{"name":"l1","type":"string","value":"foot"},{"name":"l2","type":"string","value":"6"},{"name":"z","type":"int","value":9},{"name":"zM","type":"int","value":43},{"name":"f","type":"int","value":0}],"gid":16,"width":167,"height":72},{"id":33,"x":-736,"y":-240,"visible":true,"properties":[{"name":"layer","type":"int","value":1},{"name":"resource_index","type":"int","value":32},{"name":"oS","type":"string","value":"Tdungeon3"},{"name":"l0","type":"string","value":"basic"},{"name":"l1","type":"string","value":"foot"},{"name":"l2","type":"string","value":"6"},{"name":"z","type":"int","value":9},{"name":"zM","type":"int","value":43},{"name":"f","type":"int","value":0}],"gid":16,"width":167,"height":72},{"id":34,"x":-570,"y":-240,"visible":true,"properties":[{"name":"layer","type":"int","value":1},{"name":"resource_index","type":"int","value":33},{"name":"oS","type":"string","value":"Tdungeon3"},{"name":"l0","type":"string","value":"basic"},{"name":"l1","type":"string","value":"foot"},{"name":"l2","type":"string","value":"6"},{"name":"z","type":"int","value":9},{"name":"zM","type":"int","value":43},{"name":"f","type":"int","value":0}],"gid":16,"width":167,"height":72},{"id":35,"x":169,"y":-240,"visible":true,"properties":[{"name":"layer","type":"int","value":1},{"name":"resource_index","type":"int","value":34},{"name":"oS","type":"string","value":"Tdungeon3"},{"name":"l0","type":"string","value":"basic"},{"name":"l1","type":"string","value":"foot"},{"name":"l2","type":"string","value":"6"},{"name":"z","type":"int","value":9},{"name":"zM","type":"int","value":35},{"name":"f","type":"int","value":0}],"gid":16,"width":167,"height":72},{"id":36,"x":2,"y":-240,"visible":true,"properties":[{"name":"layer","type":"int","value":1},{"name":"resource_index","type":"int","value":35},{"name":"oS","type":"string","value":"Tdungeon3"},{"name":"l0","type":"string","value":"basic"},{"name":"l1","type":"string","value":"foot"},{"name":"l2","type":"string","value":"6"},{"name":"z","type":"int","value":9},{"name":"zM","type":"int","value":35},{"name":"f","type":"int","value":0}],"gid":16,"width":167,"height":72},{"id":37,"x":-165,"y":-240,"visible":true,"properties":[{"name":"layer","type":"int","value":1},{"name":"resource_index","type":"int","value":36},{"name":"oS","type":"string","value":"Tdungeon3"},{"name":"l0","type":"string","value":"basic"},{"name":"l1","type":"string","value":"foot"},{"name":"l2","type":"string","value":"6"},{"name":"z","type":"int","value":9},{"name":"zM","type":"int","value":46},{"name":"f","type":"int","value":0}],"gid":16,"width":167,"height":72},{"id":38,"x":-332,"y":-240,"visible":true,"properties":[{"name":"layer","type":"int","value":1},{"name":"resource_index","type":"int","value":37},{"name":"oS","type":"string","value":"Tdungeon3"},{"name":"l0","type":"string","value":"basic"},{"name":"l1","type":"string","value":"foot"},{"name":"l2","type":"string","value":"6"},{"name":"z","type":"int","value":9},{"name":"zM","type":"int","value":46},{"name":"f","type":"int","value":0}],"gid":16,"width":167,"height":72},{"id":39,"x":336,"y":-240,"visible":true,"properties":[{"name":"layer","type":"int","value":1},{"name":"resource_index","type":"int","value":38},{"name":"oS","type":"string","value":"Tdungeon3"},{"name":"l0","type":"string","value":"basic"},{"name":"l1","type":"string","value":"foot"},{"name":"l2","type":"string","value":"6"},{"name":"z","type":"int","value":9},{"name":"zM","type":"int","value":35},{"name":"f","type":"int","value":0}],"gid":16,"width":167,"height":72},{"id":40,"x":503,"y":-240,"visible":true,"properties":[{"name":"layer","type":"int","value":1},{"name":"resource_index","type":"int","value":39},{"name":"oS","type":"string","value":"Tdungeon3"},{"name":"l0","type":"string","value":"basic"},{"name":"l1","type":"string","value":"foot"},{"name":"l2","type":"string","value":"6"},{"name":"z","type":"int","value":9},{"name":"zM","type":"int","value":37},{"name":"f","type":"int","value":0}],"gid":16,"width":167,"height":72},{"id":41,"x":670,"y":-240,"visible":true,"properties":[{"name":"layer","type":"int","value":1},{"name":"resource_index","type":"int","value":40},{"name":"oS","type":"string","value":"Tdungeon3"},{"name":"l0","type":"string","value":"basic"},{"name":"l1","type":"string","value":"foot"},{"name":"l2","type":"string","value":"6"},{"name":"z","type":"int","value":9},{"name":"zM","type":"int","value":38},{"name":"f","type":"int","value":0}],"gid":16,"width":167,"height":72},{"id":42,"x":837,"y":-240,"visible":true,"properties":[{"name":"layer","type":"int","value":1},{"name":"resource_index","type":"int","value":41},{"name":"oS","type":"string","value":"Tdungeon3"},{"name":"l0","type":"string","value":"basic"},{"name":"l1","type":"string","value":"foot"},{"name":"l2","type":"string","value":"6"},{"name":"z","type":"int","value":9},{"name":"zM","type":"int","value":50},{"name":"f","type":"int","value":0}],"gid":16,"width":167,"height":72},{"id":43,"x":1004,"y":-240,"visible":true,"properties":[{"name":"layer","type":"int","value":1},{"name":"resource_index","type":"int","value":42},{"name":"oS","type":"string","value":"Tdungeon3"},{"name":"l0","type":"string","value":"basic"},{"name":"l1","type":"string","value":"foot"},{"name":"l2","type":"string","value":"6"},{"name":"z","type":"int","value":9},{"name":"zM","type":"int","value":50},{"name":"f","type":"int","value":0}],"gid":16,"width":167,"height":72},{"id":44,"x":1170,"y":-240,"visible":true,"properties":[{"name":"layer","type":"int","value":1},{"name":"resource_index","type":"int","value":43},{"name":"oS","type":"string","value":"Tdungeon3"},{"name":"l0","type":"string","value":"basic"},{"name":"l1","type":"string","value":"foot"},{"name":"l2","type":"string","value":"6"},{"name":"z","type":"int","value":9},{"name":"zM","type":"int","value":50},{"name":"f","type":"int","value":0}],"gid":16,"width":167,"height":72},{"id":45,"x":-448,"y":-240,"visible":true,"properties":[{"name":"layer","type":"int","value":1},{"name":"resource_index","type":"int","value":44},{"name":"oS","type":"string","value":"Tdungeon3"},{"name":"l0","type":"string","value":"basic"},{"name":"l1","type":"string","value":"foot"},{"name":"l2","type":"string","value":"6"},{"name":"z","type":"int","value":5},{"name":"zM","type":"int","value":43},{"name":"f","type":"int","value":0}],"gid":16,"width":167,"height":72},{"id":46,"x":-1111,"y":-169,"visible":true,"properties":[{"name":"layer","type":"int","value":1},{"name":"resource_index","type":"int","value":45},{"name":"oS","type":"string","value":"Tdungeon3"},{"name":"l0","type":"string","value":"basic"},{"name":"l1","type":"string","value":"foot"},{"name":"l2","type":"string","value":"6"},{"name":"z","type":"int","value":9},{"name":"zM","type":"int","value":43},{"name":"f","type":"int","value":0}],"gid":16,"width":167,"height":72},{"id":47,"x":-1111,"y":-157,"visible":true,"properties":[{"name":"layer","type":"int","value":1},{"name":"resource_index","type":"int","value":46},{"name":"oS","type":"string","value":"Tdungeon3"},{"name":"l0","type":"string","value":"basic"},{"name":"l1","type":"string","value":"foot"},{"name":"l2","type":"string","value":"4"},{"name":"z","type":"int","value":9},{"name":"zM","type":"int","value":42},{"name":"f","type":"int","value":0}],"gid":12,"width":167,"height":13},{"id":48,"x":-1111,"y":-240,"visible":true,"properties":[{"name":"layer","type":"int","value":1},{"name":"resource_index","type":"int","value":47},{"name":"oS","type":"string","value":"Tdungeon3"},{"name":"l0","type":"string","value":"basic"},{"name":"l1","type":"string","value":"foot"},{"name":"l2","type":"string","value":"6"},{"name":"z","type":"int","value":5},{"name":"zM","type":"int","value":43},{"name":"f","type":"int","value":0}],"gid":16,"width":167,"height":72}],"properties":[]},{"id":6,"name":"layer_2_obj","type":"objectgroup","visible":true,"opacity":1,"draworder":"index","offsetx":0,"offsety":0,"parallaxx":1,"parallaxy":1,"objects":[{"id":49,"x":-825,"y":90,"visible":true,"properties":[{"name":"layer","type":"int","value":2},{"name":"resource_index","type":"int","value":0},{"name":"oS","type":"string","value":"Tdungeon3"},{"name":"l0","type":"string","value":"basic"},{"name":"l1","type":"string","value":"robby"},{"name":"l2","type":"string","value":"13"},{"name":"z","type":"int","value":7},{"name":"zM","type":"int","value":30},{"name":"f","type":"int","value":0}],"gid":30,"width":286,"height":252},{"id":50,"x":-1110,"y":90,"visible":true,"properties":[{"name":"layer","type":"int","value":2},{"name":"resource_index","type":"int","value":1},{"name":"oS","type":"string","value":"Tdungeon3"},{"name":"l0","type":"string","value":"basic"},{"name":"l1","type":"string","value":"robby"},{"name":"l2","type":"string","value":"12"},{"name":"z","type":"int","value":6},{"name":"zM","type":"int","value":30},{"name":"f","type":"int","value":0}],"gid":29,"width":286,"height":252},{"id":51,"x":-541,"y":90,"visible":true,"properties":[{"name":"layer","type":"int","value":2},{"name":"resource_index","type":"int","value":2},{"name":"oS","type":"string","value":"Tdungeon3"},{"name":"l0","type":"string","value":"basic"},{"name":"l1","type":"string","value":"robby"},{"name":"l2","type":"string","value":"12"},{"name":"z","type":"int","value":6},{"name":"zM","type":"int","value":30},{"name":"f","type":"int","value":0}],"gid":29,"width":286,"height":252},{"id":52,"x":765,"y":90,"visible":true,"properties":[{"name":"layer","type":"int","value":2},{"name":"resource_index","type":"int","value":3},{"name":"oS","type":"string","value":"Tdungeon3"},{"name":"l0","type":"string","value":"basic"},{"name":"l1","type":"string","value":"robby"},{"name":"l2","type":"string","value":"12"},{"name":"z","type":"int","value":7},{"name":"zM","type":"int","value":31},{"name":"f","type":"int","value":0}],"gid":29,"width":286,"height":252},{"id":53,"x":-258,"y":90,"visible":true,"properties":[{"name":"layer","type":"int","value":2},{"name":"resource_index","type":"int","value":4},{"name":"oS","type":"string","value":"Tdungeon3"},{"name":"l0","type":"string","value":"basic"},{"name":"l1","type":"string","value":"robby"},{"name":"l2","type":"string","value":"8"},{"name":"z","type":"int","value":8},{"name":"zM","type":"int","value":30},{"name":"f","type":"int","value":0}],"gid":28,"width":1024,"height":259},{"id":54,"x":1051,"y":90,"visible":true,"properties":[{"name":"layer","type":"int","value":2},{"name":"resource_index","type":"int","value":5},{"name":"oS","type":"string","value":"Tdungeon3"},{"name":"l0","type":"string","value":"basic"},{"name":"l1","type":"string","value":"robby"},{"name":"l2","type":"string","value":"13"},{"name":"z","type":"int","value":9},{"name":"zM","type":"int","value":32},{"name":"f","type":"int","value":0}],"gid":30,"width":286,"height":252},{"id":55,"x":533,"y":428,"visible":true,"properties":[{"name":"layer","type":"int","value":2},{"name":"resource_index","type":"int","value":6},{"name":"oS","type":"string","value":"Tdungeon3"},{"name":"l0","type":"string","value":"madeShop"},{"name":"l1","type":"string","value":"soundland"},{"name":"l2","type":"string","value":"0"},{"name":"z","type":"int","value":9},{"name":"zM","type":"int","value":11},{"name":"f","type":"int","value":0}],"gid":99,"width":446,"height":259},{"id":56,"x":48,"y":426,"visible":true,"properties":[{"name":"layer","type":"int","value":2},{"name":"resource_index","type":"int","value":7},{"name":"oS","type":"string","value":"Tdungeon3"},{"name":"l0","type":"string","value":"madeShop"},{"name":"l1","type":"string","value":"101music"},{"name":"l2","type":"string","value":"0"},{"name":"z","type":"int","value":8},{"name":"zM","type":"int","value":11},{"name":"f","type":"int","value":0}],"gid":80,"width":489,"height":260},{"id":57,"x":-843,"y":423,"visible":true,"properties":[{"name":"layer","type":"int","value":2},{"name":"resource_index","type":"int","value":8},{"name":"oS","type":"string","value":"Tdungeon3"},{"name":"l0","type":"string","value":"shopPart1"},{"name":"l1","type":"string","value":"base"},{"name":"l2","type":"string","value":"11"},{"name":"z","type":"int","value":14},{"name":"zM","type":"int","value":12},{"name":"f","type":"int","value":1}],"gid":36,"width":439,"height":260},{"id":58,"x":-443,"y":424,"visible":true,"properties":[{"name":"layer","type":"int","value":2},{"name":"resource_index","type":"int","value":9},{"name":"oS","type":"string","value":"Tdungeon3"},{"name":"l0","type":"string","value":"shopPart2"},{"name":"l1","type":"string","value":"base"},{"name":"l2","type":"string","value":"4"},{"name":"z","type":"int","value":6},{"name":"zM","type":"int","value":12},{"name":"f","type":"int","value":1}],"gid":55,"width":444,"height":257},{"id":59,"x":-425,"y":391,"visible":true,"properties":[{"name":"layer","type":"int","value":2},{"name":"resource_index","type":"int","value":10},{"name":"oS","type":"string","value":"Tdungeon3"},{"name":"l0","type":"string","value":"shopPart2"},{"name":"l1","type":"string","value":"innerWall"},{"name":"l2","type":"string","value":"3"},{"name":"z","type":"int","value":2},{"name":"zM","type":"int","value":12},{"name":"f","type":"int","value":1}],"gid":113,"width":269,"height":152},{"id":60,"x":-333,"y":387,"visible":true,"properties":[{"name":"layer","type":"int","value":2},{"name":"resource_index","type":"int","value":11},{"name":"oS","type":"string","value":"Tdungeon3"},{"name":"l0","type":"string","value":"shopPart2"},{"name":"l1","type":"string","value":"product"},{"name":"l2","type":"string","value":"13"},{"name":"z","type":"int","value":3},{"name":"zM","type":"int","value":12},{"name":"f","type":"int","value":1}],"gid":89,"width":169,"height":132},{"id":61,"x":-131,"y":423,"visible":true,"properties":[{"name":"layer","type":"int","value":2},{"name":"resource_index","type":"int","value":12},{"name":"oS","type":"string","value":"Tdungeon3"},{"name":"l0","type":"string","value":"shopPart2"},{"name":"l1","type":"string","value":"door"},{"name":"l2","type":"string","value":"5"},{"name":"z","type":"int","value":10},{"name":"zM","type":"int","value":12},{"name":"f","type":"int","value":1}],"gid":67,"width":122,"height":130},{"id":62,"x":-308,"y":227,"visible":true,"properties":[{"name":"layer","type":"int","value":2},{"name":"resource_index","type":"int","value":13},{"name":"oS","type":"string","value":"Tdungeon3"},{"name":"l0","type":"string","value":"shopPart1"},{"name":"l1","type":"string","value":"logo"},{"name":"l2","type":"string","value":"4"},{"name":"z","type":"int","value":9},{"name":"zM","type":"int","value":12},{"name":"f","type":"int","value":0}],"gid":45,"width":184,"height":37},{"id":63,"x":-335,"y":250,"visible":true,"properties":[{"name":"layer","type":"int","value":2},{"name":"resource_index","type":"int","value":14},{"name":"oS","type":"string","value":"Tdungeon3"},{"name":"l0","type":"string","value":"shopPart2"},{"name":"l1","type":"string","value":"mainSign"},{"name":"l2","type":"string","value":"4"},{"name":"z","type":"int","value":8},{"name":"zM","type":"int","value":12},{"name":"f","type":"int","value":1}],"gid":106,"width":231,"height":79},{"id":64,"x":-129,"y":271,"visible":true,"properties":[{"name":"layer","type":"int","value":2},{"name":"resource_index","type":"int","value":15},{"name":"oS","type":"string","value":"Tdungeon3"},{"name":"l0","type":"string","value":"shopPart2"},{"name":"l1","type":"string","value":"base"},{"name":"l2","type":"string","value":"9"},{"name":"z","type":"int","value":7},{"name":"zM","type":"int","value":12},{"name":"f","type":"int","value":1}],"gid":56,"width":130,"height":97},{"id":65,"x":-122,"y":294,"visible":true,"properties":[{"name":"layer","type":"int","value":2},{"name":"resource_index","type":"int","value":16},{"name":"oS","type":"string","value":"Tdungeon3"},{"name":"l0","type":"string","value":"shopPart2"},{"name":"l1","type":"string","value":"light"},{"name":"l2","type":"string","value":"2"},{"name":"z","type":"int","value":9},{"name":"zM","type":"int","value":12},{"name":"f","type":"int","value":1}],"gid":79,"width":34,"height":24},{"id":66,"x":-83,"y":294,"visible":true,"properties":[{"name":"layer","type":"int","value":2},{"name":"resource_index","type":"int","value":17},{"name":"oS","type":"string","value":"Tdungeon3"},{"name":"l0","type":"string","value":"shopPart2"},{"name":"l1","type":"string","value":"light"},{"name":"l2","type":"string","value":"2"},{"name":"z","type":"int","value":9},{"name":"zM","type":"int","value":12},{"name":"f","type":"int","value":1}],"gid":79,"width":34,"height":24},{"id":67,"x":-46,"y":294,"visible":true,"properties":[{"name":"layer","type":"int","value":2},{"name":"resource_index","type":"int","value":18},{"name":"oS","type":"string","value":"Tdungeon3"},{"name":"l0","type":"string","value":"shopPart2"},{"name":"l1","type":"string","value":"light"},{"name":"l2","type":"string","value":"2"},{"name":"z","type":"int","value":9},{"name":"zM","type":"int","value":12},{"name":"f","type":"int","value":1}],"gid":79,"width":34,"height":24},{"id":68,"x":-665,"y":270,"visible":true,"properties":[{"name":"layer","type":"int","value":2},{"name":"resource_index","type":"int","value":19},{"name":"oS","type":"string","value":"Tdungeon3"},{"name":"l0","type":"string","value":"shopPart1"},{"name":"l1","type":"string","value":"logo"},{"name":"l2","type":"string","value":"8"},{"name":"z","type":"int","value":17},{"name":"zM","type":"int","value":12},{"name":"f","type":"int","value":0}],"gid":52,"width":242,"height":34},{"id":69,"x":-707,"y":289,"visible":true,"properties":[{"name":"layer","type":"int","value":2},{"name":"resource_index","type":"int","value":20},{"name":"oS","type":"string","value":"Tdungeon3"},{"name":"l0","type":"string","value":"shopPart1"},{"name":"l1","type":"string","value":"mainSign"},{"name":"l2","type":"string","value":"2"},{"name":"z","type":"int","value":16},{"name":"zM","type":"int","value":12},{"name":"f","type":"int","value":1}],"gid":101,"width":288,"height":66},{"id":70,"x":-719,"y":266,"visible":true,"properties":[{"name":"layer","type":"int","value":2},{"name":"resource_index","type":"int","value":21},{"name":"oS","type":"string","value":"Tdungeon3"},{"name":"l0","type":"string","value":"shopPart1"},{"name":"l1","type":"string","value":"light"},{"name":"l2","type":"string","value":"3"},{"name":"z","type":"int","value":18},{"name":"zM","type":"int","value":12},{"name":"f","type":"int","value":1}],"gid":73,"width":182,"height":121},{"id":71,"x":-569,"y":266,"visible":true,"properties":[{"name":"layer","type":"int","value":2},{"name":"resource_index","type":"int","value":22},{"name":"oS","type":"string","value":"Tdungeon3"},{"name":"l0","type":"string","value":"shopPart1"},{"name":"l1","type":"string","value":"light"},{"name":"l2","type":"string","value":"3"},{"name":"z","type":"int","value":18},{"name":"zM","type":"int","value":12},{"name":"f","type":"int","value":1}],"gid":73,"width":182,"height":121}],"properties":[]},{"id":7,"name":"layer_3_obj","type":"objectgroup","visible":true,"opacity":1,"draworder":"index","offsetx":0,"offsety":0,"parallaxx":1,"parallaxy":1,"objects":[{"id":72,"x":428,"y":491,"visible":true,"properties":[{"name":"layer","type":"int","value":3},{"name":"resource_index","type":"int","value":0},{"name":"oS","type":"string","value":"Tdungeon3"},{"name":"l0","type":"string","value":"basic"},{"name":"l1","type":"string","value":"foot"},{"name":"l2","type":"string","value":"1"},{"name":"z","type":"int","value":15},{"name":"zM","type":"int","value":0},{"name":"f","type":"int","value":0}],"gid":5,"width":167,"height":80},{"id":73,"x":262,"y":488,"visible":true,"properties":[{"name":"layer","type":"int","value":3},{"name":"resource_index","type":"int","value":1},{"name":"oS","type":"string","value":"Tdungeon3"},{"name":"l0","type":"string","value":"basic"},{"name":"l1","type":"string","value":"foot"},{"name":"l2","type":"string","value":"2"},{"name":"z","type":"int","value":15},{"name":"zM","type":"int","value":0},{"name":"f","type":"int","value":0}],"gid":6,"width":167,"height":88},{"id":74,"x":95,"y":491,"visible":true,"properties":[{"name":"layer","type":"int","value":3},{"name":"resource_index","type":"int","value":2},{"name":"oS","type":"string","value":"Tdungeon3"},{"name":"l0","type":"string","value":"basic"},{"name":"l1","type":"string","value":"foot"},{"name":"l2","type":"string","value":"1"},{"name":"z","type":"int","value":15},{"name":"zM","type":"int","value":1},{"name":"f","type":"int","value":0}],"gid":5,"width":167,"height":80},{"id":75,"x":-571,"y":491,"visible":true,"properties":[{"name":"layer","type":"int","value":3},{"name":"resource_index","type":"int","value":3},{"name":"oS","type":"string","value":"Tdungeon3"},{"name":"l0","type":"string","value":"basic"},{"name":"l1","type":"string","value":"foot"},{"name":"l2","type":"string","value":"1"},{"name":"z","type":"int","value":20},{"name":"zM","type":"int","value":2},{"name":"f","type":"int","value":0}],"gid":5,"width":167,"height":80},{"id":76,"x":-404,"y":488,"visible":true,"properties":[{"name":"layer","type":"int","value":3},{"name":"resource_index","type":"int","value":4},{"name":"oS","type":"string","value":"Tdungeon3"},{"name":"l0","type":"string","value":"basic"},{"name":"l1","type":"string","value":"foot"},{"name":"l2","type":"string","value":"2"},{"name":"z","type":"int","value":20},{"name":"zM","type":"int","value":3},{"name":"f","type":"int","value":0}],"gid":6,"width":167,"height":88},{"id":77,"x":-238,"y":491,"visible":true,"properties":[{"name":"layer","type":"int","value":3},{"name":"resource_index","type":"int","value":5},{"name":"oS","type":"string","value":"Tdungeon3"},{"name":"l0","type":"string","value":"basic"},{"name":"l1","type":"string","value":"foot"},{"name":"l2","type":"string","value":"1"},{"name":"z","type":"int","value":15},{"name":"zM","type":"int","value":3},{"name":"f","type":"int","value":0}],"gid":5,"width":167,"height":80},{"id":78,"x":-71,"y":488,"visible":true,"properties":[{"name":"layer","type":"int","value":3},{"name":"resource_index","type":"int","value":6},{"name":"oS","type":"string","value":"Tdungeon3"},{"name":"l0","type":"string","value":"basic"},{"name":"l1","type":"string","value":"foot"},{"name":"l2","type":"string","value":"2"},{"name":"z","type":"int","value":15},{"name":"zM","type":"int","value":1},{"name":"f","type":"int","value":0}],"gid":6,"width":167,"height":88},{"id":79,"x":-738,"y":488,"visible":true,"properties":[{"name":"layer","type":"int","value":3},{"name":"resource_index","type":"int","value":7},{"name":"oS","type":"string","value":"Tdungeon3"},{"name":"l0","type":"string","value":"basic"},{"name":"l1","type":"string","value":"foot"},{"name":"l2","type":"string","value":"2"},{"name":"z","type":"int","value":20},{"name":"zM","type":"int","value":7},{"name":"f","type":"int","value":0}],"gid":6,"width":167,"height":88},{"id":80,"x":-905,"y":491,"visible":true,"properties":[{"name":"layer","type":"int","value":3},{"name":"resource_index","type":"int","value":8},{"name":"oS","type":"string","value":"Tdungeon3"},{"name":"l0","type":"string","value":"basic"},{"name":"l1","type":"string","value":"foot"},{"name":"l2","type":"string","value":"1"},{"name":"z","type":"int","value":20},{"name":"zM","type":"int","value":4},{"name":"f","type":"int","value":0}],"gid":5,"width":167,"height":80},{"id":81,"x":595,"y":488,"visible":true,"properties":[{"name":"layer","type":"int","value":3},{"name":"resource_index","type":"int","value":9},{"name":"oS","type":"string","value":"Tdungeon3"},{"name":"l0","type":"string","value":"basic"},{"name":"l1","type":"string","value":"foot"},{"name":"l2","type":"string","value":"2"},{"name":"z","type":"int","value":15},{"name":"zM","type":"int","value":6},{"name":"f","type":"int","value":0}],"gid":6,"width":167,"height":88},{"id":82,"x":762,"y":491,"visible":true,"properties":[{"name":"layer","type":"int","value":3},{"name":"resource_index","type":"int","value":10},{"name":"oS","type":"string","value":"Tdungeon3"},{"name":"l0","type":"string","value":"basic"},{"name":"l1","type":"string","value":"foot"},{"name":"l2","type":"string","value":"1"},{"name":"z","type":"int","value":15},{"name":"zM","type":"int","value":5},{"name":"f","type":"int","value":0}],"gid":5,"width":167,"height":80},{"id":83,"x":929,"y":488,"visible":true,"properties":[{"name":"layer","type":"int","value":3},{"name":"resource_index","type":"int","value":11},{"name":"oS","type":"string","value":"Tdungeon3"},{"name":"l0","type":"string","value":"basic"},{"name":"l1","type":"string","value":"foot"},{"name":"l2","type":"string","value":"0"},{"name":"z","type":"int","value":9},{"name":"zM","type":"int","value":8},{"name":"f","type":"int","value":0}],"gid":7,"width":167,"height":72},{"id":84,"x":1169,"y":488,"visible":true,"properties":[{"name":"layer","type":"int","value":3},{"name":"resource_index","type":"int","value":12},{"name":"oS","type":"string","value":"Tdungeon3"},{"name":"l0","type":"string","value":"basic"},{"name":"l1","type":"string","value":"foot"},{"name":"l2","type":"string","value":"3"},{"name":"z","type":"int","value":15},{"name":"zM","type":"int","value":9},{"name":"f","type":"int","value":0}],"gid":8,"width":167,"height":72},{"id":85,"x":-1072,"y":488,"visible":true,"properties":[{"name":"layer","type":"int","value":3},{"name":"resource_index","type":"int","value":13},{"name":"oS","type":"string","value":"Tdungeon3"},{"name":"l0","type":"string","value":"basic"},{"name":"l1","type":"string","value":"foot"},{"name":"l2","type":"string","value":"0"},{"name":"z","type":"int","value":15},{"name":"zM","type":"int","value":10},{"name":"f","type":"int","value":0}],"gid":7,"width":167,"height":72},{"id":86,"x":1042,"y":488,"visible":true,"properties":[{"name":"layer","type":"int","value":3},{"name":"resource_index","type":"int","value":14},{"name":"oS","type":"string","value":"Tdungeon3"},{"name":"l0","type":"string","value":"basic"},{"name":"l1","type":"string","value":"foot"},{"name":"l2","type":"string","value":"0"},{"name":"z","type":"int","value":9},{"name":"zM","type":"int","value":8},{"name":"f","type":"int","value":0}],"gid":7,"width":167,"height":72},{"id":87,"x":-1110,"y":488,"visible":true,"properties":[{"name":"layer","type":"int","value":3},{"name":"resource_index","type":"int","value":15},{"name":"oS","type":"string","value":"Tdungeon3"},{"name":"l0","type":"string","value":"basic"},{"name":"l1","type":"string","value":"foot"},{"name":"l2","type":"string","value":"0"},{"name":"z","type":"int","value":15},{"name":"zM","type":"int","value":10},{"name":"f","type":"int","value":0}],"gid":7,"width":167,"height":72},{"id":88,"x":-966,"y":417,"visible":true,"properties":[{"name":"layer","type":"int","value":3},{"name":"resource_index","type":"int","value":16},{"name":"oS","type":"string","value":"Tdungeon3"},{"name":"l0","type":"string","value":"basic"},{"name":"l1","type":"string","value":"robby"},{"name":"l2","type":"string","value":"2"},{"name":"z","type":"int","value":9},{"name":"zM","type":"int","value":10},{"name":"f","type":"int","value":0}],"gid":18,"width":49,"height":58},{"id":89,"x":-1068,"y":417,"visible":true,"properties":[{"name":"layer","type":"int","value":3},{"name":"resource_index","type":"int","value":17},{"name":"oS","type":"string","value":"Tdungeon3"},{"name":"l0","type":"string","value":"basic"},{"name":"l1","type":"string","value":"robby"},{"name":"l2","type":"string","value":"1"},{"name":"z","type":"int","value":9},{"name":"zM","type":"int","value":10},{"name":"f","type":"int","value":1}],"gid":17,"width":79,"height":15}],"properties":[]},{"id":8,"name":"layer_4_obj","type":"objectgroup","visible":true,"opacity":1,"draworder":"index","offsetx":0,"offsety":0,"parallaxx":1,"parallaxy":1,"objects":[{"id":90,"x":1170,"y":227,"visible":true,"properties":[{"name":"layer","type":"int","value":4},{"name":"resource_index","type":"int","value":0},{"name":"oS","type":"string","value":"Tdungeon3"},{"name":"l0","type":"string","value":"basic"},{"name":"l1","type":"string","value":"foot"},{"name":"l2","type":"string","value":"5"},{"name":"z","type":"int","value":10},{"name":"zM","type":"int","value":19},{"name":"f","type":"int","value":0}],"gid":11,"width":167,"height":66},{"id":91,"x":-1071,"y":161,"visible":true,"properties":[{"name":"layer","type":"int","value":4},{"name":"resource_index","type":"int","value":1},{"name":"oS","type":"string","value":"Tdungeon3"},{"name":"l0","type":"string","value":"basic"},{"name":"l1","type":"string","value":"foot"},{"name":"l2","type":"string","value":"0"},{"name":"z","type":"int","value":9},{"name":"zM","type":"int","value":29},{"name":"f","type":"int","value":0}],"gid":7,"width":167,"height":72},{"id":92,"x":-737,"y":161,"visible":true,"properties":[{"name":"layer","type":"int","value":4},{"name":"resource_index","type":"int","value":2},{"name":"oS","type":"string","value":"Tdungeon3"},{"name":"l0","type":"string","value":"basic"},{"name":"l1","type":"string","value":"foot"},{"name":"l2","type":"string","value":"2"},{"name":"z","type":"int","value":9},{"name":"zM","type":"int","value":24},{"name":"f","type":"int","value":0}],"gid":6,"width":167,"height":88},{"id":93,"x":1170,"y":161,"visible":true,"properties":[{"name":"layer","type":"int","value":4},{"name":"resource_index","type":"int","value":3},{"name":"oS","type":"string","value":"Tdungeon3"},{"name":"l0","type":"string","value":"basic"},{"name":"l1","type":"string","value":"foot"},{"name":"l2","type":"string","value":"3"},{"name":"z","type":"int","value":9},{"name":"zM","type":"int","value":27},{"name":"f","type":"int","value":0}],"gid":8,"width":167,"height":72},{"id":94,"x":-570,"y":164,"visible":true,"properties":[{"name":"layer","type":"int","value":4},{"name":"resource_index","type":"int","value":4},{"name":"oS","type":"string","value":"Tdungeon3"},{"name":"l0","type":"string","value":"basic"},{"name":"l1","type":"string","value":"foot"},{"name":"l2","type":"string","value":"1"},{"name":"z","type":"int","value":9},{"name":"zM","type":"int","value":14},{"name":"f","type":"int","value":0}],"gid":5,"width":167,"height":80},{"id":95,"x":-404,"y":161,"visible":true,"properties":[{"name":"layer","type":"int","value":4},{"name":"resource_index","type":"int","value":5},{"name":"oS","type":"string","value":"Tdungeon3"},{"name":"l0","type":"string","value":"basic"},{"name":"l1","type":"string","value":"foot"},{"name":"l2","type":"string","value":"2"},{"name":"z","type":"int","value":9},{"name":"zM","type":"int","value":14},{"name":"f","type":"int","value":0}],"gid":6,"width":167,"height":88},{"id":96,"x":-237,"y":164,"visible":true,"properties":[{"name":"layer","type":"int","value":4},{"name":"resource_index","type":"int","value":6},{"name":"oS","type":"string","value":"Tdungeon3"},{"name":"l0","type":"string","value":"basic"},{"name":"l1","type":"string","value":"foot"},{"name":"l2","type":"string","value":"1"},{"name":"z","type":"int","value":9},{"name":"zM","type":"int","value":15},{"name":"f","type":"int","value":0}],"gid":5,"width":167,"height":80},{"id":97,"x":-70,"y":161,"visible":true,"properties":[{"name":"layer","type":"int","value":4},{"name":"resource_index","type":"int","value":7},{"name":"oS","type":"string","value":"Tdungeon3"},{"name":"l0","type":"string","value":"basic"},{"name":"l1","type":"string","value":"foot"},{"name":"l2","type":"string","value":"2"},{"name":"z","type":"int","value":9},{"name":"zM","type":"int","value":25},{"name":"f","type":"int","value":0}],"gid":6,"width":167,"height":88},{"id":98,"x":97,"y":164,"visible":true,"properties":[{"name":"layer","type":"int","value":4},{"name":"resource_index","type":"int","value":8},{"name":"oS","type":"string","value":"Tdungeon3"},{"name":"l0","type":"string","value":"basic"},{"name":"l1","type":"string","value":"foot"},{"name":"l2","type":"string","value":"1"},{"name":"z","type":"int","value":9},{"name":"zM","type":"int","value":16},{"name":"f","type":"int","value":0}],"gid":5,"width":167,"height":80},{"id":99,"x":264,"y":161,"visible":true,"properties":[{"name":"layer","type":"int","value":4},{"name":"resource_index","type":"int","value":9},{"name":"oS","type":"string","value":"Tdungeon3"},{"name":"l0","type":"string","value":"basic"},{"name":"l1","type":"string","value":"foot"},{"name":"l2","type":"string","value":"2"},{"name":"z","type":"int","value":9},{"name":"zM","type":"int","value":28},{"name":"f","type":"int","value":0}],"gid":6,"width":167,"height":88},{"id":100,"x":431,"y":164,"visible":true,"properties":[{"name":"layer","type":"int","value":4},{"name":"resource_index","type":"int","value":10},{"name":"oS","type":"string","value":"Tdungeon3"},{"name":"l0","type":"string","value":"basic"},{"name":"l1","type":"string","value":"foot"},{"name":"l2","type":"string","value":"1"},{"name":"z","type":"int","value":9},{"name":"zM","type":"int","value":17},{"name":"f","type":"int","value":0}],"gid":5,"width":167,"height":80},{"id":101,"x":598,"y":161,"visible":true,"properties":[{"name":"layer","type":"int","value":4},{"name":"resource_index","type":"int","value":11},{"name":"oS","type":"string","value":"Tdungeon3"},{"name":"l0","type":"string","value":"basic"},{"name":"l1","type":"string","value":"foot"},{"name":"l2","type":"string","value":"2"},{"name":"z","type":"int","value":9},{"name":"zM","type":"int","value":23},{"name":"f","type":"int","value":0}],"gid":6,"width":167,"height":88},{"id":102,"x":765,"y":164,"visible":true,"properties":[{"name":"layer","type":"int","value":4},{"name":"resource_index","type":"int","value":12},{"name":"oS","type":"string","value":"Tdungeon3"},{"name":"l0","type":"string","value":"basic"},{"name":"l1","type":"string","value":"foot"},{"name":"l2","type":"string","value":"1"},{"name":"z","type":"int","value":9},{"name":"zM","type":"int","value":18},{"name":"f","type":"int","value":0}],"gid":5,"width":167,"height":80},{"id":103,"x":-904,"y":164,"visible":true,"properties":[{"name":"layer","type":"int","value":4},{"name":"resource_index","type":"int","value":13},{"name":"oS","type":"string","value":"Tdungeon3"},{"name":"l0","type":"string","value":"basic"},{"name":"l1","type":"string","value":"foot"},{"name":"l2","type":"string","value":"11"},{"name":"z","type":"int","value":9},{"name":"zM","type":"int","value":22},{"name":"f","type":"int","value":0}],"gid":9,"width":167,"height":80},{"id":104,"x":1099,"y":174,"visible":true,"properties":[{"name":"layer","type":"int","value":4},{"name":"resource_index","type":"int","value":14},{"name":"oS","type":"string","value":"Tdungeon3"},{"name":"l0","type":"string","value":"basic"},{"name":"l1","type":"string","value":"foot"},{"name":"l2","type":"string","value":"4"},{"name":"z","type":"int","value":9},{"name":"zM","type":"int","value":19},{"name":"f","type":"int","value":0}],"gid":12,"width":167,"height":13},{"id":105,"x":932,"y":161,"visible":true,"properties":[{"name":"layer","type":"int","value":4},{"name":"resource_index","type":"int","value":15},{"name":"oS","type":"string","value":"Tdungeon3"},{"name":"l0","type":"string","value":"basic"},{"name":"l1","type":"string","value":"foot"},{"name":"l2","type":"string","value":"10"},{"name":"z","type":"int","value":9},{"name":"zM","type":"int","value":26},{"name":"f","type":"int","value":0}],"gid":10,"width":167,"height":72},{"id":106,"x":971,"y":416,"visible":true,"properties":[{"name":"layer","type":"int","value":4},{"name":"resource_index","type":"int","value":16},{"name":"oS","type":"string","value":"Tdungeon3"},{"name":"l0","type":"string","value":"basic"},{"name":"l1","type":"string","value":"robby"},{"name":"l2","type":"string","value":"11"},{"name":"z","type":"int","value":9},{"name":"zM","type":"int","value":13},{"name":"f","type":"int","value":0}],"gid":23,"width":107,"height":88},{"id":107,"x":-1071,"y":227,"visible":true,"properties":[{"name":"layer","type":"int","value":4},{"name":"resource_index","type":"int","value":17},{"name":"oS","type":"string","value":"Tdungeon3"},{"name":"l0","type":"string","value":"basic"},{"name":"l1","type":"string","value":"foot"},{"name":"l2","type":"string","value":"5"},{"name":"z","type":"int","value":9},{"name":"zM","type":"int","value":20},{"name":"f","type":"int","value":0}],"gid":11,"width":167,"height":66},{"id":108,"x":-904,"y":174,"visible":true,"properties":[{"name":"layer","type":"int","value":4},{"name":"resource_index","type":"int","value":18},{"name":"oS","type":"string","value":"Tdungeon3"},{"name":"l0","type":"string","value":"basic"},{"name":"l1","type":"string","value":"foot"},{"name":"l2","type":"string","value":"4"},{"name":"z","type":"int","value":9},{"name":"zM","type":"int","value":22},{"name":"f","type":"int","value":0}],"gid":12,"width":167,"height":13},{"id":109,"x":-737,"y":227,"visible":true,"properties":[{"name":"layer","type":"int","value":4},{"name":"resource_index","type":"int","value":19},{"name":"oS","type":"string","value":"Tdungeon3"},{"name":"l0","type":"string","value":"basic"},{"name":"l1","type":"string","value":"foot"},{"name":"l2","type":"string","value":"5"},{"name":"z","type":"int","value":9},{"name":"zM","type":"int","value":21},{"name":"f","type":"int","value":0}],"gid":11,"width":167,"height":66},{"id":110,"x":-570,"y":227,"visible":true,"properties":[{"name":"layer","type":"int","value":4},{"name":"resource_index","type":"int","value":20},{"name":"oS","type":"string","value":"Tdungeon3"},{"name":"l0","type":"string","value":"basic"},{"name":"l1","type":"string","value":"foot"},{"name":"l2","type":"string","value":"5"},{"name":"z","type":"int","value":9},{"name":"zM","type":"int","value":14},{"name":"f","type":"int","value":0}],"gid":11,"width":167,"height":66},{"id":111,"x":-403,"y":174,"visible":true,"properties":[{"name":"layer","type":"int","value":4},{"name":"resource_index","type":"int","value":21},{"name":"oS","type":"string","value":"Tdungeon3"},{"name":"l0","type":"string","value":"basic"},{"name":"l1","type":"string","value":"foot"},{"name":"l2","type":"string","value":"4"},{"name":"z","type":"int","value":9},{"name":"zM","type":"int","value":14},{"name":"f","type":"int","value":0}],"gid":12,"width":167,"height":13},{"id":112,"x":-236,"y":227,"visible":true,"properties":[{"name":"layer","type":"int","value":4},{"name":"resource_index","type":"int","value":22},{"name":"oS","type":"string","value":"Tdungeon3"},{"name":"l0","type":"string","value":"basic"},{"name":"l1","type":"string","value":"foot"},{"name":"l2","type":"string","value":"5"},{"name":"z","type":"int","value":9},{"name":"zM","type":"int","value":15},{"name":"f","type":"int","value":0}],"gid":11,"width":167,"height":66},{"id":113,"x":-69,"y":227,"visible":true,"properties":[{"name":"layer","type":"int","value":4},{"name":"resource_index","type":"int","value":23},{"name":"oS","type":"string","value":"Tdungeon3"},{"name":"l0","type":"string","value":"basic"},{"name":"l1","type":"string","value":"foot"},{"name":"l2","type":"string","value":"5"},{"name":"z","type":"int","value":9},{"name":"zM","type":"int","value":16},{"name":"f","type":"int","value":0}],"gid":11,"width":167,"height":66},{"id":114,"x":98,"y":174,"visible":true,"properties":[{"name":"layer","type":"int","value":4},{"name":"resource_index","type":"int","value":24},{"name":"oS","type":"string","value":"Tdungeon3"},{"name":"l0","type":"string","value":"basic"},{"name":"l1","type":"string","value":"foot"},{"name":"l2","type":"string","value":"4"},{"name":"z","type":"int","value":9},{"name":"zM","type":"int","value":16},{"name":"f","type":"int","value":0}],"gid":12,"width":167,"height":13},{"id":115,"x":265,"y":227,"visible":true,"properties":[{"name":"layer","type":"int","value":4},{"name":"resource_index","type":"int","value":25},{"name":"oS","type":"string","value":"Tdungeon3"},{"name":"l0","type":"string","value":"basic"},{"name":"l1","type":"string","value":"foot"},{"name":"l2","type":"string","value":"5"},{"name":"z","type":"int","value":9},{"name":"zM","type":"int","value":17},{"name":"f","type":"int","value":0}],"gid":11,"width":167,"height":66},{"id":116,"x":432,"y":227,"visible":true,"properties":[{"name":"layer","type":"int","value":4},{"name":"resource_index","type":"int","value":26},{"name":"oS","type":"string","value":"Tdungeon3"},{"name":"l0","type":"string","value":"basic"},{"name":"l1","type":"string","value":"foot"},{"name":"l2","type":"string","value":"5"},{"name":"z","type":"int","value":9},{"name":"zM","type":"int","value":17},{"name":"f","type":"int","value":0}],"gid":11,"width":167,"height":66},{"id":117,"x":599,"y":174,"visible":true,"properties":[{"name":"layer","type":"int","value":4},{"name":"resource_index","type":"int","value":27},{"name":"oS","type":"string","value":"Tdungeon3"},{"name":"l0","type":"string","value":"basic"},{"name":"l1","type":"string","value":"foot"},{"name":"l2","type":"string","value":"4"},{"name":"z","type":"int","value":9},{"name":"zM","type":"int","value":18},{"name":"f","type":"int","value":0}],"gid":12,"width":167,"height":13},{"id":118,"x":766,"y":227,"visible":true,"properties":[{"name":"layer","type":"int","value":4},{"name":"resource_index","type":"int","value":28},{"name":"oS","type":"string","value":"Tdungeon3"},{"name":"l0","type":"string","value":"basic"},{"name":"l1","type":"string","value":"foot"},{"name":"l2","type":"string","value":"5"},{"name":"z","type":"int","value":9},{"name":"zM","type":"int","value":18},{"name":"f","type":"int","value":0}],"gid":11,"width":167,"height":66},{"id":119,"x":933,"y":227,"visible":true,"properties":[{"name":"layer","type":"int","value":4},{"name":"resource_index","type":"int","value":29},{"name":"oS","type":"string","value":"Tdungeon3"},{"name":"l0","type":"string","value":"basic"},{"name":"l1","type":"string","value":"foot"},{"name":"l2","type":"string","value":"5"},{"name":"z","type":"int","value":9},{"name":"zM","type":"int","value":19},{"name":"f","type":"int","value":0}],"gid":11,"width":167,"height":66},{"id":120,"x":1046,"y":161,"visible":true,"properties":[{"name":"layer","type":"int","value":4},{"name":"resource_index","type":"int","value":30},{"name":"oS","type":"string","value":"Tdungeon3"},{"name":"l0","type":"string","value":"basic"},{"name":"l1","type":"string","value":"foot"},{"name":"l2","type":"string","value":"0"},{"name":"z","type":"int","value":9},{"name":"zM","type":"int","value":27},{"name":"f","type":"int","value":0}],"gid":7,"width":167,"height":72},{"id":121,"x":-1110,"y":161,"visible":true,"properties":[{"name":"layer","type":"int","value":4},{"name":"resource_index","type":"int","value":31},{"name":"oS","type":"string","value":"Tdungeon3"},{"name":"l0","type":"string","value":"basic"},{"name":"l1","type":"string","value":"foot"},{"name":"l2","type":"string","value":"0"},{"name":"z","type":"int","value":7},{"name":"zM","type":"int","value":29},{"name":"f","type":"int","value":0}],"gid":7,"width":167,"height":72},{"id":122,"x":-1110,"y":174,"visible":true,"properties":[{"name":"layer","type":"int","value":4},{"name":"resource_index","type":"int","value":32},{"name":"oS","type":"string","value":"Tdungeon3"},{"name":"l0","type":"string","value":"basic"},{"name":"l1","type":"string","value":"foot"},{"name":"l2","type":"string","value":"4"},{"name":"z","type":"int","value":4},{"name":"zM","type":"int","value":20},{"name":"f","type":"int","value":0}],"gid":12,"width":167,"height":13}],"properties":[]},{"id":9,"name":"portal","type":"objectgroup","visible":true,"opacity":1,"draworder":"index","offsetx":0,"offsety":0,"parallaxx":1,"parallaxy":1,"objects":[{"id":123,"x":343,"y":79,"visible":true,"properties":[{"name":"x","type":"int","value":343},{"name":"y","type":"int","value":79},{"name":"pn","type":"string","value":"sp"},{"name":"pt","type":"int","value":0},{"name":"tm","type":"int","value":999999999},{"name":"tn","type":"string","value":""},{"name":"horizontalImpact","type":"int","value":0}],"point":true},{"id":124,"x":1259,"y":88,"visible":true,"properties":[{"name":"x","type":"int","value":1259},{"name":"y","type":"int","value":88},{"name":"pn","type":"string","value":"right01"},{"name":"pt","type":"int","value":7},{"name":"tm","type":"int","value":999999999},{"name":"tn","type":"string","value":""},{"name":"script","type":"string","value":"Depart_goBack01"},{"name":"horizontalImpact","type":"int","value":0}],"point":true}],"properties":[]},{"id":10,"name":"life","type":"objectgroup","visible":true,"opacity":1,"draworder":"index","offsetx":0,"offsety":0,"parallaxx":1,"parallaxy":1,"objects":[{"id":125,"x":-775,"y":86,"visible":true,"properties":[{"name":"f","type":"int","value":0},{"name":"x","type":"int","value":-775},{"name":"y","type":"int","value":86},{"name":"cy","type":"int","value":89},{"name":"fh","type":"int","value":18},{"name":"id","type":"int","value":4300013},{"name":"rx0","type":"int","value":-884},{"name":"rx1","type":"int","value":-757},{"name":"hide","type":"int","value":0},{"name":"type","type":"string","value":"m"},{"name":"mobTime","type":"int","value":-1}],"point":true}],"properties":[]},{"id":11,"name":"foothold","type":"objectgroup","visible":true,"opacity":1,"draworder":"index","offsetx":0,"offsety":0,"parallaxx":1,"parallaxy":1,"objects":[{"id":126,"x":-570,"y":89,"visible":true,"properties":[{"name":"layer","type":"int","value":4},{"name":"group","type":"int","value":14},{"name":"id","type":"int","value":6},{"name":"fh_layer","type":"int","value":4},{"name":"fh_group","type":"int","value":14},{"name":"fh_id","type":"int","value":6},{"name":"x1","type":"int","value":-570},{"name":"x2","type":"int","value":-403},{"name":"y1","type":"int","value":89},{"name":"y2","type":"int","value":89},{"name":"next","type":"int","value":7},{"name":"prev","type":"int","value":3}],"polyline":[{"x":0,"y":0},{"x":167,"y":0}]},{"id":127,"x":-403,"y":89,"visible":true,"properties":[{"name":"layer","type":"int","value":4},{"name":"group","type":"int","value":14},{"name":"id","type":"int","value":7},{"name":"fh_layer","type":"int","value":4},{"name":"fh_group","type":"int","value":14},{"name":"fh_id","type":"int","value":7},{"name":"x1","type":"int","value":-403},{"name":"x2","type":"int","value":-237},{"name":"y1","type":"int","value":89},{"name":"y2","type":"int","value":89},{"name":"next","type":"int","value":8},{"name":"prev","type":"int","value":6}],"polyline":[{"x":0,"y":0},{"x":166,"y":0}]},{"id":128,"x":-237,"y":89,"visible":true,"properties":[{"name":"layer","type":"int","value":4},{"name":"group","type":"int","value":15},{"name":"id","type":"int","value":8},{"name":"fh_layer","type":"int","value":4},{"name":"fh_group","type":"int","value":15},{"name":"fh_id","type":"int","value":8},{"name":"x1","type":"int","value":-237},{"name":"x2","type":"int","value":-70},{"name":"y1","type":"int","value":89},{"name":"y2","type":"int","value":89},{"name":"next","type":"int","value":9},{"name":"prev","type":"int","value":7}],"polyline":[{"x":0,"y":0},{"x":167,"y":0}]},{"id":129,"x":97,"y":89,"visible":true,"properties":[{"name":"layer","type":"int","value":4},{"name":"group","type":"int","value":16},{"name":"id","type":"int","value":10},{"name":"fh_layer","type":"int","value":4},{"name":"fh_group","type":"int","value":16},{"name":"fh_id","type":"int","value":10},{"name":"x1","type":"int","value":97},{"name":"x2","type":"int","value":264},{"name":"y1","type":"int","value":89},{"name":"y2","type":"int","value":89},{"name":"next","type":"int","value":11},{"name":"prev","type":"int","value":9}],"polyline":[{"x":0,"y":0},{"x":167,"y":0}]},{"id":130,"x":431,"y":89,"visible":true,"properties":[{"name":"layer","type":"int","value":4},{"name":"group","type":"int","value":17},{"name":"id","type":"int","value":12},{"name":"fh_layer","type":"int","value":4},{"name":"fh_group","type":"int","value":17},{"name":"fh_id","type":"int","value":12},{"name":"x1","type":"int","value":431},{"name":"x2","type":"int","value":598},{"name":"y1","type":"int","value":89},{"name":"y2","type":"int","value":89},{"name":"next","type":"int","value":13},{"name":"prev","type":"int","value":11}],"polyline":[{"x":0,"y":0},{"x":167,"y":0}]},{"id":131,"x":765,"y":89,"visible":true,"properties":[{"name":"layer","type":"int","value":4},{"name":"group","type":"int","value":18},{"name":"id","type":"int","value":14},{"name":"fh_layer","type":"int","value":4},{"name":"fh_group","type":"int","value":18},{"name":"fh_id","type":"int","value":14},{"name":"x1","type":"int","value":765},{"name":"x2","type":"int","value":932},{"name":"y1","type":"int","value":89},{"name":"y2","type":"int","value":89},{"name":"next","type":"int","value":20},{"name":"prev","type":"int","value":13}],"polyline":[{"x":0,"y":0},{"x":167,"y":0}]},{"id":132,"x":-904,"y":89,"visible":true,"properties":[{"name":"layer","type":"int","value":4},{"name":"group","type":"int","value":22},{"name":"id","type":"int","value":15},{"name":"fh_layer","type":"int","value":4},{"name":"fh_group","type":"int","value":22},{"name":"fh_id","type":"int","value":15},{"name":"x1","type":"int","value":-904},{"name":"x2","type":"int","value":-870},{"name":"y1","type":"int","value":89},{"name":"y2","type":"int","value":89},{"name":"next","type":"int","value":16},{"name":"prev","type":"int","value":1}],"polyline":[{"x":0,"y":0},{"x":34,"y":0}]},{"id":133,"x":-870,"y":89,"visible":true,"properties":[{"name":"layer","type":"int","value":4},{"name":"group","type":"int","value":22},{"name":"id","type":"int","value":16},{"name":"fh_layer","type":"int","value":4},{"name":"fh_group","type":"int","value":22},{"name":"fh_id","type":"int","value":16},{"name":"x1","type":"int","value":-870},{"name":"x2","type":"int","value":-837},{"name":"y1","type":"int","value":89},{"name":"y2","type":"int","value":89},{"name":"next","type":"int","value":17},{"name":"prev","type":"int","value":15}],"polyline":[{"x":0,"y":0},{"x":33,"y":0}]},{"id":134,"x":-837,"y":89,"visible":true,"properties":[{"name":"layer","type":"int","value":4},{"name":"group","type":"int","value":22},{"name":"id","type":"int","value":17},{"name":"fh_layer","type":"int","value":4},{"name":"fh_group","type":"int","value":22},{"name":"fh_id","type":"int","value":17},{"name":"x1","type":"int","value":-837},{"name":"x2","type":"int","value":-803},{"name":"y1","type":"int","value":89},{"name":"y2","type":"int","value":89},{"name":"next","type":"int","value":18},{"name":"prev","type":"int","value":16}],"polyline":[{"x":0,"y":0},{"x":34,"y":0}]},{"id":135,"x":-803,"y":89,"visible":true,"properties":[{"name":"layer","type":"int","value":4},{"name":"group","type":"int","value":22},{"name":"id","type":"int","value":18},{"name":"fh_layer","type":"int","value":4},{"name":"fh_group","type":"int","value":22},{"name":"fh_id","type":"int","value":18},{"name":"x1","type":"int","value":-803},{"name":"x2","type":"int","value":-769},{"name":"y1","type":"int","value":89},{"name":"y2","type":"int","value":89},{"name":"next","type":"int","value":19},{"name":"prev","type":"int","value":17}],"polyline":[{"x":0,"y":0},{"x":34,"y":0}]},{"id":136,"x":-769,"y":89,"visible":true,"properties":[{"name":"layer","type":"int","value":4},{"name":"group","type":"int","value":22},{"name":"id","type":"int","value":19},{"name":"fh_layer","type":"int","value":4},{"name":"fh_group","type":"int","value":22},{"name":"fh_id","type":"int","value":19},{"name":"x1","type":"int","value":-769},{"name":"x2","type":"int","value":-737},{"name":"y1","type":"int","value":89},{"name":"y2","type":"int","value":89},{"name":"next","type":"int","value":3},{"name":"prev","type":"int","value":18}],"polyline":[{"x":0,"y":0},{"x":32,"y":0}]},{"id":137,"x":598,"y":89,"visible":true,"properties":[{"name":"layer","type":"int","value":4},{"name":"group","type":"int","value":23},{"name":"id","type":"int","value":13},{"name":"fh_layer","type":"int","value":4},{"name":"fh_group","type":"int","value":23},{"name":"fh_id","type":"int","value":13},{"name":"x1","type":"int","value":598},{"name":"x2","type":"int","value":765},{"name":"y1","type":"int","value":89},{"name":"y2","type":"int","value":89},{"name":"next","type":"int","value":14},{"name":"prev","type":"int","value":12}],"polyline":[{"x":0,"y":0},{"x":167,"y":0}]},{"id":138,"x":-737,"y":89,"visible":true,"properties":[{"name":"layer","type":"int","value":4},{"name":"group","type":"int","value":24},{"name":"id","type":"int","value":3},{"name":"fh_layer","type":"int","value":4},{"name":"fh_group","type":"int","value":24},{"name":"fh_id","type":"int","value":3},{"name":"x1","type":"int","value":-737},{"name":"x2","type":"int","value":-570},{"name":"y1","type":"int","value":89},{"name":"y2","type":"int","value":89},{"name":"next","type":"int","value":6},{"name":"prev","type":"int","value":19}],"polyline":[{"x":0,"y":0},{"x":167,"y":0}]},{"id":139,"x":-70,"y":89,"visible":true,"properties":[{"name":"layer","type":"int","value":4},{"name":"group","type":"int","value":25},{"name":"id","type":"int","value":9},{"name":"fh_layer","type":"int","value":4},{"name":"fh_group","type":"int","value":25},{"name":"fh_id","type":"int","value":9},{"name":"x1","type":"int","value":-70},{"name":"x2","type":"int","value":97},{"name":"y1","type":"int","value":89},{"name":"y2","type":"int","value":89},{"name":"next","type":"int","value":10},{"name":"prev","type":"int","value":8}],"polyline":[{"x":0,"y":0},{"x":167,"y":0}]},{"id":140,"x":932,"y":89,"visible":true,"properties":[{"name":"layer","type":"int","value":4},{"name":"group","type":"int","value":26},{"name":"id","type":"int","value":20},{"name":"fh_layer","type":"int","value":4},{"name":"fh_group","type":"int","value":26},{"name":"fh_id","type":"int","value":20},{"name":"x1","type":"int","value":932},{"name":"x2","type":"int","value":966},{"name":"y1","type":"int","value":89},{"name":"y2","type":"int","value":89},{"name":"next","type":"int","value":21},{"name":"prev","type":"int","value":14}],"polyline":[{"x":0,"y":0},{"x":34,"y":0}]},{"id":141,"x":966,"y":89,"visible":true,"properties":[{"name":"layer","type":"int","value":4},{"name":"group","type":"int","value":26},{"name":"id","type":"int","value":21},{"name":"fh_layer","type":"int","value":4},{"name":"fh_group","type":"int","value":26},{"name":"fh_id","type":"int","value":21},{"name":"x1","type":"int","value":966},{"name":"x2","type":"int","value":999},{"name":"y1","type":"int","value":89},{"name":"y2","type":"int","value":89},{"name":"next","type":"int","value":22},{"name":"prev","type":"int","value":20}],"polyline":[{"x":0,"y":0},{"x":33,"y":0}]},{"id":142,"x":999,"y":89,"visible":true,"properties":[{"name":"layer","type":"int","value":4},{"name":"group","type":"int","value":26},{"name":"id","type":"int","value":22},{"name":"fh_layer","type":"int","value":4},{"name":"fh_group","type":"int","value":26},{"name":"fh_id","type":"int","value":22},{"name":"x1","type":"int","value":999},{"name":"x2","type":"int","value":1033},{"name":"y1","type":"int","value":89},{"name":"y2","type":"int","value":89},{"name":"next","type":"int","value":23},{"name":"prev","type":"int","value":21}],"polyline":[{"x":0,"y":0},{"x":34,"y":0}]},{"id":143,"x":1033,"y":89,"visible":true,"properties":[{"name":"layer","type":"int","value":4},{"name":"group","type":"int","value":26},{"name":"id","type":"int","value":23},{"name":"fh_layer","type":"int","value":4},{"name":"fh_group","type":"int","value":26},{"name":"fh_id","type":"int","value":23},{"name":"x1","type":"int","value":1033},{"name":"x2","type":"int","value":1067},{"name":"y1","type":"int","value":89},{"name":"y2","type":"int","value":89},{"name":"next","type":"int","value":24},{"name":"prev","type":"int","value":22}],"polyline":[{"x":0,"y":0},{"x":34,"y":0}]},{"id":144,"x":1067,"y":89,"visible":true,"properties":[{"name":"layer","type":"int","value":4},{"name":"group","type":"int","value":26},{"name":"id","type":"int","value":24},{"name":"fh_layer","type":"int","value":4},{"name":"fh_group","type":"int","value":26},{"name":"fh_id","type":"int","value":24},{"name":"x1","type":"int","value":1067},{"name":"x2","type":"int","value":1099},{"name":"y1","type":"int","value":89},{"name":"y2","type":"int","value":89},{"name":"next","type":"int","value":5},{"name":"prev","type":"int","value":23}],"polyline":[{"x":0,"y":0},{"x":32,"y":0}]},{"id":145,"x":1170,"y":89,"visible":true,"properties":[{"name":"layer","type":"int","value":4},{"name":"group","type":"int","value":27},{"name":"id","type":"int","value":4},{"name":"fh_layer","type":"int","value":4},{"name":"fh_group","type":"int","value":27},{"name":"fh_id","type":"int","value":4},{"name":"x1","type":"int","value":1170},{"name":"x2","type":"int","value":1337},{"name":"y1","type":"int","value":89},{"name":"y2","type":"int","value":89},{"name":"next","type":"int","value":0},{"name":"prev","type":"int","value":5}],"polyline":[{"x":0,"y":0},{"x":167,"y":0}]},{"id":146,"x":1099,"y":89,"visible":true,"properties":[{"name":"layer","type":"int","value":4},{"name":"group","type":"int","value":27},{"name":"id","type":"int","value":5},{"name":"fh_layer","type":"int","value":4},{"name":"fh_group","type":"int","value":27},{"name":"fh_id","type":"int","value":5},{"name":"x1","type":"int","value":1099},{"name":"x2","type":"int","value":1170},{"name":"y1","type":"int","value":89},{"name":"y2","type":"int","value":89},{"name":"next","type":"int","value":4},{"name":"prev","type":"int","value":24}],"polyline":[{"x":0,"y":0},{"x":71,"y":0}]},{"id":147,"x":264,"y":89,"visible":true,"properties":[{"name":"layer","type":"int","value":4},{"name":"group","type":"int","value":28},{"name":"id","type":"int","value":11},{"name":"fh_layer","type":"int","value":4},{"name":"fh_group","type":"int","value":28},{"name":"fh_id","type":"int","value":11},{"name":"x1","type":"int","value":264},{"name":"x2","type":"int","value":431},{"name":"y1","type":"int","value":89},{"name":"y2","type":"int","value":89},{"name":"next","type":"int","value":12},{"name":"prev","type":"int","value":10}],"polyline":[{"x":0,"y":0},{"x":167,"y":0}]},{"id":148,"x":-1071,"y":89,"visible":true,"properties":[{"name":"layer","type":"int","value":4},{"name":"group","type":"int","value":29},{"name":"id","type":"int","value":1},{"name":"fh_layer","type":"int","value":4},{"name":"fh_group","type":"int","value":29},{"name":"fh_id","type":"int","value":1},{"name":"x1","type":"int","value":-1071},{"name":"x2","type":"int","value":-904},{"name":"y1","type":"int","value":89},{"name":"y2","type":"int","value":89},{"name":"next","type":"int","value":15},{"name":"prev","type":"int","value":2}],"polyline":[{"x":0,"y":0},{"x":167,"y":0}]},{"id":149,"x":-1110,"y":89,"visible":true,"properties":[{"name":"layer","type":"int","value":4},{"name":"group","type":"int","value":29},{"name":"id","type":"int","value":2},{"name":"fh_layer","type":"int","value":4},{"name":"fh_group","type":"int","value":29},{"name":"fh_id","type":"int","value":2},{"name":"x1","type":"int","value":-1110},{"name":"x2","type":"int","value":-1071},{"name":"y1","type":"int","value":89},{"name":"y2","type":"int","value":89},{"name":"next","type":"int","value":1},{"name":"prev","type":"int","value":0}],"polyline":[{"x":0,"y":0},{"x":39,"y":0}]}],"properties":[]},{"id":12,"name":"seat","type":"objectgroup","visible":true,"opacity":1,"draworder":"index","offsetx":0,"offsety":0,"parallaxx":1,"parallaxy":1,"objects":[{"id":150,"x":0,"y":0,"visible":true,"properties":[{"name":"x","type":"int","value":0},{"name":"y","type":"int","value":0}],"point":true},{"id":151,"x":0,"y":0,"visible":true,"properties":[{"name":"x","type":"int","value":0},{"name":"y","type":"int","value":0}],"point":true},{"id":152,"x":0,"y":0,"visible":true,"properties":[{"name":"x","type":"int","value":0},{"name":"y","type":"int","value":0}],"point":true}],"properties":[]},{"id":13,"name":"miniMap","type":"objectgroup","visible":true,"opacity":1,"draworder":"index","offsetx":0,"offsety":0,"parallaxx":1,"parallaxy":1,"objects":[{"id":153,"x":1159,"y":462,"visible":true,"properties":[{"name":"mag","type":"int","value":4},{"name":"centerX","type":"int","value":1159},{"name":"centerY","type":"int","value":462},{"name":"canvas_path","type":"string","value":"../images/30854.png"},{"name":"canvas_width","type":"int","value":159},{"name":"canvas_height","type":"int","value":62},{"name":"canvas_origin_x","type":"int","value":0},{"name":"canvas_origin_y","type":"int","value":0}],"point":true}],"properties":[]}],"tilesets":[{"firstgid":1,"source":"../tilesets/bg_department.tsj"},{"firstgid":5,"source":"../tilesets/obj_Tdungeon3_basic_foot.tsj"},{"firstgid":17,"source":"../tilesets/obj_Tdungeon3_basic_robby.tsj"},{"firstgid":32,"source":"../tilesets/obj_Tdungeon3_shopPart1_base.tsj"},{"firstgid":44,"source":"../tilesets/obj_Tdungeon3_shopPart1_logo.tsj"},{"firstgid":53,"source":"../tilesets/obj_Tdungeon3_shopPart2_base.tsj"},{"firstgid":63,"source":"../tilesets/obj_Tdungeon3_shopPart2_door.tsj"},{"firstgid":69,"source":"../tilesets/obj_Tdungeon3_shopPart1_light.tsj"},{"firstgid":77,"source":"../tilesets/obj_Tdungeon3_shopPart2_light.tsj"},{"firstgid":80,"source":"../tilesets/obj_Tdungeon3_madeShop_101music.tsj"},{"firstgid":81,"source":"../tilesets/obj_Tdungeon3_shopPart2_product.tsj"},{"firstgid":99,"source":"../tilesets/obj_Tdungeon3_madeShop_soundland.tsj"},{"firstgid":100,"source":"../tilesets/obj_Tdungeon3_shopPart1_mainSign.tsj"},{"firstgid":104,"source":"../tilesets/obj_Tdungeon3_shopPart2_mainSign.tsj"},{"firstgid":113,"source":"../tilesets/obj_Tdungeon3_shopPart2_innerWall.tsj"}],"properties":[{"name":"bgm","type":"string","value":"Bgm21/KerningSquareField"},{"name":"fly","type":"int","value":0},{"name":"swim","type":"int","value":0},{"name":"town","type":"int","value":0},{"name":"VRTop","type":"int","value":-242},{"name":"cloud","type":"int","value":0},{"name":"VRLeft","type":"int","value":-1112},{"name":"VRRight","type":"int","value":1336},{"name":"mapMark","type":"string","value":"101Building"},{"name":"mobRate","type":"float","value":2},{"name":"version","type":"int","value":10},{"name":"VRBottom","type":"int","value":358},{"name":"noMapCmd","type":"int","value":0},{"name":"returnMap","type":"int","value":103040400},{"name":"fieldLimit","type":"int","value":271096},{"name":"hideMinimap","type":"int","value":0},{"name":"lvForceMove","type":"int","value":51},{"name":"onUserEnter","type":"string","value":"Depart_BossEnter"},{"name":"forcedReturn","type":"int","value":103040400},{"name":"onFirstUserEnter","type":"string","value":"Depart_Boss_F_Enter"}]}