{"type":"map","orientation":"orthogonal","renderorder":"right-down","infinite":false,"tilewidth":1,"tileheight":1,"width":1065,"height":1780,"parallaxoriginx":-400,"parallaxoriginy":80,"nextlayerid":1,"nextobjectid":1,"layers":[],"tilesets":[],"properties":[{"name":"bgm","type":"string","value":"Bgm01/AncientMove"},{"name":"fly","type":"int","value":0},{"name":"link","type":"int","value":105090320},{"name":"swim","type":"int","value":0},{"name":"town","type":"int","value":0},{"name":"VRTop","type":"int","value":-1360},{"name":"cloud","type":"int","value":0},{"name":"VRLeft","type":"int","value":-485},{"name":"VRRight","type":"int","value":580},{"name":"mapDesc","type":"string","value":""},{"name":"mapMark","type":"string","value":"Dungeon"},{"name":"mobRate","type":"float","value":2.000000238418579},{"name":"version","type":"int","value":10},{"name":"VRBottom","type":"int","value":420},{"name":"noMapCmd","type":"int","value":0},{"name":"fieldType","type":"int","value":6},{"name":"returnMap","type":"int","value":105040300},{"name":"timeLimit","type":"int","value":7200},{"name":"fieldLimit","type":"int","value":262216},{"name":"hideMinimap","type":"int","value":0},{"name":"onUserEnter","type":"string","value":""},{"name":"forcedReturn","type":"int","value":105090311},{"name":"miniMapOnOff","type":"int","value":1},{"name":"autoLieDetector","type":"string","value":""},{"name":"onFirstUserEnter","type":"string","value":""}]}