{"type":"map","orientation":"orthogonal","renderorder":"right-down","infinite":false,"tilewidth":1,"tileheight":1,"width":1200,"height":910,"parallaxoriginx":-400,"parallaxoriginy":80,"nextlayerid":18,"nextobjectid":57,"layers":[{"id":1,"name":"background_back_0","type":"imagelayer","visible":true,"opacity":1,"image":"../images/29767.png","imagewidth":800,"imageheight":600,"offsetx":-400,"offsety":-220,"repeatx":true,"repeaty":true,"parallaxx":0.3,"parallaxy":0.7,"properties":[{"name":"a","type":"int","value":255},{"name":"f","type":"int","value":0},{"name":"x","type":"int","value":0},{"name":"y","type":"int","value":0},{"name":"bS","type":"string","value":"blueCave"},{"name":"cx","type":"int","value":0},{"name":"cy","type":"int","value":0},{"name":"no","type":"int","value":0},{"name":"rx","type":"int","value":-30},{"name":"ry","type":"int","value":-70},{"name":"ani","type":"int","value":0},{"name":"type","type":"int","value":3},{"name":"front","type":"int","value":0}]},{"id":2,"name":"background_back_1","type":"imagelayer","visible":true,"opacity":1,"image":"../images/29768.png","imagewidth":800,"imageheight":600,"offsetx":-400,"offsety":-220,"repeatx":true,"repeaty":true,"parallaxx":0.5,"parallaxy":0.7,"properties":[{"name":"a","type":"int","value":255},{"name":"f","type":"int","value":0},{"name":"x","type":"int","value":0},{"name":"y","type":"int","value":0},{"name":"bS","type":"string","value":"blueCave"},{"name":"cx","type":"int","value":0},{"name":"cy","type":"int","value":0},{"name":"no","type":"int","value":1},{"name":"rx","type":"int","value":-50},{"name":"ry","type":"int","value":-70},{"name":"ani","type":"int","value":0},{"name":"type","type":"int","value":3},{"name":"front","type":"int","value":0}]},{"id":3,"name":"background_back_2","type":"imagelayer","visible":true,"opacity":1,"image":"../images/29769.png","imagewidth":800,"imageheight":600,"offsetx":-400,"offsety":-220,"repeatx":true,"repeaty":true,"parallaxx":0.7,"parallaxy":0.7,"properties":[{"name":"a","type":"int","value":255},{"name":"f","type":"int","value":0},{"name":"x","type":"int","value":0},{"name":"y","type":"int","value":0},{"name":"bS","type":"string","value":"blueCave"},{"name":"cx","type":"int","value":0},{"name":"cy","type":"int","value":0},{"name":"no","type":"int","value":2},{"name":"rx","type":"int","value":-70},{"name":"ry","type":"int","value":-70},{"name":"ani","type":"int","value":0},{"name":"type","type":"int","value":3},{"name":"front","type":"int","value":0}]},{"id":4,"name":"background_back_3","type":"imagelayer","visible":true,"opacity":1,"image":"../images/26895.png","imagewidth":800,"imageheight":600,"offsetx":-306,"offsety":-258,"repeatx":true,"repeaty":true,"parallaxx":0.9,"parallaxy":0.7,"properties":[{"name":"a","type":"int","value":255},{"name":"f","type":"int","value":0},{"name":"x","type":"int","value":94},{"name":"y","type":"int","value":-38},{"name":"bS","type":"string","value":"blueCave2"},{"name":"cx","type":"int","value":0},{"name":"cy","type":"int","value":0},{"name":"no","type":"int","value":2},{"name":"rx","type":"int","value":-90},{"name":"ry","type":"int","value":-70},{"name":"ani","type":"int","value":0},{"name":"type","type":"int","value":3},{"name":"front","type":"int","value":0}]},{"id":5,"name":"background_back_4","type":"objectgroup","visible":true,"opacity":1,"draworder":"index","offsetx":0,"offsety":0,"parallaxx":0.9,"parallaxy":0.7,"objects":[{"id":1,"x":-277,"y":142,"visible":true,"properties":[],"gid":53,"width":419,"height":426}],"properties":[{"name":"a","type":"int","value":255},{"name":"f","type":"int","value":0},{"name":"x","type":"int","value":-56},{"name":"y","type":"int","value":-173},{"name":"bS","type":"string","value":"blueCave2"},{"name":"cx","type":"int","value":0},{"name":"cy","type":"int","value":0},{"name":"no","type":"int","value":0},{"name":"rx","type":"int","value":-90},{"name":"ry","type":"int","value":-70},{"name":"ani","type":"int","value":1},{"name":"type","type":"int","value":0},{"name":"front","type":"int","value":0}]},{"id":6,"name":"background_back_5","type":"objectgroup","visible":true,"opacity":1,"draworder":"index","offsetx":0,"offsety":0,"parallaxx":0.9,"parallaxy":0.7,"objects":[{"id":2,"x":142,"y":93,"visible":true,"properties":[],"gid":63,"width":403,"height":378}],"properties":[{"name":"a","type":"int","value":255},{"name":"f","type":"int","value":0},{"name":"x","type":"int","value":322},{"name":"y","type":"int","value":-190},{"name":"bS","type":"string","value":"blueCave2"},{"name":"cx","type":"int","value":0},{"name":"cy","type":"int","value":0},{"name":"no","type":"int","value":1},{"name":"rx","type":"int","value":-90},{"name":"ry","type":"int","value":-70},{"name":"ani","type":"int","value":1},{"name":"type","type":"int","value":0},{"name":"front","type":"int","value":0}]},{"id":7,"name":"background_back_6","type":"objectgroup","visible":true,"opacity":1,"draworder":"index","offsetx":0,"offsety":0,"parallaxx":0.9,"parallaxy":0.7,"objects":[{"id":3,"x":402,"y":-166,"visible":true,"properties":[],"gid":73,"width":384,"height":162}],"properties":[{"name":"a","type":"int","value":255},{"name":"f","type":"int","value":0},{"name":"x","type":"int","value":597},{"name":"y","type":"int","value":-315},{"name":"bS","type":"string","value":"blueCave2"},{"name":"cx","type":"int","value":0},{"name":"cy","type":"int","value":0},{"name":"no","type":"int","value":2},{"name":"rx","type":"int","value":-90},{"name":"ry","type":"int","value":-70},{"name":"ani","type":"int","value":1},{"name":"type","type":"int","value":0},{"name":"front","type":"int","value":0}]},{"id":8,"name":"background_back_7","type":"objectgroup","visible":true,"opacity":1,"draworder":"index","offsetx":0,"offsety":0,"parallaxx":0.9,"parallaxy":0.7,"objects":[{"id":4,"x":784,"y":10,"visible":true,"properties":[],"gid":83,"width":381,"height":337}],"properties":[{"name":"a","type":"int","value":255},{"name":"f","type":"int","value":0},{"name":"x","type":"int","value":933},{"name":"y","type":"int","value":-254},{"name":"bS","type":"string","value":"blueCave2"},{"name":"cx","type":"int","value":0},{"name":"cy","type":"int","value":0},{"name":"no","type":"int","value":3},{"name":"rx","type":"int","value":-90},{"name":"ry","type":"int","value":-70},{"name":"ani","type":"int","value":1},{"name":"type","type":"int","value":0},{"name":"front","type":"int","value":0}]},{"id":9,"name":"layer_0_obj","type":"objectgroup","visible":true,"opacity":1,"draworder":"index","offsetx":0,"offsety":0,"parallaxx":1,"parallaxy":1,"objects":[{"id":5,"x":72,"y":-62,"visible":true,"properties":[{"name":"layer","type":"int","value":0},{"name":"resource_index","type":"int","value":0},{"name":"oS","type":"string","value":"dungeon"},{"name":"l0","type":"string","value":"blueCave"},{"name":"l1","type":"string","value":"boss"},{"name":"l2","type":"string","value":"4"},{"name":"z","type":"int","value":9},{"name":"zM","type":"int","value":7},{"name":"f","type":"int","value":0}],"gid":23,"width":71,"height":108}],"properties":[]},{"id":10,"name":"layer_4_obj","type":"objectgroup","visible":true,"opacity":1,"draworder":"index","offsetx":0,"offsety":0,"parallaxx":1,"parallaxy":1,"objects":[{"id":6,"x":846,"y":505,"visible":true,"properties":[{"name":"layer","type":"int","value":4},{"name":"resource_index","type":"int","value":0},{"name":"oS","type":"string","value":"dungeon"},{"name":"l0","type":"string","value":"blueCave"},{"name":"l1","type":"string","value":"boss"},{"name":"l2","type":"string","value":"16"},{"name":"z","type":"int","value":9},{"name":"zM","type":"int","value":2},{"name":"f","type":"int","value":0}],"gid":24,"width":238,"height":257},{"id":7,"x":483,"y":505,"visible":true,"properties":[{"name":"layer","type":"int","value":4},{"name":"resource_index","type":"int","value":1},{"name":"oS","type":"string","value":"dungeon"},{"name":"l0","type":"string","value":"blueCave"},{"name":"l1","type":"string","value":"boss"},{"name":"l2","type":"string","value":"17"},{"name":"z","type":"int","value":9},{"name":"zM","type":"int","value":1},{"name":"f","type":"int","value":0}],"gid":31,"width":363,"height":258},{"id":8,"x":112,"y":506,"visible":true,"properties":[{"name":"layer","type":"int","value":4},{"name":"resource_index","type":"int","value":2},{"name":"oS","type":"string","value":"dungeon"},{"name":"l0","type":"string","value":"blueCave"},{"name":"l1","type":"string","value":"boss"},{"name":"l2","type":"string","value":"18"},{"name":"z","type":"int","value":9},{"name":"zM","type":"int","value":0},{"name":"f","type":"int","value":0}],"gid":32,"width":371,"height":258},{"id":9,"x":-116,"y":505,"visible":true,"properties":[{"name":"layer","type":"int","value":4},{"name":"resource_index","type":"int","value":3},{"name":"oS","type":"string","value":"dungeon"},{"name":"l0","type":"string","value":"blueCave"},{"name":"l1","type":"string","value":"boss"},{"name":"l2","type":"string","value":"19"},{"name":"z","type":"int","value":9},{"name":"zM","type":"int","value":3},{"name":"f","type":"int","value":0}],"gid":33,"width":228,"height":253},{"id":10,"x":894,"y":254,"visible":true,"properties":[{"name":"layer","type":"int","value":4},{"name":"resource_index","type":"int","value":4},{"name":"oS","type":"string","value":"dungeon"},{"name":"l0","type":"string","value":"blueCave"},{"name":"l1","type":"string","value":"foot"},{"name":"l2","type":"string","value":"10"},{"name":"z","type":"int","value":6},{"name":"zM","type":"int","value":2},{"name":"f","type":"int","value":0}],"gid":50,"width":191,"height":315},{"id":11,"x":-119,"y":260,"visible":true,"properties":[{"name":"layer","type":"int","value":4},{"name":"resource_index","type":"int","value":5},{"name":"oS","type":"string","value":"dungeon"},{"name":"l0","type":"string","value":"blueCave"},{"name":"l1","type":"string","value":"boss"},{"name":"l2","type":"string","value":"29"},{"name":"z","type":"int","value":2},{"name":"zM","type":"int","value":0},{"name":"f","type":"int","value":0}],"gid":34,"width":347,"height":363},{"id":12,"x":-2,"y":10,"visible":true,"properties":[{"name":"layer","type":"int","value":4},{"name":"resource_index","type":"int","value":6},{"name":"oS","type":"string","value":"connect"},{"name":"l0","type":"string","value":"rope"},{"name":"l1","type":"string","value":"13"},{"name":"l2","type":"string","value":"0"},{"name":"z","type":"int","value":9},{"name":"zM","type":"int","value":0},{"name":"f","type":"int","value":0}],"gid":17,"width":13,"height":77},{"id":13,"x":0,"y":118,"visible":true,"properties":[{"name":"layer","type":"int","value":4},{"name":"resource_index","type":"int","value":7},{"name":"oS","type":"string","value":"connect"},{"name":"l0","type":"string","value":"rope"},{"name":"l1","type":"string","value":"13"},{"name":"l2","type":"string","value":"2"},{"name":"z","type":"int","value":9},{"name":"zM","type":"int","value":0},{"name":"f","type":"int","value":0}],"gid":18,"width":9,"height":108},{"id":14,"x":826,"y":72,"visible":true,"properties":[{"name":"layer","type":"int","value":4},{"name":"resource_index","type":"int","value":8},{"name":"oS","type":"string","value":"dungeon"},{"name":"l0","type":"string","value":"blueCave"},{"name":"l1","type":"string","value":"boss"},{"name":"l2","type":"string","value":"27"},{"name":"z","type":"int","value":9},{"name":"zM","type":"int","value":2},{"name":"f","type":"int","value":0}],"gid":35,"width":148,"height":66},{"id":15,"x":-2,"y":179,"visible":true,"properties":[{"name":"layer","type":"int","value":4},{"name":"resource_index","type":"int","value":9},{"name":"oS","type":"string","value":"connect"},{"name":"l0","type":"string","value":"rope"},{"name":"l1","type":"string","value":"13"},{"name":"l2","type":"string","value":"3"},{"name":"z","type":"int","value":9},{"name":"zM","type":"int","value":0},{"name":"f","type":"int","value":0}],"gid":19,"width":13,"height":61},{"id":16,"x":709,"y":6,"visible":true,"properties":[{"name":"layer","type":"int","value":4},{"name":"resource_index","type":"int","value":10},{"name":"oS","type":"string","value":"dungeon"},{"name":"l0","type":"string","value":"blueCave"},{"name":"l1","type":"string","value":"boss"},{"name":"l2","type":"string","value":"28"},{"name":"z","type":"int","value":8},{"name":"zM","type":"int","value":2},{"name":"f","type":"int","value":0}],"gid":36,"width":150,"height":78},{"id":17,"x":729,"y":-102,"visible":true,"properties":[{"name":"layer","type":"int","value":4},{"name":"resource_index","type":"int","value":11},{"name":"oS","type":"string","value":"dungeon"},{"name":"l0","type":"string","value":"blueCave"},{"name":"l1","type":"string","value":"boss"},{"name":"l2","type":"string","value":"26"},{"name":"z","type":"int","value":2},{"name":"zM","type":"int","value":8},{"name":"f","type":"int","value":0}],"gid":37,"width":143,"height":71},{"id":18,"x":823,"y":-36,"visible":true,"properties":[{"name":"layer","type":"int","value":4},{"name":"resource_index","type":"int","value":12},{"name":"oS","type":"string","value":"dungeon"},{"name":"l0","type":"string","value":"blueCave"},{"name":"l1","type":"string","value":"boss"},{"name":"l2","type":"string","value":"28"},{"name":"z","type":"int","value":5},{"name":"zM","type":"int","value":2},{"name":"f","type":"int","value":0}],"gid":36,"width":150,"height":78}],"properties":[]},{"id":11,"name":"layer_5_obj","type":"objectgroup","visible":true,"opacity":1,"draworder":"index","offsetx":0,"offsety":0,"parallaxx":1,"parallaxy":1,"objects":[{"id":19,"x":891,"y":82,"visible":true,"properties":[{"name":"layer","type":"int","value":5},{"name":"resource_index","type":"int","value":0},{"name":"oS","type":"string","value":"connect"},{"name":"l0","type":"string","value":"rope"},{"name":"l1","type":"string","value":"13"},{"name":"l2","type":"string","value":"0"},{"name":"z","type":"int","value":9},{"name":"zM","type":"int","value":6},{"name":"f","type":"int","value":0}],"gid":17,"width":13,"height":77},{"id":20,"x":893,"y":131,"visible":true,"properties":[{"name":"layer","type":"int","value":5},{"name":"resource_index","type":"int","value":1},{"name":"oS","type":"string","value":"connect"},{"name":"l0","type":"string","value":"rope"},{"name":"l1","type":"string","value":"13"},{"name":"l2","type":"string","value":"1"},{"name":"z","type":"int","value":9},{"name":"zM","type":"int","value":5},{"name":"f","type":"int","value":0}],"gid":20,"width":9,"height":48},{"id":21,"x":891,"y":192,"visible":true,"properties":[{"name":"layer","type":"int","value":5},{"name":"resource_index","type":"int","value":2},{"name":"oS","type":"string","value":"connect"},{"name":"l0","type":"string","value":"rope"},{"name":"l1","type":"string","value":"13"},{"name":"l2","type":"string","value":"3"},{"name":"z","type":"int","value":9},{"name":"zM","type":"int","value":4},{"name":"f","type":"int","value":0}],"gid":19,"width":13,"height":61}],"properties":[]},{"id":12,"name":"portal","type":"objectgroup","visible":true,"opacity":1,"draworder":"index","offsetx":0,"offsety":0,"parallaxx":1,"parallaxy":1,"objects":[{"id":22,"x":-2,"y":-132,"visible":true,"properties":[{"name":"x","type":"int","value":-2},{"name":"y","type":"int","value":-132},{"name":"pn","type":"string","value":"sp"},{"name":"pt","type":"int","value":0},{"name":"tm","type":"int","value":999999999},{"name":"tn","type":"string","value":""}],"point":true},{"id":23,"x":1016,"y":242,"visible":true,"properties":[{"name":"x","type":"int","value":1016},{"name":"y","type":"int","value":242},{"name":"pn","type":"string","value":"sp"},{"name":"pt","type":"int","value":0},{"name":"tm","type":"int","value":999999999},{"name":"tn","type":"string","value":""}],"point":true},{"id":24,"x":1019,"y":253,"visible":true,"properties":[{"name":"x","type":"int","value":1019},{"name":"y","type":"int","value":253},{"name":"pn","type":"string","value":"st00"},{"name":"pt","type":"int","value":1},{"name":"tm","type":"int","value":999999999},{"name":"tn","type":"string","value":""}],"point":true},{"id":25,"x":-54,"y":258,"visible":true,"properties":[{"name":"x","type":"int","value":-54},{"name":"y","type":"int","value":258},{"name":"pn","type":"string","value":"st01"},{"name":"pt","type":"int","value":1},{"name":"tm","type":"int","value":999999999},{"name":"tn","type":"string","value":""}],"point":true}],"properties":[]},{"id":13,"name":"life","type":"objectgroup","visible":true,"opacity":1,"draworder":"index","offsetx":0,"offsety":0,"parallaxx":1,"parallaxy":1,"objects":[{"id":26,"x":993,"y":241,"visible":true,"properties":[{"name":"f","type":"int","value":0},{"name":"x","type":"int","value":993},{"name":"y","type":"int","value":241},{"name":"cy","type":"int","value":258},{"name":"fh","type":"int","value":3},{"name":"id","type":"int","value":1061018},{"name":"rx0","type":"int","value":943},{"name":"rx1","type":"int","value":1043},{"name":"hide","type":"int","value":0},{"name":"type","type":"string","value":"n"},{"name":"mobTime","type":"int","value":0},{"name":"npc_aseprite","type":"file","value":"../../Npc/1061018.img/animation.aseprite"}],"point":true}],"properties":[]},{"id":14,"name":"reactor","type":"objectgroup","visible":true,"opacity":1,"draworder":"index","offsetx":0,"offsety":0,"parallaxx":1,"parallaxy":1,"objects":[{"id":27,"x":806,"y":127,"visible":true,"properties":[{"name":"f","type":"int","value":0},{"name":"x","type":"int","value":806},{"name":"y","type":"int","value":127},{"name":"id","type":"int","value":1058012},{"name":"name","type":"string","value":"center"},{"name":"reactorTime","type":"int","value":0}],"point":true},{"id":28,"x":-11,"y":-90,"visible":true,"properties":[{"name":"f","type":"int","value":0},{"name":"x","type":"int","value":-11},{"name":"y","type":"int","value":-90},{"name":"id","type":"int","value":1058011},{"name":"name","type":"string","value":"totem1"},{"name":"reactorTime","type":"int","value":0}],"point":true},{"id":29,"x":1017,"y":-61,"visible":true,"properties":[{"name":"f","type":"int","value":0},{"name":"x","type":"int","value":1017},{"name":"y","type":"int","value":-61},{"name":"id","type":"int","value":1058013},{"name":"name","type":"string","value":"totem2"},{"name":"reactorTime","type":"int","value":0}],"point":true},{"id":30,"x":484,"y":254,"visible":true,"properties":[{"name":"f","type":"int","value":0},{"name":"x","type":"int","value":484},{"name":"y","type":"int","value":254},{"name":"id","type":"int","value":1058014},{"name":"name","type":"string","value":"totem3"},{"name":"reactorTime","type":"int","value":0}],"point":true},{"id":31,"x":602,"y":251,"visible":true,"properties":[{"name":"f","type":"int","value":0},{"name":"x","type":"int","value":602},{"name":"y","type":"int","value":251},{"name":"id","type":"int","value":1058015},{"name":"name","type":"string","value":"mainReactor"},{"name":"reactorTime","type":"int","value":0}],"point":true}],"properties":[]},{"id":15,"name":"foothold","type":"objectgroup","visible":true,"opacity":1,"draworder":"index","offsetx":0,"offsety":0,"parallaxx":1,"parallaxy":1,"objects":[{"id":32,"x":-118,"y":-92,"visible":true,"properties":[{"name":"layer","type":"int","value":4},{"name":"group","type":"int","value":0},{"name":"id","type":"int","value":11},{"name":"fh_layer","type":"int","value":4},{"name":"fh_group","type":"int","value":0},{"name":"fh_id","type":"int","value":11},{"name":"x1","type":"int","value":-118},{"name":"x2","type":"int","value":-60},{"name":"y1","type":"int","value":-92},{"name":"y2","type":"int","value":-84},{"name":"next","type":"int","value":12},{"name":"prev","type":"int","value":0}],"polyline":[{"x":0,"y":0},{"x":58,"y":8}]},{"id":33,"x":-60,"y":-84,"visible":true,"properties":[{"name":"layer","type":"int","value":4},{"name":"group","type":"int","value":0},{"name":"id","type":"int","value":12},{"name":"fh_layer","type":"int","value":4},{"name":"fh_group","type":"int","value":0},{"name":"fh_id","type":"int","value":12},{"name":"x1","type":"int","value":-60},{"name":"x2","type":"int","value":-11},{"name":"y1","type":"int","value":-84},{"name":"y2","type":"int","value":-86},{"name":"next","type":"int","value":13},{"name":"prev","type":"int","value":11}],"polyline":[{"x":0,"y":0},{"x":49,"y":-2}]},{"id":34,"x":-11,"y":-86,"visible":true,"properties":[{"name":"layer","type":"int","value":4},{"name":"group","type":"int","value":0},{"name":"id","type":"int","value":13},{"name":"fh_layer","type":"int","value":4},{"name":"fh_group","type":"int","value":0},{"name":"fh_id","type":"int","value":13},{"name":"x1","type":"int","value":-11},{"name":"x2","type":"int","value":25},{"name":"y1","type":"int","value":-86},{"name":"y2","type":"int","value":-85},{"name":"next","type":"int","value":14},{"name":"prev","type":"int","value":12}],"polyline":[{"x":0,"y":0},{"x":36,"y":1}]},{"id":35,"x":25,"y":-85,"visible":true,"properties":[{"name":"layer","type":"int","value":4},{"name":"group","type":"int","value":0},{"name":"id","type":"int","value":14},{"name":"fh_layer","type":"int","value":4},{"name":"fh_group","type":"int","value":0},{"name":"fh_id","type":"int","value":14},{"name":"x1","type":"int","value":25},{"name":"x2","type":"int","value":76},{"name":"y1","type":"int","value":-85},{"name":"y2","type":"int","value":-93},{"name":"next","type":"int","value":0},{"name":"prev","type":"int","value":13}],"polyline":[{"x":0,"y":0},{"x":51,"y":-8}]},{"id":36,"x":-36,"y":-75,"visible":true,"properties":[{"name":"layer","type":"int","value":4},{"name":"group","type":"int","value":0},{"name":"id","type":"int","value":15},{"name":"fh_layer","type":"int","value":4},{"name":"fh_group","type":"int","value":0},{"name":"fh_id","type":"int","value":15},{"name":"x1","type":"int","value":-36},{"name":"x2","type":"int","value":-3},{"name":"y1","type":"int","value":-75},{"name":"y2","type":"int","value":-61},{"name":"next","type":"int","value":16},{"name":"prev","type":"int","value":0}],"polyline":[{"x":0,"y":0},{"x":33,"y":14}]},{"id":37,"x":-3,"y":-61,"visible":true,"properties":[{"name":"layer","type":"int","value":4},{"name":"group","type":"int","value":0},{"name":"id","type":"int","value":16},{"name":"fh_layer","type":"int","value":4},{"name":"fh_group","type":"int","value":0},{"name":"fh_id","type":"int","value":16},{"name":"x1","type":"int","value":-3},{"name":"x2","type":"int","value":41},{"name":"y1","type":"int","value":-61},{"name":"y2","type":"int","value":-60},{"name":"next","type":"int","value":17},{"name":"prev","type":"int","value":15}],"polyline":[{"x":0,"y":0},{"x":44,"y":1}]},{"id":38,"x":41,"y":-60,"visible":true,"properties":[{"name":"layer","type":"int","value":4},{"name":"group","type":"int","value":0},{"name":"id","type":"int","value":17},{"name":"fh_layer","type":"int","value":4},{"name":"fh_group","type":"int","value":0},{"name":"fh_id","type":"int","value":17},{"name":"x1","type":"int","value":41},{"name":"x2","type":"int","value":95},{"name":"y1","type":"int","value":-60},{"name":"y2","type":"int","value":-60},{"name":"next","type":"int","value":18},{"name":"prev","type":"int","value":16}],"polyline":[{"x":0,"y":0},{"x":54,"y":0}]},{"id":39,"x":95,"y":-60,"visible":true,"properties":[{"name":"layer","type":"int","value":4},{"name":"group","type":"int","value":0},{"name":"id","type":"int","value":18},{"name":"fh_layer","type":"int","value":4},{"name":"fh_group","type":"int","value":0},{"name":"fh_id","type":"int","value":18},{"name":"x1","type":"int","value":95},{"name":"x2","type":"int","value":137},{"name":"y1","type":"int","value":-60},{"name":"y2","type":"int","value":-62},{"name":"next","type":"int","value":19},{"name":"prev","type":"int","value":17}],"polyline":[{"x":0,"y":0},{"x":42,"y":-2}]},{"id":40,"x":137,"y":-62,"visible":true,"properties":[{"name":"layer","type":"int","value":4},{"name":"group","type":"int","value":0},{"name":"id","type":"int","value":19},{"name":"fh_layer","type":"int","value":4},{"name":"fh_group","type":"int","value":0},{"name":"fh_id","type":"int","value":19},{"name":"x1","type":"int","value":137},{"name":"x2","type":"int","value":177},{"name":"y1","type":"int","value":-62},{"name":"y2","type":"int","value":-64},{"name":"next","type":"int","value":20},{"name":"prev","type":"int","value":18}],"polyline":[{"x":0,"y":0},{"x":40,"y":-2}]},{"id":41,"x":177,"y":-64,"visible":true,"properties":[{"name":"layer","type":"int","value":4},{"name":"group","type":"int","value":0},{"name":"id","type":"int","value":20},{"name":"fh_layer","type":"int","value":4},{"name":"fh_group","type":"int","value":0},{"name":"fh_id","type":"int","value":20},{"name":"x1","type":"int","value":177},{"name":"x2","type":"int","value":215},{"name":"y1","type":"int","value":-64},{"name":"y2","type":"int","value":-62},{"name":"next","type":"int","value":21},{"name":"prev","type":"int","value":19}],"polyline":[{"x":0,"y":0},{"x":38,"y":2}]},{"id":42,"x":215,"y":-62,"visible":true,"properties":[{"name":"layer","type":"int","value":4},{"name":"group","type":"int","value":0},{"name":"id","type":"int","value":21},{"name":"fh_layer","type":"int","value":4},{"name":"fh_group","type":"int","value":0},{"name":"fh_id","type":"int","value":21},{"name":"x1","type":"int","value":215},{"name":"x2","type":"int","value":230},{"name":"y1","type":"int","value":-62},{"name":"y2","type":"int","value":-58},{"name":"next","type":"int","value":0},{"name":"prev","type":"int","value":20}],"polyline":[{"x":0,"y":0},{"x":15,"y":4}]},{"id":43,"x":-116,"y":262,"visible":true,"properties":[{"name":"layer","type":"int","value":4},{"name":"group","type":"int","value":2},{"name":"id","type":"int","value":1},{"name":"fh_layer","type":"int","value":4},{"name":"fh_group","type":"int","value":2},{"name":"fh_id","type":"int","value":1},{"name":"x1","type":"int","value":-116},{"name":"x2","type":"int","value":197},{"name":"y1","type":"int","value":262},{"name":"y2","type":"int","value":262},{"name":"next","type":"int","value":2},{"name":"prev","type":"int","value":0}],"polyline":[{"x":0,"y":0},{"x":313,"y":0}]},{"id":44,"x":197,"y":262,"visible":true,"properties":[{"name":"layer","type":"int","value":4},{"name":"group","type":"int","value":2},{"name":"id","type":"int","value":2},{"name":"fh_layer","type":"int","value":4},{"name":"fh_group","type":"int","value":2},{"name":"fh_id","type":"int","value":2},{"name":"x1","type":"int","value":197},{"name":"x2","type":"int","value":213},{"name":"y1","type":"int","value":262},{"name":"y2","type":"int","value":258},{"name":"next","type":"int","value":3},{"name":"prev","type":"int","value":1}],"polyline":[{"x":0,"y":0},{"x":16,"y":-4}]},{"id":45,"x":213,"y":258,"visible":true,"properties":[{"name":"layer","type":"int","value":4},{"name":"group","type":"int","value":2},{"name":"id","type":"int","value":3},{"name":"fh_layer","type":"int","value":4},{"name":"fh_group","type":"int","value":2},{"name":"fh_id","type":"int","value":3},{"name":"x1","type":"int","value":213},{"name":"x2","type":"int","value":1084},{"name":"y1","type":"int","value":258},{"name":"y2","type":"int","value":258},{"name":"next","type":"int","value":0},{"name":"prev","type":"int","value":2}],"polyline":[{"x":0,"y":0},{"x":871,"y":0}]},{"id":46,"x":901,"y":-56,"visible":true,"properties":[{"name":"layer","type":"int","value":4},{"name":"group","type":"int","value":2},{"name":"id","type":"int","value":4},{"name":"fh_layer","type":"int","value":4},{"name":"fh_group","type":"int","value":2},{"name":"fh_id","type":"int","value":4},{"name":"x1","type":"int","value":901},{"name":"x2","type":"int","value":991},{"name":"y1","type":"int","value":-56},{"name":"y2","type":"int","value":-58},{"name":"next","type":"int","value":5},{"name":"prev","type":"int","value":0}],"polyline":[{"x":0,"y":0},{"x":90,"y":-2}]},{"id":47,"x":991,"y":-58,"visible":true,"properties":[{"name":"layer","type":"int","value":4},{"name":"group","type":"int","value":2},{"name":"id","type":"int","value":5},{"name":"fh_layer","type":"int","value":4},{"name":"fh_group","type":"int","value":2},{"name":"fh_id","type":"int","value":5},{"name":"x1","type":"int","value":991},{"name":"x2","type":"int","value":1006},{"name":"y1","type":"int","value":-58},{"name":"y2","type":"int","value":-56},{"name":"next","type":"int","value":6},{"name":"prev","type":"int","value":4}],"polyline":[{"x":0,"y":0},{"x":15,"y":2}]},{"id":48,"x":1006,"y":-56,"visible":true,"properties":[{"name":"layer","type":"int","value":4},{"name":"group","type":"int","value":2},{"name":"id","type":"int","value":6},{"name":"fh_layer","type":"int","value":4},{"name":"fh_group","type":"int","value":2},{"name":"fh_id","type":"int","value":6},{"name":"x1","type":"int","value":1006},{"name":"x2","type":"int","value":1026},{"name":"y1","type":"int","value":-56},{"name":"y2","type":"int","value":-59},{"name":"next","type":"int","value":7},{"name":"prev","type":"int","value":5}],"polyline":[{"x":0,"y":0},{"x":20,"y":-3}]},{"id":49,"x":1026,"y":-59,"visible":true,"properties":[{"name":"layer","type":"int","value":4},{"name":"group","type":"int","value":2},{"name":"id","type":"int","value":7},{"name":"fh_layer","type":"int","value":4},{"name":"fh_group","type":"int","value":2},{"name":"fh_id","type":"int","value":7},{"name":"x1","type":"int","value":1026},{"name":"x2","type":"int","value":1085},{"name":"y1","type":"int","value":-59},{"name":"y2","type":"int","value":-58},{"name":"next","type":"int","value":0},{"name":"prev","type":"int","value":6}],"polyline":[{"x":0,"y":0},{"x":59,"y":1}]},{"id":50,"x":827,"y":11,"visible":true,"properties":[{"name":"layer","type":"int","value":4},{"name":"group","type":"int","value":2},{"name":"id","type":"int","value":8},{"name":"fh_layer","type":"int","value":4},{"name":"fh_group","type":"int","value":2},{"name":"fh_id","type":"int","value":8},{"name":"x1","type":"int","value":827},{"name":"x2","type":"int","value":970},{"name":"y1","type":"int","value":11},{"name":"y2","type":"int","value":11},{"name":"next","type":"int","value":0},{"name":"prev","type":"int","value":0}],"polyline":[{"x":0,"y":0},{"x":143,"y":0}]},{"id":51,"x":713,"y":-68,"visible":true,"properties":[{"name":"layer","type":"int","value":4},{"name":"group","type":"int","value":2},{"name":"id","type":"int","value":9},{"name":"fh_layer","type":"int","value":4},{"name":"fh_group","type":"int","value":2},{"name":"fh_id","type":"int","value":9},{"name":"x1","type":"int","value":713},{"name":"x2","type":"int","value":856},{"name":"y1","type":"int","value":-68},{"name":"y2","type":"int","value":-68},{"name":"next","type":"int","value":0},{"name":"prev","type":"int","value":0}],"polyline":[{"x":0,"y":0},{"x":143,"y":0}]},{"id":52,"x":827,"y":-110,"visible":true,"properties":[{"name":"layer","type":"int","value":4},{"name":"group","type":"int","value":2},{"name":"id","type":"int","value":10},{"name":"fh_layer","type":"int","value":4},{"name":"fh_group","type":"int","value":2},{"name":"fh_id","type":"int","value":10},{"name":"x1","type":"int","value":827},{"name":"x2","type":"int","value":970},{"name":"y1","type":"int","value":-110},{"name":"y2","type":"int","value":-110},{"name":"next","type":"int","value":0},{"name":"prev","type":"int","value":0}],"polyline":[{"x":0,"y":0},{"x":143,"y":0}]},{"id":53,"x":731,"y":-168,"visible":true,"properties":[{"name":"layer","type":"int","value":4},{"name":"group","type":"int","value":8},{"name":"id","type":"int","value":22},{"name":"fh_layer","type":"int","value":4},{"name":"fh_group","type":"int","value":8},{"name":"fh_id","type":"int","value":22},{"name":"x1","type":"int","value":731},{"name":"x2","type":"int","value":870},{"name":"y1","type":"int","value":-168},{"name":"y2","type":"int","value":-168},{"name":"next","type":"int","value":0},{"name":"prev","type":"int","value":0}],"polyline":[{"x":0,"y":0},{"x":139,"y":0}]}],"properties":[]},{"id":16,"name":"ladderRope","type":"objectgroup","visible":true,"opacity":1,"draworder":"index","offsetx":0,"offsety":0,"parallaxx":1,"parallaxy":1,"objects":[{"id":54,"x":4,"y":-58,"visible":true,"properties":[{"name":"ladder_id","type":"int","value":1},{"name":"l","type":"int","value":0},{"name":"x","type":"int","value":4},{"name":"uf","type":"int","value":1},{"name":"y1","type":"int","value":-58},{"name":"y2","type":"int","value":210},{"name":"page","type":"int","value":4}],"polyline":[{"x":0,"y":0},{"x":0,"y":268}]},{"id":55,"x":897,"y":13,"visible":true,"properties":[{"name":"ladder_id","type":"int","value":2},{"name":"l","type":"int","value":0},{"name":"x","type":"int","value":897},{"name":"uf","type":"int","value":1},{"name":"y1","type":"int","value":13},{"name":"y2","type":"int","value":223},{"name":"page","type":"int","value":5}],"polyline":[{"x":0,"y":0},{"x":0,"y":210}]}],"properties":[]},{"id":17,"name":"miniMap","type":"objectgroup","visible":true,"opacity":1,"draworder":"index","offsetx":0,"offsety":0,"parallaxx":1,"parallaxy":1,"objects":[{"id":56,"x":167,"y":323,"visible":true,"properties":[{"name":"mag","type":"int","value":4},{"name":"centerX","type":"int","value":167},{"name":"centerY","type":"int","value":323},{"name":"canvas_path","type":"string","value":"../images/30851.png"},{"name":"canvas_width","type":"int","value":81},{"name":"canvas_height","type":"int","value":54},{"name":"canvas_origin_x","type":"int","value":0},{"name":"canvas_origin_y","type":"int","value":0}],"point":true}],"properties":[]}],"tilesets":[{"firstgid":1,"source":"../tilesets/bg_blueCave.tsj"},{"firstgid":8,"source":"../tilesets/bg_blueCave2.tsj"},{"firstgid":17,"source":"../tilesets/obj_connect_rope_13.tsj"},{"firstgid":21,"source":"../tilesets/obj_dungeon_blueCave_boss.tsj"},{"firstgid":41,"source":"../tilesets/obj_dungeon_blueCave_foot.tsj"},{"firstgid":53,"source":"../tilesets/bg_Back_blueCave2.img_ani_0.tsj"},{"firstgid":63,"source":"../tilesets/bg_Back_blueCave2.img_ani_1.tsj"},{"firstgid":73,"source":"../tilesets/bg_Back_blueCave2.img_ani_2.tsj"},{"firstgid":83,"source":"../tilesets/bg_Back_blueCave2.img_ani_3.tsj"}],"properties":[{"name":"bgm","type":"string","value":"Bgm14/HonTale"},{"name":"fly","type":"int","value":0},{"name":"swim","type":"int","value":0},{"name":"town","type":"int","value":0},{"name":"VRTop","type":"int","value":-510},{"name":"cloud","type":"int","value":0},{"name":"decHP","type":"int","value":50},{"name":"VRLeft","type":"int","value":-117},{"name":"VRRight","type":"int","value":1083},{"name":"lvLimit","type":"int","value":50},{"name":"mapMark","type":"string","value":"Dungeon"},{"name":"mobRate","type":"float","value":1},{"name":"version","type":"int","value":10},{"name":"VRBottom","type":"int","value":400},{"name":"noMapCmd","type":"int","value":1},{"name":"returnMap","type":"int","value":105100100},{"name":"fieldLimit","type":"int","value":271100},{"name":"decInterval","type":"int","value":15000},{"name":"hideMinimap","type":"int","value":0},{"name":"onUserEnter","type":"string","value":"balog_buff"},{"name":"forcedReturn","type":"int","value":105100100},{"name":"onFirstUserEnter","type":"string","value":"easy_balog_summon"}]}