{"type":"map","orientation":"orthogonal","renderorder":"right-down","infinite":false,"tilewidth":1,"tileheight":1,"width":1530,"height":960,"parallaxoriginx":-400,"parallaxoriginy":80,"nextlayerid":1,"nextobjectid":1,"layers":[],"tilesets":[],"properties":[{"name":"bgm","type":"string","value":"Bgm19/MushCatle"},{"name":"fly","type":"int","value":0},{"name":"link","type":"int","value":106021500},{"name":"swim","type":"int","value":0},{"name":"town","type":"int","value":0},{"name":"VRTop","type":"int","value":-830},{"name":"cloud","type":"int","value":0},{"name":"VRLeft","type":"int","value":-765},{"name":"VRRight","type":"int","value":765},{"name":"lvLimit","type":"int","value":30},{"name":"mapMark","type":"string","value":"MushCatle"},{"name":"mobRate","type":"float","value":1.5},{"name":"version","type":"int","value":10},{"name":"VRBottom","type":"int","value":130},{"name":"noMapCmd","type":"int","value":0},{"name":"returnMap","type":"int","value":106021400},{"name":"fieldLimit","type":"int","value":271096},{"name":"hideMinimap","type":"int","value":0},{"name":"lvForceMove","type":"int","value":39},{"name":"onUserEnter","type":"string","value":"pepeking_effect"},{"name":"forcedReturn","type":"int","value":106021400},{"name":"onFirstUserEnter","type":"string","value":"summon_pepeking"}]}