{"type":"map","orientation":"orthogonal","renderorder":"right-down","infinite":false,"tilewidth":1,"tileheight":1,"width":1348,"height":2565,"parallaxoriginx":-400,"parallaxoriginy":80,"nextlayerid":47,"nextobjectid":405,"layers":[{"id":1,"name":"background_back_0","type":"imagelayer","visible":true,"opacity":1,"image":"../images/27592.png","imagewidth":30,"imageheight":30,"offsetx":-15,"offsety":65,"repeatx":true,"repeaty":true,"parallaxx":0,"parallaxy":0,"properties":[{"name":"a","type":"int","value":255},{"name":"f","type":"int","value":0},{"name":"x","type":"int","value":0},{"name":"y","type":"int","value":0},{"name":"bS","type":"string","value":"ereb"},{"name":"cx","type":"int","value":0},{"name":"cy","type":"int","value":0},{"name":"no","type":"int","value":0},{"name":"rx","type":"int","value":0},{"name":"ry","type":"int","value":0},{"name":"ani","type":"int","value":0},{"name":"type","type":"int","value":3},{"name":"front","type":"int","value":0}]},{"id":2,"name":"background_back_1","type":"imagelayer","visible":true,"opacity":1,"image":"../images/27593.png","imagewidth":10,"imageheight":537,"offsetx":92,"offsety":-641,"repeatx":true,"repeaty":false,"parallaxx":0,"parallaxy":1,"properties":[{"name":"a","type":"int","value":255},{"name":"f","type":"int","value":0},{"name":"x","type":"int","value":97},{"name":"y","type":"int","value":-453},{"name":"bS","type":"string","value":"ereb"},{"name":"cx","type":"int","value":0},{"name":"cy","type":"int","value":0},{"name":"no","type":"int","value":1},{"name":"rx","type":"int","value":0},{"name":"ry","type":"int","value":-100},{"name":"ani","type":"int","value":0},{"name":"type","type":"int","value":1},{"name":"front","type":"int","value":0}]},{"id":3,"name":"background_back_2","type":"imagelayer","visible":true,"opacity":1,"image":"../images/27594.png","imagewidth":331,"imageheight":175,"offsetx":-433,"offsety":-485,"repeatx":true,"repeaty":false,"parallaxx":0.03,"parallaxy":0.5,"properties":[{"name":"a","type":"int","value":255},{"name":"f","type":"int","value":0},{"name":"x","type":"int","value":-268},{"name":"y","type":"int","value":-478},{"name":"bS","type":"string","value":"ereb"},{"name":"cx","type":"int","value":1200},{"name":"cy","type":"int","value":0},{"name":"no","type":"int","value":2},{"name":"rx","type":"int","value":-3},{"name":"ry","type":"int","value":-50},{"name":"ani","type":"int","value":0},{"name":"type","type":"int","value":4},{"name":"front","type":"int","value":0}]},{"id":4,"name":"background_back_3","type":"imagelayer","visible":true,"opacity":1,"image":"../images/27595.png","imagewidth":253,"imageheight":128,"offsetx":-389,"offsety":-511,"repeatx":true,"repeaty":false,"parallaxx":0.05,"parallaxy":0.5,"properties":[{"name":"a","type":"int","value":255},{"name":"f","type":"int","value":0},{"name":"x","type":"int","value":-386},{"name":"y","type":"int","value":-495},{"name":"bS","type":"string","value":"ereb"},{"name":"cx","type":"int","value":1200},{"name":"cy","type":"int","value":0},{"name":"no","type":"int","value":3},{"name":"rx","type":"int","value":-5},{"name":"ry","type":"int","value":-50},{"name":"ani","type":"int","value":0},{"name":"type","type":"int","value":4},{"name":"front","type":"int","value":0}]},{"id":5,"name":"background_back_4","type":"imagelayer","visible":true,"opacity":1,"image":"../images/27596.png","imagewidth":333,"imageheight":141,"offsetx":84,"offsety":-394,"repeatx":true,"repeaty":false,"parallaxx":0.03,"parallaxy":0.5,"properties":[{"name":"a","type":"int","value":255},{"name":"f","type":"int","value":0},{"name":"x","type":"int","value":250},{"name":"y","type":"int","value":-404},{"name":"bS","type":"string","value":"ereb"},{"name":"cx","type":"int","value":1200},{"name":"cy","type":"int","value":0},{"name":"no","type":"int","value":4},{"name":"rx","type":"int","value":-3},{"name":"ry","type":"int","value":-50},{"name":"ani","type":"int","value":0},{"name":"type","type":"int","value":4},{"name":"front","type":"int","value":0}]},{"id":6,"name":"background_back_5","type":"imagelayer","visible":true,"opacity":1,"image":"../images/27597.png","imagewidth":281,"imageheight":102,"offsetx":230,"offsety":-325,"repeatx":true,"repeaty":false,"parallaxx":0.04,"parallaxy":0.5,"properties":[{"name":"a","type":"int","value":255},{"name":"f","type":"int","value":0},{"name":"x","type":"int","value":370},{"name":"y","type":"int","value":-354},{"name":"bS","type":"string","value":"ereb"},{"name":"cx","type":"int","value":1200},{"name":"cy","type":"int","value":0},{"name":"no","type":"int","value":5},{"name":"rx","type":"int","value":-4},{"name":"ry","type":"int","value":-50},{"name":"ani","type":"int","value":0},{"name":"type","type":"int","value":4},{"name":"front","type":"int","value":0}]},{"id":7,"name":"background_back_6","type":"imagelayer","visible":true,"opacity":1,"image":"../images/27598.png","imagewidth":176,"imageheight":116,"offsetx":-16,"offsety":-277,"repeatx":true,"repeaty":false,"parallaxx":0.04,"parallaxy":0.5,"properties":[{"name":"a","type":"int","value":255},{"name":"f","type":"int","value":0},{"name":"x","type":"int","value":23},{"name":"y","type":"int","value":-348},{"name":"bS","type":"string","value":"ereb"},{"name":"cx","type":"int","value":1200},{"name":"cy","type":"int","value":0},{"name":"no","type":"int","value":6},{"name":"rx","type":"int","value":-4},{"name":"ry","type":"int","value":-50},{"name":"ani","type":"int","value":0},{"name":"type","type":"int","value":4},{"name":"front","type":"int","value":0}]},{"id":8,"name":"background_back_7","type":"imagelayer","visible":true,"opacity":1,"image":"../images/27599.png","imagewidth":397,"imageheight":182,"offsetx":-565,"offsety":-401,"repeatx":true,"repeaty":false,"parallaxx":0.03,"parallaxy":0.5,"properties":[{"name":"a","type":"int","value":255},{"name":"f","type":"int","value":0},{"name":"x","type":"int","value":-367},{"name":"y","type":"int","value":-390},{"name":"bS","type":"string","value":"ereb"},{"name":"cx","type":"int","value":1200},{"name":"cy","type":"int","value":0},{"name":"no","type":"int","value":7},{"name":"rx","type":"int","value":-3},{"name":"ry","type":"int","value":-50},{"name":"ani","type":"int","value":0},{"name":"type","type":"int","value":4},{"name":"front","type":"int","value":0}]},{"id":9,"name":"background_back_8","type":"imagelayer","visible":true,"opacity":1,"image":"../images/27600.png","imagewidth":95,"imageheight":63,"offsetx":-320,"offsety":-265,"repeatx":true,"repeaty":false,"parallaxx":0.02,"parallaxy":0.5,"properties":[{"name":"a","type":"int","value":255},{"name":"f","type":"int","value":0},{"name":"x","type":"int","value":-278},{"name":"y","type":"int","value":-347},{"name":"bS","type":"string","value":"ereb"},{"name":"cx","type":"int","value":1200},{"name":"cy","type":"int","value":0},{"name":"no","type":"int","value":8},{"name":"rx","type":"int","value":-2},{"name":"ry","type":"int","value":-50},{"name":"ani","type":"int","value":0},{"name":"type","type":"int","value":4},{"name":"front","type":"int","value":0}]},{"id":10,"name":"background_back_9","type":"imagelayer","visible":true,"opacity":1,"image":"../images/27594.png","imagewidth":331,"imageheight":175,"offsetx":19,"offsety":-727,"repeatx":true,"repeaty":false,"parallaxx":0.03,"parallaxy":0.5,"properties":[{"name":"a","type":"int","value":255},{"name":"f","type":"int","value":0},{"name":"x","type":"int","value":184},{"name":"y","type":"int","value":-720},{"name":"bS","type":"string","value":"ereb"},{"name":"cx","type":"int","value":1200},{"name":"cy","type":"int","value":0},{"name":"no","type":"int","value":2},{"name":"rx","type":"int","value":-3},{"name":"ry","type":"int","value":-50},{"name":"ani","type":"int","value":0},{"name":"type","type":"int","value":4},{"name":"front","type":"int","value":0}]},{"id":11,"name":"background_back_10","type":"imagelayer","visible":true,"opacity":1,"image":"../images/27595.png","imagewidth":253,"imageheight":128,"offsetx":116,"offsety":-953,"repeatx":true,"repeaty":false,"parallaxx":0.04,"parallaxy":0.5,"properties":[{"name":"a","type":"int","value":255},{"name":"f","type":"int","value":0},{"name":"x","type":"int","value":119},{"name":"y","type":"int","value":-937},{"name":"bS","type":"string","value":"ereb"},{"name":"cx","type":"int","value":1200},{"name":"cy","type":"int","value":0},{"name":"no","type":"int","value":3},{"name":"rx","type":"int","value":-4},{"name":"ry","type":"int","value":-50},{"name":"ani","type":"int","value":0},{"name":"type","type":"int","value":4},{"name":"front","type":"int","value":0}]},{"id":12,"name":"background_back_11","type":"imagelayer","visible":true,"opacity":1,"image":"../images/27596.png","imagewidth":333,"imageheight":141,"offsetx":1,"offsety":-901,"repeatx":true,"repeaty":false,"parallaxx":0.05,"parallaxy":0.5,"properties":[{"name":"a","type":"int","value":255},{"name":"f","type":"int","value":0},{"name":"x","type":"int","value":167},{"name":"y","type":"int","value":-911},{"name":"bS","type":"string","value":"ereb"},{"name":"cx","type":"int","value":1200},{"name":"cy","type":"int","value":0},{"name":"no","type":"int","value":4},{"name":"rx","type":"int","value":-5},{"name":"ry","type":"int","value":-50},{"name":"ani","type":"int","value":0},{"name":"type","type":"int","value":4},{"name":"front","type":"int","value":0}]},{"id":13,"name":"background_back_12","type":"imagelayer","visible":true,"opacity":1,"image":"../images/27601.png","imagewidth":400,"imageheight":235,"offsetx":-59,"offsety":-310,"repeatx":true,"repeaty":false,"parallaxx":0.2,"parallaxy":0.6,"properties":[{"name":"a","type":"int","value":255},{"name":"f","type":"int","value":0},{"name":"x","type":"int","value":141},{"name":"y","type":"int","value":-273},{"name":"bS","type":"string","value":"ereb"},{"name":"cx","type":"int","value":0},{"name":"cy","type":"int","value":0},{"name":"no","type":"int","value":9},{"name":"rx","type":"int","value":-20},{"name":"ry","type":"int","value":-60},{"name":"ani","type":"int","value":0},{"name":"type","type":"int","value":1},{"name":"front","type":"int","value":0}]},{"id":14,"name":"background_back_13","type":"imagelayer","visible":true,"opacity":1,"image":"../images/27602.png","imagewidth":800,"imageheight":651,"offsetx":-1593,"offsety":-469,"repeatx":false,"repeaty":false,"parallaxx":0.3,"parallaxy":0.7,"properties":[{"name":"a","type":"int","value":255},{"name":"f","type":"int","value":0},{"name":"x","type":"int","value":-1193},{"name":"y","type":"int","value":-224},{"name":"bS","type":"string","value":"ereb"},{"name":"cx","type":"int","value":0},{"name":"cy","type":"int","value":0},{"name":"no","type":"int","value":10},{"name":"rx","type":"int","value":-30},{"name":"ry","type":"int","value":-70},{"name":"ani","type":"int","value":0},{"name":"type","type":"int","value":0},{"name":"front","type":"int","value":0}]},{"id":15,"name":"background_back_14","type":"imagelayer","visible":true,"opacity":1,"image":"../images/27603.png","imagewidth":800,"imageheight":441,"offsetx":-793,"offsety":-258,"repeatx":false,"repeaty":false,"parallaxx":0.3,"parallaxy":0.7,"properties":[{"name":"a","type":"int","value":255},{"name":"f","type":"int","value":0},{"name":"x","type":"int","value":-393},{"name":"y","type":"int","value":-118},{"name":"bS","type":"string","value":"ereb"},{"name":"cx","type":"int","value":0},{"name":"cy","type":"int","value":0},{"name":"no","type":"int","value":11},{"name":"rx","type":"int","value":-30},{"name":"ry","type":"int","value":-70},{"name":"ani","type":"int","value":0},{"name":"type","type":"int","value":0},{"name":"front","type":"int","value":0}]},{"id":16,"name":"background_back_15","type":"imagelayer","visible":true,"opacity":1,"image":"../images/27604.png","imagewidth":800,"imageheight":425,"offsetx":7,"offsety":-242,"repeatx":false,"repeaty":false,"parallaxx":0.3,"parallaxy":0.7,"properties":[{"name":"a","type":"int","value":255},{"name":"f","type":"int","value":0},{"name":"x","type":"int","value":407},{"name":"y","type":"int","value":-110},{"name":"bS","type":"string","value":"ereb"},{"name":"cx","type":"int","value":0},{"name":"cy","type":"int","value":0},{"name":"no","type":"int","value":12},{"name":"rx","type":"int","value":-30},{"name":"ry","type":"int","value":-70},{"name":"ani","type":"int","value":0},{"name":"type","type":"int","value":0},{"name":"front","type":"int","value":0}]},{"id":17,"name":"background_back_16","type":"imagelayer","visible":true,"opacity":1,"image":"../images/27605.png","imagewidth":800,"imageheight":444,"offsetx":807,"offsety":-261,"repeatx":false,"repeaty":false,"parallaxx":0.3,"parallaxy":0.7,"properties":[{"name":"a","type":"int","value":255},{"name":"f","type":"int","value":0},{"name":"x","type":"int","value":1207},{"name":"y","type":"int","value":-119},{"name":"bS","type":"string","value":"ereb"},{"name":"cx","type":"int","value":0},{"name":"cy","type":"int","value":0},{"name":"no","type":"int","value":13},{"name":"rx","type":"int","value":-30},{"name":"ry","type":"int","value":-70},{"name":"ani","type":"int","value":0},{"name":"type","type":"int","value":0},{"name":"front","type":"int","value":0}]},{"id":18,"name":"background_back_17","type":"imagelayer","visible":true,"opacity":1,"image":"../images/27606.png","imagewidth":800,"imageheight":257,"offsetx":-1549,"offsety":-95,"repeatx":false,"repeaty":false,"parallaxx":0.5,"parallaxy":0.8,"properties":[{"name":"a","type":"int","value":255},{"name":"f","type":"int","value":0},{"name":"x","type":"int","value":-1149},{"name":"y","type":"int","value":-47},{"name":"bS","type":"string","value":"ereb"},{"name":"cx","type":"int","value":0},{"name":"cy","type":"int","value":0},{"name":"no","type":"int","value":14},{"name":"rx","type":"int","value":-50},{"name":"ry","type":"int","value":-80},{"name":"ani","type":"int","value":0},{"name":"type","type":"int","value":0},{"name":"front","type":"int","value":0}]},{"id":19,"name":"background_back_18","type":"imagelayer","visible":true,"opacity":1,"image":"../images/27607.png","imagewidth":800,"imageheight":278,"offsetx":-749,"offsety":-116,"repeatx":false,"repeaty":false,"parallaxx":0.5,"parallaxy":0.8,"properties":[{"name":"a","type":"int","value":255},{"name":"f","type":"int","value":0},{"name":"x","type":"int","value":-349},{"name":"y","type":"int","value":-57},{"name":"bS","type":"string","value":"ereb"},{"name":"cx","type":"int","value":0},{"name":"cy","type":"int","value":0},{"name":"no","type":"int","value":15},{"name":"rx","type":"int","value":-50},{"name":"ry","type":"int","value":-80},{"name":"ani","type":"int","value":0},{"name":"type","type":"int","value":0},{"name":"front","type":"int","value":0}]},{"id":20,"name":"background_back_19","type":"imagelayer","visible":true,"opacity":1,"image":"../images/27608.png","imagewidth":800,"imageheight":242,"offsetx":51,"offsety":-80,"repeatx":false,"repeaty":false,"parallaxx":0.5,"parallaxy":0.8,"properties":[{"name":"a","type":"int","value":255},{"name":"f","type":"int","value":0},{"name":"x","type":"int","value":451},{"name":"y","type":"int","value":-39},{"name":"bS","type":"string","value":"ereb"},{"name":"cx","type":"int","value":0},{"name":"cy","type":"int","value":0},{"name":"no","type":"int","value":16},{"name":"rx","type":"int","value":-50},{"name":"ry","type":"int","value":-80},{"name":"ani","type":"int","value":0},{"name":"type","type":"int","value":0},{"name":"front","type":"int","value":0}]},{"id":21,"name":"background_back_20","type":"imagelayer","visible":true,"opacity":1,"image":"../images/27609.png","imagewidth":800,"imageheight":217,"offsetx":851,"offsety":-54,"repeatx":false,"repeaty":false,"parallaxx":0.5,"parallaxy":0.8,"properties":[{"name":"a","type":"int","value":255},{"name":"f","type":"int","value":0},{"name":"x","type":"int","value":1251},{"name":"y","type":"int","value":-26},{"name":"bS","type":"string","value":"ereb"},{"name":"cx","type":"int","value":0},{"name":"cy","type":"int","value":0},{"name":"no","type":"int","value":17},{"name":"rx","type":"int","value":-50},{"name":"ry","type":"int","value":-80},{"name":"ani","type":"int","value":0},{"name":"type","type":"int","value":0},{"name":"front","type":"int","value":0}]},{"id":22,"name":"background_back_21","type":"objectgroup","visible":true,"opacity":1,"draworder":"index","offsetx":0,"offsety":0,"parallaxx":0.5,"parallaxy":0.9,"objects":[{"id":11,"x":-348,"y":-132,"visible":true,"properties":[],"gid":80,"width":277,"height":208}],"properties":[{"name":"a","type":"int","value":255},{"name":"f","type":"int","value":0},{"name":"x","type":"int","value":-326},{"name":"y","type":"int","value":-216},{"name":"bS","type":"string","value":"ereb"},{"name":"cx","type":"int","value":0},{"name":"cy","type":"int","value":0},{"name":"no","type":"int","value":6},{"name":"rx","type":"int","value":-50},{"name":"ry","type":"int","value":-90},{"name":"ani","type":"int","value":1},{"name":"type","type":"int","value":0},{"name":"front","type":"int","value":0}]},{"id":23,"name":"background_back_22","type":"objectgroup","visible":true,"opacity":1,"draworder":"index","offsetx":0,"offsety":0,"parallaxx":0.5,"parallaxy":0.9,"objects":[{"id":12,"x":-1167,"y":-137,"visible":true,"properties":[],"gid":80,"width":277,"height":208}],"properties":[{"name":"a","type":"int","value":255},{"name":"f","type":"int","value":0},{"name":"x","type":"int","value":-1145},{"name":"y","type":"int","value":-221},{"name":"bS","type":"string","value":"ereb"},{"name":"cx","type":"int","value":0},{"name":"cy","type":"int","value":0},{"name":"no","type":"int","value":6},{"name":"rx","type":"int","value":-50},{"name":"ry","type":"int","value":-90},{"name":"ani","type":"int","value":1},{"name":"type","type":"int","value":0},{"name":"front","type":"int","value":0}]},{"id":24,"name":"background_back_23","type":"objectgroup","visible":true,"opacity":1,"draworder":"index","offsetx":0,"offsety":0,"parallaxx":0.6,"parallaxy":0.9,"objects":[{"id":13,"x":-2168,"y":-129,"visible":true,"properties":[],"gid":80,"width":277,"height":208}],"properties":[{"name":"a","type":"int","value":255},{"name":"f","type":"int","value":0},{"name":"x","type":"int","value":-2146},{"name":"y","type":"int","value":-213},{"name":"bS","type":"string","value":"ereb"},{"name":"cx","type":"int","value":0},{"name":"cy","type":"int","value":0},{"name":"no","type":"int","value":6},{"name":"rx","type":"int","value":-60},{"name":"ry","type":"int","value":-90},{"name":"ani","type":"int","value":1},{"name":"type","type":"int","value":0},{"name":"front","type":"int","value":0}]},{"id":25,"name":"background_back_24","type":"objectgroup","visible":true,"opacity":1,"draworder":"index","offsetx":0,"offsety":0,"parallaxx":0.6,"parallaxy":0.9,"objects":[{"id":14,"x":1026,"y":-112,"visible":true,"properties":[],"gid":80,"width":277,"height":208}],"properties":[{"name":"a","type":"int","value":255},{"name":"f","type":"int","value":0},{"name":"x","type":"int","value":1048},{"name":"y","type":"int","value":-196},{"name":"bS","type":"string","value":"ereb"},{"name":"cx","type":"int","value":0},{"name":"cy","type":"int","value":0},{"name":"no","type":"int","value":6},{"name":"rx","type":"int","value":-60},{"name":"ry","type":"int","value":-90},{"name":"ani","type":"int","value":1},{"name":"type","type":"int","value":0},{"name":"front","type":"int","value":0}]},{"id":26,"name":"background_back_25","type":"imagelayer","visible":true,"opacity":1,"image":"../images/27610.png","imagewidth":800,"imageheight":515,"offsetx":-1585,"offsety":-335,"repeatx":true,"repeaty":false,"parallaxx":0.6,"parallaxy":0.95,"properties":[{"name":"a","type":"int","value":255},{"name":"f","type":"int","value":0},{"name":"x","type":"int","value":-1185},{"name":"y","type":"int","value":-158},{"name":"bS","type":"string","value":"ereb"},{"name":"cx","type":"int","value":3200},{"name":"cy","type":"int","value":0},{"name":"no","type":"int","value":18},{"name":"rx","type":"int","value":-60},{"name":"ry","type":"int","value":-95},{"name":"ani","type":"int","value":0},{"name":"type","type":"int","value":1},{"name":"front","type":"int","value":0}]},{"id":27,"name":"background_back_26","type":"imagelayer","visible":true,"opacity":1,"image":"../images/27611.png","imagewidth":800,"imageheight":515,"offsetx":-785,"offsety":-335,"repeatx":true,"repeaty":false,"parallaxx":0.6,"parallaxy":0.95,"properties":[{"name":"a","type":"int","value":255},{"name":"f","type":"int","value":0},{"name":"x","type":"int","value":-385},{"name":"y","type":"int","value":-158},{"name":"bS","type":"string","value":"ereb"},{"name":"cx","type":"int","value":3200},{"name":"cy","type":"int","value":0},{"name":"no","type":"int","value":19},{"name":"rx","type":"int","value":-60},{"name":"ry","type":"int","value":-95},{"name":"ani","type":"int","value":0},{"name":"type","type":"int","value":1},{"name":"front","type":"int","value":0}]},{"id":28,"name":"background_back_27","type":"imagelayer","visible":true,"opacity":1,"image":"../images/27612.png","imagewidth":800,"imageheight":529,"offsetx":15,"offsety":-349,"repeatx":true,"repeaty":false,"parallaxx":0.6,"parallaxy":0.95,"properties":[{"name":"a","type":"int","value":255},{"name":"f","type":"int","value":0},{"name":"x","type":"int","value":415},{"name":"y","type":"int","value":-165},{"name":"bS","type":"string","value":"ereb"},{"name":"cx","type":"int","value":3200},{"name":"cy","type":"int","value":0},{"name":"no","type":"int","value":20},{"name":"rx","type":"int","value":-60},{"name":"ry","type":"int","value":-95},{"name":"ani","type":"int","value":0},{"name":"type","type":"int","value":1},{"name":"front","type":"int","value":0}]},{"id":29,"name":"background_back_28","type":"imagelayer","visible":true,"opacity":1,"image":"../images/27613.png","imagewidth":800,"imageheight":515,"offsetx":815,"offsety":-335,"repeatx":true,"repeaty":false,"parallaxx":0.6,"parallaxy":0.95,"properties":[{"name":"a","type":"int","value":255},{"name":"f","type":"int","value":0},{"name":"x","type":"int","value":1215},{"name":"y","type":"int","value":-158},{"name":"bS","type":"string","value":"ereb"},{"name":"cx","type":"int","value":3200},{"name":"cy","type":"int","value":0},{"name":"no","type":"int","value":21},{"name":"rx","type":"int","value":-60},{"name":"ry","type":"int","value":-95},{"name":"ani","type":"int","value":0},{"name":"type","type":"int","value":1},{"name":"front","type":"int","value":0}]},{"id":30,"name":"background_back_29","type":"objectgroup","visible":true,"opacity":1,"draworder":"index","offsetx":0,"offsety":0,"parallaxx":0.6,"parallaxy":0.1,"objects":[{"id":15,"x":-85,"y":281,"visible":true,"properties":[],"gid":68,"width":516,"height":723},{"id":16,"x":431,"y":281,"visible":true,"properties":[],"gid":68,"width":516,"height":723},{"id":17,"x":947,"y":281,"visible":true,"properties":[],"gid":68,"width":516,"height":723},{"id":18,"x":1463,"y":281,"visible":true,"properties":[],"gid":68,"width":516,"height":723},{"id":19,"x":1979,"y":281,"visible":true,"properties":[],"gid":68,"width":516,"height":723},{"id":20,"x":2495,"y":281,"visible":true,"properties":[],"gid":68,"width":516,"height":723},{"id":21,"x":3011,"y":281,"visible":true,"properties":[],"gid":68,"width":516,"height":723}],"properties":[{"name":"a","type":"int","value":255},{"name":"f","type":"int","value":0},{"name":"x","type":"int","value":173},{"name":"y","type":"int","value":-161},{"name":"bS","type":"string","value":"ereb"},{"name":"cx","type":"int","value":3200},{"name":"cy","type":"int","value":0},{"name":"no","type":"int","value":0},{"name":"rx","type":"int","value":-60},{"name":"ry","type":"int","value":-10},{"name":"ani","type":"int","value":1},{"name":"type","type":"int","value":1},{"name":"front","type":"int","value":0}]},{"id":31,"name":"background_back_30","type":"objectgroup","visible":true,"opacity":1,"draworder":"index","offsetx":0,"offsety":0,"parallaxx":0.6,"parallaxy":0.1,"objects":[{"id":22,"x":-408,"y":182,"visible":true,"properties":[],"gid":70,"width":529,"height":659},{"id":23,"x":121,"y":182,"visible":true,"properties":[],"gid":70,"width":529,"height":659},{"id":24,"x":650,"y":182,"visible":true,"properties":[],"gid":70,"width":529,"height":659},{"id":25,"x":1179,"y":182,"visible":true,"properties":[],"gid":70,"width":529,"height":659},{"id":26,"x":1708,"y":182,"visible":true,"properties":[],"gid":70,"width":529,"height":659},{"id":27,"x":2237,"y":182,"visible":true,"properties":[],"gid":70,"width":529,"height":659},{"id":28,"x":2766,"y":182,"visible":true,"properties":[],"gid":70,"width":529,"height":659}],"properties":[{"name":"a","type":"int","value":255},{"name":"f","type":"int","value":0},{"name":"x","type":"int","value":-144},{"name":"y","type":"int","value":-228},{"name":"bS","type":"string","value":"ereb"},{"name":"cx","type":"int","value":3200},{"name":"cy","type":"int","value":0},{"name":"no","type":"int","value":1},{"name":"rx","type":"int","value":-60},{"name":"ry","type":"int","value":-10},{"name":"ani","type":"int","value":1},{"name":"type","type":"int","value":1},{"name":"front","type":"int","value":0}]},{"id":32,"name":"background_back_31","type":"objectgroup","visible":true,"opacity":1,"draworder":"index","offsetx":0,"offsety":0,"parallaxx":0.6,"parallaxy":0.1,"objects":[{"id":29,"x":-950,"y":4,"visible":true,"properties":[],"gid":72,"width":376,"height":443},{"id":30,"x":-574,"y":4,"visible":true,"properties":[],"gid":72,"width":376,"height":443},{"id":31,"x":-198,"y":4,"visible":true,"properties":[],"gid":72,"width":376,"height":443},{"id":32,"x":178,"y":4,"visible":true,"properties":[],"gid":72,"width":376,"height":443},{"id":33,"x":554,"y":4,"visible":true,"properties":[],"gid":72,"width":376,"height":443},{"id":34,"x":930,"y":4,"visible":true,"properties":[],"gid":72,"width":376,"height":443},{"id":35,"x":1306,"y":4,"visible":true,"properties":[],"gid":72,"width":376,"height":443},{"id":36,"x":1682,"y":4,"visible":true,"properties":[],"gid":72,"width":376,"height":443},{"id":37,"x":2058,"y":4,"visible":true,"properties":[],"gid":72,"width":376,"height":443},{"id":38,"x":2434,"y":4,"visible":true,"properties":[],"gid":72,"width":376,"height":443},{"id":39,"x":2810,"y":4,"visible":true,"properties":[],"gid":72,"width":376,"height":443}],"properties":[{"name":"a","type":"int","value":255},{"name":"f","type":"int","value":0},{"name":"x","type":"int","value":-762},{"name":"y","type":"int","value":-298},{"name":"bS","type":"string","value":"ereb"},{"name":"cx","type":"int","value":3200},{"name":"cy","type":"int","value":0},{"name":"no","type":"int","value":2},{"name":"rx","type":"int","value":-60},{"name":"ry","type":"int","value":-10},{"name":"ani","type":"int","value":1},{"name":"type","type":"int","value":1},{"name":"front","type":"int","value":0}]},{"id":33,"name":"background_back_32","type":"objectgroup","visible":true,"opacity":1,"draworder":"index","offsetx":0,"offsety":0,"parallaxx":0.6,"parallaxy":0.1,"objects":[{"id":40,"x":379,"y":145,"visible":true,"properties":[],"gid":74,"width":554,"height":619},{"id":41,"x":933,"y":145,"visible":true,"properties":[],"gid":74,"width":554,"height":619},{"id":42,"x":1487,"y":145,"visible":true,"properties":[],"gid":74,"width":554,"height":619},{"id":43,"x":2041,"y":145,"visible":true,"properties":[],"gid":74,"width":554,"height":619},{"id":44,"x":2595,"y":145,"visible":true,"properties":[],"gid":74,"width":554,"height":619},{"id":45,"x":3149,"y":145,"visible":true,"properties":[],"gid":74,"width":554,"height":619}],"properties":[{"name":"a","type":"int","value":255},{"name":"f","type":"int","value":0},{"name":"x","type":"int","value":656},{"name":"y","type":"int","value":-245},{"name":"bS","type":"string","value":"ereb"},{"name":"cx","type":"int","value":3200},{"name":"cy","type":"int","value":0},{"name":"no","type":"int","value":3},{"name":"rx","type":"int","value":-60},{"name":"ry","type":"int","value":-10},{"name":"ani","type":"int","value":1},{"name":"type","type":"int","value":1},{"name":"front","type":"int","value":0}]},{"id":34,"name":"background_back_33","type":"objectgroup","visible":true,"opacity":1,"draworder":"index","offsetx":0,"offsety":0,"parallaxx":0.6,"parallaxy":0.1,"objects":[{"id":46,"x":67,"y":60,"visible":true,"properties":[],"gid":76,"width":424,"height":506},{"id":47,"x":491,"y":60,"visible":true,"properties":[],"gid":76,"width":424,"height":506},{"id":48,"x":915,"y":60,"visible":true,"properties":[],"gid":76,"width":424,"height":506},{"id":49,"x":1339,"y":60,"visible":true,"properties":[],"gid":76,"width":424,"height":506},{"id":50,"x":1763,"y":60,"visible":true,"properties":[],"gid":76,"width":424,"height":506},{"id":51,"x":2187,"y":60,"visible":true,"properties":[],"gid":76,"width":424,"height":506},{"id":52,"x":2611,"y":60,"visible":true,"properties":[],"gid":76,"width":424,"height":506},{"id":53,"x":3035,"y":60,"visible":true,"properties":[],"gid":76,"width":424,"height":506}],"properties":[{"name":"a","type":"int","value":255},{"name":"f","type":"int","value":0},{"name":"x","type":"int","value":279},{"name":"y","type":"int","value":-273},{"name":"bS","type":"string","value":"ereb"},{"name":"cx","type":"int","value":3200},{"name":"cy","type":"int","value":0},{"name":"no","type":"int","value":4},{"name":"rx","type":"int","value":-60},{"name":"ry","type":"int","value":-10},{"name":"ani","type":"int","value":1},{"name":"type","type":"int","value":1},{"name":"front","type":"int","value":0}]},{"id":35,"name":"background_back_34","type":"objectgroup","visible":true,"opacity":1,"draworder":"index","offsetx":0,"offsety":0,"parallaxx":0.6,"parallaxy":0.1,"objects":[{"id":54,"x":-1277,"y":49,"visible":true,"properties":[],"gid":78,"width":389,"height":485},{"id":55,"x":-888,"y":49,"visible":true,"properties":[],"gid":78,"width":389,"height":485},{"id":56,"x":-499,"y":49,"visible":true,"properties":[],"gid":78,"width":389,"height":485},{"id":57,"x":-110,"y":49,"visible":true,"properties":[],"gid":78,"width":389,"height":485},{"id":58,"x":279,"y":49,"visible":true,"properties":[],"gid":78,"width":389,"height":485},{"id":59,"x":668,"y":49,"visible":true,"properties":[],"gid":78,"width":389,"height":485},{"id":60,"x":1057,"y":49,"visible":true,"properties":[],"gid":78,"width":389,"height":485},{"id":61,"x":1446,"y":49,"visible":true,"properties":[],"gid":78,"width":389,"height":485},{"id":62,"x":1835,"y":49,"visible":true,"properties":[],"gid":78,"width":389,"height":485},{"id":63,"x":2224,"y":49,"visible":true,"properties":[],"gid":78,"width":389,"height":485},{"id":64,"x":2613,"y":49,"visible":true,"properties":[],"gid":78,"width":389,"height":485},{"id":65,"x":3002,"y":49,"visible":true,"properties":[],"gid":78,"width":389,"height":485}],"properties":[{"name":"a","type":"int","value":255},{"name":"f","type":"int","value":0},{"name":"x","type":"int","value":-1083},{"name":"y","type":"int","value":-274},{"name":"bS","type":"string","value":"ereb"},{"name":"cx","type":"int","value":3200},{"name":"cy","type":"int","value":0},{"name":"no","type":"int","value":5},{"name":"rx","type":"int","value":-60},{"name":"ry","type":"int","value":-10},{"name":"ani","type":"int","value":1},{"name":"type","type":"int","value":1},{"name":"front","type":"int","value":0}]},{"id":36,"name":"background_back","type":"objectgroup","visible":true,"opacity":1,"draworder":"index","offsetx":0,"offsety":0,"parallaxx":1,"parallaxy":1,"objects":[{"id":1,"x":-268,"y":-478,"visible":true,"properties":[{"name":"image_layer_name","type":"string","value":"background_back_2"},{"name":"a","type":"int","value":255},{"name":"f","type":"int","value":0},{"name":"x","type":"int","value":-268},{"name":"y","type":"int","value":-478},{"name":"bS","type":"string","value":"ereb"},{"name":"cx","type":"int","value":1200},{"name":"cy","type":"int","value":0},{"name":"no","type":"int","value":2},{"name":"rx","type":"int","value":-3},{"name":"ry","type":"int","value":-50},{"name":"ani","type":"int","value":0},{"name":"type","type":"int","value":4},{"name":"front","type":"int","value":0}],"point":true},{"id":2,"x":-386,"y":-495,"visible":true,"properties":[{"name":"image_layer_name","type":"string","value":"background_back_3"},{"name":"a","type":"int","value":255},{"name":"f","type":"int","value":0},{"name":"x","type":"int","value":-386},{"name":"y","type":"int","value":-495},{"name":"bS","type":"string","value":"ereb"},{"name":"cx","type":"int","value":1200},{"name":"cy","type":"int","value":0},{"name":"no","type":"int","value":3},{"name":"rx","type":"int","value":-5},{"name":"ry","type":"int","value":-50},{"name":"ani","type":"int","value":0},{"name":"type","type":"int","value":4},{"name":"front","type":"int","value":0}],"point":true},{"id":3,"x":250,"y":-404,"visible":true,"properties":[{"name":"image_layer_name","type":"string","value":"background_back_4"},{"name":"a","type":"int","value":255},{"name":"f","type":"int","value":0},{"name":"x","type":"int","value":250},{"name":"y","type":"int","value":-404},{"name":"bS","type":"string","value":"ereb"},{"name":"cx","type":"int","value":1200},{"name":"cy","type":"int","value":0},{"name":"no","type":"int","value":4},{"name":"rx","type":"int","value":-3},{"name":"ry","type":"int","value":-50},{"name":"ani","type":"int","value":0},{"name":"type","type":"int","value":4},{"name":"front","type":"int","value":0}],"point":true},{"id":4,"x":370,"y":-354,"visible":true,"properties":[{"name":"image_layer_name","type":"string","value":"background_back_5"},{"name":"a","type":"int","value":255},{"name":"f","type":"int","value":0},{"name":"x","type":"int","value":370},{"name":"y","type":"int","value":-354},{"name":"bS","type":"string","value":"ereb"},{"name":"cx","type":"int","value":1200},{"name":"cy","type":"int","value":0},{"name":"no","type":"int","value":5},{"name":"rx","type":"int","value":-4},{"name":"ry","type":"int","value":-50},{"name":"ani","type":"int","value":0},{"name":"type","type":"int","value":4},{"name":"front","type":"int","value":0}],"point":true},{"id":5,"x":23,"y":-348,"visible":true,"properties":[{"name":"image_layer_name","type":"string","value":"background_back_6"},{"name":"a","type":"int","value":255},{"name":"f","type":"int","value":0},{"name":"x","type":"int","value":23},{"name":"y","type":"int","value":-348},{"name":"bS","type":"string","value":"ereb"},{"name":"cx","type":"int","value":1200},{"name":"cy","type":"int","value":0},{"name":"no","type":"int","value":6},{"name":"rx","type":"int","value":-4},{"name":"ry","type":"int","value":-50},{"name":"ani","type":"int","value":0},{"name":"type","type":"int","value":4},{"name":"front","type":"int","value":0}],"point":true},{"id":6,"x":-367,"y":-390,"visible":true,"properties":[{"name":"image_layer_name","type":"string","value":"background_back_7"},{"name":"a","type":"int","value":255},{"name":"f","type":"int","value":0},{"name":"x","type":"int","value":-367},{"name":"y","type":"int","value":-390},{"name":"bS","type":"string","value":"ereb"},{"name":"cx","type":"int","value":1200},{"name":"cy","type":"int","value":0},{"name":"no","type":"int","value":7},{"name":"rx","type":"int","value":-3},{"name":"ry","type":"int","value":-50},{"name":"ani","type":"int","value":0},{"name":"type","type":"int","value":4},{"name":"front","type":"int","value":0}],"point":true},{"id":7,"x":-278,"y":-347,"visible":true,"properties":[{"name":"image_layer_name","type":"string","value":"background_back_8"},{"name":"a","type":"int","value":255},{"name":"f","type":"int","value":0},{"name":"x","type":"int","value":-278},{"name":"y","type":"int","value":-347},{"name":"bS","type":"string","value":"ereb"},{"name":"cx","type":"int","value":1200},{"name":"cy","type":"int","value":0},{"name":"no","type":"int","value":8},{"name":"rx","type":"int","value":-2},{"name":"ry","type":"int","value":-50},{"name":"ani","type":"int","value":0},{"name":"type","type":"int","value":4},{"name":"front","type":"int","value":0}],"point":true},{"id":8,"x":184,"y":-720,"visible":true,"properties":[{"name":"image_layer_name","type":"string","value":"background_back_9"},{"name":"a","type":"int","value":255},{"name":"f","type":"int","value":0},{"name":"x","type":"int","value":184},{"name":"y","type":"int","value":-720},{"name":"bS","type":"string","value":"ereb"},{"name":"cx","type":"int","value":1200},{"name":"cy","type":"int","value":0},{"name":"no","type":"int","value":2},{"name":"rx","type":"int","value":-3},{"name":"ry","type":"int","value":-50},{"name":"ani","type":"int","value":0},{"name":"type","type":"int","value":4},{"name":"front","type":"int","value":0}],"point":true},{"id":9,"x":119,"y":-937,"visible":true,"properties":[{"name":"image_layer_name","type":"string","value":"background_back_10"},{"name":"a","type":"int","value":255},{"name":"f","type":"int","value":0},{"name":"x","type":"int","value":119},{"name":"y","type":"int","value":-937},{"name":"bS","type":"string","value":"ereb"},{"name":"cx","type":"int","value":1200},{"name":"cy","type":"int","value":0},{"name":"no","type":"int","value":3},{"name":"rx","type":"int","value":-4},{"name":"ry","type":"int","value":-50},{"name":"ani","type":"int","value":0},{"name":"type","type":"int","value":4},{"name":"front","type":"int","value":0}],"point":true},{"id":10,"x":167,"y":-911,"visible":true,"properties":[{"name":"image_layer_name","type":"string","value":"background_back_11"},{"name":"a","type":"int","value":255},{"name":"f","type":"int","value":0},{"name":"x","type":"int","value":167},{"name":"y","type":"int","value":-911},{"name":"bS","type":"string","value":"ereb"},{"name":"cx","type":"int","value":1200},{"name":"cy","type":"int","value":0},{"name":"no","type":"int","value":4},{"name":"rx","type":"int","value":-5},{"name":"ry","type":"int","value":-50},{"name":"ani","type":"int","value":0},{"name":"type","type":"int","value":4},{"name":"front","type":"int","value":0}],"point":true}],"properties":[]},{"id":37,"name":"layer_1_obj","type":"objectgroup","visible":true,"opacity":1,"draworder":"index","offsetx":0,"offsety":0,"parallaxx":1,"parallaxy":1,"objects":[{"id":66,"x":1262,"y":94,"visible":true,"properties":[{"name":"layer","type":"int","value":1},{"name":"resource_index","type":"int","value":0},{"name":"oS","type":"string","value":"acc11"},{"name":"l0","type":"string","value":"erebTW"},{"name":"l1","type":"string","value":"nature"},{"name":"l2","type":"string","value":"0"},{"name":"z","type":"int","value":9},{"name":"zM","type":"int","value":1},{"name":"f","type":"int","value":0}],"gid":96,"width":569,"height":699},{"id":67,"x":2271,"y":86,"visible":true,"properties":[{"name":"layer","type":"int","value":1},{"name":"resource_index","type":"int","value":1},{"name":"oS","type":"string","value":"acc11"},{"name":"l0","type":"string","value":"erebTW"},{"name":"l1","type":"string","value":"nature"},{"name":"l2","type":"string","value":"1"},{"name":"z","type":"int","value":9},{"name":"zM","type":"int","value":4},{"name":"f","type":"int","value":0}],"gid":97,"width":611,"height":734},{"id":68,"x":1550,"y":94,"visible":true,"properties":[{"name":"layer","type":"int","value":1},{"name":"resource_index","type":"int","value":2},{"name":"oS","type":"string","value":"acc11"},{"name":"l0","type":"string","value":"erebTW"},{"name":"l1","type":"string","value":"nature"},{"name":"l2","type":"string","value":"5"},{"name":"z","type":"int","value":9},{"name":"zM","type":"int","value":1},{"name":"f","type":"int","value":0}],"gid":98,"width":418,"height":472},{"id":69,"x":2143,"y":89,"visible":true,"properties":[{"name":"layer","type":"int","value":1},{"name":"resource_index","type":"int","value":3},{"name":"oS","type":"string","value":"acc11"},{"name":"l0","type":"string","value":"erebTW"},{"name":"l1","type":"string","value":"nature"},{"name":"l2","type":"string","value":"10"},{"name":"z","type":"int","value":9},{"name":"zM","type":"int","value":4},{"name":"f","type":"int","value":0}],"gid":99,"width":354,"height":411},{"id":70,"x":2185,"y":-502,"visible":true,"properties":[{"name":"layer","type":"int","value":1},{"name":"resource_index","type":"int","value":4},{"name":"oS","type":"string","value":"acc11"},{"name":"l0","type":"string","value":"erebTW"},{"name":"l1","type":"string","value":"nature"},{"name":"l2","type":"string","value":"7"},{"name":"z","type":"int","value":9},{"name":"zM","type":"int","value":4},{"name":"f","type":"int","value":0}],"gid":100,"width":586,"height":644},{"id":71,"x":1819,"y":-508,"visible":true,"properties":[{"name":"layer","type":"int","value":1},{"name":"resource_index","type":"int","value":5},{"name":"oS","type":"string","value":"acc11"},{"name":"l0","type":"string","value":"erebTW"},{"name":"l1","type":"string","value":"nature"},{"name":"l2","type":"string","value":"8"},{"name":"z","type":"int","value":9},{"name":"zM","type":"int","value":1},{"name":"f","type":"int","value":0}],"gid":101,"width":185,"height":420},{"id":72,"x":1942,"y":73,"visible":true,"properties":[{"name":"layer","type":"int","value":1},{"name":"resource_index","type":"int","value":6},{"name":"oS","type":"string","value":"trap"},{"name":"l0","type":"string","value":"trap"},{"name":"l1","type":"string","value":"nature"},{"name":"l2","type":"string","value":"6"},{"name":"z","type":"int","value":9},{"name":"zM","type":"int","value":0},{"name":"f","type":"int","value":0}],"gid":53,"width":50,"height":46},{"id":73,"x":1669,"y":-1100,"visible":true,"properties":[{"name":"layer","type":"int","value":1},{"name":"resource_index","type":"int","value":7},{"name":"oS","type":"string","value":"acc11"},{"name":"l0","type":"string","value":"erebTW"},{"name":"l1","type":"string","value":"nature"},{"name":"l2","type":"string","value":"2"},{"name":"z","type":"int","value":9},{"name":"zM","type":"int","value":4},{"name":"f","type":"int","value":0}],"gid":102,"width":569,"height":734},{"id":74,"x":2195,"y":-1107,"visible":true,"properties":[{"name":"layer","type":"int","value":1},{"name":"resource_index","type":"int","value":8},{"name":"oS","type":"string","value":"acc11"},{"name":"l0","type":"string","value":"erebTW"},{"name":"l1","type":"string","value":"nature"},{"name":"l2","type":"string","value":"3"},{"name":"z","type":"int","value":9},{"name":"zM","type":"int","value":4},{"name":"f","type":"int","value":0}],"gid":103,"width":377,"height":502},{"id":75,"x":2155,"y":73,"visible":true,"properties":[{"name":"layer","type":"int","value":1},{"name":"resource_index","type":"int","value":9},{"name":"oS","type":"string","value":"trap"},{"name":"l0","type":"string","value":"trap"},{"name":"l1","type":"string","value":"nature"},{"name":"l2","type":"string","value":"6"},{"name":"z","type":"int","value":9},{"name":"zM","type":"int","value":0},{"name":"f","type":"int","value":0}],"gid":53,"width":50,"height":46},{"id":76,"x":2121,"y":71,"visible":true,"properties":[{"name":"layer","type":"int","value":1},{"name":"resource_index","type":"int","value":10},{"name":"oS","type":"string","value":"trap"},{"name":"l0","type":"string","value":"trap"},{"name":"l1","type":"string","value":"nature"},{"name":"l2","type":"string","value":"6"},{"name":"z","type":"int","value":9},{"name":"zM","type":"int","value":0},{"name":"f","type":"int","value":0}],"gid":53,"width":50,"height":46},{"id":77,"x":2100,"y":72,"visible":true,"properties":[{"name":"layer","type":"int","value":1},{"name":"resource_index","type":"int","value":11},{"name":"oS","type":"string","value":"trap"},{"name":"l0","type":"string","value":"trap"},{"name":"l1","type":"string","value":"nature"},{"name":"l2","type":"string","value":"7"},{"name":"z","type":"int","value":9},{"name":"zM","type":"int","value":0},{"name":"f","type":"int","value":0}],"gid":47,"width":27,"height":40},{"id":78,"x":2052,"y":72,"visible":true,"properties":[{"name":"layer","type":"int","value":1},{"name":"resource_index","type":"int","value":12},{"name":"oS","type":"string","value":"trap"},{"name":"l0","type":"string","value":"trap"},{"name":"l1","type":"string","value":"nature"},{"name":"l2","type":"string","value":"6"},{"name":"z","type":"int","value":9},{"name":"zM","type":"int","value":0},{"name":"f","type":"int","value":0}],"gid":53,"width":50,"height":46},{"id":79,"x":2045,"y":74,"visible":true,"properties":[{"name":"layer","type":"int","value":1},{"name":"resource_index","type":"int","value":13},{"name":"oS","type":"string","value":"trap"},{"name":"l0","type":"string","value":"trap"},{"name":"l1","type":"string","value":"nature"},{"name":"l2","type":"string","value":"6"},{"name":"z","type":"int","value":9},{"name":"zM","type":"int","value":0},{"name":"f","type":"int","value":0}],"gid":53,"width":50,"height":46},{"id":80,"x":2011,"y":72,"visible":true,"properties":[{"name":"layer","type":"int","value":1},{"name":"resource_index","type":"int","value":14},{"name":"oS","type":"string","value":"trap"},{"name":"l0","type":"string","value":"trap"},{"name":"l1","type":"string","value":"nature"},{"name":"l2","type":"string","value":"6"},{"name":"z","type":"int","value":9},{"name":"zM","type":"int","value":0},{"name":"f","type":"int","value":0}],"gid":53,"width":50,"height":46},{"id":81,"x":1990,"y":73,"visible":true,"properties":[{"name":"layer","type":"int","value":1},{"name":"resource_index","type":"int","value":15},{"name":"oS","type":"string","value":"trap"},{"name":"l0","type":"string","value":"trap"},{"name":"l1","type":"string","value":"nature"},{"name":"l2","type":"string","value":"7"},{"name":"z","type":"int","value":9},{"name":"zM","type":"int","value":0},{"name":"f","type":"int","value":0}],"gid":47,"width":27,"height":40}],"properties":[]},{"id":38,"name":"layer_2_obj","type":"objectgroup","visible":true,"opacity":1,"draworder":"index","offsetx":0,"offsety":0,"parallaxx":1,"parallaxy":1,"objects":[{"id":82,"x":1316,"y":89,"visible":true,"properties":[{"name":"layer","type":"int","value":2},{"name":"resource_index","type":"int","value":0},{"name":"oS","type":"string","value":"acc11"},{"name":"l0","type":"string","value":"erebTR"},{"name":"l1","type":"string","value":"fence"},{"name":"l2","type":"string","value":"0"},{"name":"z","type":"int","value":9},{"name":"zM","type":"int","value":3},{"name":"f","type":"int","value":0}],"gid":64,"width":264,"height":225},{"id":83,"x":1683,"y":90,"visible":true,"properties":[{"name":"layer","type":"int","value":2},{"name":"resource_index","type":"int","value":1},{"name":"oS","type":"string","value":"acc11"},{"name":"l0","type":"string","value":"erebTR"},{"name":"l1","type":"string","value":"fence"},{"name":"l2","type":"string","value":"4"},{"name":"z","type":"int","value":9},{"name":"zM","type":"int","value":2},{"name":"f","type":"int","value":0}],"gid":65,"width":247,"height":225},{"id":84,"x":1929,"y":90,"visible":true,"properties":[{"name":"layer","type":"int","value":2},{"name":"resource_index","type":"int","value":2},{"name":"oS","type":"string","value":"acc11"},{"name":"l0","type":"string","value":"erebTR"},{"name":"l1","type":"string","value":"fence"},{"name":"l2","type":"string","value":"2"},{"name":"z","type":"int","value":9},{"name":"zM","type":"int","value":2},{"name":"f","type":"int","value":0}],"gid":66,"width":402,"height":197},{"id":85,"x":2330,"y":90,"visible":true,"properties":[{"name":"layer","type":"int","value":2},{"name":"resource_index","type":"int","value":3},{"name":"oS","type":"string","value":"acc11"},{"name":"l0","type":"string","value":"erebTR"},{"name":"l1","type":"string","value":"fence"},{"name":"l2","type":"string","value":"3"},{"name":"z","type":"int","value":9},{"name":"zM","type":"int","value":2},{"name":"f","type":"int","value":0}],"gid":67,"width":402,"height":197}],"properties":[]},{"id":39,"name":"layer_3_obj","type":"objectgroup","visible":true,"opacity":1,"draworder":"index","offsetx":0,"offsety":0,"parallaxx":1,"parallaxy":1,"objects":[{"id":255,"x":1751,"y":87,"visible":true,"properties":[{"name":"layer","type":"int","value":3},{"name":"resource_index","type":"int","value":0},{"name":"oS","type":"string","value":"acc11"},{"name":"l0","type":"string","value":"erebTR"},{"name":"l1","type":"string","value":"trap"},{"name":"l2","type":"string","value":"8"},{"name":"z","type":"int","value":9},{"name":"zM","type":"int","value":0},{"name":"f","type":"int","value":0}],"gid":58,"width":724,"height":133},{"id":256,"x":1869,"y":-46,"visible":true,"properties":[{"name":"layer","type":"int","value":3},{"name":"resource_index","type":"int","value":1},{"name":"oS","type":"string","value":"acc11"},{"name":"l0","type":"string","value":"erebTR"},{"name":"l1","type":"string","value":"trap"},{"name":"l2","type":"string","value":"9"},{"name":"z","type":"int","value":9},{"name":"zM","type":"int","value":7},{"name":"f","type":"int","value":0}],"gid":59,"width":479,"height":183},{"id":257,"x":1853,"y":-229,"visible":true,"properties":[{"name":"layer","type":"int","value":3},{"name":"resource_index","type":"int","value":2},{"name":"oS","type":"string","value":"acc11"},{"name":"l0","type":"string","value":"erebTR"},{"name":"l1","type":"string","value":"trap"},{"name":"l2","type":"string","value":"7"},{"name":"z","type":"int","value":9},{"name":"zM","type":"int","value":9},{"name":"f","type":"int","value":0}],"gid":60,"width":504,"height":140},{"id":258,"x":1451,"y":89,"visible":true,"properties":[{"name":"layer","type":"int","value":3},{"name":"resource_index","type":"int","value":3},{"name":"oS","type":"string","value":"acc11"},{"name":"l0","type":"string","value":"erebTW"},{"name":"l1","type":"string","value":"nature"},{"name":"l2","type":"string","value":"23"},{"name":"z","type":"int","value":9},{"name":"zM","type":"int","value":0},{"name":"f","type":"int","value":0}],"gid":104,"width":59,"height":61},{"id":259,"x":1415,"y":90,"visible":true,"properties":[{"name":"layer","type":"int","value":3},{"name":"resource_index","type":"int","value":4},{"name":"oS","type":"string","value":"acc11"},{"name":"l0","type":"string","value":"erebTW"},{"name":"l1","type":"string","value":"nature"},{"name":"l2","type":"string","value":"22"},{"name":"z","type":"int","value":9},{"name":"zM","type":"int","value":0},{"name":"f","type":"int","value":0}],"gid":105,"width":54,"height":76},{"id":260,"x":1478,"y":90,"visible":true,"properties":[{"name":"layer","type":"int","value":3},{"name":"resource_index","type":"int","value":5},{"name":"oS","type":"string","value":"acc11"},{"name":"l0","type":"string","value":"erebTW"},{"name":"l1","type":"string","value":"nature"},{"name":"l2","type":"string","value":"23"},{"name":"z","type":"int","value":9},{"name":"zM","type":"int","value":0},{"name":"f","type":"int","value":0}],"gid":104,"width":59,"height":61},{"id":261,"x":1379,"y":89,"visible":true,"properties":[{"name":"layer","type":"int","value":3},{"name":"resource_index","type":"int","value":6},{"name":"oS","type":"string","value":"acc11"},{"name":"l0","type":"string","value":"erebTW"},{"name":"l1","type":"string","value":"nature"},{"name":"l2","type":"string","value":"29"},{"name":"z","type":"int","value":9},{"name":"zM","type":"int","value":0},{"name":"f","type":"int","value":0}],"gid":106,"width":84,"height":38},{"id":262,"x":2588,"y":94,"visible":true,"properties":[{"name":"layer","type":"int","value":3},{"name":"resource_index","type":"int","value":7},{"name":"oS","type":"string","value":"acc11"},{"name":"l0","type":"string","value":"erebTW"},{"name":"l1","type":"string","value":"nature"},{"name":"l2","type":"string","value":"18"},{"name":"z","type":"int","value":9},{"name":"zM","type":"int","value":0},{"name":"f","type":"int","value":0}],"gid":107,"width":86,"height":103},{"id":263,"x":2523,"y":91,"visible":true,"properties":[{"name":"layer","type":"int","value":3},{"name":"resource_index","type":"int","value":8},{"name":"oS","type":"string","value":"acc11"},{"name":"l0","type":"string","value":"erebTW"},{"name":"l1","type":"string","value":"nature"},{"name":"l2","type":"string","value":"19"},{"name":"z","type":"int","value":9},{"name":"zM","type":"int","value":0},{"name":"f","type":"int","value":0}],"gid":108,"width":117,"height":87},{"id":264,"x":2506,"y":92,"visible":true,"properties":[{"name":"layer","type":"int","value":3},{"name":"resource_index","type":"int","value":9},{"name":"oS","type":"string","value":"acc11"},{"name":"l0","type":"string","value":"erebTW"},{"name":"l1","type":"string","value":"nature"},{"name":"l2","type":"string","value":"18"},{"name":"z","type":"int","value":9},{"name":"zM","type":"int","value":0},{"name":"f","type":"int","value":0}],"gid":107,"width":86,"height":103},{"id":265,"x":2589,"y":87,"visible":true,"properties":[{"name":"layer","type":"int","value":3},{"name":"resource_index","type":"int","value":10},{"name":"oS","type":"string","value":"acc11"},{"name":"l0","type":"string","value":"erebTW"},{"name":"l1","type":"string","value":"nature"},{"name":"l2","type":"string","value":"20"},{"name":"z","type":"int","value":9},{"name":"zM","type":"int","value":0},{"name":"f","type":"int","value":0}],"gid":109,"width":61,"height":40},{"id":266,"x":1730,"y":-511,"visible":true,"properties":[{"name":"layer","type":"int","value":3},{"name":"resource_index","type":"int","value":11},{"name":"oS","type":"string","value":"acc11"},{"name":"l0","type":"string","value":"erebTW"},{"name":"l1","type":"string","value":"nature"},{"name":"l2","type":"string","value":"27"},{"name":"z","type":"int","value":9},{"name":"zM","type":"int","value":11},{"name":"f","type":"int","value":0}],"gid":110,"width":59,"height":36},{"id":267,"x":2022,"y":-507,"visible":true,"properties":[{"name":"layer","type":"int","value":3},{"name":"resource_index","type":"int","value":12},{"name":"oS","type":"string","value":"acc11"},{"name":"l0","type":"string","value":"erebFD"},{"name":"l1","type":"string","value":"stone"},{"name":"l2","type":"string","value":"0"},{"name":"z","type":"int","value":9},{"name":"zM","type":"int","value":11},{"name":"f","type":"int","value":0}],"gid":62,"width":329,"height":138},{"id":268,"x":2222,"y":-1111,"visible":true,"properties":[{"name":"layer","type":"int","value":3},{"name":"resource_index","type":"int","value":13},{"name":"oS","type":"string","value":"acc11"},{"name":"l0","type":"string","value":"erebFD"},{"name":"l1","type":"string","value":"stone"},{"name":"l2","type":"string","value":"7"},{"name":"z","type":"int","value":6},{"name":"zM","type":"int","value":21},{"name":"f","type":"int","value":0}],"gid":63,"width":137,"height":61},{"id":269,"x":1945,"y":-1109,"visible":true,"properties":[{"name":"layer","type":"int","value":3},{"name":"resource_index","type":"int","value":14},{"name":"oS","type":"string","value":"acc11"},{"name":"l0","type":"string","value":"erebTR"},{"name":"l1","type":"string","value":"box"},{"name":"l2","type":"string","value":"22"},{"name":"z","type":"int","value":7},{"name":"zM","type":"int","value":0},{"name":"f","type":"int","value":0}],"gid":43,"width":193,"height":103},{"id":270,"x":1881,"y":88,"visible":true,"properties":[{"name":"layer","type":"int","value":3},{"name":"resource_index","type":"int","value":15},{"name":"oS","type":"string","value":"acc11"},{"name":"l0","type":"string","value":"erebTR"},{"name":"l1","type":"string","value":"trap"},{"name":"l2","type":"string","value":"10"},{"name":"z","type":"int","value":10},{"name":"zM","type":"int","value":0},{"name":"f","type":"int","value":0}],"gid":61,"width":325,"height":94},{"id":271,"x":2169,"y":-811,"visible":true,"properties":[{"name":"layer","type":"int","value":3},{"name":"resource_index","type":"int","value":16},{"name":"oS","type":"string","value":"acc11"},{"name":"l0","type":"string","value":"erebTR"},{"name":"l1","type":"string","value":"box"},{"name":"l2","type":"string","value":"12"},{"name":"z","type":"int","value":9},{"name":"zM","type":"int","value":0},{"name":"f","type":"int","value":0}],"gid":44,"width":34,"height":28},{"id":272,"x":2154,"y":-1709,"visible":true,"properties":[{"name":"layer","type":"int","value":3},{"name":"resource_index","type":"int","value":17},{"name":"oS","type":"string","value":"acc11"},{"name":"l0","type":"string","value":"erebTR"},{"name":"l1","type":"string","value":"box"},{"name":"l2","type":"string","value":"0"},{"name":"z","type":"int","value":9},{"name":"zM","type":"int","value":0},{"name":"f","type":"int","value":0}],"gid":45,"width":216,"height":162},{"id":273,"x":2209,"y":-809,"visible":true,"properties":[{"name":"layer","type":"int","value":3},{"name":"resource_index","type":"int","value":18},{"name":"oS","type":"string","value":"acc11"},{"name":"l0","type":"string","value":"erebTR"},{"name":"l1","type":"string","value":"box"},{"name":"l2","type":"string","value":"10"},{"name":"z","type":"int","value":9},{"name":"zM","type":"int","value":0},{"name":"f","type":"int","value":0}],"gid":46,"width":135,"height":76}],"properties":[]},{"id":40,"name":"layer_3_tile","type":"objectgroup","visible":true,"opacity":1,"draworder":"index","offsetx":0,"offsety":0,"parallaxx":1,"parallaxy":1,"objects":[{"id":86,"x":2340,"y":120,"visible":true,"properties":[{"name":"layer","type":"int","value":3},{"name":"resource_index","type":"int","value":0},{"name":"u","type":"string","value":"enH0"},{"name":"no","type":"int","value":0},{"name":"zM","type":"int","value":0}],"gid":23,"width":90,"height":36},{"id":87,"x":1620,"y":332,"visible":true,"properties":[{"name":"layer","type":"int","value":3},{"name":"resource_index","type":"int","value":1},{"name":"u","type":"string","value":"enH1"},{"name":"no","type":"int","value":1},{"name":"zM","type":"int","value":0}],"gid":24,"width":90,"height":32},{"id":88,"x":1620,"y":180,"visible":true,"properties":[{"name":"layer","type":"int","value":3},{"name":"resource_index","type":"int","value":2},{"name":"u","type":"string","value":"bsc"},{"name":"no","type":"int","value":0},{"name":"zM","type":"int","value":0}],"gid":25,"width":90,"height":60},{"id":89,"x":1710,"y":240,"visible":true,"properties":[{"name":"layer","type":"int","value":3},{"name":"resource_index","type":"int","value":3},{"name":"u","type":"string","value":"bsc"},{"name":"no","type":"int","value":1},{"name":"zM","type":"int","value":0}],"gid":26,"width":90,"height":60},{"id":90,"x":1980,"y":300,"visible":true,"properties":[{"name":"layer","type":"int","value":3},{"name":"resource_index","type":"int","value":4},{"name":"u","type":"string","value":"bsc"},{"name":"no","type":"int","value":4},{"name":"zM","type":"int","value":0}],"gid":27,"width":90,"height":60},{"id":91,"x":2250,"y":300,"visible":true,"properties":[{"name":"layer","type":"int","value":3},{"name":"resource_index","type":"int","value":5},{"name":"u","type":"string","value":"bsc"},{"name":"no","type":"int","value":2},{"name":"zM","type":"int","value":0}],"gid":28,"width":90,"height":60},{"id":92,"x":2160,"y":332,"visible":true,"properties":[{"name":"layer","type":"int","value":3},{"name":"resource_index","type":"int","value":6},{"name":"u","type":"string","value":"enH1"},{"name":"no","type":"int","value":1},{"name":"zM","type":"int","value":0}],"gid":24,"width":90,"height":32},{"id":93,"x":2430,"y":240,"visible":true,"properties":[{"name":"layer","type":"int","value":3},{"name":"resource_index","type":"int","value":7},{"name":"u","type":"string","value":"bsc"},{"name":"no","type":"int","value":3},{"name":"zM","type":"int","value":0}],"gid":29,"width":90,"height":60},{"id":94,"x":2250,"y":180,"visible":true,"properties":[{"name":"layer","type":"int","value":3},{"name":"resource_index","type":"int","value":8},{"name":"u","type":"string","value":"bsc"},{"name":"no","type":"int","value":4},{"name":"zM","type":"int","value":0}],"gid":27,"width":90,"height":60},{"id":95,"x":1530,"y":120,"visible":true,"properties":[{"name":"layer","type":"int","value":3},{"name":"resource_index","type":"int","value":9},{"name":"u","type":"string","value":"enH0"},{"name":"no","type":"int","value":0},{"name":"zM","type":"int","value":0}],"gid":23,"width":90,"height":36},{"id":96,"x":2340,"y":300,"visible":true,"properties":[{"name":"layer","type":"int","value":3},{"name":"resource_index","type":"int","value":10},{"name":"u","type":"string","value":"bsc"},{"name":"no","type":"int","value":1},{"name":"zM","type":"int","value":0}],"gid":26,"width":90,"height":60},{"id":97,"x":2340,"y":332,"visible":true,"properties":[{"name":"layer","type":"int","value":3},{"name":"resource_index","type":"int","value":11},{"name":"u","type":"string","value":"enH1"},{"name":"no","type":"int","value":1},{"name":"zM","type":"int","value":0}],"gid":24,"width":90,"height":32},{"id":98,"x":1890,"y":240,"visible":true,"properties":[{"name":"layer","type":"int","value":3},{"name":"resource_index","type":"int","value":12},{"name":"u","type":"string","value":"bsc"},{"name":"no","type":"int","value":5},{"name":"zM","type":"int","value":0}],"gid":30,"width":90,"height":60},{"id":99,"x":1530,"y":331,"visible":true,"properties":[{"name":"layer","type":"int","value":3},{"name":"resource_index","type":"int","value":13},{"name":"u","type":"string","value":"enH1"},{"name":"no","type":"int","value":0},{"name":"zM","type":"int","value":0}],"gid":31,"width":90,"height":31},{"id":100,"x":2070,"y":240,"visible":true,"properties":[{"name":"layer","type":"int","value":3},{"name":"resource_index","type":"int","value":14},{"name":"u","type":"string","value":"bsc"},{"name":"no","type":"int","value":3},{"name":"zM","type":"int","value":0}],"gid":29,"width":90,"height":60},{"id":101,"x":2160,"y":240,"visible":true,"properties":[{"name":"layer","type":"int","value":3},{"name":"resource_index","type":"int","value":15},{"name":"u","type":"string","value":"bsc"},{"name":"no","type":"int","value":5},{"name":"zM","type":"int","value":0}],"gid":30,"width":90,"height":60},{"id":102,"x":2340,"y":180,"visible":true,"properties":[{"name":"layer","type":"int","value":3},{"name":"resource_index","type":"int","value":16},{"name":"u","type":"string","value":"bsc"},{"name":"no","type":"int","value":4},{"name":"zM","type":"int","value":0}],"gid":27,"width":90,"height":60},{"id":103,"x":1530,"y":180,"visible":true,"properties":[{"name":"layer","type":"int","value":3},{"name":"resource_index","type":"int","value":17},{"name":"u","type":"string","value":"bsc"},{"name":"no","type":"int","value":4},{"name":"zM","type":"int","value":0}],"gid":27,"width":90,"height":60},{"id":104,"x":1530,"y":240,"visible":true,"properties":[{"name":"layer","type":"int","value":3},{"name":"resource_index","type":"int","value":18},{"name":"u","type":"string","value":"bsc"},{"name":"no","type":"int","value":1},{"name":"zM","type":"int","value":0}],"gid":26,"width":90,"height":60},{"id":105,"x":2430,"y":331,"visible":true,"properties":[{"name":"layer","type":"int","value":3},{"name":"resource_index","type":"int","value":19},{"name":"u","type":"string","value":"enH1"},{"name":"no","type":"int","value":0},{"name":"zM","type":"int","value":0}],"gid":31,"width":90,"height":31},{"id":106,"x":2430,"y":120,"visible":true,"properties":[{"name":"layer","type":"int","value":3},{"name":"resource_index","type":"int","value":20},{"name":"u","type":"string","value":"enH0"},{"name":"no","type":"int","value":0},{"name":"zM","type":"int","value":0}],"gid":23,"width":90,"height":36},{"id":107,"x":2160,"y":120,"visible":true,"properties":[{"name":"layer","type":"int","value":3},{"name":"resource_index","type":"int","value":21},{"name":"u","type":"string","value":"enH0"},{"name":"no","type":"int","value":2},{"name":"zM","type":"int","value":0}],"gid":32,"width":90,"height":37},{"id":108,"x":2340,"y":240,"visible":true,"properties":[{"name":"layer","type":"int","value":3},{"name":"resource_index","type":"int","value":22},{"name":"u","type":"string","value":"bsc"},{"name":"no","type":"int","value":1},{"name":"zM","type":"int","value":0}],"gid":26,"width":90,"height":60},{"id":109,"x":2250,"y":120,"visible":true,"properties":[{"name":"layer","type":"int","value":3},{"name":"resource_index","type":"int","value":23},{"name":"u","type":"string","value":"enH0"},{"name":"no","type":"int","value":2},{"name":"zM","type":"int","value":0}],"gid":32,"width":90,"height":37},{"id":110,"x":2070,"y":180,"visible":true,"properties":[{"name":"layer","type":"int","value":3},{"name":"resource_index","type":"int","value":24},{"name":"u","type":"string","value":"bsc"},{"name":"no","type":"int","value":2},{"name":"zM","type":"int","value":0}],"gid":28,"width":90,"height":60},{"id":111,"x":1710,"y":331,"visible":true,"properties":[{"name":"layer","type":"int","value":3},{"name":"resource_index","type":"int","value":25},{"name":"u","type":"string","value":"enH1"},{"name":"no","type":"int","value":0},{"name":"zM","type":"int","value":0}],"gid":31,"width":90,"height":31},{"id":112,"x":1800,"y":332,"visible":true,"properties":[{"name":"layer","type":"int","value":3},{"name":"resource_index","type":"int","value":26},{"name":"u","type":"string","value":"enH1"},{"name":"no","type":"int","value":1},{"name":"zM","type":"int","value":0}],"gid":24,"width":90,"height":32},{"id":113,"x":1530,"y":300,"visible":true,"properties":[{"name":"layer","type":"int","value":3},{"name":"resource_index","type":"int","value":27},{"name":"u","type":"string","value":"bsc"},{"name":"no","type":"int","value":2},{"name":"zM","type":"int","value":0}],"gid":28,"width":90,"height":60},{"id":114,"x":2430,"y":180,"visible":true,"properties":[{"name":"layer","type":"int","value":3},{"name":"resource_index","type":"int","value":28},{"name":"u","type":"string","value":"bsc"},{"name":"no","type":"int","value":0},{"name":"zM","type":"int","value":0}],"gid":25,"width":90,"height":60},{"id":115,"x":1620,"y":240,"visible":true,"properties":[{"name":"layer","type":"int","value":3},{"name":"resource_index","type":"int","value":29},{"name":"u","type":"string","value":"bsc"},{"name":"no","type":"int","value":5},{"name":"zM","type":"int","value":0}],"gid":30,"width":90,"height":60},{"id":116,"x":2070,"y":120,"visible":true,"properties":[{"name":"layer","type":"int","value":3},{"name":"resource_index","type":"int","value":30},{"name":"u","type":"string","value":"enH0"},{"name":"no","type":"int","value":2},{"name":"zM","type":"int","value":0}],"gid":32,"width":90,"height":37},{"id":117,"x":2250,"y":240,"visible":true,"properties":[{"name":"layer","type":"int","value":3},{"name":"resource_index","type":"int","value":31},{"name":"u","type":"string","value":"bsc"},{"name":"no","type":"int","value":2},{"name":"zM","type":"int","value":0}],"gid":28,"width":90,"height":60},{"id":118,"x":1890,"y":180,"visible":true,"properties":[{"name":"layer","type":"int","value":3},{"name":"resource_index","type":"int","value":32},{"name":"u","type":"string","value":"bsc"},{"name":"no","type":"int","value":5},{"name":"zM","type":"int","value":0}],"gid":30,"width":90,"height":60},{"id":119,"x":2250,"y":332,"visible":true,"properties":[{"name":"layer","type":"int","value":3},{"name":"resource_index","type":"int","value":33},{"name":"u","type":"string","value":"enH1"},{"name":"no","type":"int","value":2},{"name":"zM","type":"int","value":0}],"gid":33,"width":90,"height":32},{"id":120,"x":2070,"y":331,"visible":true,"properties":[{"name":"layer","type":"int","value":3},{"name":"resource_index","type":"int","value":34},{"name":"u","type":"string","value":"enH1"},{"name":"no","type":"int","value":0},{"name":"zM","type":"int","value":0}],"gid":31,"width":90,"height":31},{"id":121,"x":1980,"y":120,"visible":true,"properties":[{"name":"layer","type":"int","value":3},{"name":"resource_index","type":"int","value":35},{"name":"u","type":"string","value":"enH0"},{"name":"no","type":"int","value":2},{"name":"zM","type":"int","value":0}],"gid":32,"width":90,"height":37},{"id":122,"x":2430,"y":300,"visible":true,"properties":[{"name":"layer","type":"int","value":3},{"name":"resource_index","type":"int","value":36},{"name":"u","type":"string","value":"bsc"},{"name":"no","type":"int","value":0},{"name":"zM","type":"int","value":0}],"gid":25,"width":90,"height":60},{"id":123,"x":1800,"y":240,"visible":true,"properties":[{"name":"layer","type":"int","value":3},{"name":"resource_index","type":"int","value":37},{"name":"u","type":"string","value":"bsc"},{"name":"no","type":"int","value":5},{"name":"zM","type":"int","value":0}],"gid":30,"width":90,"height":60},{"id":124,"x":1980,"y":240,"visible":true,"properties":[{"name":"layer","type":"int","value":3},{"name":"resource_index","type":"int","value":38},{"name":"u","type":"string","value":"bsc"},{"name":"no","type":"int","value":5},{"name":"zM","type":"int","value":0}],"gid":30,"width":90,"height":60},{"id":125,"x":1800,"y":300,"visible":true,"properties":[{"name":"layer","type":"int","value":3},{"name":"resource_index","type":"int","value":39},{"name":"u","type":"string","value":"bsc"},{"name":"no","type":"int","value":2},{"name":"zM","type":"int","value":0}],"gid":28,"width":90,"height":60},{"id":126,"x":1890,"y":120,"visible":true,"properties":[{"name":"layer","type":"int","value":3},{"name":"resource_index","type":"int","value":40},{"name":"u","type":"string","value":"enH0"},{"name":"no","type":"int","value":0},{"name":"zM","type":"int","value":0}],"gid":23,"width":90,"height":36},{"id":127,"x":1980,"y":332,"visible":true,"properties":[{"name":"layer","type":"int","value":3},{"name":"resource_index","type":"int","value":41},{"name":"u","type":"string","value":"enH1"},{"name":"no","type":"int","value":2},{"name":"zM","type":"int","value":0}],"gid":33,"width":90,"height":32},{"id":128,"x":1890,"y":300,"visible":true,"properties":[{"name":"layer","type":"int","value":3},{"name":"resource_index","type":"int","value":42},{"name":"u","type":"string","value":"bsc"},{"name":"no","type":"int","value":3},{"name":"zM","type":"int","value":0}],"gid":29,"width":90,"height":60},{"id":129,"x":1890,"y":332,"visible":true,"properties":[{"name":"layer","type":"int","value":3},{"name":"resource_index","type":"int","value":43},{"name":"u","type":"string","value":"enH1"},{"name":"no","type":"int","value":2},{"name":"zM","type":"int","value":0}],"gid":33,"width":90,"height":32},{"id":130,"x":1620,"y":300,"visible":true,"properties":[{"name":"layer","type":"int","value":3},{"name":"resource_index","type":"int","value":44},{"name":"u","type":"string","value":"bsc"},{"name":"no","type":"int","value":5},{"name":"zM","type":"int","value":0}],"gid":30,"width":90,"height":60},{"id":131,"x":1710,"y":120,"visible":true,"properties":[{"name":"layer","type":"int","value":3},{"name":"resource_index","type":"int","value":45},{"name":"u","type":"string","value":"enH0"},{"name":"no","type":"int","value":2},{"name":"zM","type":"int","value":0}],"gid":32,"width":90,"height":37},{"id":132,"x":1620,"y":120,"visible":true,"properties":[{"name":"layer","type":"int","value":3},{"name":"resource_index","type":"int","value":46},{"name":"u","type":"string","value":"enH0"},{"name":"no","type":"int","value":2},{"name":"zM","type":"int","value":0}],"gid":32,"width":90,"height":37},{"id":133,"x":1710,"y":300,"visible":true,"properties":[{"name":"layer","type":"int","value":3},{"name":"resource_index","type":"int","value":47},{"name":"u","type":"string","value":"bsc"},{"name":"no","type":"int","value":4},{"name":"zM","type":"int","value":0}],"gid":27,"width":90,"height":60},{"id":134,"x":1800,"y":120,"visible":true,"properties":[{"name":"layer","type":"int","value":3},{"name":"resource_index","type":"int","value":48},{"name":"u","type":"string","value":"enH0"},{"name":"no","type":"int","value":2},{"name":"zM","type":"int","value":0}],"gid":32,"width":90,"height":37},{"id":135,"x":1980,"y":180,"visible":true,"properties":[{"name":"layer","type":"int","value":3},{"name":"resource_index","type":"int","value":49},{"name":"u","type":"string","value":"bsc"},{"name":"no","type":"int","value":4},{"name":"zM","type":"int","value":0}],"gid":27,"width":90,"height":60},{"id":136,"x":1710,"y":180,"visible":true,"properties":[{"name":"layer","type":"int","value":3},{"name":"resource_index","type":"int","value":50},{"name":"u","type":"string","value":"bsc"},{"name":"no","type":"int","value":4},{"name":"zM","type":"int","value":0}],"gid":27,"width":90,"height":60},{"id":137,"x":2160,"y":300,"visible":true,"properties":[{"name":"layer","type":"int","value":3},{"name":"resource_index","type":"int","value":51},{"name":"u","type":"string","value":"bsc"},{"name":"no","type":"int","value":3},{"name":"zM","type":"int","value":0}],"gid":29,"width":90,"height":60},{"id":138,"x":1800,"y":180,"visible":true,"properties":[{"name":"layer","type":"int","value":3},{"name":"resource_index","type":"int","value":52},{"name":"u","type":"string","value":"bsc"},{"name":"no","type":"int","value":5},{"name":"zM","type":"int","value":0}],"gid":30,"width":90,"height":60},{"id":139,"x":2160,"y":180,"visible":true,"properties":[{"name":"layer","type":"int","value":3},{"name":"resource_index","type":"int","value":53},{"name":"u","type":"string","value":"bsc"},{"name":"no","type":"int","value":1},{"name":"zM","type":"int","value":0}],"gid":26,"width":90,"height":60},{"id":140,"x":2070,"y":300,"visible":true,"properties":[{"name":"layer","type":"int","value":3},{"name":"resource_index","type":"int","value":54},{"name":"u","type":"string","value":"bsc"},{"name":"no","type":"int","value":1},{"name":"zM","type":"int","value":0}],"gid":26,"width":90,"height":60},{"id":141,"x":2520,"y":180,"visible":true,"properties":[{"name":"layer","type":"int","value":3},{"name":"resource_index","type":"int","value":55},{"name":"u","type":"string","value":"bsc"},{"name":"no","type":"int","value":4},{"name":"zM","type":"int","value":0}],"gid":27,"width":90,"height":60},{"id":142,"x":2610,"y":180,"visible":true,"properties":[{"name":"layer","type":"int","value":3},{"name":"resource_index","type":"int","value":56},{"name":"u","type":"string","value":"bsc"},{"name":"no","type":"int","value":2},{"name":"zM","type":"int","value":0}],"gid":28,"width":90,"height":60},{"id":143,"x":2520,"y":120,"visible":true,"properties":[{"name":"layer","type":"int","value":3},{"name":"resource_index","type":"int","value":57},{"name":"u","type":"string","value":"enH0"},{"name":"no","type":"int","value":1},{"name":"zM","type":"int","value":0}],"gid":34,"width":90,"height":37},{"id":144,"x":2610,"y":120,"visible":true,"properties":[{"name":"layer","type":"int","value":3},{"name":"resource_index","type":"int","value":58},{"name":"u","type":"string","value":"enH0"},{"name":"no","type":"int","value":1},{"name":"zM","type":"int","value":0}],"gid":34,"width":90,"height":37},{"id":145,"x":2520,"y":240,"visible":true,"properties":[{"name":"layer","type":"int","value":3},{"name":"resource_index","type":"int","value":59},{"name":"u","type":"string","value":"bsc"},{"name":"no","type":"int","value":4},{"name":"zM","type":"int","value":0}],"gid":27,"width":90,"height":60},{"id":146,"x":2610,"y":240,"visible":true,"properties":[{"name":"layer","type":"int","value":3},{"name":"resource_index","type":"int","value":60},{"name":"u","type":"string","value":"bsc"},{"name":"no","type":"int","value":5},{"name":"zM","type":"int","value":0}],"gid":30,"width":90,"height":60},{"id":147,"x":2520,"y":300,"visible":true,"properties":[{"name":"layer","type":"int","value":3},{"name":"resource_index","type":"int","value":61},{"name":"u","type":"string","value":"bsc"},{"name":"no","type":"int","value":0},{"name":"zM","type":"int","value":0}],"gid":25,"width":90,"height":60},{"id":148,"x":2520,"y":331,"visible":true,"properties":[{"name":"layer","type":"int","value":3},{"name":"resource_index","type":"int","value":62},{"name":"u","type":"string","value":"enH1"},{"name":"no","type":"int","value":0},{"name":"zM","type":"int","value":0}],"gid":31,"width":90,"height":31},{"id":149,"x":2610,"y":332,"visible":true,"properties":[{"name":"layer","type":"int","value":3},{"name":"resource_index","type":"int","value":63},{"name":"u","type":"string","value":"enH1"},{"name":"no","type":"int","value":1},{"name":"zM","type":"int","value":0}],"gid":24,"width":90,"height":32},{"id":150,"x":2610,"y":300,"visible":true,"properties":[{"name":"layer","type":"int","value":3},{"name":"resource_index","type":"int","value":64},{"name":"u","type":"string","value":"bsc"},{"name":"no","type":"int","value":0},{"name":"zM","type":"int","value":0}],"gid":25,"width":90,"height":60},{"id":151,"x":1440,"y":180,"visible":true,"properties":[{"name":"layer","type":"int","value":3},{"name":"resource_index","type":"int","value":65},{"name":"u","type":"string","value":"bsc"},{"name":"no","type":"int","value":2},{"name":"zM","type":"int","value":0}],"gid":28,"width":90,"height":60},{"id":152,"x":1440,"y":120,"visible":true,"properties":[{"name":"layer","type":"int","value":3},{"name":"resource_index","type":"int","value":66},{"name":"u","type":"string","value":"enH0"},{"name":"no","type":"int","value":0},{"name":"zM","type":"int","value":0}],"gid":23,"width":90,"height":36},{"id":153,"x":1440,"y":240,"visible":true,"properties":[{"name":"layer","type":"int","value":3},{"name":"resource_index","type":"int","value":67},{"name":"u","type":"string","value":"bsc"},{"name":"no","type":"int","value":4},{"name":"zM","type":"int","value":0}],"gid":27,"width":90,"height":60},{"id":154,"x":1350,"y":300,"visible":true,"properties":[{"name":"layer","type":"int","value":3},{"name":"resource_index","type":"int","value":68},{"name":"u","type":"string","value":"bsc"},{"name":"no","type":"int","value":3},{"name":"zM","type":"int","value":0}],"gid":29,"width":90,"height":60},{"id":155,"x":1350,"y":240,"visible":true,"properties":[{"name":"layer","type":"int","value":3},{"name":"resource_index","type":"int","value":69},{"name":"u","type":"string","value":"bsc"},{"name":"no","type":"int","value":5},{"name":"zM","type":"int","value":0}],"gid":30,"width":90,"height":60},{"id":156,"x":1440,"y":300,"visible":true,"properties":[{"name":"layer","type":"int","value":3},{"name":"resource_index","type":"int","value":70},{"name":"u","type":"string","value":"bsc"},{"name":"no","type":"int","value":0},{"name":"zM","type":"int","value":0}],"gid":25,"width":90,"height":60},{"id":157,"x":1350,"y":120,"visible":true,"properties":[{"name":"layer","type":"int","value":3},{"name":"resource_index","type":"int","value":71},{"name":"u","type":"string","value":"enH0"},{"name":"no","type":"int","value":2},{"name":"zM","type":"int","value":0}],"gid":32,"width":90,"height":37},{"id":158,"x":1350,"y":180,"visible":true,"properties":[{"name":"layer","type":"int","value":3},{"name":"resource_index","type":"int","value":72},{"name":"u","type":"string","value":"bsc"},{"name":"no","type":"int","value":4},{"name":"zM","type":"int","value":0}],"gid":27,"width":90,"height":60},{"id":159,"x":1350,"y":331,"visible":true,"properties":[{"name":"layer","type":"int","value":3},{"name":"resource_index","type":"int","value":73},{"name":"u","type":"string","value":"enH1"},{"name":"no","type":"int","value":0},{"name":"zM","type":"int","value":0}],"gid":31,"width":90,"height":31},{"id":160,"x":1440,"y":331,"visible":true,"properties":[{"name":"layer","type":"int","value":3},{"name":"resource_index","type":"int","value":74},{"name":"u","type":"string","value":"enH1"},{"name":"no","type":"int","value":0},{"name":"zM","type":"int","value":0}],"gid":31,"width":90,"height":31},{"id":161,"x":1980,"y":-1348,"visible":true,"properties":[{"name":"layer","type":"int","value":3},{"name":"resource_index","type":"int","value":75},{"name":"u","type":"string","value":"enH1"},{"name":"no","type":"int","value":2},{"name":"zM","type":"int","value":26}],"gid":33,"width":90,"height":32},{"id":162,"x":1980,"y":-1380,"visible":true,"properties":[{"name":"layer","type":"int","value":3},{"name":"resource_index","type":"int","value":76},{"name":"u","type":"string","value":"enH0"},{"name":"no","type":"int","value":1},{"name":"zM","type":"int","value":26}],"gid":34,"width":90,"height":37},{"id":163,"x":1768,"y":-1380,"visible":true,"properties":[{"name":"layer","type":"int","value":3},{"name":"resource_index","type":"int","value":77},{"name":"u","type":"string","value":"edU"},{"name":"no","type":"int","value":0},{"name":"zM","type":"int","value":26}],"gid":35,"width":65,"height":37},{"id":164,"x":1778,"y":-1358,"visible":true,"properties":[{"name":"layer","type":"int","value":3},{"name":"resource_index","type":"int","value":78},{"name":"u","type":"string","value":"edD"},{"name":"no","type":"int","value":0},{"name":"zM","type":"int","value":26}],"gid":36,"width":44,"height":22},{"id":165,"x":1890,"y":-1380,"visible":true,"properties":[{"name":"layer","type":"int","value":3},{"name":"resource_index","type":"int","value":79},{"name":"u","type":"string","value":"enH0"},{"name":"no","type":"int","value":2},{"name":"zM","type":"int","value":26}],"gid":32,"width":90,"height":37},{"id":166,"x":1890,"y":-1348,"visible":true,"properties":[{"name":"layer","type":"int","value":3},{"name":"resource_index","type":"int","value":80},{"name":"u","type":"string","value":"enH1"},{"name":"no","type":"int","value":1},{"name":"zM","type":"int","value":26}],"gid":24,"width":90,"height":32},{"id":167,"x":2070,"y":-1349,"visible":true,"properties":[{"name":"layer","type":"int","value":3},{"name":"resource_index","type":"int","value":81},{"name":"u","type":"string","value":"enH1"},{"name":"no","type":"int","value":0},{"name":"zM","type":"int","value":26}],"gid":31,"width":90,"height":31},{"id":168,"x":2070,"y":-1380,"visible":true,"properties":[{"name":"layer","type":"int","value":3},{"name":"resource_index","type":"int","value":82},{"name":"u","type":"string","value":"enH0"},{"name":"no","type":"int","value":0},{"name":"zM","type":"int","value":26}],"gid":23,"width":90,"height":36},{"id":169,"x":1800,"y":-1349,"visible":true,"properties":[{"name":"layer","type":"int","value":3},{"name":"resource_index","type":"int","value":83},{"name":"u","type":"string","value":"enH1"},{"name":"no","type":"int","value":0},{"name":"zM","type":"int","value":26}],"gid":31,"width":90,"height":31},{"id":170,"x":1800,"y":-1380,"visible":true,"properties":[{"name":"layer","type":"int","value":3},{"name":"resource_index","type":"int","value":84},{"name":"u","type":"string","value":"enH0"},{"name":"no","type":"int","value":2},{"name":"zM","type":"int","value":26}],"gid":32,"width":90,"height":37},{"id":171,"x":2250,"y":-1348,"visible":true,"properties":[{"name":"layer","type":"int","value":3},{"name":"resource_index","type":"int","value":85},{"name":"u","type":"string","value":"enH1"},{"name":"no","type":"int","value":1},{"name":"zM","type":"int","value":26}],"gid":24,"width":90,"height":32},{"id":172,"x":2250,"y":-1380,"visible":true,"properties":[{"name":"layer","type":"int","value":3},{"name":"resource_index","type":"int","value":86},{"name":"u","type":"string","value":"enH0"},{"name":"no","type":"int","value":1},{"name":"zM","type":"int","value":26}],"gid":34,"width":90,"height":37},{"id":173,"x":2160,"y":-1048,"visible":true,"properties":[{"name":"layer","type":"int","value":3},{"name":"resource_index","type":"int","value":87},{"name":"u","type":"string","value":"enH1"},{"name":"no","type":"int","value":2},{"name":"zM","type":"int","value":21}],"gid":33,"width":90,"height":32},{"id":174,"x":2160,"y":-1080,"visible":true,"properties":[{"name":"layer","type":"int","value":3},{"name":"resource_index","type":"int","value":88},{"name":"u","type":"string","value":"enH0"},{"name":"no","type":"int","value":2},{"name":"zM","type":"int","value":21}],"gid":32,"width":90,"height":37},{"id":175,"x":2160,"y":-1380,"visible":true,"properties":[{"name":"layer","type":"int","value":3},{"name":"resource_index","type":"int","value":89},{"name":"u","type":"string","value":"enH0"},{"name":"no","type":"int","value":1},{"name":"zM","type":"int","value":26}],"gid":34,"width":90,"height":37},{"id":176,"x":2160,"y":-1349,"visible":true,"properties":[{"name":"layer","type":"int","value":3},{"name":"resource_index","type":"int","value":90},{"name":"u","type":"string","value":"enH1"},{"name":"no","type":"int","value":0},{"name":"zM","type":"int","value":26}],"gid":31,"width":90,"height":31},{"id":177,"x":2500,"y":-458,"visible":true,"properties":[{"name":"layer","type":"int","value":3},{"name":"resource_index","type":"int","value":91},{"name":"u","type":"string","value":"edD"},{"name":"no","type":"int","value":1},{"name":"zM","type":"int","value":11}],"gid":37,"width":41,"height":22},{"id":178,"x":2490,"y":-480,"visible":true,"properties":[{"name":"layer","type":"int","value":3},{"name":"resource_index","type":"int","value":92},{"name":"u","type":"string","value":"edU"},{"name":"no","type":"int","value":1},{"name":"zM","type":"int","value":11}],"gid":38,"width":61,"height":36},{"id":179,"x":1678,"y":-480,"visible":true,"properties":[{"name":"layer","type":"int","value":3},{"name":"resource_index","type":"int","value":93},{"name":"u","type":"string","value":"edU"},{"name":"no","type":"int","value":0},{"name":"zM","type":"int","value":11}],"gid":35,"width":65,"height":37},{"id":180,"x":1690,"y":-458,"visible":true,"properties":[{"name":"layer","type":"int","value":3},{"name":"resource_index","type":"int","value":94},{"name":"u","type":"string","value":"edD"},{"name":"no","type":"int","value":1},{"name":"zM","type":"int","value":11}],"gid":37,"width":41,"height":22},{"id":181,"x":2340,"y":-1380,"visible":true,"properties":[{"name":"layer","type":"int","value":3},{"name":"resource_index","type":"int","value":95},{"name":"u","type":"string","value":"enH0"},{"name":"no","type":"int","value":1},{"name":"zM","type":"int","value":26}],"gid":34,"width":90,"height":37},{"id":182,"x":2340,"y":-1348,"visible":true,"properties":[{"name":"layer","type":"int","value":3},{"name":"resource_index","type":"int","value":96},{"name":"u","type":"string","value":"enH1"},{"name":"no","type":"int","value":1},{"name":"zM","type":"int","value":26}],"gid":24,"width":90,"height":32},{"id":183,"x":1980,"y":-748,"visible":true,"properties":[{"name":"layer","type":"int","value":3},{"name":"resource_index","type":"int","value":97},{"name":"u","type":"string","value":"enH1"},{"name":"no","type":"int","value":1},{"name":"zM","type":"int","value":16}],"gid":24,"width":90,"height":32},{"id":184,"x":1980,"y":-780,"visible":true,"properties":[{"name":"layer","type":"int","value":3},{"name":"resource_index","type":"int","value":98},{"name":"u","type":"string","value":"enH0"},{"name":"no","type":"int","value":1},{"name":"zM","type":"int","value":16}],"gid":34,"width":90,"height":37},{"id":185,"x":2250,"y":-480,"visible":true,"properties":[{"name":"layer","type":"int","value":3},{"name":"resource_index","type":"int","value":99},{"name":"u","type":"string","value":"enH0"},{"name":"no","type":"int","value":0},{"name":"zM","type":"int","value":11}],"gid":23,"width":90,"height":36},{"id":186,"x":2250,"y":-449,"visible":true,"properties":[{"name":"layer","type":"int","value":3},{"name":"resource_index","type":"int","value":100},{"name":"u","type":"string","value":"enH1"},{"name":"no","type":"int","value":0},{"name":"zM","type":"int","value":11}],"gid":31,"width":90,"height":31},{"id":187,"x":1800,"y":-780,"visible":true,"properties":[{"name":"layer","type":"int","value":3},{"name":"resource_index","type":"int","value":101},{"name":"u","type":"string","value":"enH0"},{"name":"no","type":"int","value":2},{"name":"zM","type":"int","value":16}],"gid":32,"width":90,"height":37},{"id":188,"x":1800,"y":-748,"visible":true,"properties":[{"name":"layer","type":"int","value":3},{"name":"resource_index","type":"int","value":102},{"name":"u","type":"string","value":"enH1"},{"name":"no","type":"int","value":1},{"name":"zM","type":"int","value":16}],"gid":24,"width":90,"height":32},{"id":189,"x":1710,"y":-480,"visible":true,"properties":[{"name":"layer","type":"int","value":3},{"name":"resource_index","type":"int","value":103},{"name":"u","type":"string","value":"enH0"},{"name":"no","type":"int","value":2},{"name":"zM","type":"int","value":11}],"gid":32,"width":90,"height":37},{"id":190,"x":1710,"y":-448,"visible":true,"properties":[{"name":"layer","type":"int","value":3},{"name":"resource_index","type":"int","value":104},{"name":"u","type":"string","value":"enH1"},{"name":"no","type":"int","value":1},{"name":"zM","type":"int","value":11}],"gid":24,"width":90,"height":32},{"id":191,"x":2340,"y":-480,"visible":true,"properties":[{"name":"layer","type":"int","value":3},{"name":"resource_index","type":"int","value":105},{"name":"u","type":"string","value":"enH0"},{"name":"no","type":"int","value":1},{"name":"zM","type":"int","value":11}],"gid":34,"width":90,"height":37},{"id":192,"x":1768,"y":-780,"visible":true,"properties":[{"name":"layer","type":"int","value":3},{"name":"resource_index","type":"int","value":106},{"name":"u","type":"string","value":"edU"},{"name":"no","type":"int","value":0},{"name":"zM","type":"int","value":16}],"gid":35,"width":65,"height":37},{"id":193,"x":1780,"y":-758,"visible":true,"properties":[{"name":"layer","type":"int","value":3},{"name":"resource_index","type":"int","value":107},{"name":"u","type":"string","value":"edD"},{"name":"no","type":"int","value":1},{"name":"zM","type":"int","value":16}],"gid":37,"width":41,"height":22},{"id":194,"x":2340,"y":-448,"visible":true,"properties":[{"name":"layer","type":"int","value":3},{"name":"resource_index","type":"int","value":108},{"name":"u","type":"string","value":"enH1"},{"name":"no","type":"int","value":1},{"name":"zM","type":"int","value":11}],"gid":24,"width":90,"height":32},{"id":195,"x":2070,"y":-748,"visible":true,"properties":[{"name":"layer","type":"int","value":3},{"name":"resource_index","type":"int","value":109},{"name":"u","type":"string","value":"enH1"},{"name":"no","type":"int","value":2},{"name":"zM","type":"int","value":16}],"gid":33,"width":90,"height":32},{"id":196,"x":2070,"y":-780,"visible":true,"properties":[{"name":"layer","type":"int","value":3},{"name":"resource_index","type":"int","value":110},{"name":"u","type":"string","value":"enH0"},{"name":"no","type":"int","value":2},{"name":"zM","type":"int","value":16}],"gid":32,"width":90,"height":37},{"id":197,"x":2160,"y":-748,"visible":true,"properties":[{"name":"layer","type":"int","value":3},{"name":"resource_index","type":"int","value":111},{"name":"u","type":"string","value":"enH1"},{"name":"no","type":"int","value":2},{"name":"zM","type":"int","value":16}],"gid":33,"width":90,"height":32},{"id":198,"x":2160,"y":-780,"visible":true,"properties":[{"name":"layer","type":"int","value":3},{"name":"resource_index","type":"int","value":112},{"name":"u","type":"string","value":"enH0"},{"name":"no","type":"int","value":1},{"name":"zM","type":"int","value":16}],"gid":34,"width":90,"height":37},{"id":199,"x":1890,"y":-749,"visible":true,"properties":[{"name":"layer","type":"int","value":3},{"name":"resource_index","type":"int","value":113},{"name":"u","type":"string","value":"enH1"},{"name":"no","type":"int","value":0},{"name":"zM","type":"int","value":16}],"gid":31,"width":90,"height":31},{"id":200,"x":1890,"y":-780,"visible":true,"properties":[{"name":"layer","type":"int","value":3},{"name":"resource_index","type":"int","value":114},{"name":"u","type":"string","value":"enH0"},{"name":"no","type":"int","value":2},{"name":"zM","type":"int","value":16}],"gid":32,"width":90,"height":37},{"id":201,"x":2070,"y":-448,"visible":true,"properties":[{"name":"layer","type":"int","value":3},{"name":"resource_index","type":"int","value":115},{"name":"u","type":"string","value":"enH1"},{"name":"no","type":"int","value":2},{"name":"zM","type":"int","value":11}],"gid":33,"width":90,"height":32},{"id":202,"x":2070,"y":-480,"visible":true,"properties":[{"name":"layer","type":"int","value":3},{"name":"resource_index","type":"int","value":116},{"name":"u","type":"string","value":"enH0"},{"name":"no","type":"int","value":1},{"name":"zM","type":"int","value":11}],"gid":34,"width":90,"height":37},{"id":203,"x":1980,"y":-480,"visible":true,"properties":[{"name":"layer","type":"int","value":3},{"name":"resource_index","type":"int","value":117},{"name":"u","type":"string","value":"enH0"},{"name":"no","type":"int","value":0},{"name":"zM","type":"int","value":11}],"gid":23,"width":90,"height":36},{"id":204,"x":1980,"y":-448,"visible":true,"properties":[{"name":"layer","type":"int","value":3},{"name":"resource_index","type":"int","value":118},{"name":"u","type":"string","value":"enH1"},{"name":"no","type":"int","value":2},{"name":"zM","type":"int","value":11}],"gid":33,"width":90,"height":32},{"id":205,"x":2250,"y":-1080,"visible":true,"properties":[{"name":"layer","type":"int","value":3},{"name":"resource_index","type":"int","value":119},{"name":"u","type":"string","value":"enH0"},{"name":"no","type":"int","value":0},{"name":"zM","type":"int","value":21}],"gid":23,"width":90,"height":36},{"id":206,"x":2250,"y":-1048,"visible":true,"properties":[{"name":"layer","type":"int","value":3},{"name":"resource_index","type":"int","value":120},{"name":"u","type":"string","value":"enH1"},{"name":"no","type":"int","value":1},{"name":"zM","type":"int","value":21}],"gid":24,"width":90,"height":32},{"id":207,"x":2398,"y":-1080,"visible":true,"properties":[{"name":"layer","type":"int","value":3},{"name":"resource_index","type":"int","value":121},{"name":"u","type":"string","value":"edU"},{"name":"no","type":"int","value":0},{"name":"zM","type":"int","value":21}],"gid":35,"width":65,"height":37},{"id":208,"x":2408,"y":-1058,"visible":true,"properties":[{"name":"layer","type":"int","value":3},{"name":"resource_index","type":"int","value":122},{"name":"u","type":"string","value":"edD"},{"name":"no","type":"int","value":0},{"name":"zM","type":"int","value":21}],"gid":36,"width":44,"height":22},{"id":209,"x":1800,"y":-480,"visible":true,"properties":[{"name":"layer","type":"int","value":3},{"name":"resource_index","type":"int","value":123},{"name":"u","type":"string","value":"enH0"},{"name":"no","type":"int","value":0},{"name":"zM","type":"int","value":11}],"gid":23,"width":90,"height":36},{"id":210,"x":1800,"y":-449,"visible":true,"properties":[{"name":"layer","type":"int","value":3},{"name":"resource_index","type":"int","value":124},{"name":"u","type":"string","value":"enH1"},{"name":"no","type":"int","value":0},{"name":"zM","type":"int","value":11}],"gid":31,"width":90,"height":31},{"id":211,"x":1800,"y":-1049,"visible":true,"properties":[{"name":"layer","type":"int","value":3},{"name":"resource_index","type":"int","value":125},{"name":"u","type":"string","value":"enH1"},{"name":"no","type":"int","value":0},{"name":"zM","type":"int","value":21}],"gid":31,"width":90,"height":31},{"id":212,"x":1800,"y":-1080,"visible":true,"properties":[{"name":"layer","type":"int","value":3},{"name":"resource_index","type":"int","value":126},{"name":"u","type":"string","value":"enH0"},{"name":"no","type":"int","value":2},{"name":"zM","type":"int","value":21}],"gid":32,"width":90,"height":37},{"id":213,"x":2430,"y":-448,"visible":true,"properties":[{"name":"layer","type":"int","value":3},{"name":"resource_index","type":"int","value":127},{"name":"u","type":"string","value":"enH1"},{"name":"no","type":"int","value":2},{"name":"zM","type":"int","value":11}],"gid":33,"width":90,"height":32},{"id":214,"x":2430,"y":-480,"visible":true,"properties":[{"name":"layer","type":"int","value":3},{"name":"resource_index","type":"int","value":128},{"name":"u","type":"string","value":"enH0"},{"name":"no","type":"int","value":0},{"name":"zM","type":"int","value":11}],"gid":23,"width":90,"height":36},{"id":215,"x":1980,"y":-1080,"visible":true,"properties":[{"name":"layer","type":"int","value":3},{"name":"resource_index","type":"int","value":129},{"name":"u","type":"string","value":"enH0"},{"name":"no","type":"int","value":1},{"name":"zM","type":"int","value":21}],"gid":34,"width":90,"height":37},{"id":216,"x":1980,"y":-1049,"visible":true,"properties":[{"name":"layer","type":"int","value":3},{"name":"resource_index","type":"int","value":130},{"name":"u","type":"string","value":"enH1"},{"name":"no","type":"int","value":0},{"name":"zM","type":"int","value":21}],"gid":31,"width":90,"height":31},{"id":217,"x":1890,"y":-1080,"visible":true,"properties":[{"name":"layer","type":"int","value":3},{"name":"resource_index","type":"int","value":131},{"name":"u","type":"string","value":"enH0"},{"name":"no","type":"int","value":2},{"name":"zM","type":"int","value":21}],"gid":32,"width":90,"height":37},{"id":218,"x":1890,"y":-1048,"visible":true,"properties":[{"name":"layer","type":"int","value":3},{"name":"resource_index","type":"int","value":132},{"name":"u","type":"string","value":"enH1"},{"name":"no","type":"int","value":2},{"name":"zM","type":"int","value":21}],"gid":33,"width":90,"height":32},{"id":219,"x":1778,"y":-1058,"visible":true,"properties":[{"name":"layer","type":"int","value":3},{"name":"resource_index","type":"int","value":133},{"name":"u","type":"string","value":"edD"},{"name":"no","type":"int","value":0},{"name":"zM","type":"int","value":21}],"gid":36,"width":44,"height":22},{"id":220,"x":1770,"y":-1080,"visible":true,"properties":[{"name":"layer","type":"int","value":3},{"name":"resource_index","type":"int","value":134},{"name":"u","type":"string","value":"edU"},{"name":"no","type":"int","value":1},{"name":"zM","type":"int","value":21}],"gid":38,"width":61,"height":36},{"id":221,"x":2400,"y":-780,"visible":true,"properties":[{"name":"layer","type":"int","value":3},{"name":"resource_index","type":"int","value":135},{"name":"u","type":"string","value":"edU"},{"name":"no","type":"int","value":1},{"name":"zM","type":"int","value":16}],"gid":38,"width":61,"height":36},{"id":222,"x":2408,"y":-758,"visible":true,"properties":[{"name":"layer","type":"int","value":3},{"name":"resource_index","type":"int","value":136},{"name":"u","type":"string","value":"edD"},{"name":"no","type":"int","value":0},{"name":"zM","type":"int","value":16}],"gid":36,"width":44,"height":22},{"id":223,"x":2340,"y":-780,"visible":true,"properties":[{"name":"layer","type":"int","value":3},{"name":"resource_index","type":"int","value":137},{"name":"u","type":"string","value":"enH0"},{"name":"no","type":"int","value":1},{"name":"zM","type":"int","value":16}],"gid":34,"width":90,"height":37},{"id":224,"x":2340,"y":-748,"visible":true,"properties":[{"name":"layer","type":"int","value":3},{"name":"resource_index","type":"int","value":138},{"name":"u","type":"string","value":"enH1"},{"name":"no","type":"int","value":1},{"name":"zM","type":"int","value":16}],"gid":24,"width":90,"height":32},{"id":225,"x":2250,"y":-748,"visible":true,"properties":[{"name":"layer","type":"int","value":3},{"name":"resource_index","type":"int","value":139},{"name":"u","type":"string","value":"enH1"},{"name":"no","type":"int","value":1},{"name":"zM","type":"int","value":16}],"gid":24,"width":90,"height":32},{"id":226,"x":2250,"y":-780,"visible":true,"properties":[{"name":"layer","type":"int","value":3},{"name":"resource_index","type":"int","value":140},{"name":"u","type":"string","value":"enH0"},{"name":"no","type":"int","value":1},{"name":"zM","type":"int","value":16}],"gid":34,"width":90,"height":37},{"id":227,"x":2408,"y":-1358,"visible":true,"properties":[{"name":"layer","type":"int","value":3},{"name":"resource_index","type":"int","value":141},{"name":"u","type":"string","value":"edD"},{"name":"no","type":"int","value":0},{"name":"zM","type":"int","value":26}],"gid":36,"width":44,"height":22},{"id":228,"x":2400,"y":-1380,"visible":true,"properties":[{"name":"layer","type":"int","value":3},{"name":"resource_index","type":"int","value":142},{"name":"u","type":"string","value":"edU"},{"name":"no","type":"int","value":1},{"name":"zM","type":"int","value":26}],"gid":38,"width":61,"height":36},{"id":229,"x":2160,"y":-449,"visible":true,"properties":[{"name":"layer","type":"int","value":3},{"name":"resource_index","type":"int","value":143},{"name":"u","type":"string","value":"enH1"},{"name":"no","type":"int","value":0},{"name":"zM","type":"int","value":11}],"gid":31,"width":90,"height":31},{"id":230,"x":2160,"y":-480,"visible":true,"properties":[{"name":"layer","type":"int","value":3},{"name":"resource_index","type":"int","value":144},{"name":"u","type":"string","value":"enH0"},{"name":"no","type":"int","value":2},{"name":"zM","type":"int","value":11}],"gid":32,"width":90,"height":37},{"id":231,"x":1890,"y":-448,"visible":true,"properties":[{"name":"layer","type":"int","value":3},{"name":"resource_index","type":"int","value":145},{"name":"u","type":"string","value":"enH1"},{"name":"no","type":"int","value":2},{"name":"zM","type":"int","value":11}],"gid":33,"width":90,"height":32},{"id":232,"x":1890,"y":-480,"visible":true,"properties":[{"name":"layer","type":"int","value":3},{"name":"resource_index","type":"int","value":146},{"name":"u","type":"string","value":"enH0"},{"name":"no","type":"int","value":0},{"name":"zM","type":"int","value":11}],"gid":23,"width":90,"height":36},{"id":233,"x":2070,"y":-1048,"visible":true,"properties":[{"name":"layer","type":"int","value":3},{"name":"resource_index","type":"int","value":147},{"name":"u","type":"string","value":"enH1"},{"name":"no","type":"int","value":1},{"name":"zM","type":"int","value":21}],"gid":24,"width":90,"height":32},{"id":234,"x":2070,"y":-1080,"visible":true,"properties":[{"name":"layer","type":"int","value":3},{"name":"resource_index","type":"int","value":148},{"name":"u","type":"string","value":"enH0"},{"name":"no","type":"int","value":2},{"name":"zM","type":"int","value":21}],"gid":32,"width":90,"height":37},{"id":235,"x":2340,"y":-1049,"visible":true,"properties":[{"name":"layer","type":"int","value":3},{"name":"resource_index","type":"int","value":149},{"name":"u","type":"string","value":"enH1"},{"name":"no","type":"int","value":0},{"name":"zM","type":"int","value":21}],"gid":31,"width":90,"height":31},{"id":236,"x":2340,"y":-1080,"visible":true,"properties":[{"name":"layer","type":"int","value":3},{"name":"resource_index","type":"int","value":150},{"name":"u","type":"string","value":"enH0"},{"name":"no","type":"int","value":1},{"name":"zM","type":"int","value":21}],"gid":34,"width":90,"height":37},{"id":237,"x":1768,"y":-1680,"visible":true,"properties":[{"name":"layer","type":"int","value":3},{"name":"resource_index","type":"int","value":151},{"name":"u","type":"string","value":"edU"},{"name":"no","type":"int","value":0},{"name":"zM","type":"int","value":31}],"gid":35,"width":65,"height":37},{"id":238,"x":1778,"y":-1658,"visible":true,"properties":[{"name":"layer","type":"int","value":3},{"name":"resource_index","type":"int","value":152},{"name":"u","type":"string","value":"edD"},{"name":"no","type":"int","value":0},{"name":"zM","type":"int","value":31}],"gid":36,"width":44,"height":22},{"id":239,"x":1800,"y":-1648,"visible":true,"properties":[{"name":"layer","type":"int","value":3},{"name":"resource_index","type":"int","value":153},{"name":"u","type":"string","value":"enH1"},{"name":"no","type":"int","value":2},{"name":"zM","type":"int","value":31}],"gid":33,"width":90,"height":32},{"id":240,"x":1800,"y":-1680,"visible":true,"properties":[{"name":"layer","type":"int","value":3},{"name":"resource_index","type":"int","value":154},{"name":"u","type":"string","value":"enH0"},{"name":"no","type":"int","value":0},{"name":"zM","type":"int","value":31}],"gid":23,"width":90,"height":36},{"id":241,"x":1980,"y":-1648,"visible":true,"properties":[{"name":"layer","type":"int","value":3},{"name":"resource_index","type":"int","value":155},{"name":"u","type":"string","value":"enH1"},{"name":"no","type":"int","value":2},{"name":"zM","type":"int","value":31}],"gid":33,"width":90,"height":32},{"id":242,"x":1980,"y":-1680,"visible":true,"properties":[{"name":"layer","type":"int","value":3},{"name":"resource_index","type":"int","value":156},{"name":"u","type":"string","value":"enH0"},{"name":"no","type":"int","value":0},{"name":"zM","type":"int","value":31}],"gid":23,"width":90,"height":36},{"id":243,"x":1890,"y":-1680,"visible":true,"properties":[{"name":"layer","type":"int","value":3},{"name":"resource_index","type":"int","value":157},{"name":"u","type":"string","value":"enH0"},{"name":"no","type":"int","value":0},{"name":"zM","type":"int","value":31}],"gid":23,"width":90,"height":36},{"id":244,"x":1890,"y":-1648,"visible":true,"properties":[{"name":"layer","type":"int","value":3},{"name":"resource_index","type":"int","value":158},{"name":"u","type":"string","value":"enH1"},{"name":"no","type":"int","value":2},{"name":"zM","type":"int","value":31}],"gid":33,"width":90,"height":32},{"id":245,"x":2070,"y":-1680,"visible":true,"properties":[{"name":"layer","type":"int","value":3},{"name":"resource_index","type":"int","value":159},{"name":"u","type":"string","value":"enH0"},{"name":"no","type":"int","value":0},{"name":"zM","type":"int","value":31}],"gid":23,"width":90,"height":36},{"id":246,"x":2070,"y":-1648,"visible":true,"properties":[{"name":"layer","type":"int","value":3},{"name":"resource_index","type":"int","value":160},{"name":"u","type":"string","value":"enH1"},{"name":"no","type":"int","value":2},{"name":"zM","type":"int","value":31}],"gid":33,"width":90,"height":32},{"id":247,"x":2340,"y":-1649,"visible":true,"properties":[{"name":"layer","type":"int","value":3},{"name":"resource_index","type":"int","value":161},{"name":"u","type":"string","value":"enH1"},{"name":"no","type":"int","value":0},{"name":"zM","type":"int","value":31}],"gid":31,"width":90,"height":31},{"id":248,"x":2340,"y":-1680,"visible":true,"properties":[{"name":"layer","type":"int","value":3},{"name":"resource_index","type":"int","value":162},{"name":"u","type":"string","value":"enH0"},{"name":"no","type":"int","value":2},{"name":"zM","type":"int","value":31}],"gid":32,"width":90,"height":37},{"id":249,"x":2250,"y":-1649,"visible":true,"properties":[{"name":"layer","type":"int","value":3},{"name":"resource_index","type":"int","value":163},{"name":"u","type":"string","value":"enH1"},{"name":"no","type":"int","value":0},{"name":"zM","type":"int","value":31}],"gid":31,"width":90,"height":31},{"id":250,"x":2250,"y":-1680,"visible":true,"properties":[{"name":"layer","type":"int","value":3},{"name":"resource_index","type":"int","value":164},{"name":"u","type":"string","value":"enH0"},{"name":"no","type":"int","value":2},{"name":"zM","type":"int","value":31}],"gid":32,"width":90,"height":37},{"id":251,"x":2160,"y":-1680,"visible":true,"properties":[{"name":"layer","type":"int","value":3},{"name":"resource_index","type":"int","value":165},{"name":"u","type":"string","value":"enH0"},{"name":"no","type":"int","value":0},{"name":"zM","type":"int","value":31}],"gid":23,"width":90,"height":36},{"id":252,"x":2160,"y":-1648,"visible":true,"properties":[{"name":"layer","type":"int","value":3},{"name":"resource_index","type":"int","value":166},{"name":"u","type":"string","value":"enH1"},{"name":"no","type":"int","value":2},{"name":"zM","type":"int","value":31}],"gid":33,"width":90,"height":32},{"id":253,"x":2398,"y":-1680,"visible":true,"properties":[{"name":"layer","type":"int","value":3},{"name":"resource_index","type":"int","value":167},{"name":"u","type":"string","value":"edU"},{"name":"no","type":"int","value":0},{"name":"zM","type":"int","value":31}],"gid":35,"width":65,"height":37},{"id":254,"x":2408,"y":-1658,"visible":true,"properties":[{"name":"layer","type":"int","value":3},{"name":"resource_index","type":"int","value":168},{"name":"u","type":"string","value":"edD"},{"name":"no","type":"int","value":0},{"name":"zM","type":"int","value":31}],"gid":36,"width":44,"height":22}],"properties":[]},{"id":41,"name":"layer_6_obj","type":"objectgroup","visible":true,"opacity":1,"draworder":"index","offsetx":0,"offsety":0,"parallaxx":1,"parallaxy":1,"objects":[{"id":274,"x":2471,"y":-500,"visible":true,"properties":[{"name":"layer","type":"int","value":6},{"name":"resource_index","type":"int","value":0},{"name":"oS","type":"string","value":"connect"},{"name":"l0","type":"string","value":"rope"},{"name":"l1","type":"string","value":"27"},{"name":"l2","type":"string","value":"0"},{"name":"z","type":"int","value":9},{"name":"zM","type":"int","value":12},{"name":"f","type":"int","value":0}],"gid":39,"width":18,"height":25},{"id":275,"x":2477,"y":-332,"visible":true,"properties":[{"name":"layer","type":"int","value":6},{"name":"resource_index","type":"int","value":1},{"name":"oS","type":"string","value":"connect"},{"name":"l0","type":"string","value":"rope"},{"name":"l1","type":"string","value":"27"},{"name":"l2","type":"string","value":"3"},{"name":"z","type":"int","value":9},{"name":"zM","type":"int","value":10},{"name":"f","type":"int","value":0}],"gid":40,"width":5,"height":168},{"id":276,"x":2477,"y":-164,"visible":true,"properties":[{"name":"layer","type":"int","value":6},{"name":"resource_index","type":"int","value":2},{"name":"oS","type":"string","value":"connect"},{"name":"l0","type":"string","value":"rope"},{"name":"l1","type":"string","value":"27"},{"name":"l2","type":"string","value":"3"},{"name":"z","type":"int","value":9},{"name":"zM","type":"int","value":8},{"name":"f","type":"int","value":0}],"gid":40,"width":5,"height":168},{"id":277,"x":2477,"y":4,"visible":true,"properties":[{"name":"layer","type":"int","value":6},{"name":"resource_index","type":"int","value":3},{"name":"oS","type":"string","value":"connect"},{"name":"l0","type":"string","value":"rope"},{"name":"l1","type":"string","value":"27"},{"name":"l2","type":"string","value":"3"},{"name":"z","type":"int","value":9},{"name":"zM","type":"int","value":6},{"name":"f","type":"int","value":0}],"gid":40,"width":5,"height":168},{"id":278,"x":2474,"y":30,"visible":true,"properties":[{"name":"layer","type":"int","value":6},{"name":"resource_index","type":"int","value":4},{"name":"oS","type":"string","value":"connect"},{"name":"l0","type":"string","value":"rope"},{"name":"l1","type":"string","value":"27"},{"name":"l2","type":"string","value":"2"},{"name":"z","type":"int","value":9},{"name":"zM","type":"int","value":5},{"name":"f","type":"int","value":0}],"gid":41,"width":13,"height":26},{"id":279,"x":1827,"y":-798,"visible":true,"properties":[{"name":"layer","type":"int","value":6},{"name":"resource_index","type":"int","value":5},{"name":"oS","type":"string","value":"connect"},{"name":"l0","type":"string","value":"rope"},{"name":"l1","type":"string","value":"27"},{"name":"l2","type":"string","value":"0"},{"name":"z","type":"int","value":9},{"name":"zM","type":"int","value":17},{"name":"f","type":"int","value":0}],"gid":39,"width":18,"height":25},{"id":280,"x":1833,"y":-630,"visible":true,"properties":[{"name":"layer","type":"int","value":6},{"name":"resource_index","type":"int","value":6},{"name":"oS","type":"string","value":"connect"},{"name":"l0","type":"string","value":"rope"},{"name":"l1","type":"string","value":"27"},{"name":"l2","type":"string","value":"3"},{"name":"z","type":"int","value":9},{"name":"zM","type":"int","value":15},{"name":"f","type":"int","value":0}],"gid":40,"width":5,"height":168},{"id":281,"x":1833,"y":-588,"visible":true,"properties":[{"name":"layer","type":"int","value":6},{"name":"resource_index","type":"int","value":7},{"name":"oS","type":"string","value":"connect"},{"name":"l0","type":"string","value":"rope"},{"name":"l1","type":"string","value":"27"},{"name":"l2","type":"string","value":"1"},{"name":"z","type":"int","value":9},{"name":"zM","type":"int","value":14},{"name":"f","type":"int","value":0}],"gid":42,"width":5,"height":42},{"id":282,"x":1830,"y":-562,"visible":true,"properties":[{"name":"layer","type":"int","value":6},{"name":"resource_index","type":"int","value":8},{"name":"oS","type":"string","value":"connect"},{"name":"l0","type":"string","value":"rope"},{"name":"l1","type":"string","value":"27"},{"name":"l2","type":"string","value":"2"},{"name":"z","type":"int","value":9},{"name":"zM","type":"int","value":13},{"name":"f","type":"int","value":0}],"gid":41,"width":13,"height":26},{"id":283,"x":2379,"y":-1099,"visible":true,"properties":[{"name":"layer","type":"int","value":6},{"name":"resource_index","type":"int","value":9},{"name":"oS","type":"string","value":"connect"},{"name":"l0","type":"string","value":"rope"},{"name":"l1","type":"string","value":"27"},{"name":"l2","type":"string","value":"0"},{"name":"z","type":"int","value":9},{"name":"zM","type":"int","value":22},{"name":"f","type":"int","value":0}],"gid":39,"width":18,"height":25},{"id":284,"x":2385,"y":-931,"visible":true,"properties":[{"name":"layer","type":"int","value":6},{"name":"resource_index","type":"int","value":10},{"name":"oS","type":"string","value":"connect"},{"name":"l0","type":"string","value":"rope"},{"name":"l1","type":"string","value":"27"},{"name":"l2","type":"string","value":"3"},{"name":"z","type":"int","value":9},{"name":"zM","type":"int","value":20},{"name":"f","type":"int","value":0}],"gid":40,"width":5,"height":168},{"id":285,"x":2385,"y":-889,"visible":true,"properties":[{"name":"layer","type":"int","value":6},{"name":"resource_index","type":"int","value":11},{"name":"oS","type":"string","value":"connect"},{"name":"l0","type":"string","value":"rope"},{"name":"l1","type":"string","value":"27"},{"name":"l2","type":"string","value":"1"},{"name":"z","type":"int","value":9},{"name":"zM","type":"int","value":19},{"name":"f","type":"int","value":0}],"gid":42,"width":5,"height":42},{"id":286,"x":2382,"y":-863,"visible":true,"properties":[{"name":"layer","type":"int","value":6},{"name":"resource_index","type":"int","value":12},{"name":"oS","type":"string","value":"connect"},{"name":"l0","type":"string","value":"rope"},{"name":"l1","type":"string","value":"27"},{"name":"l2","type":"string","value":"2"},{"name":"z","type":"int","value":9},{"name":"zM","type":"int","value":18},{"name":"f","type":"int","value":0}],"gid":41,"width":13,"height":26},{"id":287,"x":1833,"y":-1397,"visible":true,"properties":[{"name":"layer","type":"int","value":6},{"name":"resource_index","type":"int","value":13},{"name":"oS","type":"string","value":"connect"},{"name":"l0","type":"string","value":"rope"},{"name":"l1","type":"string","value":"27"},{"name":"l2","type":"string","value":"0"},{"name":"z","type":"int","value":9},{"name":"zM","type":"int","value":27},{"name":"f","type":"int","value":0}],"gid":39,"width":18,"height":25},{"id":288,"x":1839,"y":-1229,"visible":true,"properties":[{"name":"layer","type":"int","value":6},{"name":"resource_index","type":"int","value":14},{"name":"oS","type":"string","value":"connect"},{"name":"l0","type":"string","value":"rope"},{"name":"l1","type":"string","value":"27"},{"name":"l2","type":"string","value":"3"},{"name":"z","type":"int","value":9},{"name":"zM","type":"int","value":25},{"name":"f","type":"int","value":0}],"gid":40,"width":5,"height":168},{"id":289,"x":1839,"y":-1187,"visible":true,"properties":[{"name":"layer","type":"int","value":6},{"name":"resource_index","type":"int","value":15},{"name":"oS","type":"string","value":"connect"},{"name":"l0","type":"string","value":"rope"},{"name":"l1","type":"string","value":"27"},{"name":"l2","type":"string","value":"1"},{"name":"z","type":"int","value":9},{"name":"zM","type":"int","value":24},{"name":"f","type":"int","value":0}],"gid":42,"width":5,"height":42},{"id":290,"x":1836,"y":-1161,"visible":true,"properties":[{"name":"layer","type":"int","value":6},{"name":"resource_index","type":"int","value":16},{"name":"oS","type":"string","value":"connect"},{"name":"l0","type":"string","value":"rope"},{"name":"l1","type":"string","value":"27"},{"name":"l2","type":"string","value":"2"},{"name":"z","type":"int","value":9},{"name":"zM","type":"int","value":23},{"name":"f","type":"int","value":0}],"gid":41,"width":13,"height":26},{"id":291,"x":2378,"y":-1696,"visible":true,"properties":[{"name":"layer","type":"int","value":6},{"name":"resource_index","type":"int","value":17},{"name":"oS","type":"string","value":"connect"},{"name":"l0","type":"string","value":"rope"},{"name":"l1","type":"string","value":"27"},{"name":"l2","type":"string","value":"0"},{"name":"z","type":"int","value":9},{"name":"zM","type":"int","value":32},{"name":"f","type":"int","value":0}],"gid":39,"width":18,"height":25},{"id":292,"x":2384,"y":-1528,"visible":true,"properties":[{"name":"layer","type":"int","value":6},{"name":"resource_index","type":"int","value":18},{"name":"oS","type":"string","value":"connect"},{"name":"l0","type":"string","value":"rope"},{"name":"l1","type":"string","value":"27"},{"name":"l2","type":"string","value":"3"},{"name":"z","type":"int","value":9},{"name":"zM","type":"int","value":30},{"name":"f","type":"int","value":0}],"gid":40,"width":5,"height":168},{"id":293,"x":2384,"y":-1486,"visible":true,"properties":[{"name":"layer","type":"int","value":6},{"name":"resource_index","type":"int","value":19},{"name":"oS","type":"string","value":"connect"},{"name":"l0","type":"string","value":"rope"},{"name":"l1","type":"string","value":"27"},{"name":"l2","type":"string","value":"1"},{"name":"z","type":"int","value":9},{"name":"zM","type":"int","value":29},{"name":"f","type":"int","value":0}],"gid":42,"width":5,"height":42},{"id":294,"x":2381,"y":-1460,"visible":true,"properties":[{"name":"layer","type":"int","value":6},{"name":"resource_index","type":"int","value":20},{"name":"oS","type":"string","value":"connect"},{"name":"l0","type":"string","value":"rope"},{"name":"l1","type":"string","value":"27"},{"name":"l2","type":"string","value":"2"},{"name":"z","type":"int","value":9},{"name":"zM","type":"int","value":28},{"name":"f","type":"int","value":0}],"gid":41,"width":13,"height":26}],"properties":[]},{"id":42,"name":"portal","type":"objectgroup","visible":true,"opacity":1,"draworder":"index","offsetx":0,"offsety":0,"parallaxx":1,"parallaxy":1,"objects":[{"id":295,"x":1593,"y":-26,"visible":true,"properties":[{"name":"x","type":"int","value":1593},{"name":"y","type":"int","value":-26},{"name":"pn","type":"string","value":"sp"},{"name":"pt","type":"int","value":0},{"name":"tm","type":"int","value":999999999},{"name":"tn","type":"string","value":""}],"point":true}],"properties":[]},{"id":43,"name":"life","type":"objectgroup","visible":true,"opacity":1,"draworder":"index","offsetx":0,"offsety":0,"parallaxx":1,"parallaxy":1,"objects":[{"id":296,"x":1899,"y":-524,"visible":true,"properties":[{"name":"f","type":"int","value":0},{"name":"x","type":"int","value":1899},{"name":"y","type":"int","value":-524},{"name":"cy","type":"int","value":-512},{"name":"fh","type":"int","value":58},{"name":"id","type":"int","value":9001011},{"name":"rx0","type":"int","value":1697},{"name":"rx1","type":"int","value":2533},{"name":"hide","type":"int","value":0},{"name":"type","type":"string","value":"m"},{"name":"mobTime","type":"int","value":0}],"point":true},{"id":297,"x":2061,"y":-528,"visible":true,"properties":[{"name":"f","type":"int","value":0},{"name":"x","type":"int","value":2061},{"name":"y","type":"int","value":-528},{"name":"cy","type":"int","value":-512},{"name":"fh","type":"int","value":54},{"name":"id","type":"int","value":9001011},{"name":"rx0","type":"int","value":1697},{"name":"rx1","type":"int","value":2533},{"name":"hide","type":"int","value":0},{"name":"type","type":"string","value":"m"},{"name":"mobTime","type":"int","value":0}],"point":true},{"id":298,"x":2216,"y":-521,"visible":true,"properties":[{"name":"f","type":"int","value":1},{"name":"x","type":"int","value":2216},{"name":"y","type":"int","value":-521},{"name":"cy","type":"int","value":-512},{"name":"fh","type":"int","value":57},{"name":"id","type":"int","value":9001011},{"name":"rx0","type":"int","value":1697},{"name":"rx1","type":"int","value":2533},{"name":"hide","type":"int","value":0},{"name":"type","type":"string","value":"m"},{"name":"mobTime","type":"int","value":0}],"point":true},{"id":299,"x":2368,"y":-520,"visible":true,"properties":[{"name":"f","type":"int","value":0},{"name":"x","type":"int","value":2368},{"name":"y","type":"int","value":-520},{"name":"cy","type":"int","value":-512},{"name":"fh","type":"int","value":52},{"name":"id","type":"int","value":9001011},{"name":"rx0","type":"int","value":1697},{"name":"rx1","type":"int","value":2533},{"name":"hide","type":"int","value":0},{"name":"type","type":"string","value":"m"},{"name":"mobTime","type":"int","value":0}],"point":true},{"id":300,"x":1942,"y":-827,"visible":true,"properties":[{"name":"f","type":"int","value":0},{"name":"x","type":"int","value":1942},{"name":"y","type":"int","value":-827},{"name":"cy","type":"int","value":-812},{"name":"fh","type":"int","value":66},{"name":"id","type":"int","value":9001011},{"name":"rx0","type":"int","value":1787},{"name":"rx1","type":"int","value":2443},{"name":"hide","type":"int","value":0},{"name":"type","type":"string","value":"m"},{"name":"mobTime","type":"int","value":0}],"point":true},{"id":301,"x":2085,"y":-827,"visible":true,"properties":[{"name":"f","type":"int","value":1},{"name":"x","type":"int","value":2085},{"name":"y","type":"int","value":-827},{"name":"cy","type":"int","value":-812},{"name":"fh","type":"int","value":64},{"name":"id","type":"int","value":9001011},{"name":"rx0","type":"int","value":1787},{"name":"rx1","type":"int","value":2443},{"name":"hide","type":"int","value":0},{"name":"type","type":"string","value":"m"},{"name":"mobTime","type":"int","value":0}],"point":true},{"id":302,"x":2186,"y":-822,"visible":true,"properties":[{"name":"f","type":"int","value":0},{"name":"x","type":"int","value":2186},{"name":"y","type":"int","value":-822},{"name":"cy","type":"int","value":-812},{"name":"fh","type":"int","value":65},{"name":"id","type":"int","value":9001011},{"name":"rx0","type":"int","value":1787},{"name":"rx1","type":"int","value":2443},{"name":"hide","type":"int","value":0},{"name":"type","type":"string","value":"m"},{"name":"mobTime","type":"int","value":0}],"point":true},{"id":303,"x":2317,"y":-825,"visible":true,"properties":[{"name":"f","type":"int","value":1},{"name":"x","type":"int","value":2317},{"name":"y","type":"int","value":-825},{"name":"cy","type":"int","value":-812},{"name":"fh","type":"int","value":70},{"name":"id","type":"int","value":9001011},{"name":"rx0","type":"int","value":1787},{"name":"rx1","type":"int","value":2443},{"name":"hide","type":"int","value":0},{"name":"type","type":"string","value":"m"},{"name":"mobTime","type":"int","value":0}],"point":true},{"id":304,"x":1918,"y":-1117,"visible":true,"properties":[{"name":"f","type":"int","value":1},{"name":"x","type":"int","value":1918},{"name":"y","type":"int","value":-1117},{"name":"cy","type":"int","value":-1112},{"name":"fh","type":"int","value":40},{"name":"id","type":"int","value":9001011},{"name":"rx0","type":"int","value":1787},{"name":"rx1","type":"int","value":2443},{"name":"hide","type":"int","value":0},{"name":"type","type":"string","value":"m"},{"name":"mobTime","type":"int","value":0}],"point":true},{"id":305,"x":2033,"y":-1116,"visible":true,"properties":[{"name":"f","type":"int","value":1},{"name":"x","type":"int","value":2033},{"name":"y","type":"int","value":-1116},{"name":"cy","type":"int","value":-1112},{"name":"fh","type":"int","value":39},{"name":"id","type":"int","value":9001011},{"name":"rx0","type":"int","value":1787},{"name":"rx1","type":"int","value":2443},{"name":"hide","type":"int","value":0},{"name":"type","type":"string","value":"m"},{"name":"mobTime","type":"int","value":0}],"point":true},{"id":306,"x":2191,"y":-1122,"visible":true,"properties":[{"name":"f","type":"int","value":1},{"name":"x","type":"int","value":2191},{"name":"y","type":"int","value":-1122},{"name":"cy","type":"int","value":-1112},{"name":"fh","type":"int","value":34},{"name":"id","type":"int","value":9001011},{"name":"rx0","type":"int","value":1787},{"name":"rx1","type":"int","value":2443},{"name":"hide","type":"int","value":0},{"name":"type","type":"string","value":"m"},{"name":"mobTime","type":"int","value":0}],"point":true},{"id":307,"x":2314,"y":-1134,"visible":true,"properties":[{"name":"f","type":"int","value":0},{"name":"x","type":"int","value":2314},{"name":"y","type":"int","value":-1134},{"name":"cy","type":"int","value":-1112},{"name":"fh","type":"int","value":35},{"name":"id","type":"int","value":9001011},{"name":"rx0","type":"int","value":1787},{"name":"rx1","type":"int","value":2443},{"name":"hide","type":"int","value":0},{"name":"type","type":"string","value":"m"},{"name":"mobTime","type":"int","value":0}],"point":true},{"id":308,"x":1959,"y":-1440,"visible":true,"properties":[{"name":"f","type":"int","value":0},{"name":"x","type":"int","value":1959},{"name":"y","type":"int","value":-1440},{"name":"cy","type":"int","value":-1412},{"name":"fh","type":"int","value":25},{"name":"id","type":"int","value":9001011},{"name":"rx0","type":"int","value":1787},{"name":"rx1","type":"int","value":2443},{"name":"hide","type":"int","value":0},{"name":"type","type":"string","value":"m"},{"name":"mobTime","type":"int","value":0}],"point":true},{"id":309,"x":2108,"y":-1433,"visible":true,"properties":[{"name":"f","type":"int","value":0},{"name":"x","type":"int","value":2108},{"name":"y","type":"int","value":-1433},{"name":"cy","type":"int","value":-1412},{"name":"fh","type":"int","value":26},{"name":"id","type":"int","value":9001011},{"name":"rx0","type":"int","value":1787},{"name":"rx1","type":"int","value":2443},{"name":"hide","type":"int","value":0},{"name":"type","type":"string","value":"m"},{"name":"mobTime","type":"int","value":0}],"point":true},{"id":310,"x":2224,"y":-1432,"visible":true,"properties":[{"name":"f","type":"int","value":0},{"name":"x","type":"int","value":2224},{"name":"y","type":"int","value":-1432},{"name":"cy","type":"int","value":-1412},{"name":"fh","type":"int","value":29},{"name":"id","type":"int","value":9001011},{"name":"rx0","type":"int","value":1787},{"name":"rx1","type":"int","value":2443},{"name":"hide","type":"int","value":0},{"name":"type","type":"string","value":"m"},{"name":"mobTime","type":"int","value":0}],"point":true},{"id":311,"x":2359,"y":-1432,"visible":true,"properties":[{"name":"f","type":"int","value":1},{"name":"x","type":"int","value":2359},{"name":"y","type":"int","value":-1432},{"name":"cy","type":"int","value":-1412},{"name":"fh","type":"int","value":30},{"name":"id","type":"int","value":9001011},{"name":"rx0","type":"int","value":1787},{"name":"rx1","type":"int","value":2443},{"name":"hide","type":"int","value":0},{"name":"type","type":"string","value":"m"},{"name":"mobTime","type":"int","value":0}],"point":true},{"id":312,"x":1868,"y":-1729,"visible":true,"properties":[{"name":"f","type":"int","value":0},{"name":"x","type":"int","value":1868},{"name":"y","type":"int","value":-1729},{"name":"cy","type":"int","value":-1712},{"name":"fh","type":"int","value":73},{"name":"id","type":"int","value":9001011},{"name":"rx0","type":"int","value":1787},{"name":"rx1","type":"int","value":2443},{"name":"hide","type":"int","value":0},{"name":"type","type":"string","value":"m"},{"name":"mobTime","type":"int","value":0}],"point":true},{"id":313,"x":2007,"y":-1730,"visible":true,"properties":[{"name":"f","type":"int","value":0},{"name":"x","type":"int","value":2007},{"name":"y","type":"int","value":-1730},{"name":"cy","type":"int","value":-1712},{"name":"fh","type":"int","value":74},{"name":"id","type":"int","value":9001011},{"name":"rx0","type":"int","value":1787},{"name":"rx1","type":"int","value":2443},{"name":"hide","type":"int","value":0},{"name":"type","type":"string","value":"m"},{"name":"mobTime","type":"int","value":0}],"point":true},{"id":314,"x":2151,"y":-1725,"visible":true,"properties":[{"name":"f","type":"int","value":1},{"name":"x","type":"int","value":2151},{"name":"y","type":"int","value":-1725},{"name":"cy","type":"int","value":-1712},{"name":"fh","type":"int","value":76},{"name":"id","type":"int","value":9001011},{"name":"rx0","type":"int","value":1787},{"name":"rx1","type":"int","value":2443},{"name":"hide","type":"int","value":0},{"name":"type","type":"string","value":"m"},{"name":"mobTime","type":"int","value":0}],"point":true},{"id":315,"x":2286,"y":-1723,"visible":true,"properties":[{"name":"f","type":"int","value":1},{"name":"x","type":"int","value":2286},{"name":"y","type":"int","value":-1723},{"name":"cy","type":"int","value":-1712},{"name":"fh","type":"int","value":78},{"name":"id","type":"int","value":9001011},{"name":"rx0","type":"int","value":1787},{"name":"rx1","type":"int","value":2443},{"name":"hide","type":"int","value":0},{"name":"type","type":"string","value":"m"},{"name":"mobTime","type":"int","value":0}],"point":true},{"id":316,"x":1695,"y":81,"visible":true,"properties":[{"name":"f","type":"int","value":0},{"name":"x","type":"int","value":1695},{"name":"y","type":"int","value":81},{"name":"cy","type":"int","value":88},{"name":"fh","type":"int","value":10},{"name":"id","type":"int","value":1102001},{"name":"rx0","type":"int","value":1645},{"name":"rx1","type":"int","value":1745},{"name":"hide","type":"int","value":0},{"name":"type","type":"string","value":"n"},{"name":"mobTime","type":"int","value":0},{"name":"npc_aseprite","type":"file","value":"../../Npc/1102001.img/animation.aseprite"}],"point":true}],"properties":[]},{"id":44,"name":"foothold","type":"objectgroup","visible":true,"opacity":1,"draworder":"index","offsetx":0,"offsety":0,"parallaxx":1,"parallaxy":1,"objects":[{"id":317,"x":2340,"y":88,"visible":true,"properties":[{"name":"layer","type":"int","value":3},{"name":"group","type":"int","value":0},{"name":"id","type":"int","value":1},{"name":"fh_layer","type":"int","value":3},{"name":"fh_group","type":"int","value":0},{"name":"fh_id","type":"int","value":1},{"name":"x1","type":"int","value":2340},{"name":"x2","type":"int","value":2430},{"name":"y1","type":"int","value":88},{"name":"y2","type":"int","value":88},{"name":"next","type":"int","value":3},{"name":"prev","type":"int","value":5}],"polyline":[{"x":0,"y":0},{"x":90,"y":0}]},{"id":318,"x":1530,"y":88,"visible":true,"properties":[{"name":"layer","type":"int","value":3},{"name":"group","type":"int","value":0},{"name":"id","type":"int","value":2},{"name":"fh_layer","type":"int","value":3},{"name":"fh_group","type":"int","value":0},{"name":"fh_id","type":"int","value":2},{"name":"x1","type":"int","value":1530},{"name":"x2","type":"int","value":1620},{"name":"y1","type":"int","value":88},{"name":"y2","type":"int","value":88},{"name":"next","type":"int","value":10},{"name":"prev","type":"int","value":14}],"polyline":[{"x":0,"y":0},{"x":90,"y":0}]},{"id":319,"x":2430,"y":88,"visible":true,"properties":[{"name":"layer","type":"int","value":3},{"name":"group","type":"int","value":0},{"name":"id","type":"int","value":3},{"name":"fh_layer","type":"int","value":3},{"name":"fh_group","type":"int","value":0},{"name":"fh_id","type":"int","value":3},{"name":"x1","type":"int","value":2430},{"name":"x2","type":"int","value":2520},{"name":"y1","type":"int","value":88},{"name":"y2","type":"int","value":88},{"name":"next","type":"int","value":12},{"name":"prev","type":"int","value":1}],"polyline":[{"x":0,"y":0},{"x":90,"y":0}]},{"id":320,"x":2160,"y":88,"visible":true,"properties":[{"name":"layer","type":"int","value":3},{"name":"group","type":"int","value":0},{"name":"id","type":"int","value":4},{"name":"fh_layer","type":"int","value":3},{"name":"fh_group","type":"int","value":0},{"name":"fh_id","type":"int","value":4},{"name":"x1","type":"int","value":2160},{"name":"x2","type":"int","value":2250},{"name":"y1","type":"int","value":88},{"name":"y2","type":"int","value":88},{"name":"next","type":"int","value":5},{"name":"prev","type":"int","value":6}],"polyline":[{"x":0,"y":0},{"x":90,"y":0}]},{"id":321,"x":2250,"y":88,"visible":true,"properties":[{"name":"layer","type":"int","value":3},{"name":"group","type":"int","value":0},{"name":"id","type":"int","value":5},{"name":"fh_layer","type":"int","value":3},{"name":"fh_group","type":"int","value":0},{"name":"fh_id","type":"int","value":5},{"name":"x1","type":"int","value":2250},{"name":"x2","type":"int","value":2340},{"name":"y1","type":"int","value":88},{"name":"y2","type":"int","value":88},{"name":"next","type":"int","value":1},{"name":"prev","type":"int","value":4}],"polyline":[{"x":0,"y":0},{"x":90,"y":0}]},{"id":322,"x":2070,"y":88,"visible":true,"properties":[{"name":"layer","type":"int","value":3},{"name":"group","type":"int","value":0},{"name":"id","type":"int","value":6},{"name":"fh_layer","type":"int","value":3},{"name":"fh_group","type":"int","value":0},{"name":"fh_id","type":"int","value":6},{"name":"x1","type":"int","value":2070},{"name":"x2","type":"int","value":2160},{"name":"y1","type":"int","value":88},{"name":"y2","type":"int","value":88},{"name":"next","type":"int","value":4},{"name":"prev","type":"int","value":7}],"polyline":[{"x":0,"y":0},{"x":90,"y":0}]},{"id":323,"x":1980,"y":88,"visible":true,"properties":[{"name":"layer","type":"int","value":3},{"name":"group","type":"int","value":0},{"name":"id","type":"int","value":7},{"name":"fh_layer","type":"int","value":3},{"name":"fh_group","type":"int","value":0},{"name":"fh_id","type":"int","value":7},{"name":"x1","type":"int","value":1980},{"name":"x2","type":"int","value":2070},{"name":"y1","type":"int","value":88},{"name":"y2","type":"int","value":88},{"name":"next","type":"int","value":6},{"name":"prev","type":"int","value":8}],"polyline":[{"x":0,"y":0},{"x":90,"y":0}]},{"id":324,"x":1890,"y":88,"visible":true,"properties":[{"name":"layer","type":"int","value":3},{"name":"group","type":"int","value":0},{"name":"id","type":"int","value":8},{"name":"fh_layer","type":"int","value":3},{"name":"fh_group","type":"int","value":0},{"name":"fh_id","type":"int","value":8},{"name":"x1","type":"int","value":1890},{"name":"x2","type":"int","value":1980},{"name":"y1","type":"int","value":88},{"name":"y2","type":"int","value":88},{"name":"next","type":"int","value":7},{"name":"prev","type":"int","value":11}],"polyline":[{"x":0,"y":0},{"x":90,"y":0}]},{"id":325,"x":1710,"y":88,"visible":true,"properties":[{"name":"layer","type":"int","value":3},{"name":"group","type":"int","value":0},{"name":"id","type":"int","value":9},{"name":"fh_layer","type":"int","value":3},{"name":"fh_group","type":"int","value":0},{"name":"fh_id","type":"int","value":9},{"name":"x1","type":"int","value":1710},{"name":"x2","type":"int","value":1800},{"name":"y1","type":"int","value":88},{"name":"y2","type":"int","value":88},{"name":"next","type":"int","value":11},{"name":"prev","type":"int","value":10}],"polyline":[{"x":0,"y":0},{"x":90,"y":0}]},{"id":326,"x":1620,"y":88,"visible":true,"properties":[{"name":"layer","type":"int","value":3},{"name":"group","type":"int","value":0},{"name":"id","type":"int","value":10},{"name":"fh_layer","type":"int","value":3},{"name":"fh_group","type":"int","value":0},{"name":"fh_id","type":"int","value":10},{"name":"x1","type":"int","value":1620},{"name":"x2","type":"int","value":1710},{"name":"y1","type":"int","value":88},{"name":"y2","type":"int","value":88},{"name":"next","type":"int","value":9},{"name":"prev","type":"int","value":2}],"polyline":[{"x":0,"y":0},{"x":90,"y":0}]},{"id":327,"x":1800,"y":88,"visible":true,"properties":[{"name":"layer","type":"int","value":3},{"name":"group","type":"int","value":0},{"name":"id","type":"int","value":11},{"name":"fh_layer","type":"int","value":3},{"name":"fh_group","type":"int","value":0},{"name":"fh_id","type":"int","value":11},{"name":"x1","type":"int","value":1800},{"name":"x2","type":"int","value":1890},{"name":"y1","type":"int","value":88},{"name":"y2","type":"int","value":88},{"name":"next","type":"int","value":8},{"name":"prev","type":"int","value":9}],"polyline":[{"x":0,"y":0},{"x":90,"y":0}]},{"id":328,"x":2520,"y":88,"visible":true,"properties":[{"name":"layer","type":"int","value":3},{"name":"group","type":"int","value":0},{"name":"id","type":"int","value":12},{"name":"fh_layer","type":"int","value":3},{"name":"fh_group","type":"int","value":0},{"name":"fh_id","type":"int","value":12},{"name":"x1","type":"int","value":2520},{"name":"x2","type":"int","value":2610},{"name":"y1","type":"int","value":88},{"name":"y2","type":"int","value":88},{"name":"next","type":"int","value":13},{"name":"prev","type":"int","value":3}],"polyline":[{"x":0,"y":0},{"x":90,"y":0}]},{"id":329,"x":2610,"y":88,"visible":true,"properties":[{"name":"layer","type":"int","value":3},{"name":"group","type":"int","value":0},{"name":"id","type":"int","value":13},{"name":"fh_layer","type":"int","value":3},{"name":"fh_group","type":"int","value":0},{"name":"fh_id","type":"int","value":13},{"name":"x1","type":"int","value":2610},{"name":"x2","type":"int","value":2700},{"name":"y1","type":"int","value":88},{"name":"y2","type":"int","value":88},{"name":"next","type":"int","value":0},{"name":"prev","type":"int","value":12}],"polyline":[{"x":0,"y":0},{"x":90,"y":0}]},{"id":330,"x":1440,"y":88,"visible":true,"properties":[{"name":"layer","type":"int","value":3},{"name":"group","type":"int","value":0},{"name":"id","type":"int","value":14},{"name":"fh_layer","type":"int","value":3},{"name":"fh_group","type":"int","value":0},{"name":"fh_id","type":"int","value":14},{"name":"x1","type":"int","value":1440},{"name":"x2","type":"int","value":1530},{"name":"y1","type":"int","value":88},{"name":"y2","type":"int","value":88},{"name":"next","type":"int","value":2},{"name":"prev","type":"int","value":15}],"polyline":[{"x":0,"y":0},{"x":90,"y":0}]},{"id":331,"x":1350,"y":88,"visible":true,"properties":[{"name":"layer","type":"int","value":3},{"name":"group","type":"int","value":0},{"name":"id","type":"int","value":15},{"name":"fh_layer","type":"int","value":3},{"name":"fh_group","type":"int","value":0},{"name":"fh_id","type":"int","value":15},{"name":"x1","type":"int","value":1350},{"name":"x2","type":"int","value":1440},{"name":"y1","type":"int","value":88},{"name":"y2","type":"int","value":88},{"name":"next","type":"int","value":14},{"name":"prev","type":"int","value":0}],"polyline":[{"x":0,"y":0},{"x":90,"y":0}]},{"id":332,"x":1753,"y":56,"visible":true,"properties":[{"name":"layer","type":"int","value":3},{"name":"group","type":"int","value":0},{"name":"id","type":"int","value":16},{"name":"fh_layer","type":"int","value":3},{"name":"fh_group","type":"int","value":0},{"name":"fh_id","type":"int","value":16},{"name":"x1","type":"int","value":1753},{"name":"x2","type":"int","value":1791},{"name":"y1","type":"int","value":56},{"name":"y2","type":"int","value":56},{"name":"next","type":"int","value":0},{"name":"prev","type":"int","value":0}],"polyline":[{"x":0,"y":0},{"x":38,"y":0}]},{"id":333,"x":1784,"y":8,"visible":true,"properties":[{"name":"layer","type":"int","value":3},{"name":"group","type":"int","value":0},{"name":"id","type":"int","value":17},{"name":"fh_layer","type":"int","value":3},{"name":"fh_group","type":"int","value":0},{"name":"fh_id","type":"int","value":17},{"name":"x1","type":"int","value":1784},{"name":"x2","type":"int","value":2028},{"name":"y1","type":"int","value":8},{"name":"y2","type":"int","value":8},{"name":"next","type":"int","value":0},{"name":"prev","type":"int","value":0}],"polyline":[{"x":0,"y":0},{"x":244,"y":0}]},{"id":334,"x":1958,"y":-24,"visible":true,"properties":[{"name":"layer","type":"int","value":3},{"name":"group","type":"int","value":0},{"name":"id","type":"int","value":18},{"name":"fh_layer","type":"int","value":3},{"name":"fh_group","type":"int","value":0},{"name":"fh_id","type":"int","value":18},{"name":"x1","type":"int","value":1958},{"name":"x2","type":"int","value":2260},{"name":"y1","type":"int","value":-24},{"name":"y2","type":"int","value":-24},{"name":"next","type":"int","value":0},{"name":"prev","type":"int","value":0}],"polyline":[{"x":0,"y":0},{"x":302,"y":0}]},{"id":335,"x":1882,"y":71,"visible":true,"properties":[{"name":"layer","type":"int","value":3},{"name":"group","type":"int","value":0},{"name":"id","type":"int","value":19},{"name":"fh_layer","type":"int","value":3},{"name":"fh_group","type":"int","value":0},{"name":"fh_id","type":"int","value":19},{"name":"x1","type":"int","value":1882},{"name":"x2","type":"int","value":2207},{"name":"y1","type":"int","value":71},{"name":"y2","type":"int","value":71},{"name":"next","type":"int","value":0},{"name":"prev","type":"int","value":0}],"polyline":[{"x":0,"y":0},{"x":325,"y":0}]},{"id":336,"x":2200,"y":8,"visible":true,"properties":[{"name":"layer","type":"int","value":3},{"name":"group","type":"int","value":0},{"name":"id","type":"int","value":20},{"name":"fh_layer","type":"int","value":3},{"name":"fh_group","type":"int","value":0},{"name":"fh_id","type":"int","value":20},{"name":"x1","type":"int","value":2200},{"name":"x2","type":"int","value":2443},{"name":"y1","type":"int","value":8},{"name":"y2","type":"int","value":8},{"name":"next","type":"int","value":0},{"name":"prev","type":"int","value":0}],"polyline":[{"x":0,"y":0},{"x":243,"y":0}]},{"id":337,"x":2303,"y":56,"visible":true,"properties":[{"name":"layer","type":"int","value":3},{"name":"group","type":"int","value":0},{"name":"id","type":"int","value":21},{"name":"fh_layer","type":"int","value":3},{"name":"fh_group","type":"int","value":0},{"name":"fh_id","type":"int","value":21},{"name":"x1","type":"int","value":2303},{"name":"x2","type":"int","value":2475},{"name":"y1","type":"int","value":56},{"name":"y2","type":"int","value":56},{"name":"next","type":"int","value":0},{"name":"prev","type":"int","value":0}],"polyline":[{"x":0,"y":0},{"x":172,"y":0}]},{"id":338,"x":2487,"y":-512,"visible":true,"properties":[{"name":"layer","type":"int","value":3},{"name":"group","type":"int","value":11},{"name":"id","type":"int","value":46},{"name":"fh_layer","type":"int","value":3},{"name":"fh_group","type":"int","value":11},{"name":"fh_id","type":"int","value":46},{"name":"x1","type":"int","value":2487},{"name":"x2","type":"int","value":2553},{"name":"y1","type":"int","value":-512},{"name":"y2","type":"int","value":-512},{"name":"next","type":"int","value":47},{"name":"prev","type":"int","value":56}],"polyline":[{"x":0,"y":0},{"x":66,"y":0}]},{"id":339,"x":2553,"y":-512,"visible":true,"properties":[{"name":"layer","type":"int","value":3},{"name":"group","type":"int","value":11},{"name":"id","type":"int","value":47},{"name":"fh_layer","type":"int","value":3},{"name":"fh_group","type":"int","value":11},{"name":"fh_id","type":"int","value":47},{"name":"x1","type":"int","value":2553},{"name":"x2","type":"int","value":2553},{"name":"y1","type":"int","value":-512},{"name":"y2","type":"int","value":-480},{"name":"next","type":"int","value":0},{"name":"prev","type":"int","value":46}],"polyline":[{"x":0,"y":0},{"x":0,"y":32}]},{"id":340,"x":1677,"y":-480,"visible":true,"properties":[{"name":"layer","type":"int","value":3},{"name":"group","type":"int","value":11},{"name":"id","type":"int","value":48},{"name":"fh_layer","type":"int","value":3},{"name":"fh_group","type":"int","value":11},{"name":"fh_id","type":"int","value":48},{"name":"x1","type":"int","value":1677},{"name":"x2","type":"int","value":1677},{"name":"y1","type":"int","value":-480},{"name":"y2","type":"int","value":-512},{"name":"next","type":"int","value":49},{"name":"prev","type":"int","value":0}],"polyline":[{"x":0,"y":0},{"x":0,"y":-32}]},{"id":341,"x":1677,"y":-512,"visible":true,"properties":[{"name":"layer","type":"int","value":3},{"name":"group","type":"int","value":11},{"name":"id","type":"int","value":49},{"name":"fh_layer","type":"int","value":3},{"name":"fh_group","type":"int","value":11},{"name":"fh_id","type":"int","value":49},{"name":"x1","type":"int","value":1677},{"name":"x2","type":"int","value":1743},{"name":"y1","type":"int","value":-512},{"name":"y2","type":"int","value":-512},{"name":"next","type":"int","value":51},{"name":"prev","type":"int","value":48}],"polyline":[{"x":0,"y":0},{"x":66,"y":0}]},{"id":342,"x":2250,"y":-512,"visible":true,"properties":[{"name":"layer","type":"int","value":3},{"name":"group","type":"int","value":11},{"name":"id","type":"int","value":50},{"name":"fh_layer","type":"int","value":3},{"name":"fh_group","type":"int","value":11},{"name":"fh_id","type":"int","value":50},{"name":"x1","type":"int","value":2250},{"name":"x2","type":"int","value":2340},{"name":"y1","type":"int","value":-512},{"name":"y2","type":"int","value":-512},{"name":"next","type":"int","value":52},{"name":"prev","type":"int","value":57}],"polyline":[{"x":0,"y":0},{"x":90,"y":0}]},{"id":343,"x":1743,"y":-512,"visible":true,"properties":[{"name":"layer","type":"int","value":3},{"name":"group","type":"int","value":11},{"name":"id","type":"int","value":51},{"name":"fh_layer","type":"int","value":3},{"name":"fh_group","type":"int","value":11},{"name":"fh_id","type":"int","value":51},{"name":"x1","type":"int","value":1743},{"name":"x2","type":"int","value":1800},{"name":"y1","type":"int","value":-512},{"name":"y2","type":"int","value":-512},{"name":"next","type":"int","value":55},{"name":"prev","type":"int","value":49}],"polyline":[{"x":0,"y":0},{"x":57,"y":0}]},{"id":344,"x":2340,"y":-512,"visible":true,"properties":[{"name":"layer","type":"int","value":3},{"name":"group","type":"int","value":11},{"name":"id","type":"int","value":52},{"name":"fh_layer","type":"int","value":3},{"name":"fh_group","type":"int","value":11},{"name":"fh_id","type":"int","value":52},{"name":"x1","type":"int","value":2340},{"name":"x2","type":"int","value":2430},{"name":"y1","type":"int","value":-512},{"name":"y2","type":"int","value":-512},{"name":"next","type":"int","value":56},{"name":"prev","type":"int","value":50}],"polyline":[{"x":0,"y":0},{"x":90,"y":0}]},{"id":345,"x":2070,"y":-512,"visible":true,"properties":[{"name":"layer","type":"int","value":3},{"name":"group","type":"int","value":11},{"name":"id","type":"int","value":53},{"name":"fh_layer","type":"int","value":3},{"name":"fh_group","type":"int","value":11},{"name":"fh_id","type":"int","value":53},{"name":"x1","type":"int","value":2070},{"name":"x2","type":"int","value":2160},{"name":"y1","type":"int","value":-512},{"name":"y2","type":"int","value":-512},{"name":"next","type":"int","value":57},{"name":"prev","type":"int","value":54}],"polyline":[{"x":0,"y":0},{"x":90,"y":0}]},{"id":346,"x":1980,"y":-512,"visible":true,"properties":[{"name":"layer","type":"int","value":3},{"name":"group","type":"int","value":11},{"name":"id","type":"int","value":54},{"name":"fh_layer","type":"int","value":3},{"name":"fh_group","type":"int","value":11},{"name":"fh_id","type":"int","value":54},{"name":"x1","type":"int","value":1980},{"name":"x2","type":"int","value":2070},{"name":"y1","type":"int","value":-512},{"name":"y2","type":"int","value":-512},{"name":"next","type":"int","value":53},{"name":"prev","type":"int","value":58}],"polyline":[{"x":0,"y":0},{"x":90,"y":0}]},{"id":347,"x":1800,"y":-512,"visible":true,"properties":[{"name":"layer","type":"int","value":3},{"name":"group","type":"int","value":11},{"name":"id","type":"int","value":55},{"name":"fh_layer","type":"int","value":3},{"name":"fh_group","type":"int","value":11},{"name":"fh_id","type":"int","value":55},{"name":"x1","type":"int","value":1800},{"name":"x2","type":"int","value":1890},{"name":"y1","type":"int","value":-512},{"name":"y2","type":"int","value":-512},{"name":"next","type":"int","value":58},{"name":"prev","type":"int","value":51}],"polyline":[{"x":0,"y":0},{"x":90,"y":0}]},{"id":348,"x":2430,"y":-512,"visible":true,"properties":[{"name":"layer","type":"int","value":3},{"name":"group","type":"int","value":11},{"name":"id","type":"int","value":56},{"name":"fh_layer","type":"int","value":3},{"name":"fh_group","type":"int","value":11},{"name":"fh_id","type":"int","value":56},{"name":"x1","type":"int","value":2430},{"name":"x2","type":"int","value":2487},{"name":"y1","type":"int","value":-512},{"name":"y2","type":"int","value":-512},{"name":"next","type":"int","value":46},{"name":"prev","type":"int","value":52}],"polyline":[{"x":0,"y":0},{"x":57,"y":0}]},{"id":349,"x":2160,"y":-512,"visible":true,"properties":[{"name":"layer","type":"int","value":3},{"name":"group","type":"int","value":11},{"name":"id","type":"int","value":57},{"name":"fh_layer","type":"int","value":3},{"name":"fh_group","type":"int","value":11},{"name":"fh_id","type":"int","value":57},{"name":"x1","type":"int","value":2160},{"name":"x2","type":"int","value":2250},{"name":"y1","type":"int","value":-512},{"name":"y2","type":"int","value":-512},{"name":"next","type":"int","value":50},{"name":"prev","type":"int","value":53}],"polyline":[{"x":0,"y":0},{"x":90,"y":0}]},{"id":350,"x":1890,"y":-512,"visible":true,"properties":[{"name":"layer","type":"int","value":3},{"name":"group","type":"int","value":11},{"name":"id","type":"int","value":58},{"name":"fh_layer","type":"int","value":3},{"name":"fh_group","type":"int","value":11},{"name":"fh_id","type":"int","value":58},{"name":"x1","type":"int","value":1890},{"name":"x2","type":"int","value":1980},{"name":"y1","type":"int","value":-512},{"name":"y2","type":"int","value":-512},{"name":"next","type":"int","value":54},{"name":"prev","type":"int","value":55}],"polyline":[{"x":0,"y":0},{"x":90,"y":0}]},{"id":351,"x":1980,"y":-812,"visible":true,"properties":[{"name":"layer","type":"int","value":3},{"name":"group","type":"int","value":16},{"name":"id","type":"int","value":59},{"name":"fh_layer","type":"int","value":3},{"name":"fh_group","type":"int","value":16},{"name":"fh_id","type":"int","value":59},{"name":"x1","type":"int","value":1980},{"name":"x2","type":"int","value":2070},{"name":"y1","type":"int","value":-812},{"name":"y2","type":"int","value":-812},{"name":"next","type":"int","value":64},{"name":"prev","type":"int","value":66}],"polyline":[{"x":0,"y":0},{"x":90,"y":0}]},{"id":352,"x":1800,"y":-812,"visible":true,"properties":[{"name":"layer","type":"int","value":3},{"name":"group","type":"int","value":16},{"name":"id","type":"int","value":60},{"name":"fh_layer","type":"int","value":3},{"name":"fh_group","type":"int","value":16},{"name":"fh_id","type":"int","value":60},{"name":"x1","type":"int","value":1800},{"name":"x2","type":"int","value":1833},{"name":"y1","type":"int","value":-812},{"name":"y2","type":"int","value":-812},{"name":"next","type":"int","value":63},{"name":"prev","type":"int","value":62}],"polyline":[{"x":0,"y":0},{"x":33,"y":0}]},{"id":353,"x":1767,"y":-780,"visible":true,"properties":[{"name":"layer","type":"int","value":3},{"name":"group","type":"int","value":16},{"name":"id","type":"int","value":61},{"name":"fh_layer","type":"int","value":3},{"name":"fh_group","type":"int","value":16},{"name":"fh_id","type":"int","value":61},{"name":"x1","type":"int","value":1767},{"name":"x2","type":"int","value":1767},{"name":"y1","type":"int","value":-780},{"name":"y2","type":"int","value":-812},{"name":"next","type":"int","value":62},{"name":"prev","type":"int","value":0}],"polyline":[{"x":0,"y":0},{"x":0,"y":-32}]},{"id":354,"x":1767,"y":-812,"visible":true,"properties":[{"name":"layer","type":"int","value":3},{"name":"group","type":"int","value":16},{"name":"id","type":"int","value":62},{"name":"fh_layer","type":"int","value":3},{"name":"fh_group","type":"int","value":16},{"name":"fh_id","type":"int","value":62},{"name":"x1","type":"int","value":1767},{"name":"x2","type":"int","value":1800},{"name":"y1","type":"int","value":-812},{"name":"y2","type":"int","value":-812},{"name":"next","type":"int","value":60},{"name":"prev","type":"int","value":61}],"polyline":[{"x":0,"y":0},{"x":33,"y":0}]},{"id":355,"x":1833,"y":-812,"visible":true,"properties":[{"name":"layer","type":"int","value":3},{"name":"group","type":"int","value":16},{"name":"id","type":"int","value":63},{"name":"fh_layer","type":"int","value":3},{"name":"fh_group","type":"int","value":16},{"name":"fh_id","type":"int","value":63},{"name":"x1","type":"int","value":1833},{"name":"x2","type":"int","value":1890},{"name":"y1","type":"int","value":-812},{"name":"y2","type":"int","value":-812},{"name":"next","type":"int","value":66},{"name":"prev","type":"int","value":60}],"polyline":[{"x":0,"y":0},{"x":57,"y":0}]},{"id":356,"x":2070,"y":-812,"visible":true,"properties":[{"name":"layer","type":"int","value":3},{"name":"group","type":"int","value":16},{"name":"id","type":"int","value":64},{"name":"fh_layer","type":"int","value":3},{"name":"fh_group","type":"int","value":16},{"name":"fh_id","type":"int","value":64},{"name":"x1","type":"int","value":2070},{"name":"x2","type":"int","value":2160},{"name":"y1","type":"int","value":-812},{"name":"y2","type":"int","value":-812},{"name":"next","type":"int","value":65},{"name":"prev","type":"int","value":59}],"polyline":[{"x":0,"y":0},{"x":90,"y":0}]},{"id":357,"x":2160,"y":-812,"visible":true,"properties":[{"name":"layer","type":"int","value":3},{"name":"group","type":"int","value":16},{"name":"id","type":"int","value":65},{"name":"fh_layer","type":"int","value":3},{"name":"fh_group","type":"int","value":16},{"name":"fh_id","type":"int","value":65},{"name":"x1","type":"int","value":2160},{"name":"x2","type":"int","value":2250},{"name":"y1","type":"int","value":-812},{"name":"y2","type":"int","value":-812},{"name":"next","type":"int","value":70},{"name":"prev","type":"int","value":64}],"polyline":[{"x":0,"y":0},{"x":90,"y":0}]},{"id":358,"x":1890,"y":-812,"visible":true,"properties":[{"name":"layer","type":"int","value":3},{"name":"group","type":"int","value":16},{"name":"id","type":"int","value":66},{"name":"fh_layer","type":"int","value":3},{"name":"fh_group","type":"int","value":16},{"name":"fh_id","type":"int","value":66},{"name":"x1","type":"int","value":1890},{"name":"x2","type":"int","value":1980},{"name":"y1","type":"int","value":-812},{"name":"y2","type":"int","value":-812},{"name":"next","type":"int","value":59},{"name":"prev","type":"int","value":63}],"polyline":[{"x":0,"y":0},{"x":90,"y":0}]},{"id":359,"x":2397,"y":-812,"visible":true,"properties":[{"name":"layer","type":"int","value":3},{"name":"group","type":"int","value":16},{"name":"id","type":"int","value":67},{"name":"fh_layer","type":"int","value":3},{"name":"fh_group","type":"int","value":16},{"name":"fh_id","type":"int","value":67},{"name":"x1","type":"int","value":2397},{"name":"x2","type":"int","value":2463},{"name":"y1","type":"int","value":-812},{"name":"y2","type":"int","value":-812},{"name":"next","type":"int","value":68},{"name":"prev","type":"int","value":69}],"polyline":[{"x":0,"y":0},{"x":66,"y":0}]},{"id":360,"x":2463,"y":-812,"visible":true,"properties":[{"name":"layer","type":"int","value":3},{"name":"group","type":"int","value":16},{"name":"id","type":"int","value":68},{"name":"fh_layer","type":"int","value":3},{"name":"fh_group","type":"int","value":16},{"name":"fh_id","type":"int","value":68},{"name":"x1","type":"int","value":2463},{"name":"x2","type":"int","value":2463},{"name":"y1","type":"int","value":-812},{"name":"y2","type":"int","value":-780},{"name":"next","type":"int","value":0},{"name":"prev","type":"int","value":67}],"polyline":[{"x":0,"y":0},{"x":0,"y":32}]},{"id":361,"x":2340,"y":-812,"visible":true,"properties":[{"name":"layer","type":"int","value":3},{"name":"group","type":"int","value":16},{"name":"id","type":"int","value":69},{"name":"fh_layer","type":"int","value":3},{"name":"fh_group","type":"int","value":16},{"name":"fh_id","type":"int","value":69},{"name":"x1","type":"int","value":2340},{"name":"x2","type":"int","value":2397},{"name":"y1","type":"int","value":-812},{"name":"y2","type":"int","value":-812},{"name":"next","type":"int","value":67},{"name":"prev","type":"int","value":70}],"polyline":[{"x":0,"y":0},{"x":57,"y":0}]},{"id":362,"x":2250,"y":-812,"visible":true,"properties":[{"name":"layer","type":"int","value":3},{"name":"group","type":"int","value":16},{"name":"id","type":"int","value":70},{"name":"fh_layer","type":"int","value":3},{"name":"fh_group","type":"int","value":16},{"name":"fh_id","type":"int","value":70},{"name":"x1","type":"int","value":2250},{"name":"x2","type":"int","value":2340},{"name":"y1","type":"int","value":-812},{"name":"y2","type":"int","value":-812},{"name":"next","type":"int","value":69},{"name":"prev","type":"int","value":65}],"polyline":[{"x":0,"y":0},{"x":90,"y":0}]},{"id":363,"x":2160,"y":-1112,"visible":true,"properties":[{"name":"layer","type":"int","value":3},{"name":"group","type":"int","value":21},{"name":"id","type":"int","value":34},{"name":"fh_layer","type":"int","value":3},{"name":"fh_group","type":"int","value":21},{"name":"fh_id","type":"int","value":34},{"name":"x1","type":"int","value":2160},{"name":"x2","type":"int","value":2250},{"name":"y1","type":"int","value":-1112},{"name":"y2","type":"int","value":-1112},{"name":"next","type":"int","value":35},{"name":"prev","type":"int","value":44}],"polyline":[{"x":0,"y":0},{"x":90,"y":0}]},{"id":364,"x":2250,"y":-1112,"visible":true,"properties":[{"name":"layer","type":"int","value":3},{"name":"group","type":"int","value":21},{"name":"id","type":"int","value":35},{"name":"fh_layer","type":"int","value":3},{"name":"fh_group","type":"int","value":21},{"name":"fh_id","type":"int","value":35},{"name":"x1","type":"int","value":2250},{"name":"x2","type":"int","value":2340},{"name":"y1","type":"int","value":-1112},{"name":"y2","type":"int","value":-1112},{"name":"next","type":"int","value":45},{"name":"prev","type":"int","value":34}],"polyline":[{"x":0,"y":0},{"x":90,"y":0}]},{"id":365,"x":2397,"y":-1112,"visible":true,"properties":[{"name":"layer","type":"int","value":3},{"name":"group","type":"int","value":21},{"name":"id","type":"int","value":36},{"name":"fh_layer","type":"int","value":3},{"name":"fh_group","type":"int","value":21},{"name":"fh_id","type":"int","value":36},{"name":"x1","type":"int","value":2397},{"name":"x2","type":"int","value":2463},{"name":"y1","type":"int","value":-1112},{"name":"y2","type":"int","value":-1112},{"name":"next","type":"int","value":37},{"name":"prev","type":"int","value":45}],"polyline":[{"x":0,"y":0},{"x":66,"y":0}]},{"id":366,"x":2463,"y":-1112,"visible":true,"properties":[{"name":"layer","type":"int","value":3},{"name":"group","type":"int","value":21},{"name":"id","type":"int","value":37},{"name":"fh_layer","type":"int","value":3},{"name":"fh_group","type":"int","value":21},{"name":"fh_id","type":"int","value":37},{"name":"x1","type":"int","value":2463},{"name":"x2","type":"int","value":2463},{"name":"y1","type":"int","value":-1112},{"name":"y2","type":"int","value":-1080},{"name":"next","type":"int","value":0},{"name":"prev","type":"int","value":36}],"polyline":[{"x":0,"y":0},{"x":0,"y":32}]},{"id":367,"x":1800,"y":-1112,"visible":true,"properties":[{"name":"layer","type":"int","value":3},{"name":"group","type":"int","value":21},{"name":"id","type":"int","value":38},{"name":"fh_layer","type":"int","value":3},{"name":"fh_group","type":"int","value":21},{"name":"fh_id","type":"int","value":38},{"name":"x1","type":"int","value":1800},{"name":"x2","type":"int","value":1833},{"name":"y1","type":"int","value":-1112},{"name":"y2","type":"int","value":-1112},{"name":"next","type":"int","value":43},{"name":"prev","type":"int","value":42}],"polyline":[{"x":0,"y":0},{"x":33,"y":0}]},{"id":368,"x":1980,"y":-1112,"visible":true,"properties":[{"name":"layer","type":"int","value":3},{"name":"group","type":"int","value":21},{"name":"id","type":"int","value":39},{"name":"fh_layer","type":"int","value":3},{"name":"fh_group","type":"int","value":21},{"name":"fh_id","type":"int","value":39},{"name":"x1","type":"int","value":1980},{"name":"x2","type":"int","value":2070},{"name":"y1","type":"int","value":-1112},{"name":"y2","type":"int","value":-1112},{"name":"next","type":"int","value":44},{"name":"prev","type":"int","value":40}],"polyline":[{"x":0,"y":0},{"x":90,"y":0}]},{"id":369,"x":1890,"y":-1112,"visible":true,"properties":[{"name":"layer","type":"int","value":3},{"name":"group","type":"int","value":21},{"name":"id","type":"int","value":40},{"name":"fh_layer","type":"int","value":3},{"name":"fh_group","type":"int","value":21},{"name":"fh_id","type":"int","value":40},{"name":"x1","type":"int","value":1890},{"name":"x2","type":"int","value":1980},{"name":"y1","type":"int","value":-1112},{"name":"y2","type":"int","value":-1112},{"name":"next","type":"int","value":39},{"name":"prev","type":"int","value":43}],"polyline":[{"x":0,"y":0},{"x":90,"y":0}]},{"id":370,"x":1767,"y":-1080,"visible":true,"properties":[{"name":"layer","type":"int","value":3},{"name":"group","type":"int","value":21},{"name":"id","type":"int","value":41},{"name":"fh_layer","type":"int","value":3},{"name":"fh_group","type":"int","value":21},{"name":"fh_id","type":"int","value":41},{"name":"x1","type":"int","value":1767},{"name":"x2","type":"int","value":1767},{"name":"y1","type":"int","value":-1080},{"name":"y2","type":"int","value":-1112},{"name":"next","type":"int","value":42},{"name":"prev","type":"int","value":0}],"polyline":[{"x":0,"y":0},{"x":0,"y":-32}]},{"id":371,"x":1767,"y":-1112,"visible":true,"properties":[{"name":"layer","type":"int","value":3},{"name":"group","type":"int","value":21},{"name":"id","type":"int","value":42},{"name":"fh_layer","type":"int","value":3},{"name":"fh_group","type":"int","value":21},{"name":"fh_id","type":"int","value":42},{"name":"x1","type":"int","value":1767},{"name":"x2","type":"int","value":1800},{"name":"y1","type":"int","value":-1112},{"name":"y2","type":"int","value":-1112},{"name":"next","type":"int","value":38},{"name":"prev","type":"int","value":41}],"polyline":[{"x":0,"y":0},{"x":33,"y":0}]},{"id":372,"x":1833,"y":-1112,"visible":true,"properties":[{"name":"layer","type":"int","value":3},{"name":"group","type":"int","value":21},{"name":"id","type":"int","value":43},{"name":"fh_layer","type":"int","value":3},{"name":"fh_group","type":"int","value":21},{"name":"fh_id","type":"int","value":43},{"name":"x1","type":"int","value":1833},{"name":"x2","type":"int","value":1890},{"name":"y1","type":"int","value":-1112},{"name":"y2","type":"int","value":-1112},{"name":"next","type":"int","value":40},{"name":"prev","type":"int","value":38}],"polyline":[{"x":0,"y":0},{"x":57,"y":0}]},{"id":373,"x":2070,"y":-1112,"visible":true,"properties":[{"name":"layer","type":"int","value":3},{"name":"group","type":"int","value":21},{"name":"id","type":"int","value":44},{"name":"fh_layer","type":"int","value":3},{"name":"fh_group","type":"int","value":21},{"name":"fh_id","type":"int","value":44},{"name":"x1","type":"int","value":2070},{"name":"x2","type":"int","value":2160},{"name":"y1","type":"int","value":-1112},{"name":"y2","type":"int","value":-1112},{"name":"next","type":"int","value":34},{"name":"prev","type":"int","value":39}],"polyline":[{"x":0,"y":0},{"x":90,"y":0}]},{"id":374,"x":2340,"y":-1112,"visible":true,"properties":[{"name":"layer","type":"int","value":3},{"name":"group","type":"int","value":21},{"name":"id","type":"int","value":45},{"name":"fh_layer","type":"int","value":3},{"name":"fh_group","type":"int","value":21},{"name":"fh_id","type":"int","value":45},{"name":"x1","type":"int","value":2340},{"name":"x2","type":"int","value":2397},{"name":"y1","type":"int","value":-1112},{"name":"y2","type":"int","value":-1112},{"name":"next","type":"int","value":36},{"name":"prev","type":"int","value":35}],"polyline":[{"x":0,"y":0},{"x":57,"y":0}]},{"id":375,"x":1980,"y":-1412,"visible":true,"properties":[{"name":"layer","type":"int","value":3},{"name":"group","type":"int","value":26},{"name":"id","type":"int","value":22},{"name":"fh_layer","type":"int","value":3},{"name":"fh_group","type":"int","value":26},{"name":"fh_id","type":"int","value":22},{"name":"x1","type":"int","value":1980},{"name":"x2","type":"int","value":2070},{"name":"y1","type":"int","value":-1412},{"name":"y2","type":"int","value":-1412},{"name":"next","type":"int","value":26},{"name":"prev","type":"int","value":25}],"polyline":[{"x":0,"y":0},{"x":90,"y":0}]},{"id":376,"x":1767,"y":-1380,"visible":true,"properties":[{"name":"layer","type":"int","value":3},{"name":"group","type":"int","value":26},{"name":"id","type":"int","value":23},{"name":"fh_layer","type":"int","value":3},{"name":"fh_group","type":"int","value":26},{"name":"fh_id","type":"int","value":23},{"name":"x1","type":"int","value":1767},{"name":"x2","type":"int","value":1767},{"name":"y1","type":"int","value":-1380},{"name":"y2","type":"int","value":-1412},{"name":"next","type":"int","value":24},{"name":"prev","type":"int","value":0}],"polyline":[{"x":0,"y":0},{"x":0,"y":-32}]},{"id":377,"x":1767,"y":-1412,"visible":true,"properties":[{"name":"layer","type":"int","value":3},{"name":"group","type":"int","value":26},{"name":"id","type":"int","value":24},{"name":"fh_layer","type":"int","value":3},{"name":"fh_group","type":"int","value":26},{"name":"fh_id","type":"int","value":24},{"name":"x1","type":"int","value":1767},{"name":"x2","type":"int","value":1833},{"name":"y1","type":"int","value":-1412},{"name":"y2","type":"int","value":-1412},{"name":"next","type":"int","value":27},{"name":"prev","type":"int","value":23}],"polyline":[{"x":0,"y":0},{"x":66,"y":0}]},{"id":378,"x":1890,"y":-1412,"visible":true,"properties":[{"name":"layer","type":"int","value":3},{"name":"group","type":"int","value":26},{"name":"id","type":"int","value":25},{"name":"fh_layer","type":"int","value":3},{"name":"fh_group","type":"int","value":26},{"name":"fh_id","type":"int","value":25},{"name":"x1","type":"int","value":1890},{"name":"x2","type":"int","value":1980},{"name":"y1","type":"int","value":-1412},{"name":"y2","type":"int","value":-1412},{"name":"next","type":"int","value":22},{"name":"prev","type":"int","value":27}],"polyline":[{"x":0,"y":0},{"x":90,"y":0}]},{"id":379,"x":2070,"y":-1412,"visible":true,"properties":[{"name":"layer","type":"int","value":3},{"name":"group","type":"int","value":26},{"name":"id","type":"int","value":26},{"name":"fh_layer","type":"int","value":3},{"name":"fh_group","type":"int","value":26},{"name":"fh_id","type":"int","value":26},{"name":"x1","type":"int","value":2070},{"name":"x2","type":"int","value":2160},{"name":"y1","type":"int","value":-1412},{"name":"y2","type":"int","value":-1412},{"name":"next","type":"int","value":29},{"name":"prev","type":"int","value":22}],"polyline":[{"x":0,"y":0},{"x":90,"y":0}]},{"id":380,"x":1833,"y":-1412,"visible":true,"properties":[{"name":"layer","type":"int","value":3},{"name":"group","type":"int","value":26},{"name":"id","type":"int","value":27},{"name":"fh_layer","type":"int","value":3},{"name":"fh_group","type":"int","value":26},{"name":"fh_id","type":"int","value":27},{"name":"x1","type":"int","value":1833},{"name":"x2","type":"int","value":1890},{"name":"y1","type":"int","value":-1412},{"name":"y2","type":"int","value":-1412},{"name":"next","type":"int","value":25},{"name":"prev","type":"int","value":24}],"polyline":[{"x":0,"y":0},{"x":57,"y":0}]},{"id":381,"x":2250,"y":-1412,"visible":true,"properties":[{"name":"layer","type":"int","value":3},{"name":"group","type":"int","value":26},{"name":"id","type":"int","value":28},{"name":"fh_layer","type":"int","value":3},{"name":"fh_group","type":"int","value":26},{"name":"fh_id","type":"int","value":28},{"name":"x1","type":"int","value":2250},{"name":"x2","type":"int","value":2340},{"name":"y1","type":"int","value":-1412},{"name":"y2","type":"int","value":-1412},{"name":"next","type":"int","value":30},{"name":"prev","type":"int","value":29}],"polyline":[{"x":0,"y":0},{"x":90,"y":0}]},{"id":382,"x":2160,"y":-1412,"visible":true,"properties":[{"name":"layer","type":"int","value":3},{"name":"group","type":"int","value":26},{"name":"id","type":"int","value":29},{"name":"fh_layer","type":"int","value":3},{"name":"fh_group","type":"int","value":26},{"name":"fh_id","type":"int","value":29},{"name":"x1","type":"int","value":2160},{"name":"x2","type":"int","value":2250},{"name":"y1","type":"int","value":-1412},{"name":"y2","type":"int","value":-1412},{"name":"next","type":"int","value":28},{"name":"prev","type":"int","value":26}],"polyline":[{"x":0,"y":0},{"x":90,"y":0}]},{"id":383,"x":2340,"y":-1412,"visible":true,"properties":[{"name":"layer","type":"int","value":3},{"name":"group","type":"int","value":26},{"name":"id","type":"int","value":30},{"name":"fh_layer","type":"int","value":3},{"name":"fh_group","type":"int","value":26},{"name":"fh_id","type":"int","value":30},{"name":"x1","type":"int","value":2340},{"name":"x2","type":"int","value":2397},{"name":"y1","type":"int","value":-1412},{"name":"y2","type":"int","value":-1412},{"name":"next","type":"int","value":31},{"name":"prev","type":"int","value":28}],"polyline":[{"x":0,"y":0},{"x":57,"y":0}]},{"id":384,"x":2397,"y":-1412,"visible":true,"properties":[{"name":"layer","type":"int","value":3},{"name":"group","type":"int","value":26},{"name":"id","type":"int","value":31},{"name":"fh_layer","type":"int","value":3},{"name":"fh_group","type":"int","value":26},{"name":"fh_id","type":"int","value":31},{"name":"x1","type":"int","value":2397},{"name":"x2","type":"int","value":2430},{"name":"y1","type":"int","value":-1412},{"name":"y2","type":"int","value":-1412},{"name":"next","type":"int","value":32},{"name":"prev","type":"int","value":30}],"polyline":[{"x":0,"y":0},{"x":33,"y":0}]},{"id":385,"x":2430,"y":-1412,"visible":true,"properties":[{"name":"layer","type":"int","value":3},{"name":"group","type":"int","value":26},{"name":"id","type":"int","value":32},{"name":"fh_layer","type":"int","value":3},{"name":"fh_group","type":"int","value":26},{"name":"fh_id","type":"int","value":32},{"name":"x1","type":"int","value":2430},{"name":"x2","type":"int","value":2463},{"name":"y1","type":"int","value":-1412},{"name":"y2","type":"int","value":-1412},{"name":"next","type":"int","value":33},{"name":"prev","type":"int","value":31}],"polyline":[{"x":0,"y":0},{"x":33,"y":0}]},{"id":386,"x":2463,"y":-1412,"visible":true,"properties":[{"name":"layer","type":"int","value":3},{"name":"group","type":"int","value":26},{"name":"id","type":"int","value":33},{"name":"fh_layer","type":"int","value":3},{"name":"fh_group","type":"int","value":26},{"name":"fh_id","type":"int","value":33},{"name":"x1","type":"int","value":2463},{"name":"x2","type":"int","value":2463},{"name":"y1","type":"int","value":-1412},{"name":"y2","type":"int","value":-1380},{"name":"next","type":"int","value":0},{"name":"prev","type":"int","value":32}],"polyline":[{"x":0,"y":0},{"x":0,"y":32}]},{"id":387,"x":1767,"y":-1680,"visible":true,"properties":[{"name":"layer","type":"int","value":3},{"name":"group","type":"int","value":31},{"name":"id","type":"int","value":71},{"name":"fh_layer","type":"int","value":3},{"name":"fh_group","type":"int","value":31},{"name":"fh_id","type":"int","value":71},{"name":"x1","type":"int","value":1767},{"name":"x2","type":"int","value":1767},{"name":"y1","type":"int","value":-1680},{"name":"y2","type":"int","value":-1712},{"name":"next","type":"int","value":72},{"name":"prev","type":"int","value":0}],"polyline":[{"x":0,"y":0},{"x":0,"y":-32}]},{"id":388,"x":1767,"y":-1712,"visible":true,"properties":[{"name":"layer","type":"int","value":3},{"name":"group","type":"int","value":31},{"name":"id","type":"int","value":72},{"name":"fh_layer","type":"int","value":3},{"name":"fh_group","type":"int","value":31},{"name":"fh_id","type":"int","value":72},{"name":"x1","type":"int","value":1767},{"name":"x2","type":"int","value":1833},{"name":"y1","type":"int","value":-1712},{"name":"y2","type":"int","value":-1712},{"name":"next","type":"int","value":73},{"name":"prev","type":"int","value":71}],"polyline":[{"x":0,"y":0},{"x":66,"y":0}]},{"id":389,"x":1833,"y":-1712,"visible":true,"properties":[{"name":"layer","type":"int","value":3},{"name":"group","type":"int","value":31},{"name":"id","type":"int","value":73},{"name":"fh_layer","type":"int","value":3},{"name":"fh_group","type":"int","value":31},{"name":"fh_id","type":"int","value":73},{"name":"x1","type":"int","value":1833},{"name":"x2","type":"int","value":1890},{"name":"y1","type":"int","value":-1712},{"name":"y2","type":"int","value":-1712},{"name":"next","type":"int","value":75},{"name":"prev","type":"int","value":72}],"polyline":[{"x":0,"y":0},{"x":57,"y":0}]},{"id":390,"x":1980,"y":-1712,"visible":true,"properties":[{"name":"layer","type":"int","value":3},{"name":"group","type":"int","value":31},{"name":"id","type":"int","value":74},{"name":"fh_layer","type":"int","value":3},{"name":"fh_group","type":"int","value":31},{"name":"fh_id","type":"int","value":74},{"name":"x1","type":"int","value":1980},{"name":"x2","type":"int","value":2070},{"name":"y1","type":"int","value":-1712},{"name":"y2","type":"int","value":-1712},{"name":"next","type":"int","value":76},{"name":"prev","type":"int","value":75}],"polyline":[{"x":0,"y":0},{"x":90,"y":0}]},{"id":391,"x":1890,"y":-1712,"visible":true,"properties":[{"name":"layer","type":"int","value":3},{"name":"group","type":"int","value":31},{"name":"id","type":"int","value":75},{"name":"fh_layer","type":"int","value":3},{"name":"fh_group","type":"int","value":31},{"name":"fh_id","type":"int","value":75},{"name":"x1","type":"int","value":1890},{"name":"x2","type":"int","value":1980},{"name":"y1","type":"int","value":-1712},{"name":"y2","type":"int","value":-1712},{"name":"next","type":"int","value":74},{"name":"prev","type":"int","value":73}],"polyline":[{"x":0,"y":0},{"x":90,"y":0}]},{"id":392,"x":2070,"y":-1712,"visible":true,"properties":[{"name":"layer","type":"int","value":3},{"name":"group","type":"int","value":31},{"name":"id","type":"int","value":76},{"name":"fh_layer","type":"int","value":3},{"name":"fh_group","type":"int","value":31},{"name":"fh_id","type":"int","value":76},{"name":"x1","type":"int","value":2070},{"name":"x2","type":"int","value":2160},{"name":"y1","type":"int","value":-1712},{"name":"y2","type":"int","value":-1712},{"name":"next","type":"int","value":79},{"name":"prev","type":"int","value":74}],"polyline":[{"x":0,"y":0},{"x":90,"y":0}]},{"id":393,"x":2340,"y":-1712,"visible":true,"properties":[{"name":"layer","type":"int","value":3},{"name":"group","type":"int","value":31},{"name":"id","type":"int","value":77},{"name":"fh_layer","type":"int","value":3},{"name":"fh_group","type":"int","value":31},{"name":"fh_id","type":"int","value":77},{"name":"x1","type":"int","value":2340},{"name":"x2","type":"int","value":2397},{"name":"y1","type":"int","value":-1712},{"name":"y2","type":"int","value":-1712},{"name":"next","type":"int","value":80},{"name":"prev","type":"int","value":78}],"polyline":[{"x":0,"y":0},{"x":57,"y":0}]},{"id":394,"x":2250,"y":-1712,"visible":true,"properties":[{"name":"layer","type":"int","value":3},{"name":"group","type":"int","value":31},{"name":"id","type":"int","value":78},{"name":"fh_layer","type":"int","value":3},{"name":"fh_group","type":"int","value":31},{"name":"fh_id","type":"int","value":78},{"name":"x1","type":"int","value":2250},{"name":"x2","type":"int","value":2340},{"name":"y1","type":"int","value":-1712},{"name":"y2","type":"int","value":-1712},{"name":"next","type":"int","value":77},{"name":"prev","type":"int","value":79}],"polyline":[{"x":0,"y":0},{"x":90,"y":0}]},{"id":395,"x":2160,"y":-1712,"visible":true,"properties":[{"name":"layer","type":"int","value":3},{"name":"group","type":"int","value":31},{"name":"id","type":"int","value":79},{"name":"fh_layer","type":"int","value":3},{"name":"fh_group","type":"int","value":31},{"name":"fh_id","type":"int","value":79},{"name":"x1","type":"int","value":2160},{"name":"x2","type":"int","value":2250},{"name":"y1","type":"int","value":-1712},{"name":"y2","type":"int","value":-1712},{"name":"next","type":"int","value":78},{"name":"prev","type":"int","value":76}],"polyline":[{"x":0,"y":0},{"x":90,"y":0}]},{"id":396,"x":2397,"y":-1712,"visible":true,"properties":[{"name":"layer","type":"int","value":3},{"name":"group","type":"int","value":31},{"name":"id","type":"int","value":80},{"name":"fh_layer","type":"int","value":3},{"name":"fh_group","type":"int","value":31},{"name":"fh_id","type":"int","value":80},{"name":"x1","type":"int","value":2397},{"name":"x2","type":"int","value":2430},{"name":"y1","type":"int","value":-1712},{"name":"y2","type":"int","value":-1712},{"name":"next","type":"int","value":81},{"name":"prev","type":"int","value":77}],"polyline":[{"x":0,"y":0},{"x":33,"y":0}]},{"id":397,"x":2430,"y":-1712,"visible":true,"properties":[{"name":"layer","type":"int","value":3},{"name":"group","type":"int","value":31},{"name":"id","type":"int","value":81},{"name":"fh_layer","type":"int","value":3},{"name":"fh_group","type":"int","value":31},{"name":"fh_id","type":"int","value":81},{"name":"x1","type":"int","value":2430},{"name":"x2","type":"int","value":2463},{"name":"y1","type":"int","value":-1712},{"name":"y2","type":"int","value":-1712},{"name":"next","type":"int","value":82},{"name":"prev","type":"int","value":80}],"polyline":[{"x":0,"y":0},{"x":33,"y":0}]},{"id":398,"x":2463,"y":-1712,"visible":true,"properties":[{"name":"layer","type":"int","value":3},{"name":"group","type":"int","value":31},{"name":"id","type":"int","value":82},{"name":"fh_layer","type":"int","value":3},{"name":"fh_group","type":"int","value":31},{"name":"fh_id","type":"int","value":82},{"name":"x1","type":"int","value":2463},{"name":"x2","type":"int","value":2463},{"name":"y1","type":"int","value":-1712},{"name":"y2","type":"int","value":-1680},{"name":"next","type":"int","value":0},{"name":"prev","type":"int","value":81}],"polyline":[{"x":0,"y":0},{"x":0,"y":32}]}],"properties":[]},{"id":45,"name":"ladderRope","type":"objectgroup","visible":true,"opacity":1,"draworder":"index","offsetx":0,"offsety":0,"parallaxx":1,"parallaxy":1,"objects":[{"id":399,"x":2480,"y":-510,"visible":true,"properties":[{"name":"ladder_id","type":"int","value":1},{"name":"l","type":"int","value":0},{"name":"x","type":"int","value":2480},{"name":"uf","type":"int","value":1},{"name":"y1","type":"int","value":-510},{"name":"y2","type":"int","value":55},{"name":"page","type":"int","value":6}],"polyline":[{"x":0,"y":0},{"x":0,"y":565}]},{"id":400,"x":1836,"y":-810,"visible":true,"properties":[{"name":"ladder_id","type":"int","value":2},{"name":"l","type":"int","value":0},{"name":"x","type":"int","value":1836},{"name":"uf","type":"int","value":1},{"name":"y1","type":"int","value":-810},{"name":"y2","type":"int","value":-537},{"name":"page","type":"int","value":6}],"polyline":[{"x":0,"y":0},{"x":0,"y":273}]},{"id":401,"x":2388,"y":-1110,"visible":true,"properties":[{"name":"ladder_id","type":"int","value":3},{"name":"l","type":"int","value":0},{"name":"x","type":"int","value":2388},{"name":"uf","type":"int","value":1},{"name":"y1","type":"int","value":-1110},{"name":"y2","type":"int","value":-838},{"name":"page","type":"int","value":6}],"polyline":[{"x":0,"y":0},{"x":0,"y":272}]},{"id":402,"x":1842,"y":-1410,"visible":true,"properties":[{"name":"ladder_id","type":"int","value":4},{"name":"l","type":"int","value":0},{"name":"x","type":"int","value":1842},{"name":"uf","type":"int","value":1},{"name":"y1","type":"int","value":-1410},{"name":"y2","type":"int","value":-1136},{"name":"page","type":"int","value":6}],"polyline":[{"x":0,"y":0},{"x":0,"y":274}]},{"id":403,"x":2387,"y":-1710,"visible":true,"properties":[{"name":"ladder_id","type":"int","value":5},{"name":"l","type":"int","value":0},{"name":"x","type":"int","value":2387},{"name":"uf","type":"int","value":1},{"name":"y1","type":"int","value":-1710},{"name":"y2","type":"int","value":-1435},{"name":"page","type":"int","value":6}],"polyline":[{"x":0,"y":0},{"x":0,"y":275}]}],"properties":[]},{"id":46,"name":"miniMap","type":"objectgroup","visible":true,"opacity":1,"draworder":"index","offsetx":0,"offsety":0,"parallaxx":1,"parallaxy":1,"objects":[{"id":404,"x":-1214,"y":2021,"visible":true,"properties":[{"name":"mag","type":"int","value":4},{"name":"centerX","type":"int","value":-1214},{"name":"centerY","type":"int","value":2021},{"name":"canvas_path","type":"string","value":"../images/30825.png"},{"name":"canvas_width","type":"int","value":107},{"name":"canvas_height","type":"int","value":150},{"name":"canvas_origin_x","type":"int","value":0},{"name":"canvas_origin_y","type":"int","value":0}],"point":true}],"properties":[]}],"tilesets":[{"firstgid":1,"source":"../tilesets/bg_ereb.tsj"},{"firstgid":23,"source":"../tilesets/tile_fallenLeaves.tsj"},{"firstgid":39,"source":"../tilesets/obj_connect_rope_27.tsj"},{"firstgid":43,"source":"../tilesets/obj_acc11_erebTR_box.tsj"},{"firstgid":47,"source":"../tilesets/obj_trap_trap_nature.tsj"},{"firstgid":58,"source":"../tilesets/obj_acc11_erebTR_trap.tsj"},{"firstgid":62,"source":"../tilesets/obj_acc11_erebFD_stone.tsj"},{"firstgid":64,"source":"../tilesets/obj_acc11_erebTR_fence.tsj"},{"firstgid":68,"source":"../tilesets/bg_Back_ereb.img_ani_0.tsj"},{"firstgid":70,"source":"../tilesets/bg_Back_ereb.img_ani_1.tsj"},{"firstgid":72,"source":"../tilesets/bg_Back_ereb.img_ani_2.tsj"},{"firstgid":74,"source":"../tilesets/bg_Back_ereb.img_ani_3.tsj"},{"firstgid":76,"source":"../tilesets/bg_Back_ereb.img_ani_4.tsj"},{"firstgid":78,"source":"../tilesets/bg_Back_ereb.img_ani_5.tsj"},{"firstgid":80,"source":"../tilesets/bg_Back_ereb.img_ani_6.tsj"},{"firstgid":96,"source":"../tilesets/obj_acc11_erebTW_nature.tsj"}],"properties":[{"name":"bgm","type":"string","value":"Bgm18/DrillHall"},{"name":"fly","type":"int","value":0},{"name":"swim","type":"int","value":0},{"name":"town","type":"int","value":0},{"name":"VRTop","type":"int","value":-2300},{"name":"cloud","type":"int","value":0},{"name":"VRLeft","type":"int","value":1351},{"name":"VRRight","type":"int","value":2699},{"name":"mapMark","type":"string","value":"Ereb"},{"name":"mobRate","type":"float","value":1},{"name":"version","type":"int","value":10},{"name":"VRBottom","type":"int","value":265},{"name":"returnMap","type":"int","value":130020000},{"name":"fieldLimit","type":"int","value":271100},{"name":"hideMinimap","type":"int","value":0},{"name":"onUserEnter","type":"string","value":""},{"name":"forcedReturn","type":"int","value":130020000},{"name":"onFirstUserEnter","type":"string","value":""}]}