{"type":"map","orientation":"orthogonal","renderorder":"right-down","infinite":false,"tilewidth":1,"tileheight":1,"width":1890,"height":1532,"parallaxoriginx":-400,"parallaxoriginy":80,"nextlayerid":1,"nextobjectid":1,"layers":[],"tilesets":[],"properties":[{"name":"bgm","type":"string","value":"Bgm18/WolfAndSheep"},{"name":"fly","type":"int","value":0},{"name":"link","type":"int","value":109090300},{"name":"swim","type":"int","value":0},{"name":"town","type":"int","value":0},{"name":"VRTop","type":"int","value":-1230},{"name":"cloud","type":"int","value":0},{"name":"VRLeft","type":"int","value":-810},{"name":"VRRight","type":"int","value":1080},{"name":"mapMark","type":"string","value":"Event"},{"name":"mobRate","type":"float","value":1},{"name":"version","type":"int","value":10},{"name":"VRBottom","type":"int","value":302},{"name":"noMapCmd","type":"int","value":0},{"name":"fieldType","type":"int","value":19},{"name":"returnMap","type":"int","value":910040001},{"name":"dropExpire","type":"int","value":10},{"name":"fieldLimit","type":"int","value":337660},{"name":"allowedItem","type":"string","value":""},{"name":"hideMinimap","type":"int","value":0},{"name":"onUserEnter","type":"string","value":""},{"name":"forcedReturn","type":"int","value":910040001},{"name":"onFirstUserEnter","type":"string","value":""}]}