{"type":"map","orientation":"orthogonal","renderorder":"right-down","infinite":false,"tilewidth":1,"tileheight":1,"width":940,"height":600,"parallaxoriginx":-400,"parallaxoriginy":80,"nextlayerid":7,"nextobjectid":50,"layers":[{"id":1,"name":"layer_3_obj","type":"objectgroup","visible":true,"opacity":1,"draworder":"index","offsetx":0,"offsety":0,"parallaxx":1,"parallaxy":1,"objects":[{"id":1,"x":-400,"y":150,"visible":true,"properties":[{"name":"layer","type":"int","value":3},{"name":"resource_index","type":"int","value":0},{"name":"oS","type":"string","value":"acc9"},{"name":"l0","type":"string","value":"inside"},{"name":"l1","type":"string","value":"crew"},{"name":"l2","type":"string","value":"0"},{"name":"z","type":"int","value":9},{"name":"zM","type":"int","value":4},{"name":"f","type":"int","value":0}],"gid":6,"width":200,"height":450},{"id":2,"x":-200,"y":150,"visible":true,"properties":[{"name":"layer","type":"int","value":3},{"name":"resource_index","type":"int","value":1},{"name":"oS","type":"string","value":"acc9"},{"name":"l0","type":"string","value":"inside"},{"name":"l1","type":"string","value":"crew"},{"name":"l2","type":"string","value":"1"},{"name":"z","type":"int","value":9},{"name":"zM","type":"int","value":5},{"name":"f","type":"int","value":0}],"gid":7,"width":200,"height":450},{"id":3,"x":0,"y":150,"visible":true,"properties":[{"name":"layer","type":"int","value":3},{"name":"resource_index","type":"int","value":2},{"name":"oS","type":"string","value":"acc9"},{"name":"l0","type":"string","value":"inside"},{"name":"l1","type":"string","value":"crew"},{"name":"l2","type":"string","value":"2"},{"name":"z","type":"int","value":9},{"name":"zM","type":"int","value":2},{"name":"f","type":"int","value":0}],"gid":8,"width":200,"height":450},{"id":4,"x":200,"y":150,"visible":true,"properties":[{"name":"layer","type":"int","value":3},{"name":"resource_index","type":"int","value":3},{"name":"oS","type":"string","value":"acc9"},{"name":"l0","type":"string","value":"inside"},{"name":"l1","type":"string","value":"crew"},{"name":"l2","type":"string","value":"3"},{"name":"z","type":"int","value":9},{"name":"zM","type":"int","value":3},{"name":"f","type":"int","value":0}],"gid":9,"width":340,"height":450},{"id":5,"x":-383,"y":-74,"visible":true,"properties":[{"name":"layer","type":"int","value":3},{"name":"resource_index","type":"int","value":4},{"name":"oS","type":"string","value":"connect"},{"name":"l0","type":"string","value":"ladder"},{"name":"l1","type":"string","value":"57"},{"name":"l2","type":"string","value":"0"},{"name":"z","type":"int","value":10},{"name":"zM","type":"int","value":4},{"name":"f","type":"int","value":0}],"gid":10,"width":45,"height":27},{"id":6,"x":-383,"y":-32,"visible":true,"properties":[{"name":"layer","type":"int","value":3},{"name":"resource_index","type":"int","value":5},{"name":"oS","type":"string","value":"connect"},{"name":"l0","type":"string","value":"ladder"},{"name":"l1","type":"string","value":"57"},{"name":"l2","type":"string","value":"1"},{"name":"z","type":"int","value":10},{"name":"zM","type":"int","value":4},{"name":"f","type":"int","value":0}],"gid":13,"width":40,"height":61},{"id":7,"x":-383,"y":29,"visible":true,"properties":[{"name":"layer","type":"int","value":3},{"name":"resource_index","type":"int","value":6},{"name":"oS","type":"string","value":"connect"},{"name":"l0","type":"string","value":"ladder"},{"name":"l1","type":"string","value":"57"},{"name":"l2","type":"string","value":"1"},{"name":"z","type":"int","value":9},{"name":"zM","type":"int","value":4},{"name":"f","type":"int","value":0}],"gid":13,"width":40,"height":61},{"id":8,"x":-384,"y":38,"visible":true,"properties":[{"name":"layer","type":"int","value":3},{"name":"resource_index","type":"int","value":7},{"name":"oS","type":"string","value":"connect"},{"name":"l0","type":"string","value":"ladder"},{"name":"l1","type":"string","value":"57"},{"name":"l2","type":"string","value":"2"},{"name":"z","type":"int","value":9},{"name":"zM","type":"int","value":4},{"name":"f","type":"int","value":0}],"gid":12,"width":42,"height":30}],"properties":[]},{"id":2,"name":"layer_5_obj","type":"objectgroup","visible":true,"opacity":1,"draworder":"index","offsetx":0,"offsety":0,"parallaxx":1,"parallaxy":1,"objects":[{"id":9,"x":-401,"y":299,"visible":true,"properties":[{"name":"layer","type":"int","value":5},{"name":"resource_index","type":"int","value":0},{"name":"oS","type":"string","value":"acc9"},{"name":"l0","type":"string","value":"inside"},{"name":"l1","type":"string","value":"etc"},{"name":"l2","type":"string","value":"0"},{"name":"z","type":"int","value":9},{"name":"zM","type":"int","value":0},{"name":"f","type":"int","value":0}],"gid":2,"width":150,"height":150},{"id":10,"x":-252,"y":299,"visible":true,"properties":[{"name":"layer","type":"int","value":5},{"name":"resource_index","type":"int","value":1},{"name":"oS","type":"string","value":"acc9"},{"name":"l0","type":"string","value":"inside"},{"name":"l1","type":"string","value":"etc"},{"name":"l2","type":"string","value":"0"},{"name":"z","type":"int","value":9},{"name":"zM","type":"int","value":0},{"name":"f","type":"int","value":0}],"gid":2,"width":150,"height":150},{"id":11,"x":-103,"y":299,"visible":true,"properties":[{"name":"layer","type":"int","value":5},{"name":"resource_index","type":"int","value":2},{"name":"oS","type":"string","value":"acc9"},{"name":"l0","type":"string","value":"inside"},{"name":"l1","type":"string","value":"etc"},{"name":"l2","type":"string","value":"0"},{"name":"z","type":"int","value":9},{"name":"zM","type":"int","value":0},{"name":"f","type":"int","value":0}],"gid":2,"width":150,"height":150},{"id":12,"x":47,"y":299,"visible":true,"properties":[{"name":"layer","type":"int","value":5},{"name":"resource_index","type":"int","value":3},{"name":"oS","type":"string","value":"acc9"},{"name":"l0","type":"string","value":"inside"},{"name":"l1","type":"string","value":"etc"},{"name":"l2","type":"string","value":"0"},{"name":"z","type":"int","value":9},{"name":"zM","type":"int","value":1},{"name":"f","type":"int","value":0}],"gid":2,"width":150,"height":150},{"id":13,"x":196,"y":299,"visible":true,"properties":[{"name":"layer","type":"int","value":5},{"name":"resource_index","type":"int","value":4},{"name":"oS","type":"string","value":"acc9"},{"name":"l0","type":"string","value":"inside"},{"name":"l1","type":"string","value":"etc"},{"name":"l2","type":"string","value":"0"},{"name":"z","type":"int","value":9},{"name":"zM","type":"int","value":1},{"name":"f","type":"int","value":0}],"gid":2,"width":150,"height":150},{"id":14,"x":345,"y":299,"visible":true,"properties":[{"name":"layer","type":"int","value":5},{"name":"resource_index","type":"int","value":5},{"name":"oS","type":"string","value":"acc9"},{"name":"l0","type":"string","value":"inside"},{"name":"l1","type":"string","value":"etc"},{"name":"l2","type":"string","value":"0"},{"name":"z","type":"int","value":9},{"name":"zM","type":"int","value":1},{"name":"f","type":"int","value":0}],"gid":2,"width":150,"height":150},{"id":15,"x":390,"y":299,"visible":true,"properties":[{"name":"layer","type":"int","value":5},{"name":"resource_index","type":"int","value":6},{"name":"oS","type":"string","value":"acc9"},{"name":"l0","type":"string","value":"inside"},{"name":"l1","type":"string","value":"etc"},{"name":"l2","type":"string","value":"0"},{"name":"z","type":"int","value":9},{"name":"zM","type":"int","value":1},{"name":"f","type":"int","value":0}],"gid":2,"width":150,"height":150}],"properties":[]},{"id":3,"name":"portal","type":"objectgroup","visible":true,"opacity":1,"draworder":"index","offsetx":0,"offsety":0,"parallaxx":1,"parallaxy":1,"objects":[{"id":16,"x":-52,"y":-125,"visible":true,"properties":[{"name":"x","type":"int","value":-52},{"name":"y","type":"int","value":-125},{"name":"pn","type":"string","value":"sp"},{"name":"pt","type":"int","value":0},{"name":"tm","type":"int","value":999999999},{"name":"tn","type":"string","value":""}],"point":true},{"id":17,"x":371,"y":24,"visible":true,"properties":[{"name":"x","type":"int","value":415},{"name":"y","type":"int","value":15},{"name":"pn","type":"string","value":"bo01"},{"name":"pt","type":"int","value":2},{"name":"tm","type":"int","value":120000200},{"name":"tn","type":"string","value":"bi01"}],"gid":14,"width":89,"height":257}],"properties":[]},{"id":4,"name":"life","type":"objectgroup","visible":true,"opacity":1,"draworder":"index","offsetx":0,"offsety":0,"parallaxx":1,"parallaxy":1,"objects":[{"id":18,"x":492,"y":145,"visible":true,"properties":[{"name":"f","type":"int","value":0},{"name":"x","type":"int","value":492},{"name":"y","type":"int","value":145},{"name":"cy","type":"int","value":150},{"name":"fh","type":"int","value":29},{"name":"id","type":"int","value":1092015},{"name":"rx0","type":"int","value":442},{"name":"rx1","type":"int","value":522},{"name":"hide","type":"int","value":1},{"name":"type","type":"string","value":"n"},{"name":"mobTime","type":"int","value":0},{"name":"npc_aseprite","type":"file","value":"../../Npc/1092015.img/animation.aseprite"}],"point":true}],"properties":[]},{"id":5,"name":"foothold","type":"objectgroup","visible":true,"opacity":1,"draworder":"index","offsetx":0,"offsety":0,"parallaxx":1,"parallaxy":1,"objects":[{"id":19,"x":-2,"y":-154,"visible":true,"properties":[{"name":"layer","type":"int","value":3},{"name":"group","type":"int","value":2},{"name":"id","type":"int","value":13},{"name":"fh_layer","type":"int","value":3},{"name":"fh_group","type":"int","value":2},{"name":"fh_id","type":"int","value":13},{"name":"x1","type":"int","value":-2},{"name":"x2","type":"int","value":12},{"name":"y1","type":"int","value":-154},{"name":"y2","type":"int","value":-157},{"name":"next","type":"int","value":14},{"name":"prev","type":"int","value":10}],"polyline":[{"x":0,"y":0},{"x":14,"y":-3}]},{"id":20,"x":12,"y":-157,"visible":true,"properties":[{"name":"layer","type":"int","value":3},{"name":"group","type":"int","value":2},{"name":"id","type":"int","value":14},{"name":"fh_layer","type":"int","value":3},{"name":"fh_group","type":"int","value":2},{"name":"fh_id","type":"int","value":14},{"name":"x1","type":"int","value":12},{"name":"x2","type":"int","value":193},{"name":"y1","type":"int","value":-157},{"name":"y2","type":"int","value":-157},{"name":"next","type":"int","value":0},{"name":"prev","type":"int","value":13}],"polyline":[{"x":0,"y":0},{"x":181,"y":0}]},{"id":21,"x":2,"y":93,"visible":true,"properties":[{"name":"layer","type":"int","value":3},{"name":"group","type":"int","value":2},{"name":"id","type":"int","value":15},{"name":"fh_layer","type":"int","value":3},{"name":"fh_group","type":"int","value":2},{"name":"fh_id","type":"int","value":15},{"name":"x1","type":"int","value":2},{"name":"x2","type":"int","value":28},{"name":"y1","type":"int","value":93},{"name":"y2","type":"int","value":93},{"name":"next","type":"int","value":16},{"name":"prev","type":"int","value":11}],"polyline":[{"x":0,"y":0},{"x":26,"y":0}]},{"id":22,"x":28,"y":93,"visible":true,"properties":[{"name":"layer","type":"int","value":3},{"name":"group","type":"int","value":2},{"name":"id","type":"int","value":16},{"name":"fh_layer","type":"int","value":3},{"name":"fh_group","type":"int","value":2},{"name":"fh_id","type":"int","value":16},{"name":"x1","type":"int","value":28},{"name":"x2","type":"int","value":31},{"name":"y1","type":"int","value":93},{"name":"y2","type":"int","value":86},{"name":"next","type":"int","value":17},{"name":"prev","type":"int","value":15}],"polyline":[{"x":0,"y":0},{"x":3,"y":-7}]},{"id":23,"x":31,"y":86,"visible":true,"properties":[{"name":"layer","type":"int","value":3},{"name":"group","type":"int","value":2},{"name":"id","type":"int","value":17},{"name":"fh_layer","type":"int","value":3},{"name":"fh_group","type":"int","value":2},{"name":"fh_id","type":"int","value":17},{"name":"x1","type":"int","value":31},{"name":"x2","type":"int","value":191},{"name":"y1","type":"int","value":86},{"name":"y2","type":"int","value":86},{"name":"next","type":"int","value":0},{"name":"prev","type":"int","value":16}],"polyline":[{"x":0,"y":0},{"x":160,"y":0}]},{"id":24,"x":3,"y":-97,"visible":true,"properties":[{"name":"layer","type":"int","value":3},{"name":"group","type":"int","value":2},{"name":"id","type":"int","value":18},{"name":"fh_layer","type":"int","value":3},{"name":"fh_group","type":"int","value":2},{"name":"fh_id","type":"int","value":18},{"name":"x1","type":"int","value":3},{"name":"x2","type":"int","value":203},{"name":"y1","type":"int","value":-97},{"name":"y2","type":"int","value":-97},{"name":"next","type":"int","value":19},{"name":"prev","type":"int","value":12}],"polyline":[{"x":0,"y":0},{"x":200,"y":0}]},{"id":25,"x":203,"y":-97,"visible":true,"properties":[{"name":"layer","type":"int","value":3},{"name":"group","type":"int","value":3},{"name":"id","type":"int","value":19},{"name":"fh_layer","type":"int","value":3},{"name":"fh_group","type":"int","value":3},{"name":"fh_id","type":"int","value":19},{"name":"x1","type":"int","value":203},{"name":"x2","type":"int","value":251},{"name":"y1","type":"int","value":-97},{"name":"y2","type":"int","value":-97},{"name":"next","type":"int","value":0},{"name":"prev","type":"int","value":18}],"polyline":[{"x":0,"y":0},{"x":48,"y":0}]},{"id":26,"x":265,"y":127,"visible":true,"properties":[{"name":"layer","type":"int","value":3},{"name":"group","type":"int","value":3},{"name":"id","type":"int","value":20},{"name":"fh_layer","type":"int","value":3},{"name":"fh_group","type":"int","value":3},{"name":"fh_id","type":"int","value":20},{"name":"x1","type":"int","value":265},{"name":"x2","type":"int","value":410},{"name":"y1","type":"int","value":127},{"name":"y2","type":"int","value":127},{"name":"next","type":"int","value":0},{"name":"prev","type":"int","value":0}],"polyline":[{"x":0,"y":0},{"x":145,"y":0}]},{"id":27,"x":289,"y":90,"visible":true,"properties":[{"name":"layer","type":"int","value":3},{"name":"group","type":"int","value":3},{"name":"id","type":"int","value":21},{"name":"fh_layer","type":"int","value":3},{"name":"fh_group","type":"int","value":3},{"name":"fh_id","type":"int","value":21},{"name":"x1","type":"int","value":289},{"name":"x2","type":"int","value":432},{"name":"y1","type":"int","value":90},{"name":"y2","type":"int","value":90},{"name":"next","type":"int","value":0},{"name":"prev","type":"int","value":0}],"polyline":[{"x":0,"y":0},{"x":143,"y":0}]},{"id":28,"x":307,"y":54,"visible":true,"properties":[{"name":"layer","type":"int","value":3},{"name":"group","type":"int","value":3},{"name":"id","type":"int","value":22},{"name":"fh_layer","type":"int","value":3},{"name":"fh_group","type":"int","value":3},{"name":"fh_id","type":"int","value":22},{"name":"x1","type":"int","value":307},{"name":"x2","type":"int","value":455},{"name":"y1","type":"int","value":54},{"name":"y2","type":"int","value":54},{"name":"next","type":"int","value":0},{"name":"prev","type":"int","value":0}],"polyline":[{"x":0,"y":0},{"x":148,"y":0}]},{"id":29,"x":339,"y":18,"visible":true,"properties":[{"name":"layer","type":"int","value":3},{"name":"group","type":"int","value":3},{"name":"id","type":"int","value":23},{"name":"fh_layer","type":"int","value":3},{"name":"fh_group","type":"int","value":3},{"name":"fh_id","type":"int","value":23},{"name":"x1","type":"int","value":339},{"name":"x2","type":"int","value":484},{"name":"y1","type":"int","value":18},{"name":"y2","type":"int","value":18},{"name":"next","type":"int","value":0},{"name":"prev","type":"int","value":0}],"polyline":[{"x":0,"y":0},{"x":145,"y":0}]},{"id":30,"x":-331,"y":-153,"visible":true,"properties":[{"name":"layer","type":"int","value":3},{"name":"group","type":"int","value":4},{"name":"id","type":"int","value":1},{"name":"fh_layer","type":"int","value":3},{"name":"fh_group","type":"int","value":4},{"name":"fh_id","type":"int","value":1},{"name":"x1","type":"int","value":-331},{"name":"x2","type":"int","value":-265},{"name":"y1","type":"int","value":-153},{"name":"y2","type":"int","value":-153},{"name":"next","type":"int","value":2},{"name":"prev","type":"int","value":0}],"polyline":[{"x":0,"y":0},{"x":66,"y":0}]},{"id":31,"x":-265,"y":-153,"visible":true,"properties":[{"name":"layer","type":"int","value":3},{"name":"group","type":"int","value":4},{"name":"id","type":"int","value":2},{"name":"fh_layer","type":"int","value":3},{"name":"fh_group","type":"int","value":4},{"name":"fh_id","type":"int","value":2},{"name":"x1","type":"int","value":-265},{"name":"x2","type":"int","value":-258},{"name":"y1","type":"int","value":-153},{"name":"y2","type":"int","value":-161},{"name":"next","type":"int","value":3},{"name":"prev","type":"int","value":1}],"polyline":[{"x":0,"y":0},{"x":7,"y":-8}]},{"id":32,"x":-258,"y":-161,"visible":true,"properties":[{"name":"layer","type":"int","value":3},{"name":"group","type":"int","value":4},{"name":"id","type":"int","value":3},{"name":"fh_layer","type":"int","value":3},{"name":"fh_group","type":"int","value":4},{"name":"fh_id","type":"int","value":3},{"name":"x1","type":"int","value":-258},{"name":"x2","type":"int","value":-198},{"name":"y1","type":"int","value":-161},{"name":"y2","type":"int","value":-161},{"name":"next","type":"int","value":8},{"name":"prev","type":"int","value":2}],"polyline":[{"x":0,"y":0},{"x":60,"y":0}]},{"id":33,"x":-400,"y":-97,"visible":true,"properties":[{"name":"layer","type":"int","value":3},{"name":"group","type":"int","value":4},{"name":"id","type":"int","value":4},{"name":"fh_layer","type":"int","value":3},{"name":"fh_group","type":"int","value":4},{"name":"fh_id","type":"int","value":4},{"name":"x1","type":"int","value":-400},{"name":"x2","type":"int","value":-197},{"name":"y1","type":"int","value":-97},{"name":"y2","type":"int","value":-97},{"name":"next","type":"int","value":12},{"name":"prev","type":"int","value":0}],"polyline":[{"x":0,"y":0},{"x":203,"y":0}]},{"id":34,"x":-331,"y":94,"visible":true,"properties":[{"name":"layer","type":"int","value":3},{"name":"group","type":"int","value":4},{"name":"id","type":"int","value":5},{"name":"fh_layer","type":"int","value":3},{"name":"fh_group","type":"int","value":4},{"name":"fh_id","type":"int","value":5},{"name":"x1","type":"int","value":-331},{"name":"x2","type":"int","value":-265},{"name":"y1","type":"int","value":94},{"name":"y2","type":"int","value":94},{"name":"next","type":"int","value":6},{"name":"prev","type":"int","value":0}],"polyline":[{"x":0,"y":0},{"x":66,"y":0}]},{"id":35,"x":-265,"y":94,"visible":true,"properties":[{"name":"layer","type":"int","value":3},{"name":"group","type":"int","value":4},{"name":"id","type":"int","value":6},{"name":"fh_layer","type":"int","value":3},{"name":"fh_group","type":"int","value":4},{"name":"fh_id","type":"int","value":6},{"name":"x1","type":"int","value":-265},{"name":"x2","type":"int","value":-258},{"name":"y1","type":"int","value":94},{"name":"y2","type":"int","value":86},{"name":"next","type":"int","value":7},{"name":"prev","type":"int","value":5}],"polyline":[{"x":0,"y":0},{"x":7,"y":-8}]},{"id":36,"x":-258,"y":86,"visible":true,"properties":[{"name":"layer","type":"int","value":3},{"name":"group","type":"int","value":4},{"name":"id","type":"int","value":7},{"name":"fh_layer","type":"int","value":3},{"name":"fh_group","type":"int","value":4},{"name":"fh_id","type":"int","value":7},{"name":"x1","type":"int","value":-258},{"name":"x2","type":"int","value":-198},{"name":"y1","type":"int","value":86},{"name":"y2","type":"int","value":86},{"name":"next","type":"int","value":9},{"name":"prev","type":"int","value":6}],"polyline":[{"x":0,"y":0},{"x":60,"y":0}]},{"id":37,"x":-198,"y":-161,"visible":true,"properties":[{"name":"layer","type":"int","value":3},{"name":"group","type":"int","value":5},{"name":"id","type":"int","value":8},{"name":"fh_layer","type":"int","value":3},{"name":"fh_group","type":"int","value":5},{"name":"fh_id","type":"int","value":8},{"name":"x1","type":"int","value":-198},{"name":"x2","type":"int","value":-100},{"name":"y1","type":"int","value":-161},{"name":"y2","type":"int","value":-161},{"name":"next","type":"int","value":0},{"name":"prev","type":"int","value":3}],"polyline":[{"x":0,"y":0},{"x":98,"y":0}]},{"id":38,"x":-198,"y":86,"visible":true,"properties":[{"name":"layer","type":"int","value":3},{"name":"group","type":"int","value":5},{"name":"id","type":"int","value":9},{"name":"fh_layer","type":"int","value":3},{"name":"fh_group","type":"int","value":5},{"name":"fh_id","type":"int","value":9},{"name":"x1","type":"int","value":-198},{"name":"x2","type":"int","value":-99},{"name":"y1","type":"int","value":86},{"name":"y2","type":"int","value":86},{"name":"next","type":"int","value":0},{"name":"prev","type":"int","value":7}],"polyline":[{"x":0,"y":0},{"x":99,"y":0}]},{"id":39,"x":-40,"y":-154,"visible":true,"properties":[{"name":"layer","type":"int","value":3},{"name":"group","type":"int","value":5},{"name":"id","type":"int","value":10},{"name":"fh_layer","type":"int","value":3},{"name":"fh_group","type":"int","value":5},{"name":"fh_id","type":"int","value":10},{"name":"x1","type":"int","value":-40},{"name":"x2","type":"int","value":-2},{"name":"y1","type":"int","value":-154},{"name":"y2","type":"int","value":-154},{"name":"next","type":"int","value":13},{"name":"prev","type":"int","value":0}],"polyline":[{"x":0,"y":0},{"x":38,"y":0}]},{"id":40,"x":-41,"y":93,"visible":true,"properties":[{"name":"layer","type":"int","value":3},{"name":"group","type":"int","value":5},{"name":"id","type":"int","value":11},{"name":"fh_layer","type":"int","value":3},{"name":"fh_group","type":"int","value":5},{"name":"fh_id","type":"int","value":11},{"name":"x1","type":"int","value":-41},{"name":"x2","type":"int","value":2},{"name":"y1","type":"int","value":93},{"name":"y2","type":"int","value":93},{"name":"next","type":"int","value":15},{"name":"prev","type":"int","value":0}],"polyline":[{"x":0,"y":0},{"x":43,"y":0}]},{"id":41,"x":-197,"y":-97,"visible":true,"properties":[{"name":"layer","type":"int","value":3},{"name":"group","type":"int","value":5},{"name":"id","type":"int","value":12},{"name":"fh_layer","type":"int","value":3},{"name":"fh_group","type":"int","value":5},{"name":"fh_id","type":"int","value":12},{"name":"x1","type":"int","value":-197},{"name":"x2","type":"int","value":3},{"name":"y1","type":"int","value":-97},{"name":"y2","type":"int","value":-97},{"name":"next","type":"int","value":18},{"name":"prev","type":"int","value":4}],"polyline":[{"x":0,"y":0},{"x":200,"y":0}]},{"id":42,"x":-402,"y":150,"visible":true,"properties":[{"name":"layer","type":"int","value":5},{"name":"group","type":"int","value":0},{"name":"id","type":"int","value":24},{"name":"fh_layer","type":"int","value":5},{"name":"fh_group","type":"int","value":0},{"name":"fh_id","type":"int","value":24},{"name":"x1","type":"int","value":-402},{"name":"x2","type":"int","value":-249},{"name":"y1","type":"int","value":150},{"name":"y2","type":"int","value":150},{"name":"next","type":"int","value":25},{"name":"prev","type":"int","value":0}],"polyline":[{"x":0,"y":0},{"x":153,"y":0}]},{"id":43,"x":-249,"y":150,"visible":true,"properties":[{"name":"layer","type":"int","value":5},{"name":"group","type":"int","value":0},{"name":"id","type":"int","value":25},{"name":"fh_layer","type":"int","value":5},{"name":"fh_group","type":"int","value":0},{"name":"fh_id","type":"int","value":25},{"name":"x1","type":"int","value":-249},{"name":"x2","type":"int","value":-100},{"name":"y1","type":"int","value":150},{"name":"y2","type":"int","value":150},{"name":"next","type":"int","value":26},{"name":"prev","type":"int","value":24}],"polyline":[{"x":0,"y":0},{"x":149,"y":0}]},{"id":44,"x":-100,"y":150,"visible":true,"properties":[{"name":"layer","type":"int","value":5},{"name":"group","type":"int","value":0},{"name":"id","type":"int","value":26},{"name":"fh_layer","type":"int","value":5},{"name":"fh_group","type":"int","value":0},{"name":"fh_id","type":"int","value":26},{"name":"x1","type":"int","value":-100},{"name":"x2","type":"int","value":49},{"name":"y1","type":"int","value":150},{"name":"y2","type":"int","value":150},{"name":"next","type":"int","value":27},{"name":"prev","type":"int","value":25}],"polyline":[{"x":0,"y":0},{"x":149,"y":0}]},{"id":45,"x":49,"y":150,"visible":true,"properties":[{"name":"layer","type":"int","value":5},{"name":"group","type":"int","value":1},{"name":"id","type":"int","value":27},{"name":"fh_layer","type":"int","value":5},{"name":"fh_group","type":"int","value":1},{"name":"fh_id","type":"int","value":27},{"name":"x1","type":"int","value":49},{"name":"x2","type":"int","value":199},{"name":"y1","type":"int","value":150},{"name":"y2","type":"int","value":150},{"name":"next","type":"int","value":28},{"name":"prev","type":"int","value":26}],"polyline":[{"x":0,"y":0},{"x":150,"y":0}]},{"id":46,"x":199,"y":150,"visible":true,"properties":[{"name":"layer","type":"int","value":5},{"name":"group","type":"int","value":1},{"name":"id","type":"int","value":28},{"name":"fh_layer","type":"int","value":5},{"name":"fh_group","type":"int","value":1},{"name":"fh_id","type":"int","value":28},{"name":"x1","type":"int","value":199},{"name":"x2","type":"int","value":348},{"name":"y1","type":"int","value":150},{"name":"y2","type":"int","value":150},{"name":"next","type":"int","value":29},{"name":"prev","type":"int","value":27}],"polyline":[{"x":0,"y":0},{"x":149,"y":0}]},{"id":47,"x":348,"y":150,"visible":true,"properties":[{"name":"layer","type":"int","value":5},{"name":"group","type":"int","value":1},{"name":"id","type":"int","value":29},{"name":"fh_layer","type":"int","value":5},{"name":"fh_group","type":"int","value":1},{"name":"fh_id","type":"int","value":29},{"name":"x1","type":"int","value":348},{"name":"x2","type":"int","value":497},{"name":"y1","type":"int","value":150},{"name":"y2","type":"int","value":150},{"name":"next","type":"int","value":30},{"name":"prev","type":"int","value":28}],"polyline":[{"x":0,"y":0},{"x":149,"y":0}]},{"id":48,"x":497,"y":150,"visible":true,"properties":[{"name":"layer","type":"int","value":5},{"name":"group","type":"int","value":1},{"name":"id","type":"int","value":30},{"name":"fh_layer","type":"int","value":5},{"name":"fh_group","type":"int","value":1},{"name":"fh_id","type":"int","value":30},{"name":"x1","type":"int","value":497},{"name":"x2","type":"int","value":542},{"name":"y1","type":"int","value":150},{"name":"y2","type":"int","value":150},{"name":"next","type":"int","value":0},{"name":"prev","type":"int","value":29}],"polyline":[{"x":0,"y":0},{"x":45,"y":0}]}],"properties":[]},{"id":6,"name":"ladderRope","type":"objectgroup","visible":true,"opacity":1,"draworder":"index","offsetx":0,"offsety":0,"parallaxx":1,"parallaxy":1,"objects":[{"id":49,"x":-363,"y":-95,"visible":true,"properties":[{"name":"ladder_id","type":"int","value":1},{"name":"l","type":"int","value":1},{"name":"x","type":"int","value":-363},{"name":"uf","type":"int","value":1},{"name":"y1","type":"int","value":-95},{"name":"y2","type":"int","value":51},{"name":"page","type":"int","value":3}],"polyline":[{"x":0,"y":0},{"x":0,"y":146}]}],"properties":[]}],"tilesets":[{"firstgid":1,"source":"../tilesets/obj_acc9_inside_etc.tsj"},{"firstgid":6,"source":"../tilesets/obj_acc9_inside_crew.tsj"},{"firstgid":10,"source":"../tilesets/obj_connect_ladder_57.tsj"},{"firstgid":14,"source":"../tilesets/portal_MapHelper.img_portal_game_pv.tsj"}],"properties":[{"name":"bgm","type":"string","value":"Bgm15/inNautilus"},{"name":"swim","type":"int","value":0},{"name":"town","type":"int","value":1},{"name":"VRTop","type":"int","value":-300},{"name":"cloud","type":"int","value":0},{"name":"VRLeft","type":"int","value":-403},{"name":"VRRight","type":"int","value":537},{"name":"mapMark","type":"string","value":"Nautilus"},{"name":"mobRate","type":"float","value":1},{"name":"version","type":"int","value":10},{"name":"VRBottom","type":"int","value":300},{"name":"returnMap","type":"int","value":120000000},{"name":"fieldLimit","type":"int","value":8},{"name":"hideMinimap","type":"int","value":0},{"name":"forcedReturn","type":"int","value":999999999}]}