{"type":"map","orientation":"orthogonal","renderorder":"right-down","infinite":false,"tilewidth":1,"tileheight":1,"width":800,"height":650,"parallaxoriginx":-400,"parallaxoriginy":80,"nextlayerid":25,"nextobjectid":53,"layers":[{"id":1,"name":"background_back_0","type":"imagelayer","visible":true,"opacity":1,"image":"../images/27305.png","imagewidth":30,"imageheight":30,"offsetx":-15,"offsety":65,"repeatx":true,"repeaty":true,"parallaxx":0,"parallaxy":0,"properties":[{"name":"a","type":"int","value":255},{"name":"f","type":"int","value":0},{"name":"x","type":"int","value":0},{"name":"y","type":"int","value":0},{"name":"bS","type":"string","value":"Rien"},{"name":"cx","type":"int","value":0},{"name":"cy","type":"int","value":0},{"name":"no","type":"int","value":0},{"name":"rx","type":"int","value":0},{"name":"ry","type":"int","value":0},{"name":"ani","type":"int","value":0},{"name":"type","type":"int","value":3},{"name":"front","type":"int","value":0}]},{"id":2,"name":"background_back_1","type":"imagelayer","visible":true,"opacity":1,"image":"../images/27306.png","imagewidth":10,"imageheight":818,"offsetx":-5,"offsety":-549,"repeatx":true,"repeaty":false,"parallaxx":0,"parallaxy":0.7,"properties":[{"name":"a","type":"int","value":255},{"name":"f","type":"int","value":0},{"name":"x","type":"int","value":0},{"name":"y","type":"int","value":-220},{"name":"bS","type":"string","value":"Rien"},{"name":"cx","type":"int","value":0},{"name":"cy","type":"int","value":0},{"name":"no","type":"int","value":1},{"name":"rx","type":"int","value":0},{"name":"ry","type":"int","value":-70},{"name":"ani","type":"int","value":0},{"name":"type","type":"int","value":1},{"name":"front","type":"int","value":0}]},{"id":3,"name":"background_back_2","type":"imagelayer","visible":true,"opacity":1,"image":"../images/27307.png","imagewidth":800,"imageheight":366,"offsetx":-768,"offsety":-549,"repeatx":true,"repeaty":false,"parallaxx":0.07,"parallaxy":0.5,"properties":[{"name":"a","type":"int","value":255},{"name":"f","type":"int","value":0},{"name":"x","type":"int","value":-368},{"name":"y","type":"int","value":-446},{"name":"bS","type":"string","value":"Rien"},{"name":"cx","type":"int","value":1600},{"name":"cy","type":"int","value":0},{"name":"no","type":"int","value":2},{"name":"rx","type":"int","value":-7},{"name":"ry","type":"int","value":-50},{"name":"ani","type":"int","value":0},{"name":"type","type":"int","value":1},{"name":"front","type":"int","value":0}]},{"id":4,"name":"background_back_3","type":"imagelayer","visible":true,"opacity":1,"image":"../images/27308.png","imagewidth":800,"imageheight":206,"offsetx":32,"offsety":-389,"repeatx":true,"repeaty":false,"parallaxx":0.07,"parallaxy":0.5,"properties":[{"name":"a","type":"int","value":255},{"name":"f","type":"int","value":0},{"name":"x","type":"int","value":432},{"name":"y","type":"int","value":-366},{"name":"bS","type":"string","value":"Rien"},{"name":"cx","type":"int","value":1600},{"name":"cy","type":"int","value":0},{"name":"no","type":"int","value":3},{"name":"rx","type":"int","value":-7},{"name":"ry","type":"int","value":-50},{"name":"ani","type":"int","value":0},{"name":"type","type":"int","value":1},{"name":"front","type":"int","value":0}]},{"id":5,"name":"background_back_4","type":"imagelayer","visible":true,"opacity":1,"image":"../images/27309.png","imagewidth":800,"imageheight":134,"offsetx":-1200,"offsety":-213,"repeatx":true,"repeaty":false,"parallaxx":0.2,"parallaxy":0.6,"properties":[{"name":"a","type":"int","value":255},{"name":"f","type":"int","value":0},{"name":"x","type":"int","value":-800},{"name":"y","type":"int","value":-226},{"name":"bS","type":"string","value":"Rien"},{"name":"cx","type":"int","value":2400},{"name":"cy","type":"int","value":0},{"name":"no","type":"int","value":4},{"name":"rx","type":"int","value":-20},{"name":"ry","type":"int","value":-60},{"name":"ani","type":"int","value":0},{"name":"type","type":"int","value":1},{"name":"front","type":"int","value":0}]},{"id":6,"name":"background_back_5","type":"imagelayer","visible":true,"opacity":1,"image":"../images/27310.png","imagewidth":800,"imageheight":161,"offsetx":-400,"offsety":-240,"repeatx":true,"repeaty":false,"parallaxx":0.2,"parallaxy":0.6,"properties":[{"name":"a","type":"int","value":255},{"name":"f","type":"int","value":0},{"name":"x","type":"int","value":0},{"name":"y","type":"int","value":-240},{"name":"bS","type":"string","value":"Rien"},{"name":"cx","type":"int","value":2400},{"name":"cy","type":"int","value":0},{"name":"no","type":"int","value":5},{"name":"rx","type":"int","value":-20},{"name":"ry","type":"int","value":-60},{"name":"ani","type":"int","value":0},{"name":"type","type":"int","value":1},{"name":"front","type":"int","value":0}]},{"id":7,"name":"background_back_6","type":"imagelayer","visible":true,"opacity":1,"image":"../images/27311.png","imagewidth":800,"imageheight":116,"offsetx":400,"offsety":-195,"repeatx":true,"repeaty":false,"parallaxx":0.2,"parallaxy":0.6,"properties":[{"name":"a","type":"int","value":255},{"name":"f","type":"int","value":0},{"name":"x","type":"int","value":800},{"name":"y","type":"int","value":-217},{"name":"bS","type":"string","value":"Rien"},{"name":"cx","type":"int","value":2400},{"name":"cy","type":"int","value":0},{"name":"no","type":"int","value":6},{"name":"rx","type":"int","value":-20},{"name":"ry","type":"int","value":-60},{"name":"ani","type":"int","value":0},{"name":"type","type":"int","value":1},{"name":"front","type":"int","value":0}]},{"id":8,"name":"background_back_7","type":"imagelayer","visible":true,"opacity":1,"image":"../images/27312.png","imagewidth":800,"imageheight":240,"offsetx":-400,"offsety":66,"repeatx":true,"repeaty":false,"parallaxx":0,"parallaxy":1,"properties":[{"name":"a","type":"int","value":255},{"name":"f","type":"int","value":0},{"name":"x","type":"int","value":0},{"name":"y","type":"int","value":106},{"name":"bS","type":"string","value":"Rien"},{"name":"cx","type":"int","value":0},{"name":"cy","type":"int","value":0},{"name":"no","type":"int","value":7},{"name":"rx","type":"int","value":0},{"name":"ry","type":"int","value":-100},{"name":"ani","type":"int","value":0},{"name":"type","type":"int","value":1},{"name":"front","type":"int","value":0}]},{"id":9,"name":"background_back_8","type":"imagelayer","visible":true,"opacity":1,"image":"../images/27313.png","imagewidth":800,"imageheight":267,"offsetx":-400,"offsety":-86,"repeatx":true,"repeaty":false,"parallaxx":0.3,"parallaxy":0.6,"properties":[{"name":"a","type":"int","value":255},{"name":"f","type":"int","value":0},{"name":"x","type":"int","value":0},{"name":"y","type":"int","value":-33},{"name":"bS","type":"string","value":"Rien"},{"name":"cx","type":"int","value":0},{"name":"cy","type":"int","value":0},{"name":"no","type":"int","value":8},{"name":"rx","type":"int","value":-30},{"name":"ry","type":"int","value":-60},{"name":"ani","type":"int","value":0},{"name":"type","type":"int","value":1},{"name":"front","type":"int","value":0}]},{"id":10,"name":"background_back_9","type":"imagelayer","visible":true,"opacity":1,"image":"../images/27314.png","imagewidth":800,"imageheight":249,"offsetx":-1200,"offsety":-130,"repeatx":true,"repeaty":false,"parallaxx":0.3,"parallaxy":0.7,"properties":[{"name":"a","type":"int","value":255},{"name":"f","type":"int","value":0},{"name":"x","type":"int","value":-800},{"name":"y","type":"int","value":-86},{"name":"bS","type":"string","value":"Rien"},{"name":"cx","type":"int","value":2400},{"name":"cy","type":"int","value":0},{"name":"no","type":"int","value":9},{"name":"rx","type":"int","value":-30},{"name":"ry","type":"int","value":-70},{"name":"ani","type":"int","value":0},{"name":"type","type":"int","value":1},{"name":"front","type":"int","value":0}]},{"id":11,"name":"background_back_10","type":"imagelayer","visible":true,"opacity":1,"image":"../images/27315.png","imagewidth":800,"imageheight":367,"offsetx":-400,"offsety":-246,"repeatx":true,"repeaty":false,"parallaxx":0.3,"parallaxy":0.7,"properties":[{"name":"a","type":"int","value":255},{"name":"f","type":"int","value":0},{"name":"x","type":"int","value":0},{"name":"y","type":"int","value":-143},{"name":"bS","type":"string","value":"Rien"},{"name":"cx","type":"int","value":2400},{"name":"cy","type":"int","value":0},{"name":"no","type":"int","value":10},{"name":"rx","type":"int","value":-30},{"name":"ry","type":"int","value":-70},{"name":"ani","type":"int","value":0},{"name":"type","type":"int","value":1},{"name":"front","type":"int","value":0}]},{"id":12,"name":"background_back_11","type":"imagelayer","visible":true,"opacity":1,"image":"../images/27316.png","imagewidth":800,"imageheight":322,"offsetx":400,"offsety":-202,"repeatx":true,"repeaty":false,"parallaxx":0.3,"parallaxy":0.7,"properties":[{"name":"a","type":"int","value":255},{"name":"f","type":"int","value":0},{"name":"x","type":"int","value":800},{"name":"y","type":"int","value":-121},{"name":"bS","type":"string","value":"Rien"},{"name":"cx","type":"int","value":2400},{"name":"cy","type":"int","value":0},{"name":"no","type":"int","value":11},{"name":"rx","type":"int","value":-30},{"name":"ry","type":"int","value":-70},{"name":"ani","type":"int","value":0},{"name":"type","type":"int","value":1},{"name":"front","type":"int","value":0}]},{"id":13,"name":"background_back_12","type":"imagelayer","visible":true,"opacity":1,"image":"../images/27317.png","imagewidth":800,"imageheight":395,"offsetx":-1200,"offsety":-204,"repeatx":true,"repeaty":false,"parallaxx":0.6,"parallaxy":1,"properties":[{"name":"a","type":"int","value":255},{"name":"f","type":"int","value":0},{"name":"x","type":"int","value":-800},{"name":"y","type":"int","value":-87},{"name":"bS","type":"string","value":"Rien"},{"name":"cx","type":"int","value":2400},{"name":"cy","type":"int","value":0},{"name":"no","type":"int","value":12},{"name":"rx","type":"int","value":-60},{"name":"ry","type":"int","value":-100},{"name":"ani","type":"int","value":0},{"name":"type","type":"int","value":1},{"name":"front","type":"int","value":0}]},{"id":14,"name":"background_back_13","type":"imagelayer","visible":true,"opacity":1,"image":"../images/27318.png","imagewidth":800,"imageheight":333,"offsetx":-400,"offsety":-157,"repeatx":true,"repeaty":false,"parallaxx":0.6,"parallaxy":1,"properties":[{"name":"a","type":"int","value":255},{"name":"f","type":"int","value":0},{"name":"x","type":"int","value":0},{"name":"y","type":"int","value":-71},{"name":"bS","type":"string","value":"Rien"},{"name":"cx","type":"int","value":2400},{"name":"cy","type":"int","value":0},{"name":"no","type":"int","value":13},{"name":"rx","type":"int","value":-60},{"name":"ry","type":"int","value":-100},{"name":"ani","type":"int","value":0},{"name":"type","type":"int","value":1},{"name":"front","type":"int","value":0}]},{"id":15,"name":"background_back_14","type":"imagelayer","visible":true,"opacity":1,"image":"../images/27319.png","imagewidth":800,"imageheight":358,"offsetx":400,"offsety":-175,"repeatx":true,"repeaty":false,"parallaxx":0.6,"parallaxy":1,"properties":[{"name":"a","type":"int","value":255},{"name":"f","type":"int","value":0},{"name":"x","type":"int","value":800},{"name":"y","type":"int","value":-76},{"name":"bS","type":"string","value":"Rien"},{"name":"cx","type":"int","value":2400},{"name":"cy","type":"int","value":0},{"name":"no","type":"int","value":14},{"name":"rx","type":"int","value":-60},{"name":"ry","type":"int","value":-100},{"name":"ani","type":"int","value":0},{"name":"type","type":"int","value":1},{"name":"front","type":"int","value":0}]},{"id":16,"name":"background_back_15","type":"objectgroup","visible":true,"opacity":1,"draworder":"index","offsetx":0,"offsety":0,"parallaxx":0.7,"parallaxy":0.3,"objects":[{"id":1,"x":-1274,"y":310,"visible":true,"properties":[],"gid":18,"width":516,"height":723},{"id":2,"x":-758,"y":310,"visible":true,"properties":[],"gid":18,"width":516,"height":723},{"id":3,"x":-242,"y":310,"visible":true,"properties":[],"gid":18,"width":516,"height":723},{"id":4,"x":274,"y":310,"visible":true,"properties":[],"gid":18,"width":516,"height":723},{"id":5,"x":790,"y":310,"visible":true,"properties":[],"gid":18,"width":516,"height":723}],"properties":[{"name":"a","type":"int","value":255},{"name":"f","type":"int","value":0},{"name":"x","type":"int","value":-500},{"name":"y","type":"int","value":-132},{"name":"bS","type":"string","value":"Rien"},{"name":"cx","type":"int","value":3000},{"name":"cy","type":"int","value":0},{"name":"no","type":"int","value":0},{"name":"rx","type":"int","value":-70},{"name":"ry","type":"int","value":-30},{"name":"ani","type":"int","value":1},{"name":"type","type":"int","value":1},{"name":"front","type":"int","value":0}]},{"id":17,"name":"background_back_16","type":"objectgroup","visible":true,"opacity":1,"draworder":"index","offsetx":0,"offsety":0,"parallaxx":0.7,"parallaxy":0.3,"objects":[{"id":6,"x":-1093,"y":246,"visible":true,"properties":[],"gid":20,"width":529,"height":659},{"id":7,"x":-564,"y":246,"visible":true,"properties":[],"gid":20,"width":529,"height":659},{"id":8,"x":-35,"y":246,"visible":true,"properties":[],"gid":20,"width":529,"height":659},{"id":9,"x":494,"y":246,"visible":true,"properties":[],"gid":20,"width":529,"height":659}],"properties":[{"name":"a","type":"int","value":255},{"name":"f","type":"int","value":0},{"name":"x","type":"int","value":-300},{"name":"y","type":"int","value":-164},{"name":"bS","type":"string","value":"Rien"},{"name":"cx","type":"int","value":3200},{"name":"cy","type":"int","value":0},{"name":"no","type":"int","value":1},{"name":"rx","type":"int","value":-70},{"name":"ry","type":"int","value":-30},{"name":"ani","type":"int","value":1},{"name":"type","type":"int","value":1},{"name":"front","type":"int","value":0}]},{"id":18,"name":"background_back_17","type":"objectgroup","visible":true,"opacity":1,"draworder":"index","offsetx":0,"offsety":0,"parallaxx":0.7,"parallaxy":0.3,"objects":[{"id":10,"x":-1588,"y":32,"visible":true,"properties":[],"gid":22,"width":376,"height":443},{"id":11,"x":-1212,"y":32,"visible":true,"properties":[],"gid":22,"width":376,"height":443},{"id":12,"x":-836,"y":32,"visible":true,"properties":[],"gid":22,"width":376,"height":443},{"id":13,"x":-460,"y":32,"visible":true,"properties":[],"gid":22,"width":376,"height":443},{"id":14,"x":-84,"y":32,"visible":true,"properties":[],"gid":22,"width":376,"height":443},{"id":15,"x":292,"y":32,"visible":true,"properties":[],"gid":22,"width":376,"height":443},{"id":16,"x":668,"y":32,"visible":true,"properties":[],"gid":22,"width":376,"height":443}],"properties":[{"name":"a","type":"int","value":255},{"name":"f","type":"int","value":0},{"name":"x","type":"int","value":-1400},{"name":"y","type":"int","value":-270},{"name":"bS","type":"string","value":"Rien"},{"name":"cx","type":"int","value":3400},{"name":"cy","type":"int","value":0},{"name":"no","type":"int","value":2},{"name":"rx","type":"int","value":-70},{"name":"ry","type":"int","value":-30},{"name":"ani","type":"int","value":1},{"name":"type","type":"int","value":1},{"name":"front","type":"int","value":0}]},{"id":19,"name":"background_back_18","type":"objectgroup","visible":true,"opacity":1,"draworder":"index","offsetx":0,"offsety":0,"parallaxx":0.7,"parallaxy":0.3,"objects":[{"id":17,"x":-1139,"y":206,"visible":true,"properties":[],"gid":24,"width":554,"height":619},{"id":18,"x":-585,"y":206,"visible":true,"properties":[],"gid":24,"width":554,"height":619},{"id":19,"x":-31,"y":206,"visible":true,"properties":[],"gid":24,"width":554,"height":619},{"id":20,"x":523,"y":206,"visible":true,"properties":[],"gid":24,"width":554,"height":619}],"properties":[{"name":"a","type":"int","value":255},{"name":"f","type":"int","value":0},{"name":"x","type":"int","value":800},{"name":"y","type":"int","value":-184},{"name":"bS","type":"string","value":"Rien"},{"name":"cx","type":"int","value":3600},{"name":"cy","type":"int","value":0},{"name":"no","type":"int","value":3},{"name":"rx","type":"int","value":-70},{"name":"ry","type":"int","value":-30},{"name":"ani","type":"int","value":1},{"name":"type","type":"int","value":1},{"name":"front","type":"int","value":0}]},{"id":20,"name":"background_back_19","type":"objectgroup","visible":true,"opacity":1,"draworder":"index","offsetx":0,"offsety":0,"parallaxx":0.7,"parallaxy":0.3,"objects":[{"id":21,"x":-2112,"y":95,"visible":true,"properties":[],"gid":26,"width":424,"height":506},{"id":22,"x":-1688,"y":95,"visible":true,"properties":[],"gid":26,"width":424,"height":506},{"id":23,"x":-1264,"y":95,"visible":true,"properties":[],"gid":26,"width":424,"height":506},{"id":24,"x":-840,"y":95,"visible":true,"properties":[],"gid":26,"width":424,"height":506},{"id":25,"x":-416,"y":95,"visible":true,"properties":[],"gid":26,"width":424,"height":506},{"id":26,"x":8,"y":95,"visible":true,"properties":[],"gid":26,"width":424,"height":506},{"id":27,"x":432,"y":95,"visible":true,"properties":[],"gid":26,"width":424,"height":506}],"properties":[{"name":"a","type":"int","value":255},{"name":"f","type":"int","value":0},{"name":"x","type":"int","value":-1900},{"name":"y","type":"int","value":-238},{"name":"bS","type":"string","value":"Rien"},{"name":"cx","type":"int","value":3800},{"name":"cy","type":"int","value":0},{"name":"no","type":"int","value":4},{"name":"rx","type":"int","value":-70},{"name":"ry","type":"int","value":-30},{"name":"ani","type":"int","value":1},{"name":"type","type":"int","value":1},{"name":"front","type":"int","value":0}]},{"id":21,"name":"layer_4_obj","type":"objectgroup","visible":true,"opacity":1,"draworder":"index","offsetx":0,"offsety":0,"parallaxx":1,"parallaxy":1,"objects":[{"id":28,"x":-335,"y":-115,"visible":true,"properties":[{"name":"layer","type":"int","value":4},{"name":"resource_index","type":"int","value":0},{"name":"oS","type":"string","value":"insideRI"},{"name":"l0","type":"string","value":"inside0"},{"name":"l1","type":"string","value":"book1"},{"name":"l2","type":"string","value":"0"},{"name":"z","type":"int","value":9},{"name":"zM","type":"int","value":0},{"name":"f","type":"int","value":0}],"gid":28,"width":655,"height":653},{"id":29,"x":-87,"y":-254,"visible":true,"properties":[{"name":"layer","type":"int","value":4},{"name":"resource_index","type":"int","value":1},{"name":"oS","type":"string","value":"insideRI"},{"name":"l0","type":"string","value":"inside0"},{"name":"l1","type":"string","value":"book1"},{"name":"l2","type":"string","value":"1"},{"name":"z","type":"int","value":10},{"name":"zM","type":"int","value":0},{"name":"f","type":"int","value":0}],"gid":29,"width":178,"height":381},{"id":30,"x":-21,"y":-514,"visible":true,"properties":[{"name":"layer","type":"int","value":4},{"name":"resource_index","type":"int","value":2},{"name":"oS","type":"string","value":"insideRI"},{"name":"l0","type":"string","value":"inside0"},{"name":"l1","type":"string","value":"book1"},{"name":"l2","type":"string","value":"2"},{"name":"z","type":"int","value":11},{"name":"zM","type":"int","value":0},{"name":"f","type":"int","value":0}],"gid":30,"width":44,"height":84},{"id":31,"x":-285,"y":-325,"visible":true,"properties":[{"name":"layer","type":"int","value":4},{"name":"resource_index","type":"int","value":3},{"name":"oS","type":"string","value":"insideRI"},{"name":"l0","type":"string","value":"inside0"},{"name":"l1","type":"string","value":"portal"},{"name":"l2","type":"string","value":"0"},{"name":"z","type":"int","value":9},{"name":"zM","type":"int","value":0},{"name":"f","type":"int","value":0}],"gid":39,"width":87,"height":182}],"properties":[]},{"id":22,"name":"layer_5_obj","type":"objectgroup","visible":true,"opacity":1,"draworder":"index","offsetx":0,"offsety":0,"parallaxx":1,"parallaxy":1,"objects":[{"id":32,"x":-452,"y":-599,"visible":true,"properties":[{"name":"layer","type":"int","value":5},{"name":"resource_index","type":"int","value":0},{"name":"oS","type":"string","value":"insideRI"},{"name":"l0","type":"string","value":"inside0"},{"name":"l1","type":"string","value":"frame"},{"name":"l2","type":"string","value":"0"},{"name":"z","type":"int","value":9},{"name":"zM","type":"int","value":7},{"name":"f","type":"int","value":0}],"gid":31,"width":344,"height":177},{"id":33,"x":-471,"y":-453,"visible":true,"properties":[{"name":"layer","type":"int","value":5},{"name":"resource_index","type":"int","value":1},{"name":"oS","type":"string","value":"insideRI"},{"name":"l0","type":"string","value":"inside0"},{"name":"l1","type":"string","value":"frame"},{"name":"l2","type":"string","value":"1"},{"name":"z","type":"int","value":9},{"name":"zM","type":"int","value":6},{"name":"f","type":"int","value":0}],"gid":32,"width":192,"height":146},{"id":34,"x":-359,"y":-282,"visible":true,"properties":[{"name":"layer","type":"int","value":5},{"name":"resource_index","type":"int","value":2},{"name":"oS","type":"string","value":"insideRI"},{"name":"l0","type":"string","value":"inside0"},{"name":"l1","type":"string","value":"frame"},{"name":"l2","type":"string","value":"2"},{"name":"z","type":"int","value":9},{"name":"zM","type":"int","value":4},{"name":"f","type":"int","value":0}],"gid":33,"width":118,"height":171},{"id":35,"x":-432,"y":-115,"visible":true,"properties":[{"name":"layer","type":"int","value":5},{"name":"resource_index","type":"int","value":3},{"name":"oS","type":"string","value":"insideRI"},{"name":"l0","type":"string","value":"inside0"},{"name":"l1","type":"string","value":"frame"},{"name":"l2","type":"string","value":"3"},{"name":"z","type":"int","value":9},{"name":"zM","type":"int","value":1},{"name":"f","type":"int","value":0}],"gid":34,"width":317,"height":167},{"id":36,"x":104,"y":-682,"visible":true,"properties":[{"name":"layer","type":"int","value":5},{"name":"resource_index","type":"int","value":4},{"name":"oS","type":"string","value":"insideRI"},{"name":"l0","type":"string","value":"inside0"},{"name":"l1","type":"string","value":"frame"},{"name":"l2","type":"string","value":"4"},{"name":"z","type":"int","value":9},{"name":"zM","type":"int","value":8},{"name":"f","type":"int","value":0}],"gid":35,"width":261,"height":86},{"id":37,"x":151,"y":-447,"visible":true,"properties":[{"name":"layer","type":"int","value":5},{"name":"resource_index","type":"int","value":5},{"name":"oS","type":"string","value":"insideRI"},{"name":"l0","type":"string","value":"inside0"},{"name":"l1","type":"string","value":"frame"},{"name":"l2","type":"string","value":"5"},{"name":"z","type":"int","value":9},{"name":"zM","type":"int","value":5},{"name":"f","type":"int","value":0}],"gid":36,"width":316,"height":235},{"id":38,"x":166,"y":-276,"visible":true,"properties":[{"name":"layer","type":"int","value":5},{"name":"resource_index","type":"int","value":6},{"name":"oS","type":"string","value":"insideRI"},{"name":"l0","type":"string","value":"inside0"},{"name":"l1","type":"string","value":"frame"},{"name":"l2","type":"string","value":"6"},{"name":"z","type":"int","value":9},{"name":"zM","type":"int","value":3},{"name":"f","type":"int","value":0}],"gid":37,"width":185,"height":171},{"id":39,"x":44,"y":-115,"visible":true,"properties":[{"name":"layer","type":"int","value":5},{"name":"resource_index","type":"int","value":7},{"name":"oS","type":"string","value":"insideRI"},{"name":"l0","type":"string","value":"inside0"},{"name":"l1","type":"string","value":"frame"},{"name":"l2","type":"string","value":"7"},{"name":"z","type":"int","value":9},{"name":"zM","type":"int","value":2},{"name":"f","type":"int","value":0}],"gid":38,"width":368,"height":161}],"properties":[]},{"id":23,"name":"portal","type":"objectgroup","visible":true,"opacity":1,"draworder":"index","offsetx":0,"offsety":0,"parallaxx":1,"parallaxy":1,"objects":[{"id":40,"x":39,"y":-376,"visible":true,"properties":[{"name":"x","type":"int","value":39},{"name":"y","type":"int","value":-376},{"name":"pn","type":"string","value":"sp"},{"name":"pt","type":"int","value":0},{"name":"tm","type":"int","value":999999999},{"name":"tn","type":"string","value":""},{"name":"horizontalImpact","type":"int","value":0}],"point":true},{"id":41,"x":217,"y":-269,"visible":true,"properties":[{"name":"x","type":"int","value":217},{"name":"y","type":"int","value":-269},{"name":"pn","type":"string","value":"out00"},{"name":"pt","type":"int","value":1},{"name":"tm","type":"int","value":140000010},{"name":"tn","type":"string","value":"in00"},{"name":"horizontalImpact","type":"int","value":0}],"point":true},{"id":42,"x":-245,"y":-329,"visible":true,"properties":[{"name":"x","type":"int","value":-245},{"name":"y","type":"int","value":-329},{"name":"pn","type":"string","value":"in00"},{"name":"pt","type":"int","value":1},{"name":"tm","type":"int","value":140000012},{"name":"tn","type":"string","value":"out00"},{"name":"horizontalImpact","type":"int","value":0}],"point":true}],"properties":[]},{"id":24,"name":"foothold","type":"objectgroup","visible":true,"opacity":1,"draworder":"index","offsetx":0,"offsety":0,"parallaxx":1,"parallaxy":1,"objects":[{"id":43,"x":-335,"y":-768,"visible":true,"properties":[{"name":"layer","type":"int","value":4},{"name":"group","type":"int","value":0},{"name":"id","type":"int","value":1},{"name":"fh_layer","type":"int","value":4},{"name":"fh_group","type":"int","value":0},{"name":"fh_id","type":"int","value":1},{"name":"x1","type":"int","value":-335},{"name":"x2","type":"int","value":-335},{"name":"y1","type":"int","value":-768},{"name":"y2","type":"int","value":-270},{"name":"next","type":"int","value":2},{"name":"prev","type":"int","value":0}],"polyline":[{"x":0,"y":0},{"x":0,"y":498}]},{"id":44,"x":-335,"y":-270,"visible":true,"properties":[{"name":"layer","type":"int","value":4},{"name":"group","type":"int","value":0},{"name":"id","type":"int","value":2},{"name":"fh_layer","type":"int","value":4},{"name":"fh_group","type":"int","value":0},{"name":"fh_id","type":"int","value":2},{"name":"x1","type":"int","value":-335},{"name":"x2","type":"int","value":319},{"name":"y1","type":"int","value":-270},{"name":"y2","type":"int","value":-270},{"name":"next","type":"int","value":3},{"name":"prev","type":"int","value":1}],"polyline":[{"x":0,"y":0},{"x":654,"y":0}]},{"id":45,"x":319,"y":-270,"visible":true,"properties":[{"name":"layer","type":"int","value":4},{"name":"group","type":"int","value":0},{"name":"id","type":"int","value":3},{"name":"fh_layer","type":"int","value":4},{"name":"fh_group","type":"int","value":0},{"name":"fh_id","type":"int","value":3},{"name":"x1","type":"int","value":319},{"name":"x2","type":"int","value":319},{"name":"y1","type":"int","value":-270},{"name":"y2","type":"int","value":-768},{"name":"next","type":"int","value":0},{"name":"prev","type":"int","value":2}],"polyline":[{"x":0,"y":0},{"x":0,"y":-498}]},{"id":46,"x":-240,"y":-293,"visible":true,"properties":[{"name":"layer","type":"int","value":4},{"name":"group","type":"int","value":0},{"name":"id","type":"int","value":4},{"name":"fh_layer","type":"int","value":4},{"name":"fh_group","type":"int","value":0},{"name":"fh_id","type":"int","value":4},{"name":"x1","type":"int","value":-240},{"name":"x2","type":"int","value":-140},{"name":"y1","type":"int","value":-293},{"name":"y2","type":"int","value":-290},{"name":"next","type":"int","value":0},{"name":"prev","type":"int","value":0}],"polyline":[{"x":0,"y":0},{"x":100,"y":3}]},{"id":47,"x":-266,"y":-312,"visible":true,"properties":[{"name":"layer","type":"int","value":4},{"name":"group","type":"int","value":0},{"name":"id","type":"int","value":5},{"name":"fh_layer","type":"int","value":4},{"name":"fh_group","type":"int","value":0},{"name":"fh_id","type":"int","value":5},{"name":"x1","type":"int","value":-266},{"name":"x2","type":"int","value":-170},{"name":"y1","type":"int","value":-312},{"name":"y2","type":"int","value":-309},{"name":"next","type":"int","value":0},{"name":"prev","type":"int","value":0}],"polyline":[{"x":0,"y":0},{"x":96,"y":3}]},{"id":48,"x":-334,"y":-329,"visible":true,"properties":[{"name":"layer","type":"int","value":4},{"name":"group","type":"int","value":0},{"name":"id","type":"int","value":6},{"name":"fh_layer","type":"int","value":4},{"name":"fh_group","type":"int","value":0},{"name":"fh_id","type":"int","value":6},{"name":"x1","type":"int","value":-334},{"name":"x2","type":"int","value":-196},{"name":"y1","type":"int","value":-329},{"name":"y2","type":"int","value":-328},{"name":"next","type":"int","value":0},{"name":"prev","type":"int","value":0}],"polyline":[{"x":0,"y":0},{"x":138,"y":1}]},{"id":49,"x":-331,"y":-342,"visible":true,"properties":[{"name":"layer","type":"int","value":4},{"name":"group","type":"int","value":0},{"name":"id","type":"int","value":7},{"name":"fh_layer","type":"int","value":4},{"name":"fh_group","type":"int","value":0},{"name":"fh_id","type":"int","value":7},{"name":"x1","type":"int","value":-331},{"name":"x2","type":"int","value":-258},{"name":"y1","type":"int","value":-342},{"name":"y2","type":"int","value":-345},{"name":"next","type":"int","value":0},{"name":"prev","type":"int","value":0}],"polyline":[{"x":0,"y":0},{"x":73,"y":-3}]},{"id":50,"x":-307,"y":-356,"visible":true,"properties":[{"name":"layer","type":"int","value":4},{"name":"group","type":"int","value":0},{"name":"id","type":"int","value":8},{"name":"fh_layer","type":"int","value":4},{"name":"fh_group","type":"int","value":0},{"name":"fh_id","type":"int","value":8},{"name":"x1","type":"int","value":-307},{"name":"x2","type":"int","value":-253},{"name":"y1","type":"int","value":-356},{"name":"y2","type":"int","value":-359},{"name":"next","type":"int","value":0},{"name":"prev","type":"int","value":0}],"polyline":[{"x":0,"y":0},{"x":54,"y":-3}]},{"id":51,"x":-285,"y":-369,"visible":true,"properties":[{"name":"layer","type":"int","value":4},{"name":"group","type":"int","value":0},{"name":"id","type":"int","value":9},{"name":"fh_layer","type":"int","value":4},{"name":"fh_group","type":"int","value":0},{"name":"fh_id","type":"int","value":9},{"name":"x1","type":"int","value":-285},{"name":"x2","type":"int","value":-254},{"name":"y1","type":"int","value":-369},{"name":"y2","type":"int","value":-372},{"name":"next","type":"int","value":0},{"name":"prev","type":"int","value":0}],"polyline":[{"x":0,"y":0},{"x":31,"y":-3}]},{"id":52,"x":-269,"y":-383,"visible":true,"properties":[{"name":"layer","type":"int","value":4},{"name":"group","type":"int","value":0},{"name":"id","type":"int","value":10},{"name":"fh_layer","type":"int","value":4},{"name":"fh_group","type":"int","value":0},{"name":"fh_id","type":"int","value":10},{"name":"x1","type":"int","value":-269},{"name":"x2","type":"int","value":-251},{"name":"y1","type":"int","value":-383},{"name":"y2","type":"int","value":-386},{"name":"next","type":"int","value":0},{"name":"prev","type":"int","value":0}],"polyline":[{"x":0,"y":0},{"x":18,"y":-3}]}],"properties":[]}],"tilesets":[{"firstgid":1,"source":"../tilesets/bg_Rien.tsj"},{"firstgid":18,"source":"../tilesets/bg_Back_Rien.img_ani_0.tsj"},{"firstgid":20,"source":"../tilesets/bg_Back_Rien.img_ani_1.tsj"},{"firstgid":22,"source":"../tilesets/bg_Back_Rien.img_ani_2.tsj"},{"firstgid":24,"source":"../tilesets/bg_Back_Rien.img_ani_3.tsj"},{"firstgid":26,"source":"../tilesets/bg_Back_Rien.img_ani_4.tsj"},{"firstgid":28,"source":"../tilesets/obj_insideRI_inside0_book1.tsj"},{"firstgid":31,"source":"../tilesets/obj_insideRI_inside0_frame.tsj"},{"firstgid":39,"source":"../tilesets/obj_insideRI_inside0_portal.tsj"}],"properties":[{"name":"bgm","type":"string","value":"Bgm19/RienVillage"},{"name":"fly","type":"int","value":0},{"name":"swim","type":"int","value":0},{"name":"town","type":"int","value":1},{"name":"VRTop","type":"int","value":-770},{"name":"cloud","type":"int","value":0},{"name":"VRLeft","type":"int","value":-400},{"name":"VRRight","type":"int","value":400},{"name":"mapMark","type":"string","value":"Rien"},{"name":"mobRate","type":"float","value":1},{"name":"version","type":"int","value":10},{"name":"VRBottom","type":"int","value":-120},{"name":"noMapCmd","type":"int","value":0},{"name":"returnMap","type":"int","value":140000011},{"name":"fieldLimit","type":"int","value":0},{"name":"hideMinimap","type":"int","value":0},{"name":"onUserEnter","type":"string","value":""},{"name":"forcedReturn","type":"int","value":999999999},{"name":"onFirstUserEnter","type":"string","value":""}]}