{"type":"map","orientation":"orthogonal","renderorder":"right-down","infinite":false,"tilewidth":1,"tileheight":1,"width":1708,"height":1160,"parallaxoriginx":-400,"parallaxoriginy":80,"nextlayerid":30,"nextobjectid":198,"layers":[{"id":1,"name":"background_back_0","type":"imagelayer","visible":true,"opacity":1,"image":"../images/27305.png","imagewidth":30,"imageheight":30,"offsetx":-15,"offsety":65,"repeatx":true,"repeaty":true,"parallaxx":0,"parallaxy":0,"properties":[{"name":"a","type":"int","value":255},{"name":"f","type":"int","value":0},{"name":"x","type":"int","value":0},{"name":"y","type":"int","value":0},{"name":"bS","type":"string","value":"Rien"},{"name":"cx","type":"int","value":0},{"name":"cy","type":"int","value":0},{"name":"no","type":"int","value":0},{"name":"rx","type":"int","value":0},{"name":"ry","type":"int","value":0},{"name":"ani","type":"int","value":0},{"name":"type","type":"int","value":3},{"name":"front","type":"int","value":0}]},{"id":2,"name":"background_back_1","type":"imagelayer","visible":true,"opacity":1,"image":"../images/27306.png","imagewidth":10,"imageheight":818,"offsetx":-5,"offsety":-549,"repeatx":true,"repeaty":false,"parallaxx":0,"parallaxy":0.7,"properties":[{"name":"a","type":"int","value":255},{"name":"f","type":"int","value":0},{"name":"x","type":"int","value":0},{"name":"y","type":"int","value":-220},{"name":"bS","type":"string","value":"Rien"},{"name":"cx","type":"int","value":0},{"name":"cy","type":"int","value":0},{"name":"no","type":"int","value":1},{"name":"rx","type":"int","value":0},{"name":"ry","type":"int","value":-70},{"name":"ani","type":"int","value":0},{"name":"type","type":"int","value":1},{"name":"front","type":"int","value":0}]},{"id":3,"name":"background_back_2","type":"imagelayer","visible":true,"opacity":1,"image":"../images/27307.png","imagewidth":800,"imageheight":366,"offsetx":-768,"offsety":-549,"repeatx":true,"repeaty":false,"parallaxx":0.07,"parallaxy":0.5,"properties":[{"name":"a","type":"int","value":255},{"name":"f","type":"int","value":0},{"name":"x","type":"int","value":-368},{"name":"y","type":"int","value":-446},{"name":"bS","type":"string","value":"Rien"},{"name":"cx","type":"int","value":1600},{"name":"cy","type":"int","value":0},{"name":"no","type":"int","value":2},{"name":"rx","type":"int","value":-7},{"name":"ry","type":"int","value":-50},{"name":"ani","type":"int","value":0},{"name":"type","type":"int","value":1},{"name":"front","type":"int","value":0}]},{"id":4,"name":"background_back_3","type":"imagelayer","visible":true,"opacity":1,"image":"../images/27308.png","imagewidth":800,"imageheight":206,"offsetx":32,"offsety":-389,"repeatx":true,"repeaty":false,"parallaxx":0.07,"parallaxy":0.5,"properties":[{"name":"a","type":"int","value":255},{"name":"f","type":"int","value":0},{"name":"x","type":"int","value":432},{"name":"y","type":"int","value":-366},{"name":"bS","type":"string","value":"Rien"},{"name":"cx","type":"int","value":1600},{"name":"cy","type":"int","value":0},{"name":"no","type":"int","value":3},{"name":"rx","type":"int","value":-7},{"name":"ry","type":"int","value":-50},{"name":"ani","type":"int","value":0},{"name":"type","type":"int","value":1},{"name":"front","type":"int","value":0}]},{"id":5,"name":"background_back_4","type":"imagelayer","visible":true,"opacity":1,"image":"../images/27309.png","imagewidth":800,"imageheight":134,"offsetx":-1200,"offsety":-213,"repeatx":true,"repeaty":false,"parallaxx":0.2,"parallaxy":0.6,"properties":[{"name":"a","type":"int","value":255},{"name":"f","type":"int","value":0},{"name":"x","type":"int","value":-800},{"name":"y","type":"int","value":-226},{"name":"bS","type":"string","value":"Rien"},{"name":"cx","type":"int","value":2400},{"name":"cy","type":"int","value":0},{"name":"no","type":"int","value":4},{"name":"rx","type":"int","value":-20},{"name":"ry","type":"int","value":-60},{"name":"ani","type":"int","value":0},{"name":"type","type":"int","value":1},{"name":"front","type":"int","value":0}]},{"id":6,"name":"background_back_5","type":"imagelayer","visible":true,"opacity":1,"image":"../images/27310.png","imagewidth":800,"imageheight":161,"offsetx":-400,"offsety":-240,"repeatx":true,"repeaty":false,"parallaxx":0.2,"parallaxy":0.6,"properties":[{"name":"a","type":"int","value":255},{"name":"f","type":"int","value":0},{"name":"x","type":"int","value":0},{"name":"y","type":"int","value":-240},{"name":"bS","type":"string","value":"Rien"},{"name":"cx","type":"int","value":2400},{"name":"cy","type":"int","value":0},{"name":"no","type":"int","value":5},{"name":"rx","type":"int","value":-20},{"name":"ry","type":"int","value":-60},{"name":"ani","type":"int","value":0},{"name":"type","type":"int","value":1},{"name":"front","type":"int","value":0}]},{"id":7,"name":"background_back_6","type":"imagelayer","visible":true,"opacity":1,"image":"../images/27311.png","imagewidth":800,"imageheight":116,"offsetx":400,"offsety":-195,"repeatx":true,"repeaty":false,"parallaxx":0.2,"parallaxy":0.6,"properties":[{"name":"a","type":"int","value":255},{"name":"f","type":"int","value":0},{"name":"x","type":"int","value":800},{"name":"y","type":"int","value":-217},{"name":"bS","type":"string","value":"Rien"},{"name":"cx","type":"int","value":2400},{"name":"cy","type":"int","value":0},{"name":"no","type":"int","value":6},{"name":"rx","type":"int","value":-20},{"name":"ry","type":"int","value":-60},{"name":"ani","type":"int","value":0},{"name":"type","type":"int","value":1},{"name":"front","type":"int","value":0}]},{"id":8,"name":"background_back_7","type":"imagelayer","visible":true,"opacity":1,"image":"../images/27312.png","imagewidth":800,"imageheight":240,"offsetx":-400,"offsety":66,"repeatx":true,"repeaty":false,"parallaxx":0,"parallaxy":1,"properties":[{"name":"a","type":"int","value":255},{"name":"f","type":"int","value":0},{"name":"x","type":"int","value":0},{"name":"y","type":"int","value":106},{"name":"bS","type":"string","value":"Rien"},{"name":"cx","type":"int","value":0},{"name":"cy","type":"int","value":0},{"name":"no","type":"int","value":7},{"name":"rx","type":"int","value":0},{"name":"ry","type":"int","value":-100},{"name":"ani","type":"int","value":0},{"name":"type","type":"int","value":1},{"name":"front","type":"int","value":0}]},{"id":9,"name":"background_back_8","type":"imagelayer","visible":true,"opacity":1,"image":"../images/27313.png","imagewidth":800,"imageheight":267,"offsetx":-400,"offsety":-86,"repeatx":true,"repeaty":false,"parallaxx":0.3,"parallaxy":0.6,"properties":[{"name":"a","type":"int","value":255},{"name":"f","type":"int","value":0},{"name":"x","type":"int","value":0},{"name":"y","type":"int","value":-33},{"name":"bS","type":"string","value":"Rien"},{"name":"cx","type":"int","value":0},{"name":"cy","type":"int","value":0},{"name":"no","type":"int","value":8},{"name":"rx","type":"int","value":-30},{"name":"ry","type":"int","value":-60},{"name":"ani","type":"int","value":0},{"name":"type","type":"int","value":1},{"name":"front","type":"int","value":0}]},{"id":10,"name":"background_back_9","type":"imagelayer","visible":true,"opacity":1,"image":"../images/27314.png","imagewidth":800,"imageheight":249,"offsetx":-1200,"offsety":-130,"repeatx":true,"repeaty":false,"parallaxx":0.3,"parallaxy":0.7,"properties":[{"name":"a","type":"int","value":255},{"name":"f","type":"int","value":0},{"name":"x","type":"int","value":-800},{"name":"y","type":"int","value":-86},{"name":"bS","type":"string","value":"Rien"},{"name":"cx","type":"int","value":2400},{"name":"cy","type":"int","value":0},{"name":"no","type":"int","value":9},{"name":"rx","type":"int","value":-30},{"name":"ry","type":"int","value":-70},{"name":"ani","type":"int","value":0},{"name":"type","type":"int","value":1},{"name":"front","type":"int","value":0}]},{"id":11,"name":"background_back_10","type":"imagelayer","visible":true,"opacity":1,"image":"../images/27315.png","imagewidth":800,"imageheight":367,"offsetx":-400,"offsety":-246,"repeatx":true,"repeaty":false,"parallaxx":0.3,"parallaxy":0.7,"properties":[{"name":"a","type":"int","value":255},{"name":"f","type":"int","value":0},{"name":"x","type":"int","value":0},{"name":"y","type":"int","value":-143},{"name":"bS","type":"string","value":"Rien"},{"name":"cx","type":"int","value":2400},{"name":"cy","type":"int","value":0},{"name":"no","type":"int","value":10},{"name":"rx","type":"int","value":-30},{"name":"ry","type":"int","value":-70},{"name":"ani","type":"int","value":0},{"name":"type","type":"int","value":1},{"name":"front","type":"int","value":0}]},{"id":12,"name":"background_back_11","type":"imagelayer","visible":true,"opacity":1,"image":"../images/27316.png","imagewidth":800,"imageheight":322,"offsetx":400,"offsety":-202,"repeatx":true,"repeaty":false,"parallaxx":0.3,"parallaxy":0.7,"properties":[{"name":"a","type":"int","value":255},{"name":"f","type":"int","value":0},{"name":"x","type":"int","value":800},{"name":"y","type":"int","value":-121},{"name":"bS","type":"string","value":"Rien"},{"name":"cx","type":"int","value":2400},{"name":"cy","type":"int","value":0},{"name":"no","type":"int","value":11},{"name":"rx","type":"int","value":-30},{"name":"ry","type":"int","value":-70},{"name":"ani","type":"int","value":0},{"name":"type","type":"int","value":1},{"name":"front","type":"int","value":0}]},{"id":13,"name":"background_back_12","type":"imagelayer","visible":true,"opacity":1,"image":"../images/27317.png","imagewidth":800,"imageheight":395,"offsetx":-1200,"offsety":-204,"repeatx":true,"repeaty":false,"parallaxx":0.6,"parallaxy":1,"properties":[{"name":"a","type":"int","value":255},{"name":"f","type":"int","value":0},{"name":"x","type":"int","value":-800},{"name":"y","type":"int","value":-87},{"name":"bS","type":"string","value":"Rien"},{"name":"cx","type":"int","value":2400},{"name":"cy","type":"int","value":0},{"name":"no","type":"int","value":12},{"name":"rx","type":"int","value":-60},{"name":"ry","type":"int","value":-100},{"name":"ani","type":"int","value":0},{"name":"type","type":"int","value":1},{"name":"front","type":"int","value":0}]},{"id":14,"name":"background_back_13","type":"imagelayer","visible":true,"opacity":1,"image":"../images/27318.png","imagewidth":800,"imageheight":333,"offsetx":-400,"offsety":-157,"repeatx":true,"repeaty":false,"parallaxx":0.6,"parallaxy":1,"properties":[{"name":"a","type":"int","value":255},{"name":"f","type":"int","value":0},{"name":"x","type":"int","value":0},{"name":"y","type":"int","value":-71},{"name":"bS","type":"string","value":"Rien"},{"name":"cx","type":"int","value":2400},{"name":"cy","type":"int","value":0},{"name":"no","type":"int","value":13},{"name":"rx","type":"int","value":-60},{"name":"ry","type":"int","value":-100},{"name":"ani","type":"int","value":0},{"name":"type","type":"int","value":1},{"name":"front","type":"int","value":0}]},{"id":15,"name":"background_back_14","type":"imagelayer","visible":true,"opacity":1,"image":"../images/27319.png","imagewidth":800,"imageheight":358,"offsetx":400,"offsety":-175,"repeatx":true,"repeaty":false,"parallaxx":0.6,"parallaxy":1,"properties":[{"name":"a","type":"int","value":255},{"name":"f","type":"int","value":0},{"name":"x","type":"int","value":800},{"name":"y","type":"int","value":-76},{"name":"bS","type":"string","value":"Rien"},{"name":"cx","type":"int","value":2400},{"name":"cy","type":"int","value":0},{"name":"no","type":"int","value":14},{"name":"rx","type":"int","value":-60},{"name":"ry","type":"int","value":-100},{"name":"ani","type":"int","value":0},{"name":"type","type":"int","value":1},{"name":"front","type":"int","value":0}]},{"id":16,"name":"background_back_15","type":"objectgroup","visible":true,"opacity":1,"draworder":"index","offsetx":0,"offsety":0,"parallaxx":0.7,"parallaxy":0.2,"objects":[{"id":1,"x":-758,"y":275,"visible":true,"properties":[],"gid":85,"width":516,"height":723},{"id":2,"x":-242,"y":275,"visible":true,"properties":[],"gid":85,"width":516,"height":723},{"id":3,"x":274,"y":275,"visible":true,"properties":[],"gid":85,"width":516,"height":723},{"id":4,"x":790,"y":275,"visible":true,"properties":[],"gid":85,"width":516,"height":723},{"id":5,"x":1306,"y":275,"visible":true,"properties":[],"gid":85,"width":516,"height":723},{"id":6,"x":1822,"y":275,"visible":true,"properties":[],"gid":85,"width":516,"height":723}],"properties":[{"name":"a","type":"int","value":255},{"name":"f","type":"int","value":0},{"name":"x","type":"int","value":-500},{"name":"y","type":"int","value":-167},{"name":"bS","type":"string","value":"Rien"},{"name":"cx","type":"int","value":3000},{"name":"cy","type":"int","value":0},{"name":"no","type":"int","value":0},{"name":"rx","type":"int","value":-70},{"name":"ry","type":"int","value":-20},{"name":"ani","type":"int","value":1},{"name":"type","type":"int","value":1},{"name":"front","type":"int","value":0}]},{"id":17,"name":"background_back_16","type":"objectgroup","visible":true,"opacity":1,"draworder":"index","offsetx":0,"offsety":0,"parallaxx":0.7,"parallaxy":0.2,"objects":[{"id":7,"x":-564,"y":211,"visible":true,"properties":[],"gid":87,"width":529,"height":659},{"id":8,"x":-35,"y":211,"visible":true,"properties":[],"gid":87,"width":529,"height":659},{"id":9,"x":494,"y":211,"visible":true,"properties":[],"gid":87,"width":529,"height":659},{"id":10,"x":1023,"y":211,"visible":true,"properties":[],"gid":87,"width":529,"height":659},{"id":11,"x":1552,"y":211,"visible":true,"properties":[],"gid":87,"width":529,"height":659},{"id":12,"x":2081,"y":211,"visible":true,"properties":[],"gid":87,"width":529,"height":659}],"properties":[{"name":"a","type":"int","value":255},{"name":"f","type":"int","value":0},{"name":"x","type":"int","value":-300},{"name":"y","type":"int","value":-199},{"name":"bS","type":"string","value":"Rien"},{"name":"cx","type":"int","value":3200},{"name":"cy","type":"int","value":0},{"name":"no","type":"int","value":1},{"name":"rx","type":"int","value":-70},{"name":"ry","type":"int","value":-20},{"name":"ani","type":"int","value":1},{"name":"type","type":"int","value":1},{"name":"front","type":"int","value":0}]},{"id":18,"name":"background_back_17","type":"objectgroup","visible":true,"opacity":1,"draworder":"index","offsetx":0,"offsety":0,"parallaxx":0.7,"parallaxy":0.2,"objects":[{"id":13,"x":-1588,"y":-7,"visible":true,"properties":[],"gid":89,"width":376,"height":443},{"id":14,"x":-1212,"y":-7,"visible":true,"properties":[],"gid":89,"width":376,"height":443},{"id":15,"x":-836,"y":-7,"visible":true,"properties":[],"gid":89,"width":376,"height":443},{"id":16,"x":-460,"y":-7,"visible":true,"properties":[],"gid":89,"width":376,"height":443},{"id":17,"x":-84,"y":-7,"visible":true,"properties":[],"gid":89,"width":376,"height":443},{"id":18,"x":292,"y":-7,"visible":true,"properties":[],"gid":89,"width":376,"height":443},{"id":19,"x":668,"y":-7,"visible":true,"properties":[],"gid":89,"width":376,"height":443},{"id":20,"x":1044,"y":-7,"visible":true,"properties":[],"gid":89,"width":376,"height":443},{"id":21,"x":1420,"y":-7,"visible":true,"properties":[],"gid":89,"width":376,"height":443},{"id":22,"x":1796,"y":-7,"visible":true,"properties":[],"gid":89,"width":376,"height":443}],"properties":[{"name":"a","type":"int","value":255},{"name":"f","type":"int","value":0},{"name":"x","type":"int","value":-1400},{"name":"y","type":"int","value":-309},{"name":"bS","type":"string","value":"Rien"},{"name":"cx","type":"int","value":3400},{"name":"cy","type":"int","value":0},{"name":"no","type":"int","value":2},{"name":"rx","type":"int","value":-70},{"name":"ry","type":"int","value":-20},{"name":"ani","type":"int","value":1},{"name":"type","type":"int","value":1},{"name":"front","type":"int","value":0}]},{"id":19,"name":"background_back_18","type":"objectgroup","visible":true,"opacity":1,"draworder":"index","offsetx":0,"offsety":0,"parallaxx":0.7,"parallaxy":0.2,"objects":[{"id":23,"x":-585,"y":172,"visible":true,"properties":[],"gid":91,"width":554,"height":619},{"id":24,"x":-31,"y":172,"visible":true,"properties":[],"gid":91,"width":554,"height":619},{"id":25,"x":523,"y":172,"visible":true,"properties":[],"gid":91,"width":554,"height":619},{"id":26,"x":1077,"y":172,"visible":true,"properties":[],"gid":91,"width":554,"height":619},{"id":27,"x":1631,"y":172,"visible":true,"properties":[],"gid":91,"width":554,"height":619},{"id":28,"x":2185,"y":172,"visible":true,"properties":[],"gid":91,"width":554,"height":619}],"properties":[{"name":"a","type":"int","value":255},{"name":"f","type":"int","value":0},{"name":"x","type":"int","value":800},{"name":"y","type":"int","value":-218},{"name":"bS","type":"string","value":"Rien"},{"name":"cx","type":"int","value":3600},{"name":"cy","type":"int","value":0},{"name":"no","type":"int","value":3},{"name":"rx","type":"int","value":-70},{"name":"ry","type":"int","value":-20},{"name":"ani","type":"int","value":1},{"name":"type","type":"int","value":1},{"name":"front","type":"int","value":0}]},{"id":20,"name":"background_back_19","type":"objectgroup","visible":true,"opacity":1,"draworder":"index","offsetx":0,"offsety":0,"parallaxx":0.7,"parallaxy":0.2,"objects":[{"id":29,"x":-2113,"y":58,"visible":true,"properties":[],"gid":93,"width":424,"height":506},{"id":30,"x":-1689,"y":58,"visible":true,"properties":[],"gid":93,"width":424,"height":506},{"id":31,"x":-1265,"y":58,"visible":true,"properties":[],"gid":93,"width":424,"height":506},{"id":32,"x":-841,"y":58,"visible":true,"properties":[],"gid":93,"width":424,"height":506},{"id":33,"x":-417,"y":58,"visible":true,"properties":[],"gid":93,"width":424,"height":506},{"id":34,"x":7,"y":58,"visible":true,"properties":[],"gid":93,"width":424,"height":506},{"id":35,"x":431,"y":58,"visible":true,"properties":[],"gid":93,"width":424,"height":506},{"id":36,"x":855,"y":58,"visible":true,"properties":[],"gid":93,"width":424,"height":506},{"id":37,"x":1279,"y":58,"visible":true,"properties":[],"gid":93,"width":424,"height":506},{"id":38,"x":1703,"y":58,"visible":true,"properties":[],"gid":93,"width":424,"height":506},{"id":39,"x":2127,"y":58,"visible":true,"properties":[],"gid":93,"width":424,"height":506}],"properties":[{"name":"a","type":"int","value":255},{"name":"f","type":"int","value":0},{"name":"x","type":"int","value":-1901},{"name":"y","type":"int","value":-275},{"name":"bS","type":"string","value":"Rien"},{"name":"cx","type":"int","value":3800},{"name":"cy","type":"int","value":0},{"name":"no","type":"int","value":4},{"name":"rx","type":"int","value":-70},{"name":"ry","type":"int","value":-20},{"name":"ani","type":"int","value":1},{"name":"type","type":"int","value":1},{"name":"front","type":"int","value":0}]},{"id":21,"name":"layer_2_obj","type":"objectgroup","visible":true,"opacity":1,"draworder":"index","offsetx":0,"offsety":0,"parallaxx":1,"parallaxy":1,"objects":[{"id":40,"x":1218,"y":89,"visible":true,"properties":[{"name":"layer","type":"int","value":2},{"name":"resource_index","type":"int","value":0},{"name":"oS","type":"string","value":"acc12"},{"name":"l0","type":"string","value":"rienFD"},{"name":"l1","type":"string","value":"nature1"},{"name":"l2","type":"string","value":"8"},{"name":"z","type":"int","value":9},{"name":"zM","type":"int","value":3},{"name":"f","type":"int","value":0}],"gid":95,"width":349,"height":531},{"id":41,"x":1484,"y":86,"visible":true,"properties":[{"name":"layer","type":"int","value":2},{"name":"resource_index","type":"int","value":1},{"name":"oS","type":"string","value":"acc12"},{"name":"l0","type":"string","value":"rienFD"},{"name":"l1","type":"string","value":"nature1"},{"name":"l2","type":"string","value":"6"},{"name":"z","type":"int","value":9},{"name":"zM","type":"int","value":3},{"name":"f","type":"int","value":0}],"gid":97,"width":232,"height":393},{"id":42,"x":0,"y":86,"visible":true,"properties":[{"name":"layer","type":"int","value":2},{"name":"resource_index","type":"int","value":2},{"name":"oS","type":"string","value":"acc12"},{"name":"l0","type":"string","value":"rienFD"},{"name":"l1","type":"string","value":"nature1"},{"name":"l2","type":"string","value":"8"},{"name":"z","type":"int","value":9},{"name":"zM","type":"int","value":4},{"name":"f","type":"int","value":0}],"gid":95,"width":349,"height":531},{"id":43,"x":576,"y":104,"visible":true,"properties":[{"name":"layer","type":"int","value":2},{"name":"resource_index","type":"int","value":3},{"name":"oS","type":"string","value":"acc12"},{"name":"l0","type":"string","value":"rienFD"},{"name":"l1","type":"string","value":"nature1"},{"name":"l2","type":"string","value":"7"},{"name":"z","type":"int","value":9},{"name":"zM","type":"int","value":1},{"name":"f","type":"int","value":0}],"gid":96,"width":230,"height":384},{"id":44,"x":131,"y":89,"visible":true,"properties":[{"name":"layer","type":"int","value":2},{"name":"resource_index","type":"int","value":4},{"name":"oS","type":"string","value":"acc12"},{"name":"l0","type":"string","value":"rienFD"},{"name":"l1","type":"string","value":"nature1"},{"name":"l2","type":"string","value":"3"},{"name":"z","type":"int","value":9},{"name":"zM","type":"int","value":4},{"name":"f","type":"int","value":0}],"gid":109,"width":214,"height":377},{"id":45,"x":416,"y":88,"visible":true,"properties":[{"name":"layer","type":"int","value":2},{"name":"resource_index","type":"int","value":5},{"name":"oS","type":"string","value":"acc12"},{"name":"l0","type":"string","value":"rienFD"},{"name":"l1","type":"string","value":"nature1"},{"name":"l2","type":"string","value":"9"},{"name":"z","type":"int","value":9},{"name":"zM","type":"int","value":1},{"name":"f","type":"int","value":0}],"gid":99,"width":272,"height":512}],"properties":[]},{"id":22,"name":"layer_3_obj","type":"objectgroup","visible":true,"opacity":1,"draworder":"index","offsetx":0,"offsety":0,"parallaxx":1,"parallaxy":1,"objects":[{"id":54,"x":397,"y":88,"visible":true,"properties":[{"name":"layer","type":"int","value":3},{"name":"resource_index","type":"int","value":0},{"name":"oS","type":"string","value":"acc12"},{"name":"l0","type":"string","value":"rienFD"},{"name":"l1","type":"string","value":"nature1"},{"name":"l2","type":"string","value":"20"},{"name":"z","type":"int","value":9},{"name":"zM","type":"int","value":5},{"name":"f","type":"int","value":0}],"gid":106,"width":64,"height":40},{"id":55,"x":812,"y":-21,"visible":true,"properties":[{"name":"layer","type":"int","value":3},{"name":"resource_index","type":"int","value":1},{"name":"oS","type":"string","value":"acc12"},{"name":"l0","type":"string","value":"rienFD"},{"name":"l1","type":"string","value":"pengiun"},{"name":"l2","type":"string","value":"3"},{"name":"z","type":"int","value":10},{"name":"zM","type":"int","value":6},{"name":"f","type":"int","value":0}],"gid":120,"width":52,"height":62},{"id":56,"x":105,"y":93,"visible":true,"properties":[{"name":"layer","type":"int","value":3},{"name":"resource_index","type":"int","value":2},{"name":"oS","type":"string","value":"acc12"},{"name":"l0","type":"string","value":"rienFD"},{"name":"l1","type":"string","value":"acc"},{"name":"l2","type":"string","value":"19"},{"name":"z","type":"int","value":9},{"name":"zM","type":"int","value":2},{"name":"f","type":"int","value":0}],"gid":52,"width":55,"height":68},{"id":57,"x":407,"y":-30,"visible":true,"properties":[{"name":"layer","type":"int","value":3},{"name":"resource_index","type":"int","value":3},{"name":"oS","type":"string","value":"acc12"},{"name":"l0","type":"string","value":"rienTW"},{"name":"l1","type":"string","value":"acc"},{"name":"l2","type":"string","value":"0"},{"name":"z","type":"int","value":9},{"name":"zM","type":"int","value":10},{"name":"f","type":"int","value":0}],"gid":81,"width":185,"height":73},{"id":58,"x":444,"y":22,"visible":true,"properties":[{"name":"layer","type":"int","value":3},{"name":"resource_index","type":"int","value":4},{"name":"oS","type":"string","value":"acc12"},{"name":"l0","type":"string","value":"rienTW"},{"name":"l1","type":"string","value":"acc"},{"name":"l2","type":"string","value":"3"},{"name":"z","type":"int","value":10},{"name":"zM","type":"int","value":10},{"name":"f","type":"int","value":0}],"gid":84,"width":100,"height":63},{"id":59,"x":604,"y":85,"visible":true,"properties":[{"name":"layer","type":"int","value":3},{"name":"resource_index","type":"int","value":5},{"name":"oS","type":"string","value":"acc12"},{"name":"l0","type":"string","value":"rienFD"},{"name":"l1","type":"string","value":"ice"},{"name":"l2","type":"string","value":"0"},{"name":"z","type":"int","value":9},{"name":"zM","type":"int","value":6},{"name":"f","type":"int","value":0}],"gid":73,"width":386,"height":113},{"id":60,"x":709,"y":50,"visible":true,"properties":[{"name":"layer","type":"int","value":3},{"name":"resource_index","type":"int","value":6},{"name":"oS","type":"string","value":"acc12"},{"name":"l0","type":"string","value":"rienFD"},{"name":"l1","type":"string","value":"ice"},{"name":"l2","type":"string","value":"9"},{"name":"z","type":"int","value":10},{"name":"zM","type":"int","value":6},{"name":"f","type":"int","value":0}],"gid":74,"width":24,"height":98},{"id":61,"x":810,"y":78,"visible":true,"properties":[{"name":"layer","type":"int","value":3},{"name":"resource_index","type":"int","value":7},{"name":"oS","type":"string","value":"acc12"},{"name":"l0","type":"string","value":"rienFD"},{"name":"l1","type":"string","value":"ice"},{"name":"l2","type":"string","value":"6"},{"name":"z","type":"int","value":10},{"name":"zM","type":"int","value":6},{"name":"f","type":"int","value":0}],"gid":72,"width":105,"height":87},{"id":62,"x":11,"y":88,"visible":true,"properties":[{"name":"layer","type":"int","value":3},{"name":"resource_index","type":"int","value":8},{"name":"oS","type":"string","value":"acc12"},{"name":"l0","type":"string","value":"rienFD"},{"name":"l1","type":"string","value":"ice"},{"name":"l2","type":"string","value":"3"},{"name":"z","type":"int","value":8},{"name":"zM","type":"int","value":2},{"name":"f","type":"int","value":0}],"gid":70,"width":124,"height":71},{"id":63,"x":431,"y":44,"visible":true,"properties":[{"name":"layer","type":"int","value":3},{"name":"resource_index","type":"int","value":9},{"name":"oS","type":"string","value":"acc12"},{"name":"l0","type":"string","value":"rienTW"},{"name":"l1","type":"string","value":"acc"},{"name":"l2","type":"string","value":"1"},{"name":"z","type":"int","value":9},{"name":"zM","type":"int","value":10},{"name":"f","type":"int","value":0}],"gid":82,"width":138,"height":74},{"id":64,"x":486,"y":84,"visible":true,"properties":[{"name":"layer","type":"int","value":3},{"name":"resource_index","type":"int","value":10},{"name":"oS","type":"string","value":"acc12"},{"name":"l0","type":"string","value":"rienTW"},{"name":"l1","type":"string","value":"acc"},{"name":"l2","type":"string","value":"2"},{"name":"z","type":"int","value":9},{"name":"zM","type":"int","value":8},{"name":"f","type":"int","value":0}],"gid":83,"width":22,"height":40},{"id":65,"x":193,"y":84,"visible":true,"properties":[{"name":"layer","type":"int","value":3},{"name":"resource_index","type":"int","value":11},{"name":"oS","type":"string","value":"acc12"},{"name":"l0","type":"string","value":"rienFD"},{"name":"l1","type":"string","value":"nature1"},{"name":"l2","type":"string","value":"17"},{"name":"z","type":"int","value":9},{"name":"zM","type":"int","value":9},{"name":"f","type":"int","value":0}],"gid":105,"width":122,"height":93},{"id":66,"x":732,"y":83,"visible":true,"properties":[{"name":"layer","type":"int","value":3},{"name":"resource_index","type":"int","value":12},{"name":"oS","type":"string","value":"acc12"},{"name":"l0","type":"string","value":"rienFD"},{"name":"l1","type":"string","value":"pengiun"},{"name":"l2","type":"string","value":"2"},{"name":"z","type":"int","value":10},{"name":"zM","type":"int","value":6},{"name":"f","type":"int","value":0}],"gid":119,"width":60,"height":61}],"properties":[]},{"id":23,"name":"layer_3_tile","type":"objectgroup","visible":true,"opacity":1,"draworder":"index","offsetx":0,"offsety":0,"parallaxx":1,"parallaxy":1,"objects":[{"id":46,"x":1260,"y":-83,"visible":true,"properties":[{"name":"layer","type":"int","value":3},{"name":"resource_index","type":"int","value":0},{"name":"u","type":"string","value":"enH1"},{"name":"no","type":"int","value":0},{"name":"zM","type":"int","value":11}],"gid":38,"width":90,"height":37},{"id":47,"x":1260,"y":-120,"visible":true,"properties":[{"name":"layer","type":"int","value":3},{"name":"resource_index","type":"int","value":1},{"name":"u","type":"string","value":"enH0"},{"name":"no","type":"int","value":2},{"name":"zM","type":"int","value":11}],"gid":32,"width":90,"height":39},{"id":48,"x":1409,"y":-120,"visible":true,"properties":[{"name":"layer","type":"int","value":3},{"name":"resource_index","type":"int","value":2},{"name":"u","type":"string","value":"edU"},{"name":"no","type":"int","value":1},{"name":"zM","type":"int","value":11}],"gid":41,"width":63,"height":39},{"id":49,"x":1422,"y":-96,"visible":true,"properties":[{"name":"layer","type":"int","value":3},{"name":"resource_index","type":"int","value":3},{"name":"u","type":"string","value":"edD"},{"name":"no","type":"int","value":0},{"name":"zM","type":"int","value":11}],"gid":43,"width":41,"height":24},{"id":50,"x":1350,"y":-120,"visible":true,"properties":[{"name":"layer","type":"int","value":3},{"name":"resource_index","type":"int","value":4},{"name":"u","type":"string","value":"enH0"},{"name":"no","type":"int","value":0},{"name":"zM","type":"int","value":11}],"gid":37,"width":90,"height":39},{"id":51,"x":1350,"y":-83,"visible":true,"properties":[{"name":"layer","type":"int","value":3},{"name":"resource_index","type":"int","value":5},{"name":"u","type":"string","value":"enH1"},{"name":"no","type":"int","value":0},{"name":"zM","type":"int","value":11}],"gid":38,"width":90,"height":37},{"id":52,"x":1229,"y":-120,"visible":true,"properties":[{"name":"layer","type":"int","value":3},{"name":"resource_index","type":"int","value":6},{"name":"u","type":"string","value":"edU"},{"name":"no","type":"int","value":1},{"name":"zM","type":"int","value":11}],"gid":41,"width":63,"height":39},{"id":53,"x":1242,"y":-96,"visible":true,"properties":[{"name":"layer","type":"int","value":3},{"name":"resource_index","type":"int","value":7},{"name":"u","type":"string","value":"edD"},{"name":"no","type":"int","value":0},{"name":"zM","type":"int","value":11}],"gid":43,"width":41,"height":24}],"properties":[]},{"id":24,"name":"layer_5_tile","type":"objectgroup","visible":true,"opacity":1,"draworder":"index","offsetx":0,"offsety":0,"parallaxx":1,"parallaxy":1,"objects":[{"id":67,"x":720,"y":337,"visible":true,"properties":[{"name":"layer","type":"int","value":5},{"name":"resource_index","type":"int","value":0},{"name":"u","type":"string","value":"enH1"},{"name":"no","type":"int","value":2},{"name":"zM","type":"int","value":0}],"gid":40,"width":90,"height":37},{"id":68,"x":0,"y":120,"visible":true,"properties":[{"name":"layer","type":"int","value":5},{"name":"resource_index","type":"int","value":1},{"name":"u","type":"string","value":"enH0"},{"name":"no","type":"int","value":2},{"name":"zM","type":"int","value":0}],"gid":32,"width":90,"height":39},{"id":69,"x":270,"y":334,"visible":true,"properties":[{"name":"layer","type":"int","value":5},{"name":"resource_index","type":"int","value":2},{"name":"u","type":"string","value":"enH1"},{"name":"no","type":"int","value":1},{"name":"zM","type":"int","value":0}],"gid":39,"width":90,"height":34},{"id":70,"x":0,"y":300,"visible":true,"properties":[{"name":"layer","type":"int","value":5},{"name":"resource_index","type":"int","value":3},{"name":"u","type":"string","value":"bsc"},{"name":"no","type":"int","value":2},{"name":"zM","type":"int","value":0}],"gid":35,"width":90,"height":60},{"id":71,"x":0,"y":334,"visible":true,"properties":[{"name":"layer","type":"int","value":5},{"name":"resource_index","type":"int","value":4},{"name":"u","type":"string","value":"enH1"},{"name":"no","type":"int","value":1},{"name":"zM","type":"int","value":0}],"gid":39,"width":90,"height":34},{"id":72,"x":1170,"y":120,"visible":true,"properties":[{"name":"layer","type":"int","value":5},{"name":"resource_index","type":"int","value":5},{"name":"u","type":"string","value":"enH0"},{"name":"no","type":"int","value":1},{"name":"zM","type":"int","value":0}],"gid":34,"width":90,"height":40},{"id":73,"x":1440,"y":120,"visible":true,"properties":[{"name":"layer","type":"int","value":5},{"name":"resource_index","type":"int","value":6},{"name":"u","type":"string","value":"enH0"},{"name":"no","type":"int","value":1},{"name":"zM","type":"int","value":0}],"gid":34,"width":90,"height":40},{"id":74,"x":180,"y":240,"visible":true,"properties":[{"name":"layer","type":"int","value":5},{"name":"resource_index","type":"int","value":7},{"name":"u","type":"string","value":"bsc"},{"name":"no","type":"int","value":2},{"name":"zM","type":"int","value":0}],"gid":35,"width":90,"height":60},{"id":75,"x":1530,"y":300,"visible":true,"properties":[{"name":"layer","type":"int","value":5},{"name":"resource_index","type":"int","value":8},{"name":"u","type":"string","value":"bsc"},{"name":"no","type":"int","value":5},{"name":"zM","type":"int","value":0}],"gid":31,"width":90,"height":60},{"id":76,"x":180,"y":337,"visible":true,"properties":[{"name":"layer","type":"int","value":5},{"name":"resource_index","type":"int","value":9},{"name":"u","type":"string","value":"enH1"},{"name":"no","type":"int","value":2},{"name":"zM","type":"int","value":0}],"gid":40,"width":90,"height":37},{"id":77,"x":90,"y":180,"visible":true,"properties":[{"name":"layer","type":"int","value":5},{"name":"resource_index","type":"int","value":10},{"name":"u","type":"string","value":"bsc"},{"name":"no","type":"int","value":4},{"name":"zM","type":"int","value":0}],"gid":30,"width":90,"height":60},{"id":78,"x":180,"y":300,"visible":true,"properties":[{"name":"layer","type":"int","value":5},{"name":"resource_index","type":"int","value":11},{"name":"u","type":"string","value":"bsc"},{"name":"no","type":"int","value":0},{"name":"zM","type":"int","value":0}],"gid":36,"width":90,"height":60},{"id":79,"x":1080,"y":120,"visible":true,"properties":[{"name":"layer","type":"int","value":5},{"name":"resource_index","type":"int","value":12},{"name":"u","type":"string","value":"enH0"},{"name":"no","type":"int","value":0},{"name":"zM","type":"int","value":0}],"gid":37,"width":90,"height":39},{"id":80,"x":990,"y":180,"visible":true,"properties":[{"name":"layer","type":"int","value":5},{"name":"resource_index","type":"int","value":13},{"name":"u","type":"string","value":"bsc"},{"name":"no","type":"int","value":3},{"name":"zM","type":"int","value":0}],"gid":29,"width":90,"height":60},{"id":81,"x":270,"y":180,"visible":true,"properties":[{"name":"layer","type":"int","value":5},{"name":"resource_index","type":"int","value":14},{"name":"u","type":"string","value":"bsc"},{"name":"no","type":"int","value":1},{"name":"zM","type":"int","value":0}],"gid":33,"width":90,"height":60},{"id":82,"x":1350,"y":180,"visible":true,"properties":[{"name":"layer","type":"int","value":5},{"name":"resource_index","type":"int","value":15},{"name":"u","type":"string","value":"bsc"},{"name":"no","type":"int","value":0},{"name":"zM","type":"int","value":0}],"gid":36,"width":90,"height":60},{"id":83,"x":1260,"y":180,"visible":true,"properties":[{"name":"layer","type":"int","value":5},{"name":"resource_index","type":"int","value":16},{"name":"u","type":"string","value":"bsc"},{"name":"no","type":"int","value":5},{"name":"zM","type":"int","value":0}],"gid":31,"width":90,"height":60},{"id":84,"x":270,"y":120,"visible":true,"properties":[{"name":"layer","type":"int","value":5},{"name":"resource_index","type":"int","value":17},{"name":"u","type":"string","value":"enH0"},{"name":"no","type":"int","value":2},{"name":"zM","type":"int","value":0}],"gid":32,"width":90,"height":39},{"id":85,"x":1170,"y":180,"visible":true,"properties":[{"name":"layer","type":"int","value":5},{"name":"resource_index","type":"int","value":18},{"name":"u","type":"string","value":"bsc"},{"name":"no","type":"int","value":4},{"name":"zM","type":"int","value":0}],"gid":30,"width":90,"height":60},{"id":86,"x":450,"y":180,"visible":true,"properties":[{"name":"layer","type":"int","value":5},{"name":"resource_index","type":"int","value":19},{"name":"u","type":"string","value":"bsc"},{"name":"no","type":"int","value":3},{"name":"zM","type":"int","value":0}],"gid":29,"width":90,"height":60},{"id":87,"x":720,"y":180,"visible":true,"properties":[{"name":"layer","type":"int","value":5},{"name":"resource_index","type":"int","value":20},{"name":"u","type":"string","value":"bsc"},{"name":"no","type":"int","value":1},{"name":"zM","type":"int","value":0}],"gid":33,"width":90,"height":60},{"id":88,"x":360,"y":180,"visible":true,"properties":[{"name":"layer","type":"int","value":5},{"name":"resource_index","type":"int","value":21},{"name":"u","type":"string","value":"bsc"},{"name":"no","type":"int","value":2},{"name":"zM","type":"int","value":0}],"gid":35,"width":90,"height":60},{"id":89,"x":1260,"y":240,"visible":true,"properties":[{"name":"layer","type":"int","value":5},{"name":"resource_index","type":"int","value":22},{"name":"u","type":"string","value":"bsc"},{"name":"no","type":"int","value":5},{"name":"zM","type":"int","value":0}],"gid":31,"width":90,"height":60},{"id":90,"x":180,"y":180,"visible":true,"properties":[{"name":"layer","type":"int","value":5},{"name":"resource_index","type":"int","value":23},{"name":"u","type":"string","value":"bsc"},{"name":"no","type":"int","value":2},{"name":"zM","type":"int","value":0}],"gid":35,"width":90,"height":60},{"id":91,"x":360,"y":300,"visible":true,"properties":[{"name":"layer","type":"int","value":5},{"name":"resource_index","type":"int","value":24},{"name":"u","type":"string","value":"bsc"},{"name":"no","type":"int","value":1},{"name":"zM","type":"int","value":0}],"gid":33,"width":90,"height":60},{"id":92,"x":270,"y":240,"visible":true,"properties":[{"name":"layer","type":"int","value":5},{"name":"resource_index","type":"int","value":25},{"name":"u","type":"string","value":"bsc"},{"name":"no","type":"int","value":3},{"name":"zM","type":"int","value":0}],"gid":29,"width":90,"height":60},{"id":93,"x":0,"y":240,"visible":true,"properties":[{"name":"layer","type":"int","value":5},{"name":"resource_index","type":"int","value":26},{"name":"u","type":"string","value":"bsc"},{"name":"no","type":"int","value":0},{"name":"zM","type":"int","value":0}],"gid":36,"width":90,"height":60},{"id":94,"x":90,"y":300,"visible":true,"properties":[{"name":"layer","type":"int","value":5},{"name":"resource_index","type":"int","value":27},{"name":"u","type":"string","value":"bsc"},{"name":"no","type":"int","value":1},{"name":"zM","type":"int","value":0}],"gid":33,"width":90,"height":60},{"id":95,"x":990,"y":240,"visible":true,"properties":[{"name":"layer","type":"int","value":5},{"name":"resource_index","type":"int","value":28},{"name":"u","type":"string","value":"bsc"},{"name":"no","type":"int","value":0},{"name":"zM","type":"int","value":0}],"gid":36,"width":90,"height":60},{"id":96,"x":1530,"y":180,"visible":true,"properties":[{"name":"layer","type":"int","value":5},{"name":"resource_index","type":"int","value":29},{"name":"u","type":"string","value":"bsc"},{"name":"no","type":"int","value":3},{"name":"zM","type":"int","value":0}],"gid":29,"width":90,"height":60},{"id":97,"x":810,"y":337,"visible":true,"properties":[{"name":"layer","type":"int","value":5},{"name":"resource_index","type":"int","value":30},{"name":"u","type":"string","value":"enH1"},{"name":"no","type":"int","value":0},{"name":"zM","type":"int","value":0}],"gid":38,"width":90,"height":37},{"id":98,"x":630,"y":337,"visible":true,"properties":[{"name":"layer","type":"int","value":5},{"name":"resource_index","type":"int","value":31},{"name":"u","type":"string","value":"enH1"},{"name":"no","type":"int","value":0},{"name":"zM","type":"int","value":0}],"gid":38,"width":90,"height":37},{"id":99,"x":540,"y":300,"visible":true,"properties":[{"name":"layer","type":"int","value":5},{"name":"resource_index","type":"int","value":32},{"name":"u","type":"string","value":"bsc"},{"name":"no","type":"int","value":1},{"name":"zM","type":"int","value":0}],"gid":33,"width":90,"height":60},{"id":100,"x":1530,"y":240,"visible":true,"properties":[{"name":"layer","type":"int","value":5},{"name":"resource_index","type":"int","value":33},{"name":"u","type":"string","value":"bsc"},{"name":"no","type":"int","value":1},{"name":"zM","type":"int","value":0}],"gid":33,"width":90,"height":60},{"id":101,"x":1350,"y":300,"visible":true,"properties":[{"name":"layer","type":"int","value":5},{"name":"resource_index","type":"int","value":34},{"name":"u","type":"string","value":"bsc"},{"name":"no","type":"int","value":3},{"name":"zM","type":"int","value":0}],"gid":29,"width":90,"height":60},{"id":102,"x":720,"y":240,"visible":true,"properties":[{"name":"layer","type":"int","value":5},{"name":"resource_index","type":"int","value":35},{"name":"u","type":"string","value":"bsc"},{"name":"no","type":"int","value":4},{"name":"zM","type":"int","value":0}],"gid":30,"width":90,"height":60},{"id":103,"x":990,"y":300,"visible":true,"properties":[{"name":"layer","type":"int","value":5},{"name":"resource_index","type":"int","value":36},{"name":"u","type":"string","value":"bsc"},{"name":"no","type":"int","value":1},{"name":"zM","type":"int","value":0}],"gid":33,"width":90,"height":60},{"id":104,"x":1260,"y":337,"visible":true,"properties":[{"name":"layer","type":"int","value":5},{"name":"resource_index","type":"int","value":37},{"name":"u","type":"string","value":"enH1"},{"name":"no","type":"int","value":0},{"name":"zM","type":"int","value":0}],"gid":38,"width":90,"height":37},{"id":105,"x":1440,"y":240,"visible":true,"properties":[{"name":"layer","type":"int","value":5},{"name":"resource_index","type":"int","value":38},{"name":"u","type":"string","value":"bsc"},{"name":"no","type":"int","value":3},{"name":"zM","type":"int","value":0}],"gid":29,"width":90,"height":60},{"id":106,"x":180,"y":120,"visible":true,"properties":[{"name":"layer","type":"int","value":5},{"name":"resource_index","type":"int","value":39},{"name":"u","type":"string","value":"enH0"},{"name":"no","type":"int","value":2},{"name":"zM","type":"int","value":0}],"gid":32,"width":90,"height":39},{"id":107,"x":450,"y":240,"visible":true,"properties":[{"name":"layer","type":"int","value":5},{"name":"resource_index","type":"int","value":40},{"name":"u","type":"string","value":"bsc"},{"name":"no","type":"int","value":0},{"name":"zM","type":"int","value":0}],"gid":36,"width":90,"height":60},{"id":108,"x":360,"y":240,"visible":true,"properties":[{"name":"layer","type":"int","value":5},{"name":"resource_index","type":"int","value":41},{"name":"u","type":"string","value":"bsc"},{"name":"no","type":"int","value":3},{"name":"zM","type":"int","value":0}],"gid":29,"width":90,"height":60},{"id":109,"x":270,"y":300,"visible":true,"properties":[{"name":"layer","type":"int","value":5},{"name":"resource_index","type":"int","value":42},{"name":"u","type":"string","value":"bsc"},{"name":"no","type":"int","value":4},{"name":"zM","type":"int","value":0}],"gid":30,"width":90,"height":60},{"id":110,"x":360,"y":120,"visible":true,"properties":[{"name":"layer","type":"int","value":5},{"name":"resource_index","type":"int","value":43},{"name":"u","type":"string","value":"enH0"},{"name":"no","type":"int","value":0},{"name":"zM","type":"int","value":0}],"gid":37,"width":90,"height":39},{"id":111,"x":810,"y":240,"visible":true,"properties":[{"name":"layer","type":"int","value":5},{"name":"resource_index","type":"int","value":44},{"name":"u","type":"string","value":"bsc"},{"name":"no","type":"int","value":3},{"name":"zM","type":"int","value":0}],"gid":29,"width":90,"height":60},{"id":112,"x":450,"y":120,"visible":true,"properties":[{"name":"layer","type":"int","value":5},{"name":"resource_index","type":"int","value":45},{"name":"u","type":"string","value":"enH0"},{"name":"no","type":"int","value":0},{"name":"zM","type":"int","value":0}],"gid":37,"width":90,"height":39},{"id":113,"x":630,"y":300,"visible":true,"properties":[{"name":"layer","type":"int","value":5},{"name":"resource_index","type":"int","value":46},{"name":"u","type":"string","value":"bsc"},{"name":"no","type":"int","value":0},{"name":"zM","type":"int","value":0}],"gid":36,"width":90,"height":60},{"id":114,"x":1080,"y":240,"visible":true,"properties":[{"name":"layer","type":"int","value":5},{"name":"resource_index","type":"int","value":47},{"name":"u","type":"string","value":"bsc"},{"name":"no","type":"int","value":3},{"name":"zM","type":"int","value":0}],"gid":29,"width":90,"height":60},{"id":115,"x":720,"y":300,"visible":true,"properties":[{"name":"layer","type":"int","value":5},{"name":"resource_index","type":"int","value":48},{"name":"u","type":"string","value":"bsc"},{"name":"no","type":"int","value":0},{"name":"zM","type":"int","value":0}],"gid":36,"width":90,"height":60},{"id":116,"x":1530,"y":120,"visible":true,"properties":[{"name":"layer","type":"int","value":5},{"name":"resource_index","type":"int","value":49},{"name":"u","type":"string","value":"enH0"},{"name":"no","type":"int","value":2},{"name":"zM","type":"int","value":0}],"gid":32,"width":90,"height":39},{"id":117,"x":1350,"y":240,"visible":true,"properties":[{"name":"layer","type":"int","value":5},{"name":"resource_index","type":"int","value":50},{"name":"u","type":"string","value":"bsc"},{"name":"no","type":"int","value":3},{"name":"zM","type":"int","value":0}],"gid":29,"width":90,"height":60},{"id":118,"x":90,"y":120,"visible":true,"properties":[{"name":"layer","type":"int","value":5},{"name":"resource_index","type":"int","value":51},{"name":"u","type":"string","value":"enH0"},{"name":"no","type":"int","value":0},{"name":"zM","type":"int","value":0}],"gid":37,"width":90,"height":39},{"id":119,"x":900,"y":300,"visible":true,"properties":[{"name":"layer","type":"int","value":5},{"name":"resource_index","type":"int","value":52},{"name":"u","type":"string","value":"bsc"},{"name":"no","type":"int","value":4},{"name":"zM","type":"int","value":0}],"gid":30,"width":90,"height":60},{"id":120,"x":90,"y":337,"visible":true,"properties":[{"name":"layer","type":"int","value":5},{"name":"resource_index","type":"int","value":53},{"name":"u","type":"string","value":"enH1"},{"name":"no","type":"int","value":0},{"name":"zM","type":"int","value":0}],"gid":38,"width":90,"height":37},{"id":121,"x":1170,"y":300,"visible":true,"properties":[{"name":"layer","type":"int","value":5},{"name":"resource_index","type":"int","value":54},{"name":"u","type":"string","value":"bsc"},{"name":"no","type":"int","value":2},{"name":"zM","type":"int","value":0}],"gid":35,"width":90,"height":60},{"id":122,"x":1080,"y":180,"visible":true,"properties":[{"name":"layer","type":"int","value":5},{"name":"resource_index","type":"int","value":55},{"name":"u","type":"string","value":"bsc"},{"name":"no","type":"int","value":3},{"name":"zM","type":"int","value":0}],"gid":29,"width":90,"height":60},{"id":123,"x":360,"y":334,"visible":true,"properties":[{"name":"layer","type":"int","value":5},{"name":"resource_index","type":"int","value":56},{"name":"u","type":"string","value":"enH1"},{"name":"no","type":"int","value":1},{"name":"zM","type":"int","value":0}],"gid":39,"width":90,"height":34},{"id":124,"x":630,"y":180,"visible":true,"properties":[{"name":"layer","type":"int","value":5},{"name":"resource_index","type":"int","value":57},{"name":"u","type":"string","value":"bsc"},{"name":"no","type":"int","value":1},{"name":"zM","type":"int","value":0}],"gid":33,"width":90,"height":60},{"id":125,"x":1170,"y":240,"visible":true,"properties":[{"name":"layer","type":"int","value":5},{"name":"resource_index","type":"int","value":58},{"name":"u","type":"string","value":"bsc"},{"name":"no","type":"int","value":5},{"name":"zM","type":"int","value":0}],"gid":31,"width":90,"height":60},{"id":126,"x":1530,"y":337,"visible":true,"properties":[{"name":"layer","type":"int","value":5},{"name":"resource_index","type":"int","value":59},{"name":"u","type":"string","value":"enH1"},{"name":"no","type":"int","value":0},{"name":"zM","type":"int","value":0}],"gid":38,"width":90,"height":37},{"id":127,"x":540,"y":240,"visible":true,"properties":[{"name":"layer","type":"int","value":5},{"name":"resource_index","type":"int","value":60},{"name":"u","type":"string","value":"bsc"},{"name":"no","type":"int","value":4},{"name":"zM","type":"int","value":0}],"gid":30,"width":90,"height":60},{"id":128,"x":1440,"y":337,"visible":true,"properties":[{"name":"layer","type":"int","value":5},{"name":"resource_index","type":"int","value":61},{"name":"u","type":"string","value":"enH1"},{"name":"no","type":"int","value":2},{"name":"zM","type":"int","value":0}],"gid":40,"width":90,"height":37},{"id":129,"x":720,"y":120,"visible":true,"properties":[{"name":"layer","type":"int","value":5},{"name":"resource_index","type":"int","value":62},{"name":"u","type":"string","value":"enH0"},{"name":"no","type":"int","value":0},{"name":"zM","type":"int","value":0}],"gid":37,"width":90,"height":39},{"id":130,"x":540,"y":180,"visible":true,"properties":[{"name":"layer","type":"int","value":5},{"name":"resource_index","type":"int","value":63},{"name":"u","type":"string","value":"bsc"},{"name":"no","type":"int","value":3},{"name":"zM","type":"int","value":0}],"gid":29,"width":90,"height":60},{"id":131,"x":990,"y":120,"visible":true,"properties":[{"name":"layer","type":"int","value":5},{"name":"resource_index","type":"int","value":64},{"name":"u","type":"string","value":"enH0"},{"name":"no","type":"int","value":2},{"name":"zM","type":"int","value":0}],"gid":32,"width":90,"height":39},{"id":132,"x":540,"y":120,"visible":true,"properties":[{"name":"layer","type":"int","value":5},{"name":"resource_index","type":"int","value":65},{"name":"u","type":"string","value":"enH0"},{"name":"no","type":"int","value":2},{"name":"zM","type":"int","value":0}],"gid":32,"width":90,"height":39},{"id":133,"x":1350,"y":337,"visible":true,"properties":[{"name":"layer","type":"int","value":5},{"name":"resource_index","type":"int","value":66},{"name":"u","type":"string","value":"enH1"},{"name":"no","type":"int","value":0},{"name":"zM","type":"int","value":0}],"gid":38,"width":90,"height":37},{"id":134,"x":450,"y":300,"visible":true,"properties":[{"name":"layer","type":"int","value":5},{"name":"resource_index","type":"int","value":67},{"name":"u","type":"string","value":"bsc"},{"name":"no","type":"int","value":4},{"name":"zM","type":"int","value":0}],"gid":30,"width":90,"height":60},{"id":135,"x":900,"y":334,"visible":true,"properties":[{"name":"layer","type":"int","value":5},{"name":"resource_index","type":"int","value":68},{"name":"u","type":"string","value":"enH1"},{"name":"no","type":"int","value":1},{"name":"zM","type":"int","value":0}],"gid":39,"width":90,"height":34},{"id":136,"x":1440,"y":180,"visible":true,"properties":[{"name":"layer","type":"int","value":5},{"name":"resource_index","type":"int","value":69},{"name":"u","type":"string","value":"bsc"},{"name":"no","type":"int","value":1},{"name":"zM","type":"int","value":0}],"gid":33,"width":90,"height":60},{"id":137,"x":630,"y":240,"visible":true,"properties":[{"name":"layer","type":"int","value":5},{"name":"resource_index","type":"int","value":70},{"name":"u","type":"string","value":"bsc"},{"name":"no","type":"int","value":1},{"name":"zM","type":"int","value":0}],"gid":33,"width":90,"height":60},{"id":138,"x":810,"y":120,"visible":true,"properties":[{"name":"layer","type":"int","value":5},{"name":"resource_index","type":"int","value":71},{"name":"u","type":"string","value":"enH0"},{"name":"no","type":"int","value":2},{"name":"zM","type":"int","value":0}],"gid":32,"width":90,"height":39},{"id":139,"x":810,"y":300,"visible":true,"properties":[{"name":"layer","type":"int","value":5},{"name":"resource_index","type":"int","value":72},{"name":"u","type":"string","value":"bsc"},{"name":"no","type":"int","value":4},{"name":"zM","type":"int","value":0}],"gid":30,"width":90,"height":60},{"id":140,"x":1080,"y":337,"visible":true,"properties":[{"name":"layer","type":"int","value":5},{"name":"resource_index","type":"int","value":73},{"name":"u","type":"string","value":"enH1"},{"name":"no","type":"int","value":2},{"name":"zM","type":"int","value":0}],"gid":40,"width":90,"height":37},{"id":141,"x":1260,"y":300,"visible":true,"properties":[{"name":"layer","type":"int","value":5},{"name":"resource_index","type":"int","value":74},{"name":"u","type":"string","value":"bsc"},{"name":"no","type":"int","value":1},{"name":"zM","type":"int","value":0}],"gid":33,"width":90,"height":60},{"id":142,"x":900,"y":120,"visible":true,"properties":[{"name":"layer","type":"int","value":5},{"name":"resource_index","type":"int","value":75},{"name":"u","type":"string","value":"enH0"},{"name":"no","type":"int","value":0},{"name":"zM","type":"int","value":0}],"gid":37,"width":90,"height":39},{"id":143,"x":900,"y":180,"visible":true,"properties":[{"name":"layer","type":"int","value":5},{"name":"resource_index","type":"int","value":76},{"name":"u","type":"string","value":"bsc"},{"name":"no","type":"int","value":3},{"name":"zM","type":"int","value":0}],"gid":29,"width":90,"height":60},{"id":144,"x":810,"y":180,"visible":true,"properties":[{"name":"layer","type":"int","value":5},{"name":"resource_index","type":"int","value":77},{"name":"u","type":"string","value":"bsc"},{"name":"no","type":"int","value":2},{"name":"zM","type":"int","value":0}],"gid":35,"width":90,"height":60},{"id":145,"x":1440,"y":300,"visible":true,"properties":[{"name":"layer","type":"int","value":5},{"name":"resource_index","type":"int","value":78},{"name":"u","type":"string","value":"bsc"},{"name":"no","type":"int","value":5},{"name":"zM","type":"int","value":0}],"gid":31,"width":90,"height":60},{"id":146,"x":1350,"y":120,"visible":true,"properties":[{"name":"layer","type":"int","value":5},{"name":"resource_index","type":"int","value":79},{"name":"u","type":"string","value":"enH0"},{"name":"no","type":"int","value":0},{"name":"zM","type":"int","value":0}],"gid":37,"width":90,"height":39},{"id":147,"x":540,"y":334,"visible":true,"properties":[{"name":"layer","type":"int","value":5},{"name":"resource_index","type":"int","value":80},{"name":"u","type":"string","value":"enH1"},{"name":"no","type":"int","value":1},{"name":"zM","type":"int","value":0}],"gid":39,"width":90,"height":34},{"id":148,"x":450,"y":334,"visible":true,"properties":[{"name":"layer","type":"int","value":5},{"name":"resource_index","type":"int","value":81},{"name":"u","type":"string","value":"enH1"},{"name":"no","type":"int","value":1},{"name":"zM","type":"int","value":0}],"gid":39,"width":90,"height":34},{"id":149,"x":630,"y":120,"visible":true,"properties":[{"name":"layer","type":"int","value":5},{"name":"resource_index","type":"int","value":82},{"name":"u","type":"string","value":"enH0"},{"name":"no","type":"int","value":1},{"name":"zM","type":"int","value":0}],"gid":34,"width":90,"height":40},{"id":150,"x":900,"y":240,"visible":true,"properties":[{"name":"layer","type":"int","value":5},{"name":"resource_index","type":"int","value":83},{"name":"u","type":"string","value":"bsc"},{"name":"no","type":"int","value":0},{"name":"zM","type":"int","value":0}],"gid":36,"width":90,"height":60},{"id":151,"x":0,"y":180,"visible":true,"properties":[{"name":"layer","type":"int","value":5},{"name":"resource_index","type":"int","value":84},{"name":"u","type":"string","value":"bsc"},{"name":"no","type":"int","value":0},{"name":"zM","type":"int","value":0}],"gid":36,"width":90,"height":60},{"id":152,"x":990,"y":334,"visible":true,"properties":[{"name":"layer","type":"int","value":5},{"name":"resource_index","type":"int","value":85},{"name":"u","type":"string","value":"enH1"},{"name":"no","type":"int","value":1},{"name":"zM","type":"int","value":0}],"gid":39,"width":90,"height":34},{"id":153,"x":1170,"y":334,"visible":true,"properties":[{"name":"layer","type":"int","value":5},{"name":"resource_index","type":"int","value":86},{"name":"u","type":"string","value":"enH1"},{"name":"no","type":"int","value":1},{"name":"zM","type":"int","value":0}],"gid":39,"width":90,"height":34},{"id":154,"x":1260,"y":120,"visible":true,"properties":[{"name":"layer","type":"int","value":5},{"name":"resource_index","type":"int","value":87},{"name":"u","type":"string","value":"enH0"},{"name":"no","type":"int","value":0},{"name":"zM","type":"int","value":0}],"gid":37,"width":90,"height":39},{"id":155,"x":1080,"y":300,"visible":true,"properties":[{"name":"layer","type":"int","value":5},{"name":"resource_index","type":"int","value":88},{"name":"u","type":"string","value":"bsc"},{"name":"no","type":"int","value":5},{"name":"zM","type":"int","value":0}],"gid":31,"width":90,"height":60},{"id":156,"x":90,"y":240,"visible":true,"properties":[{"name":"layer","type":"int","value":5},{"name":"resource_index","type":"int","value":89},{"name":"u","type":"string","value":"bsc"},{"name":"no","type":"int","value":2},{"name":"zM","type":"int","value":0}],"gid":35,"width":90,"height":60},{"id":157,"x":1620,"y":300,"visible":true,"properties":[{"name":"layer","type":"int","value":5},{"name":"resource_index","type":"int","value":90},{"name":"u","type":"string","value":"bsc"},{"name":"no","type":"int","value":3},{"name":"zM","type":"int","value":0}],"gid":29,"width":90,"height":60},{"id":158,"x":1620,"y":240,"visible":true,"properties":[{"name":"layer","type":"int","value":5},{"name":"resource_index","type":"int","value":91},{"name":"u","type":"string","value":"bsc"},{"name":"no","type":"int","value":4},{"name":"zM","type":"int","value":0}],"gid":30,"width":90,"height":60},{"id":159,"x":1620,"y":180,"visible":true,"properties":[{"name":"layer","type":"int","value":5},{"name":"resource_index","type":"int","value":92},{"name":"u","type":"string","value":"bsc"},{"name":"no","type":"int","value":3},{"name":"zM","type":"int","value":0}],"gid":29,"width":90,"height":60},{"id":160,"x":1620,"y":120,"visible":true,"properties":[{"name":"layer","type":"int","value":5},{"name":"resource_index","type":"int","value":93},{"name":"u","type":"string","value":"enH0"},{"name":"no","type":"int","value":1},{"name":"zM","type":"int","value":0}],"gid":34,"width":90,"height":40},{"id":161,"x":1620,"y":337,"visible":true,"properties":[{"name":"layer","type":"int","value":5},{"name":"resource_index","type":"int","value":94},{"name":"u","type":"string","value":"enH1"},{"name":"no","type":"int","value":0},{"name":"zM","type":"int","value":0}],"gid":38,"width":90,"height":37}],"properties":[]},{"id":25,"name":"portal","type":"objectgroup","visible":true,"opacity":1,"draworder":"index","offsetx":0,"offsety":0,"parallaxx":1,"parallaxy":1,"objects":[{"id":162,"x":1325,"y":-43,"visible":true,"properties":[{"name":"x","type":"int","value":1325},{"name":"y","type":"int","value":-43},{"name":"pn","type":"string","value":"sp"},{"name":"pt","type":"int","value":0},{"name":"tm","type":"int","value":999999999},{"name":"tn","type":"string","value":""},{"name":"horizontalImpact","type":"int","value":0}],"point":true},{"id":163,"x":1622,"y":88,"visible":true,"properties":[{"name":"x","type":"int","value":1622},{"name":"y","type":"int","value":88},{"name":"pn","type":"string","value":"east00"},{"name":"pt","type":"int","value":1},{"name":"tm","type":"int","value":999999999},{"name":"tn","type":"string","value":"east00"},{"name":"horizontalImpact","type":"int","value":0}],"point":true},{"id":164,"x":117,"y":83,"visible":true,"properties":[{"name":"x","type":"int","value":117},{"name":"y","type":"int","value":83},{"name":"pn","type":"string","value":"west00"},{"name":"pt","type":"int","value":7},{"name":"tm","type":"int","value":999999999},{"name":"tn","type":"string","value":""},{"name":"script","type":"string","value":"rienTutor4"},{"name":"horizontalImpact","type":"int","value":0}],"point":true}],"properties":[]},{"id":26,"name":"life","type":"objectgroup","visible":true,"opacity":1,"draworder":"index","offsetx":0,"offsety":0,"parallaxx":1,"parallaxy":1,"objects":[{"id":165,"x":1304,"y":-169,"visible":true,"properties":[{"name":"f","type":"int","value":1},{"name":"x","type":"int","value":1304},{"name":"y","type":"int","value":-169},{"name":"cy","type":"int","value":-154},{"name":"fh","type":"int","value":7},{"name":"id","type":"int","value":1202005},{"name":"rx0","type":"int","value":1254},{"name":"rx1","type":"int","value":1354},{"name":"hide","type":"int","value":0},{"name":"type","type":"string","value":"n"},{"name":"mobTime","type":"int","value":0},{"name":"npc_aseprite","type":"file","value":"../../Npc/1202005.img/animation.aseprite"}],"point":true}],"properties":[]},{"id":27,"name":"reactor","type":"objectgroup","visible":true,"opacity":1,"draworder":"index","offsetx":0,"offsety":0,"parallaxx":1,"parallaxy":1,"objects":[{"id":166,"x":346,"y":84,"visible":true,"properties":[{"name":"f","type":"int","value":0},{"name":"x","type":"int","value":346},{"name":"y","type":"int","value":84},{"name":"id","type":"int","value":1402000},{"name":"name","type":"string","value":""},{"name":"reactorTime","type":"int","value":3}],"point":true},{"id":167,"x":919,"y":84,"visible":true,"properties":[{"name":"f","type":"int","value":0},{"name":"x","type":"int","value":919},{"name":"y","type":"int","value":84},{"name":"id","type":"int","value":1402000},{"name":"name","type":"string","value":""},{"name":"reactorTime","type":"int","value":3}],"point":true},{"id":168,"x":645,"y":84,"visible":true,"properties":[{"name":"f","type":"int","value":1},{"name":"x","type":"int","value":645},{"name":"y","type":"int","value":84},{"name":"id","type":"int","value":1402000},{"name":"name","type":"string","value":""},{"name":"reactorTime","type":"int","value":3}],"point":true},{"id":169,"x":1107,"y":84,"visible":true,"properties":[{"name":"f","type":"int","value":1},{"name":"x","type":"int","value":1107},{"name":"y","type":"int","value":84},{"name":"id","type":"int","value":1402000},{"name":"name","type":"string","value":""},{"name":"reactorTime","type":"int","value":3}],"point":true},{"id":170,"x":1255,"y":84,"visible":true,"properties":[{"name":"f","type":"int","value":0},{"name":"x","type":"int","value":1255},{"name":"y","type":"int","value":84},{"name":"id","type":"int","value":1402000},{"name":"name","type":"string","value":""},{"name":"reactorTime","type":"int","value":3}],"point":true}],"properties":[]},{"id":28,"name":"foothold","type":"objectgroup","visible":true,"opacity":1,"draworder":"index","offsetx":0,"offsety":0,"parallaxx":1,"parallaxy":1,"objects":[{"id":171,"x":1260,"y":-154,"visible":true,"properties":[{"name":"layer","type":"int","value":3},{"name":"group","type":"int","value":11},{"name":"id","type":"int","value":1},{"name":"fh_layer","type":"int","value":3},{"name":"fh_group","type":"int","value":11},{"name":"fh_id","type":"int","value":1},{"name":"x1","type":"int","value":1260},{"name":"x2","type":"int","value":1292},{"name":"y1","type":"int","value":-154},{"name":"y2","type":"int","value":-154},{"name":"next","type":"int","value":7},{"name":"prev","type":"int","value":6}],"polyline":[{"x":0,"y":0},{"x":32,"y":0}]},{"id":172,"x":1408,"y":-154,"visible":true,"properties":[{"name":"layer","type":"int","value":3},{"name":"group","type":"int","value":11},{"name":"id","type":"int","value":2},{"name":"fh_layer","type":"int","value":3},{"name":"fh_group","type":"int","value":11},{"name":"fh_id","type":"int","value":2},{"name":"x1","type":"int","value":1408},{"name":"x2","type":"int","value":1472},{"name":"y1","type":"int","value":-154},{"name":"y2","type":"int","value":-154},{"name":"next","type":"int","value":3},{"name":"prev","type":"int","value":4}],"polyline":[{"x":0,"y":0},{"x":64,"y":0}]},{"id":173,"x":1472,"y":-154,"visible":true,"properties":[{"name":"layer","type":"int","value":3},{"name":"group","type":"int","value":11},{"name":"id","type":"int","value":3},{"name":"fh_layer","type":"int","value":3},{"name":"fh_group","type":"int","value":11},{"name":"fh_id","type":"int","value":3},{"name":"x1","type":"int","value":1472},{"name":"x2","type":"int","value":1472},{"name":"y1","type":"int","value":-154},{"name":"y2","type":"int","value":-120},{"name":"next","type":"int","value":0},{"name":"prev","type":"int","value":2}],"polyline":[{"x":0,"y":0},{"x":0,"y":34}]},{"id":174,"x":1350,"y":-154,"visible":true,"properties":[{"name":"layer","type":"int","value":3},{"name":"group","type":"int","value":11},{"name":"id","type":"int","value":4},{"name":"fh_layer","type":"int","value":3},{"name":"fh_group","type":"int","value":11},{"name":"fh_id","type":"int","value":4},{"name":"x1","type":"int","value":1350},{"name":"x2","type":"int","value":1408},{"name":"y1","type":"int","value":-154},{"name":"y2","type":"int","value":-154},{"name":"next","type":"int","value":2},{"name":"prev","type":"int","value":7}],"polyline":[{"x":0,"y":0},{"x":58,"y":0}]},{"id":175,"x":1228,"y":-120,"visible":true,"properties":[{"name":"layer","type":"int","value":3},{"name":"group","type":"int","value":11},{"name":"id","type":"int","value":5},{"name":"fh_layer","type":"int","value":3},{"name":"fh_group","type":"int","value":11},{"name":"fh_id","type":"int","value":5},{"name":"x1","type":"int","value":1228},{"name":"x2","type":"int","value":1228},{"name":"y1","type":"int","value":-120},{"name":"y2","type":"int","value":-154},{"name":"next","type":"int","value":6},{"name":"prev","type":"int","value":0}],"polyline":[{"x":0,"y":0},{"x":0,"y":-34}]},{"id":176,"x":1228,"y":-154,"visible":true,"properties":[{"name":"layer","type":"int","value":3},{"name":"group","type":"int","value":11},{"name":"id","type":"int","value":6},{"name":"fh_layer","type":"int","value":3},{"name":"fh_group","type":"int","value":11},{"name":"fh_id","type":"int","value":6},{"name":"x1","type":"int","value":1228},{"name":"x2","type":"int","value":1260},{"name":"y1","type":"int","value":-154},{"name":"y2","type":"int","value":-154},{"name":"next","type":"int","value":1},{"name":"prev","type":"int","value":5}],"polyline":[{"x":0,"y":0},{"x":32,"y":0}]},{"id":177,"x":1292,"y":-154,"visible":true,"properties":[{"name":"layer","type":"int","value":3},{"name":"group","type":"int","value":11},{"name":"id","type":"int","value":7},{"name":"fh_layer","type":"int","value":3},{"name":"fh_group","type":"int","value":11},{"name":"fh_id","type":"int","value":7},{"name":"x1","type":"int","value":1292},{"name":"x2","type":"int","value":1350},{"name":"y1","type":"int","value":-154},{"name":"y2","type":"int","value":-154},{"name":"next","type":"int","value":4},{"name":"prev","type":"int","value":1}],"polyline":[{"x":0,"y":0},{"x":58,"y":0}]},{"id":178,"x":0,"y":86,"visible":true,"properties":[{"name":"layer","type":"int","value":5},{"name":"group","type":"int","value":0},{"name":"id","type":"int","value":8},{"name":"fh_layer","type":"int","value":5},{"name":"fh_group","type":"int","value":0},{"name":"fh_id","type":"int","value":8},{"name":"x1","type":"int","value":0},{"name":"x2","type":"int","value":90},{"name":"y1","type":"int","value":86},{"name":"y2","type":"int","value":86},{"name":"next","type":"int","value":17},{"name":"prev","type":"int","value":0}],"polyline":[{"x":0,"y":0},{"x":90,"y":0}]},{"id":179,"x":1170,"y":86,"visible":true,"properties":[{"name":"layer","type":"int","value":5},{"name":"group","type":"int","value":0},{"name":"id","type":"int","value":9},{"name":"fh_layer","type":"int","value":5},{"name":"fh_group","type":"int","value":0},{"name":"fh_id","type":"int","value":9},{"name":"x1","type":"int","value":1170},{"name":"x2","type":"int","value":1260},{"name":"y1","type":"int","value":86},{"name":"y2","type":"int","value":86},{"name":"next","type":"int","value":25},{"name":"prev","type":"int","value":11}],"polyline":[{"x":0,"y":0},{"x":90,"y":0}]},{"id":180,"x":1440,"y":86,"visible":true,"properties":[{"name":"layer","type":"int","value":5},{"name":"group","type":"int","value":0},{"name":"id","type":"int","value":10},{"name":"fh_layer","type":"int","value":5},{"name":"fh_group","type":"int","value":0},{"name":"fh_id","type":"int","value":10},{"name":"x1","type":"int","value":1440},{"name":"x2","type":"int","value":1530},{"name":"y1","type":"int","value":86},{"name":"y2","type":"int","value":86},{"name":"next","type":"int","value":16},{"name":"prev","type":"int","value":23}],"polyline":[{"x":0,"y":0},{"x":90,"y":0}]},{"id":181,"x":1080,"y":86,"visible":true,"properties":[{"name":"layer","type":"int","value":5},{"name":"group","type":"int","value":0},{"name":"id","type":"int","value":11},{"name":"fh_layer","type":"int","value":5},{"name":"fh_group","type":"int","value":0},{"name":"fh_id","type":"int","value":11},{"name":"x1","type":"int","value":1080},{"name":"x2","type":"int","value":1170},{"name":"y1","type":"int","value":86},{"name":"y2","type":"int","value":86},{"name":"next","type":"int","value":9},{"name":"prev","type":"int","value":19}],"polyline":[{"x":0,"y":0},{"x":90,"y":0}]},{"id":182,"x":270,"y":86,"visible":true,"properties":[{"name":"layer","type":"int","value":5},{"name":"group","type":"int","value":0},{"name":"id","type":"int","value":12},{"name":"fh_layer","type":"int","value":5},{"name":"fh_group","type":"int","value":0},{"name":"fh_id","type":"int","value":12},{"name":"x1","type":"int","value":270},{"name":"x2","type":"int","value":360},{"name":"y1","type":"int","value":86},{"name":"y2","type":"int","value":86},{"name":"next","type":"int","value":14},{"name":"prev","type":"int","value":13}],"polyline":[{"x":0,"y":0},{"x":90,"y":0}]},{"id":183,"x":180,"y":86,"visible":true,"properties":[{"name":"layer","type":"int","value":5},{"name":"group","type":"int","value":0},{"name":"id","type":"int","value":13},{"name":"fh_layer","type":"int","value":5},{"name":"fh_group","type":"int","value":0},{"name":"fh_id","type":"int","value":13},{"name":"x1","type":"int","value":180},{"name":"x2","type":"int","value":270},{"name":"y1","type":"int","value":86},{"name":"y2","type":"int","value":86},{"name":"next","type":"int","value":12},{"name":"prev","type":"int","value":17}],"polyline":[{"x":0,"y":0},{"x":90,"y":0}]},{"id":184,"x":360,"y":86,"visible":true,"properties":[{"name":"layer","type":"int","value":5},{"name":"group","type":"int","value":0},{"name":"id","type":"int","value":14},{"name":"fh_layer","type":"int","value":5},{"name":"fh_group","type":"int","value":0},{"name":"fh_id","type":"int","value":14},{"name":"x1","type":"int","value":360},{"name":"x2","type":"int","value":450},{"name":"y1","type":"int","value":86},{"name":"y2","type":"int","value":86},{"name":"next","type":"int","value":15},{"name":"prev","type":"int","value":12}],"polyline":[{"x":0,"y":0},{"x":90,"y":0}]},{"id":185,"x":450,"y":86,"visible":true,"properties":[{"name":"layer","type":"int","value":5},{"name":"group","type":"int","value":0},{"name":"id","type":"int","value":15},{"name":"fh_layer","type":"int","value":5},{"name":"fh_group","type":"int","value":0},{"name":"fh_id","type":"int","value":15},{"name":"x1","type":"int","value":450},{"name":"x2","type":"int","value":540},{"name":"y1","type":"int","value":86},{"name":"y2","type":"int","value":86},{"name":"next","type":"int","value":20},{"name":"prev","type":"int","value":14}],"polyline":[{"x":0,"y":0},{"x":90,"y":0}]},{"id":186,"x":1530,"y":86,"visible":true,"properties":[{"name":"layer","type":"int","value":5},{"name":"group","type":"int","value":0},{"name":"id","type":"int","value":16},{"name":"fh_layer","type":"int","value":5},{"name":"fh_group","type":"int","value":0},{"name":"fh_id","type":"int","value":16},{"name":"x1","type":"int","value":1530},{"name":"x2","type":"int","value":1620},{"name":"y1","type":"int","value":86},{"name":"y2","type":"int","value":86},{"name":"next","type":"int","value":26},{"name":"prev","type":"int","value":10}],"polyline":[{"x":0,"y":0},{"x":90,"y":0}]},{"id":187,"x":90,"y":86,"visible":true,"properties":[{"name":"layer","type":"int","value":5},{"name":"group","type":"int","value":0},{"name":"id","type":"int","value":17},{"name":"fh_layer","type":"int","value":5},{"name":"fh_group","type":"int","value":0},{"name":"fh_id","type":"int","value":17},{"name":"x1","type":"int","value":90},{"name":"x2","type":"int","value":180},{"name":"y1","type":"int","value":86},{"name":"y2","type":"int","value":86},{"name":"next","type":"int","value":13},{"name":"prev","type":"int","value":8}],"polyline":[{"x":0,"y":0},{"x":90,"y":0}]},{"id":188,"x":720,"y":86,"visible":true,"properties":[{"name":"layer","type":"int","value":5},{"name":"group","type":"int","value":0},{"name":"id","type":"int","value":18},{"name":"fh_layer","type":"int","value":5},{"name":"fh_group","type":"int","value":0},{"name":"fh_id","type":"int","value":18},{"name":"x1","type":"int","value":720},{"name":"x2","type":"int","value":810},{"name":"y1","type":"int","value":86},{"name":"y2","type":"int","value":86},{"name":"next","type":"int","value":21},{"name":"prev","type":"int","value":24}],"polyline":[{"x":0,"y":0},{"x":90,"y":0}]},{"id":189,"x":990,"y":86,"visible":true,"properties":[{"name":"layer","type":"int","value":5},{"name":"group","type":"int","value":0},{"name":"id","type":"int","value":19},{"name":"fh_layer","type":"int","value":5},{"name":"fh_group","type":"int","value":0},{"name":"fh_id","type":"int","value":19},{"name":"x1","type":"int","value":990},{"name":"x2","type":"int","value":1080},{"name":"y1","type":"int","value":86},{"name":"y2","type":"int","value":86},{"name":"next","type":"int","value":11},{"name":"prev","type":"int","value":22}],"polyline":[{"x":0,"y":0},{"x":90,"y":0}]},{"id":190,"x":540,"y":86,"visible":true,"properties":[{"name":"layer","type":"int","value":5},{"name":"group","type":"int","value":0},{"name":"id","type":"int","value":20},{"name":"fh_layer","type":"int","value":5},{"name":"fh_group","type":"int","value":0},{"name":"fh_id","type":"int","value":20},{"name":"x1","type":"int","value":540},{"name":"x2","type":"int","value":630},{"name":"y1","type":"int","value":86},{"name":"y2","type":"int","value":86},{"name":"next","type":"int","value":24},{"name":"prev","type":"int","value":15}],"polyline":[{"x":0,"y":0},{"x":90,"y":0}]},{"id":191,"x":810,"y":86,"visible":true,"properties":[{"name":"layer","type":"int","value":5},{"name":"group","type":"int","value":0},{"name":"id","type":"int","value":21},{"name":"fh_layer","type":"int","value":5},{"name":"fh_group","type":"int","value":0},{"name":"fh_id","type":"int","value":21},{"name":"x1","type":"int","value":810},{"name":"x2","type":"int","value":900},{"name":"y1","type":"int","value":86},{"name":"y2","type":"int","value":86},{"name":"next","type":"int","value":22},{"name":"prev","type":"int","value":18}],"polyline":[{"x":0,"y":0},{"x":90,"y":0}]},{"id":192,"x":900,"y":86,"visible":true,"properties":[{"name":"layer","type":"int","value":5},{"name":"group","type":"int","value":0},{"name":"id","type":"int","value":22},{"name":"fh_layer","type":"int","value":5},{"name":"fh_group","type":"int","value":0},{"name":"fh_id","type":"int","value":22},{"name":"x1","type":"int","value":900},{"name":"x2","type":"int","value":990},{"name":"y1","type":"int","value":86},{"name":"y2","type":"int","value":86},{"name":"next","type":"int","value":19},{"name":"prev","type":"int","value":21}],"polyline":[{"x":0,"y":0},{"x":90,"y":0}]},{"id":193,"x":1350,"y":86,"visible":true,"properties":[{"name":"layer","type":"int","value":5},{"name":"group","type":"int","value":0},{"name":"id","type":"int","value":23},{"name":"fh_layer","type":"int","value":5},{"name":"fh_group","type":"int","value":0},{"name":"fh_id","type":"int","value":23},{"name":"x1","type":"int","value":1350},{"name":"x2","type":"int","value":1440},{"name":"y1","type":"int","value":86},{"name":"y2","type":"int","value":86},{"name":"next","type":"int","value":10},{"name":"prev","type":"int","value":25}],"polyline":[{"x":0,"y":0},{"x":90,"y":0}]},{"id":194,"x":630,"y":86,"visible":true,"properties":[{"name":"layer","type":"int","value":5},{"name":"group","type":"int","value":0},{"name":"id","type":"int","value":24},{"name":"fh_layer","type":"int","value":5},{"name":"fh_group","type":"int","value":0},{"name":"fh_id","type":"int","value":24},{"name":"x1","type":"int","value":630},{"name":"x2","type":"int","value":720},{"name":"y1","type":"int","value":86},{"name":"y2","type":"int","value":86},{"name":"next","type":"int","value":18},{"name":"prev","type":"int","value":20}],"polyline":[{"x":0,"y":0},{"x":90,"y":0}]},{"id":195,"x":1260,"y":86,"visible":true,"properties":[{"name":"layer","type":"int","value":5},{"name":"group","type":"int","value":0},{"name":"id","type":"int","value":25},{"name":"fh_layer","type":"int","value":5},{"name":"fh_group","type":"int","value":0},{"name":"fh_id","type":"int","value":25},{"name":"x1","type":"int","value":1260},{"name":"x2","type":"int","value":1350},{"name":"y1","type":"int","value":86},{"name":"y2","type":"int","value":86},{"name":"next","type":"int","value":23},{"name":"prev","type":"int","value":9}],"polyline":[{"x":0,"y":0},{"x":90,"y":0}]},{"id":196,"x":1620,"y":86,"visible":true,"properties":[{"name":"layer","type":"int","value":5},{"name":"group","type":"int","value":0},{"name":"id","type":"int","value":26},{"name":"fh_layer","type":"int","value":5},{"name":"fh_group","type":"int","value":0},{"name":"fh_id","type":"int","value":26},{"name":"x1","type":"int","value":1620},{"name":"x2","type":"int","value":1710},{"name":"y1","type":"int","value":86},{"name":"y2","type":"int","value":86},{"name":"next","type":"int","value":0},{"name":"prev","type":"int","value":16}],"polyline":[{"x":0,"y":0},{"x":90,"y":0}]}],"properties":[]},{"id":29,"name":"miniMap","type":"objectgroup","visible":true,"opacity":1,"draworder":"index","offsetx":0,"offsety":0,"parallaxx":1,"parallaxy":1,"objects":[{"id":197,"x":48,"y":595,"visible":true,"properties":[{"name":"mag","type":"int","value":4},{"name":"centerX","type":"int","value":48},{"name":"centerY","type":"int","value":595},{"name":"canvas_path","type":"string","value":"../images/30662.png"},{"name":"canvas_width","type":"int","value":113},{"name":"canvas_height","type":"int","value":61},{"name":"canvas_origin_x","type":"int","value":0},{"name":"canvas_origin_y","type":"int","value":0}],"point":true}],"properties":[]}],"tilesets":[{"firstgid":1,"source":"../tilesets/bg_Rien.tsj"},{"firstgid":29,"source":"../tilesets/tile_snowyRord.tsj"},{"firstgid":48,"source":"../tilesets/obj_acc12_rienFD_acc.tsj"},{"firstgid":66,"source":"../tilesets/obj_acc12_rienFD_ice.tsj"},{"firstgid":78,"source":"../tilesets/obj_acc12_rienTW_acc.tsj"},{"firstgid":85,"source":"../tilesets/bg_Back_Rien.img_ani_0.tsj"},{"firstgid":87,"source":"../tilesets/bg_Back_Rien.img_ani_1.tsj"},{"firstgid":89,"source":"../tilesets/bg_Back_Rien.img_ani_2.tsj"},{"firstgid":91,"source":"../tilesets/bg_Back_Rien.img_ani_3.tsj"},{"firstgid":93,"source":"../tilesets/bg_Back_Rien.img_ani_4.tsj"},{"firstgid":95,"source":"../tilesets/obj_acc12_rienFD_nature1.tsj"},{"firstgid":116,"source":"../tilesets/obj_acc12_rienFD_pengiun.tsj"}],"properties":[{"name":"bgm","type":"string","value":"Bgm19/SnowDrop"},{"name":"fly","type":"int","value":0},{"name":"swim","type":"int","value":0},{"name":"town","type":"int","value":0},{"name":"VRTop","type":"int","value":-900},{"name":"cloud","type":"int","value":0},{"name":"VRLeft","type":"int","value":1},{"name":"VRRight","type":"int","value":1709},{"name":"mapMark","type":"string","value":"Rien"},{"name":"mobRate","type":"float","value":1},{"name":"version","type":"int","value":10},{"name":"VRBottom","type":"int","value":260},{"name":"noMapCmd","type":"int","value":0},{"name":"returnMap","type":"int","value":140090400},{"name":"fieldLimit","type":"int","value":2632300},{"name":"hideMinimap","type":"int","value":0},{"name":"onUserEnter","type":"string","value":""},{"name":"forcedReturn","type":"int","value":140090400},{"name":"onFirstUserEnter","type":"string","value":""}]}