{"type":"map","orientation":"orthogonal","renderorder":"right-down","infinite":false,"tilewidth":1,"tileheight":1,"width":798,"height":325,"parallaxoriginx":-400,"parallaxoriginy":80,"nextlayerid":5,"nextobjectid":90,"layers":[{"id":1,"name":"layer_3_tile","type":"objectgroup","visible":true,"opacity":1,"draworder":"index","offsetx":0,"offsety":0,"parallaxx":1,"parallaxy":1,"objects":[{"id":1,"x":-90,"y":265,"visible":true,"properties":[{"name":"layer","type":"int","value":3},{"name":"resource_index","type":"int","value":0},{"name":"u","type":"string","value":"enH1"},{"name":"no","type":"int","value":0},{"name":"zM","type":"int","value":0}],"gid":1,"width":90,"height":25},{"id":2,"x":-90,"y":240,"visible":true,"properties":[{"name":"layer","type":"int","value":3},{"name":"resource_index","type":"int","value":1},{"name":"u","type":"string","value":"enH0"},{"name":"no","type":"int","value":0},{"name":"zM","type":"int","value":0}],"gid":2,"width":90,"height":25},{"id":3,"x":90,"y":265,"visible":true,"properties":[{"name":"layer","type":"int","value":3},{"name":"resource_index","type":"int","value":2},{"name":"u","type":"string","value":"enH1"},{"name":"no","type":"int","value":0},{"name":"zM","type":"int","value":0}],"gid":1,"width":90,"height":25},{"id":4,"x":90,"y":240,"visible":true,"properties":[{"name":"layer","type":"int","value":3},{"name":"resource_index","type":"int","value":3},{"name":"u","type":"string","value":"enH0"},{"name":"no","type":"int","value":0},{"name":"zM","type":"int","value":0}],"gid":2,"width":90,"height":25},{"id":5,"x":-180,"y":265,"visible":true,"properties":[{"name":"layer","type":"int","value":3},{"name":"resource_index","type":"int","value":4},{"name":"u","type":"string","value":"enH1"},{"name":"no","type":"int","value":0},{"name":"zM","type":"int","value":0}],"gid":1,"width":90,"height":25},{"id":6,"x":-180,"y":240,"visible":true,"properties":[{"name":"layer","type":"int","value":3},{"name":"resource_index","type":"int","value":5},{"name":"u","type":"string","value":"enH0"},{"name":"no","type":"int","value":0},{"name":"zM","type":"int","value":0}],"gid":2,"width":90,"height":25},{"id":7,"x":0,"y":240,"visible":true,"properties":[{"name":"layer","type":"int","value":3},{"name":"resource_index","type":"int","value":6},{"name":"u","type":"string","value":"enH0"},{"name":"no","type":"int","value":0},{"name":"zM","type":"int","value":0}],"gid":2,"width":90,"height":25},{"id":8,"x":0,"y":265,"visible":true,"properties":[{"name":"layer","type":"int","value":3},{"name":"resource_index","type":"int","value":7},{"name":"u","type":"string","value":"enH1"},{"name":"no","type":"int","value":0},{"name":"zM","type":"int","value":0}],"gid":1,"width":90,"height":25},{"id":9,"x":-270,"y":265,"visible":true,"properties":[{"name":"layer","type":"int","value":3},{"name":"resource_index","type":"int","value":8},{"name":"u","type":"string","value":"enH1"},{"name":"no","type":"int","value":0},{"name":"zM","type":"int","value":0}],"gid":1,"width":90,"height":25},{"id":10,"x":-270,"y":240,"visible":true,"properties":[{"name":"layer","type":"int","value":3},{"name":"resource_index","type":"int","value":9},{"name":"u","type":"string","value":"enH0"},{"name":"no","type":"int","value":0},{"name":"zM","type":"int","value":0}],"gid":2,"width":90,"height":25},{"id":11,"x":-360,"y":265,"visible":true,"properties":[{"name":"layer","type":"int","value":3},{"name":"resource_index","type":"int","value":10},{"name":"u","type":"string","value":"enH1"},{"name":"no","type":"int","value":0},{"name":"zM","type":"int","value":0}],"gid":1,"width":90,"height":25},{"id":12,"x":-360,"y":240,"visible":true,"properties":[{"name":"layer","type":"int","value":3},{"name":"resource_index","type":"int","value":11},{"name":"u","type":"string","value":"enH0"},{"name":"no","type":"int","value":0},{"name":"zM","type":"int","value":0}],"gid":2,"width":90,"height":25},{"id":13,"x":-385,"y":240,"visible":true,"properties":[{"name":"layer","type":"int","value":3},{"name":"resource_index","type":"int","value":12},{"name":"u","type":"string","value":"edU"},{"name":"no","type":"int","value":0},{"name":"zM","type":"int","value":0}],"gid":4,"width":50,"height":25},{"id":14,"x":-385,"y":265,"visible":true,"properties":[{"name":"layer","type":"int","value":3},{"name":"resource_index","type":"int","value":13},{"name":"u","type":"string","value":"edD"},{"name":"no","type":"int","value":0},{"name":"zM","type":"int","value":0}],"gid":3,"width":50,"height":25},{"id":15,"x":180,"y":265,"visible":true,"properties":[{"name":"layer","type":"int","value":3},{"name":"resource_index","type":"int","value":14},{"name":"u","type":"string","value":"enH1"},{"name":"no","type":"int","value":0},{"name":"zM","type":"int","value":0}],"gid":1,"width":90,"height":25},{"id":16,"x":180,"y":240,"visible":true,"properties":[{"name":"layer","type":"int","value":3},{"name":"resource_index","type":"int","value":15},{"name":"u","type":"string","value":"enH0"},{"name":"no","type":"int","value":0},{"name":"zM","type":"int","value":0}],"gid":2,"width":90,"height":25},{"id":17,"x":335,"y":240,"visible":true,"properties":[{"name":"layer","type":"int","value":3},{"name":"resource_index","type":"int","value":16},{"name":"u","type":"string","value":"edU"},{"name":"no","type":"int","value":0},{"name":"zM","type":"int","value":0}],"gid":4,"width":50,"height":25},{"id":18,"x":335,"y":265,"visible":true,"properties":[{"name":"layer","type":"int","value":3},{"name":"resource_index","type":"int","value":17},{"name":"u","type":"string","value":"edD"},{"name":"no","type":"int","value":0},{"name":"zM","type":"int","value":0}],"gid":3,"width":50,"height":25},{"id":19,"x":270,"y":265,"visible":true,"properties":[{"name":"layer","type":"int","value":3},{"name":"resource_index","type":"int","value":18},{"name":"u","type":"string","value":"enH1"},{"name":"no","type":"int","value":0},{"name":"zM","type":"int","value":0}],"gid":1,"width":90,"height":25},{"id":20,"x":270,"y":240,"visible":true,"properties":[{"name":"layer","type":"int","value":3},{"name":"resource_index","type":"int","value":19},{"name":"u","type":"string","value":"enH0"},{"name":"no","type":"int","value":0},{"name":"zM","type":"int","value":0}],"gid":2,"width":90,"height":25},{"id":21,"x":-385,"y":180,"visible":true,"properties":[{"name":"layer","type":"int","value":3},{"name":"resource_index","type":"int","value":20},{"name":"u","type":"string","value":"edU"},{"name":"no","type":"int","value":0},{"name":"zM","type":"int","value":1}],"gid":4,"width":50,"height":25},{"id":22,"x":-385,"y":205,"visible":true,"properties":[{"name":"layer","type":"int","value":3},{"name":"resource_index","type":"int","value":21},{"name":"u","type":"string","value":"edD"},{"name":"no","type":"int","value":0},{"name":"zM","type":"int","value":1}],"gid":3,"width":50,"height":25},{"id":23,"x":-385,"y":120,"visible":true,"properties":[{"name":"layer","type":"int","value":3},{"name":"resource_index","type":"int","value":22},{"name":"u","type":"string","value":"edU"},{"name":"no","type":"int","value":0},{"name":"zM","type":"int","value":3}],"gid":4,"width":50,"height":25},{"id":24,"x":-385,"y":145,"visible":true,"properties":[{"name":"layer","type":"int","value":3},{"name":"resource_index","type":"int","value":23},{"name":"u","type":"string","value":"edD"},{"name":"no","type":"int","value":0},{"name":"zM","type":"int","value":3}],"gid":3,"width":50,"height":25},{"id":25,"x":-385,"y":60,"visible":true,"properties":[{"name":"layer","type":"int","value":3},{"name":"resource_index","type":"int","value":24},{"name":"u","type":"string","value":"edU"},{"name":"no","type":"int","value":0},{"name":"zM","type":"int","value":6}],"gid":4,"width":50,"height":25},{"id":26,"x":-385,"y":85,"visible":true,"properties":[{"name":"layer","type":"int","value":3},{"name":"resource_index","type":"int","value":25},{"name":"u","type":"string","value":"edD"},{"name":"no","type":"int","value":0},{"name":"zM","type":"int","value":6}],"gid":3,"width":50,"height":25},{"id":27,"x":-385,"y":0,"visible":true,"properties":[{"name":"layer","type":"int","value":3},{"name":"resource_index","type":"int","value":26},{"name":"u","type":"string","value":"edU"},{"name":"no","type":"int","value":0},{"name":"zM","type":"int","value":8}],"gid":4,"width":50,"height":25},{"id":28,"x":-385,"y":25,"visible":true,"properties":[{"name":"layer","type":"int","value":3},{"name":"resource_index","type":"int","value":27},{"name":"u","type":"string","value":"edD"},{"name":"no","type":"int","value":0},{"name":"zM","type":"int","value":8}],"gid":3,"width":50,"height":25},{"id":29,"x":-385,"y":-60,"visible":true,"properties":[{"name":"layer","type":"int","value":3},{"name":"resource_index","type":"int","value":28},{"name":"u","type":"string","value":"edU"},{"name":"no","type":"int","value":0},{"name":"zM","type":"int","value":9}],"gid":4,"width":50,"height":25},{"id":30,"x":-385,"y":-35,"visible":true,"properties":[{"name":"layer","type":"int","value":3},{"name":"resource_index","type":"int","value":29},{"name":"u","type":"string","value":"edD"},{"name":"no","type":"int","value":0},{"name":"zM","type":"int","value":9}],"gid":3,"width":50,"height":25},{"id":31,"x":-270,"y":-35,"visible":true,"properties":[{"name":"layer","type":"int","value":3},{"name":"resource_index","type":"int","value":30},{"name":"u","type":"string","value":"enH1"},{"name":"no","type":"int","value":0},{"name":"zM","type":"int","value":9}],"gid":1,"width":90,"height":25},{"id":32,"x":-270,"y":-60,"visible":true,"properties":[{"name":"layer","type":"int","value":3},{"name":"resource_index","type":"int","value":31},{"name":"u","type":"string","value":"enH0"},{"name":"no","type":"int","value":0},{"name":"zM","type":"int","value":9}],"gid":2,"width":90,"height":25},{"id":33,"x":-360,"y":-60,"visible":true,"properties":[{"name":"layer","type":"int","value":3},{"name":"resource_index","type":"int","value":32},{"name":"u","type":"string","value":"enH0"},{"name":"no","type":"int","value":0},{"name":"zM","type":"int","value":9}],"gid":2,"width":90,"height":25},{"id":34,"x":-360,"y":-35,"visible":true,"properties":[{"name":"layer","type":"int","value":3},{"name":"resource_index","type":"int","value":33},{"name":"u","type":"string","value":"enH1"},{"name":"no","type":"int","value":0},{"name":"zM","type":"int","value":9}],"gid":1,"width":90,"height":25},{"id":35,"x":90,"y":-35,"visible":true,"properties":[{"name":"layer","type":"int","value":3},{"name":"resource_index","type":"int","value":34},{"name":"u","type":"string","value":"enH1"},{"name":"no","type":"int","value":0},{"name":"zM","type":"int","value":9}],"gid":1,"width":90,"height":25},{"id":36,"x":90,"y":-60,"visible":true,"properties":[{"name":"layer","type":"int","value":3},{"name":"resource_index","type":"int","value":35},{"name":"u","type":"string","value":"enH0"},{"name":"no","type":"int","value":0},{"name":"zM","type":"int","value":9}],"gid":2,"width":90,"height":25},{"id":37,"x":-180,"y":-35,"visible":true,"properties":[{"name":"layer","type":"int","value":3},{"name":"resource_index","type":"int","value":36},{"name":"u","type":"string","value":"enH1"},{"name":"no","type":"int","value":0},{"name":"zM","type":"int","value":9}],"gid":1,"width":90,"height":25},{"id":38,"x":-180,"y":-60,"visible":true,"properties":[{"name":"layer","type":"int","value":3},{"name":"resource_index","type":"int","value":37},{"name":"u","type":"string","value":"enH0"},{"name":"no","type":"int","value":0},{"name":"zM","type":"int","value":9}],"gid":2,"width":90,"height":25},{"id":39,"x":0,"y":-35,"visible":true,"properties":[{"name":"layer","type":"int","value":3},{"name":"resource_index","type":"int","value":38},{"name":"u","type":"string","value":"enH1"},{"name":"no","type":"int","value":0},{"name":"zM","type":"int","value":9}],"gid":1,"width":90,"height":25},{"id":40,"x":0,"y":-60,"visible":true,"properties":[{"name":"layer","type":"int","value":3},{"name":"resource_index","type":"int","value":39},{"name":"u","type":"string","value":"enH0"},{"name":"no","type":"int","value":0},{"name":"zM","type":"int","value":9}],"gid":2,"width":90,"height":25},{"id":41,"x":-90,"y":-60,"visible":true,"properties":[{"name":"layer","type":"int","value":3},{"name":"resource_index","type":"int","value":40},{"name":"u","type":"string","value":"enH0"},{"name":"no","type":"int","value":0},{"name":"zM","type":"int","value":9}],"gid":2,"width":90,"height":25},{"id":42,"x":-90,"y":-35,"visible":true,"properties":[{"name":"layer","type":"int","value":3},{"name":"resource_index","type":"int","value":41},{"name":"u","type":"string","value":"enH1"},{"name":"no","type":"int","value":0},{"name":"zM","type":"int","value":9}],"gid":1,"width":90,"height":25},{"id":43,"x":155,"y":-60,"visible":true,"properties":[{"name":"layer","type":"int","value":3},{"name":"resource_index","type":"int","value":42},{"name":"u","type":"string","value":"edU"},{"name":"no","type":"int","value":0},{"name":"zM","type":"int","value":9}],"gid":4,"width":50,"height":25},{"id":44,"x":155,"y":-35,"visible":true,"properties":[{"name":"layer","type":"int","value":3},{"name":"resource_index","type":"int","value":43},{"name":"u","type":"string","value":"edD"},{"name":"no","type":"int","value":0},{"name":"zM","type":"int","value":9}],"gid":3,"width":50,"height":25},{"id":45,"x":335,"y":-60,"visible":true,"properties":[{"name":"layer","type":"int","value":3},{"name":"resource_index","type":"int","value":44},{"name":"u","type":"string","value":"edU"},{"name":"no","type":"int","value":0},{"name":"zM","type":"int","value":10}],"gid":4,"width":50,"height":25},{"id":46,"x":335,"y":-35,"visible":true,"properties":[{"name":"layer","type":"int","value":3},{"name":"resource_index","type":"int","value":45},{"name":"u","type":"string","value":"edD"},{"name":"no","type":"int","value":0},{"name":"zM","type":"int","value":10}],"gid":3,"width":50,"height":25}],"properties":[]},{"id":2,"name":"portal","type":"objectgroup","visible":true,"opacity":1,"draworder":"index","offsetx":0,"offsety":0,"parallaxx":1,"parallaxy":1,"objects":[{"id":47,"x":-235,"y":179,"visible":true,"properties":[{"name":"x","type":"int","value":-235},{"name":"y","type":"int","value":179},{"name":"pn","type":"string","value":"sp"},{"name":"pt","type":"int","value":0},{"name":"tm","type":"int","value":999999999},{"name":"tn","type":"string","value":""}],"point":true},{"id":48,"x":-146,"y":187,"visible":true,"properties":[{"name":"x","type":"int","value":-146},{"name":"y","type":"int","value":187},{"name":"pn","type":"string","value":"sp"},{"name":"pt","type":"int","value":0},{"name":"tm","type":"int","value":999999999},{"name":"tn","type":"string","value":""}],"point":true}],"properties":[]},{"id":3,"name":"foothold","type":"objectgroup","visible":true,"opacity":1,"draworder":"index","offsetx":0,"offsety":0,"parallaxx":1,"parallaxy":1,"objects":[{"id":49,"x":-90,"y":215,"visible":true,"properties":[{"name":"layer","type":"int","value":3},{"name":"group","type":"int","value":0},{"name":"id","type":"int","value":1},{"name":"fh_layer","type":"int","value":3},{"name":"fh_group","type":"int","value":0},{"name":"fh_id","type":"int","value":1},{"name":"x1","type":"int","value":-90},{"name":"x2","type":"int","value":0},{"name":"y1","type":"int","value":215},{"name":"y2","type":"int","value":215},{"name":"next","type":"int","value":4},{"name":"prev","type":"int","value":3}],"polyline":[{"x":0,"y":0},{"x":90,"y":0}]},{"id":50,"x":90,"y":215,"visible":true,"properties":[{"name":"layer","type":"int","value":3},{"name":"group","type":"int","value":0},{"name":"id","type":"int","value":2},{"name":"fh_layer","type":"int","value":3},{"name":"fh_group","type":"int","value":0},{"name":"fh_id","type":"int","value":2},{"name":"x1","type":"int","value":90},{"name":"x2","type":"int","value":180},{"name":"y1","type":"int","value":215},{"name":"y2","type":"int","value":215},{"name":"next","type":"int","value":10},{"name":"prev","type":"int","value":4}],"polyline":[{"x":0,"y":0},{"x":90,"y":0}]},{"id":51,"x":-180,"y":215,"visible":true,"properties":[{"name":"layer","type":"int","value":3},{"name":"group","type":"int","value":0},{"name":"id","type":"int","value":3},{"name":"fh_layer","type":"int","value":3},{"name":"fh_group","type":"int","value":0},{"name":"fh_id","type":"int","value":3},{"name":"x1","type":"int","value":-180},{"name":"x2","type":"int","value":-90},{"name":"y1","type":"int","value":215},{"name":"y2","type":"int","value":215},{"name":"next","type":"int","value":1},{"name":"prev","type":"int","value":5}],"polyline":[{"x":0,"y":0},{"x":90,"y":0}]},{"id":52,"x":0,"y":215,"visible":true,"properties":[{"name":"layer","type":"int","value":3},{"name":"group","type":"int","value":0},{"name":"id","type":"int","value":4},{"name":"fh_layer","type":"int","value":3},{"name":"fh_group","type":"int","value":0},{"name":"fh_id","type":"int","value":4},{"name":"x1","type":"int","value":0},{"name":"x2","type":"int","value":90},{"name":"y1","type":"int","value":215},{"name":"y2","type":"int","value":215},{"name":"next","type":"int","value":2},{"name":"prev","type":"int","value":1}],"polyline":[{"x":0,"y":0},{"x":90,"y":0}]},{"id":53,"x":-270,"y":215,"visible":true,"properties":[{"name":"layer","type":"int","value":3},{"name":"group","type":"int","value":0},{"name":"id","type":"int","value":5},{"name":"fh_layer","type":"int","value":3},{"name":"fh_group","type":"int","value":0},{"name":"fh_id","type":"int","value":5},{"name":"x1","type":"int","value":-270},{"name":"x2","type":"int","value":-180},{"name":"y1","type":"int","value":215},{"name":"y2","type":"int","value":215},{"name":"next","type":"int","value":3},{"name":"prev","type":"int","value":9}],"polyline":[{"x":0,"y":0},{"x":90,"y":0}]},{"id":54,"x":-360,"y":215,"visible":true,"properties":[{"name":"layer","type":"int","value":3},{"name":"group","type":"int","value":0},{"name":"id","type":"int","value":6},{"name":"fh_layer","type":"int","value":3},{"name":"fh_group","type":"int","value":0},{"name":"fh_id","type":"int","value":6},{"name":"x1","type":"int","value":-360},{"name":"x2","type":"int","value":-321},{"name":"y1","type":"int","value":215},{"name":"y2","type":"int","value":215},{"name":"next","type":"int","value":9},{"name":"prev","type":"int","value":8}],"polyline":[{"x":0,"y":0},{"x":39,"y":0}]},{"id":55,"x":-399,"y":240,"visible":true,"properties":[{"name":"layer","type":"int","value":3},{"name":"group","type":"int","value":0},{"name":"id","type":"int","value":7},{"name":"fh_layer","type":"int","value":3},{"name":"fh_group","type":"int","value":0},{"name":"fh_id","type":"int","value":7},{"name":"x1","type":"int","value":-399},{"name":"x2","type":"int","value":-399},{"name":"y1","type":"int","value":240},{"name":"y2","type":"int","value":215},{"name":"next","type":"int","value":8},{"name":"prev","type":"int","value":0}],"polyline":[{"x":0,"y":0},{"x":0,"y":-25}]},{"id":56,"x":-399,"y":215,"visible":true,"properties":[{"name":"layer","type":"int","value":3},{"name":"group","type":"int","value":0},{"name":"id","type":"int","value":8},{"name":"fh_layer","type":"int","value":3},{"name":"fh_group","type":"int","value":0},{"name":"fh_id","type":"int","value":8},{"name":"x1","type":"int","value":-399},{"name":"x2","type":"int","value":-360},{"name":"y1","type":"int","value":215},{"name":"y2","type":"int","value":215},{"name":"next","type":"int","value":6},{"name":"prev","type":"int","value":7}],"polyline":[{"x":0,"y":0},{"x":39,"y":0}]},{"id":57,"x":-321,"y":215,"visible":true,"properties":[{"name":"layer","type":"int","value":3},{"name":"group","type":"int","value":0},{"name":"id","type":"int","value":9},{"name":"fh_layer","type":"int","value":3},{"name":"fh_group","type":"int","value":0},{"name":"fh_id","type":"int","value":9},{"name":"x1","type":"int","value":-321},{"name":"x2","type":"int","value":-270},{"name":"y1","type":"int","value":215},{"name":"y2","type":"int","value":215},{"name":"next","type":"int","value":5},{"name":"prev","type":"int","value":6}],"polyline":[{"x":0,"y":0},{"x":51,"y":0}]},{"id":58,"x":180,"y":215,"visible":true,"properties":[{"name":"layer","type":"int","value":3},{"name":"group","type":"int","value":0},{"name":"id","type":"int","value":10},{"name":"fh_layer","type":"int","value":3},{"name":"fh_group","type":"int","value":0},{"name":"fh_id","type":"int","value":10},{"name":"x1","type":"int","value":180},{"name":"x2","type":"int","value":270},{"name":"y1","type":"int","value":215},{"name":"y2","type":"int","value":215},{"name":"next","type":"int","value":13},{"name":"prev","type":"int","value":2}],"polyline":[{"x":0,"y":0},{"x":90,"y":0}]},{"id":59,"x":321,"y":215,"visible":true,"properties":[{"name":"layer","type":"int","value":3},{"name":"group","type":"int","value":0},{"name":"id","type":"int","value":11},{"name":"fh_layer","type":"int","value":3},{"name":"fh_group","type":"int","value":0},{"name":"fh_id","type":"int","value":11},{"name":"x1","type":"int","value":321},{"name":"x2","type":"int","value":399},{"name":"y1","type":"int","value":215},{"name":"y2","type":"int","value":215},{"name":"next","type":"int","value":12},{"name":"prev","type":"int","value":13}],"polyline":[{"x":0,"y":0},{"x":78,"y":0}]},{"id":60,"x":399,"y":215,"visible":true,"properties":[{"name":"layer","type":"int","value":3},{"name":"group","type":"int","value":0},{"name":"id","type":"int","value":12},{"name":"fh_layer","type":"int","value":3},{"name":"fh_group","type":"int","value":0},{"name":"fh_id","type":"int","value":12},{"name":"x1","type":"int","value":399},{"name":"x2","type":"int","value":399},{"name":"y1","type":"int","value":215},{"name":"y2","type":"int","value":240},{"name":"next","type":"int","value":0},{"name":"prev","type":"int","value":11}],"polyline":[{"x":0,"y":0},{"x":0,"y":25}]},{"id":61,"x":270,"y":215,"visible":true,"properties":[{"name":"layer","type":"int","value":3},{"name":"group","type":"int","value":0},{"name":"id","type":"int","value":13},{"name":"fh_layer","type":"int","value":3},{"name":"fh_group","type":"int","value":0},{"name":"fh_id","type":"int","value":13},{"name":"x1","type":"int","value":270},{"name":"x2","type":"int","value":321},{"name":"y1","type":"int","value":215},{"name":"y2","type":"int","value":215},{"name":"next","type":"int","value":11},{"name":"prev","type":"int","value":10}],"polyline":[{"x":0,"y":0},{"x":51,"y":0}]},{"id":62,"x":-399,"y":180,"visible":true,"properties":[{"name":"layer","type":"int","value":3},{"name":"group","type":"int","value":1},{"name":"id","type":"int","value":14},{"name":"fh_layer","type":"int","value":3},{"name":"fh_group","type":"int","value":1},{"name":"fh_id","type":"int","value":14},{"name":"x1","type":"int","value":-399},{"name":"x2","type":"int","value":-399},{"name":"y1","type":"int","value":180},{"name":"y2","type":"int","value":155},{"name":"next","type":"int","value":15},{"name":"prev","type":"int","value":0}],"polyline":[{"x":0,"y":0},{"x":0,"y":-25}]},{"id":63,"x":-399,"y":155,"visible":true,"properties":[{"name":"layer","type":"int","value":3},{"name":"group","type":"int","value":1},{"name":"id","type":"int","value":15},{"name":"fh_layer","type":"int","value":3},{"name":"fh_group","type":"int","value":1},{"name":"fh_id","type":"int","value":15},{"name":"x1","type":"int","value":-399},{"name":"x2","type":"int","value":-321},{"name":"y1","type":"int","value":155},{"name":"y2","type":"int","value":155},{"name":"next","type":"int","value":16},{"name":"prev","type":"int","value":14}],"polyline":[{"x":0,"y":0},{"x":78,"y":0}]},{"id":64,"x":-321,"y":155,"visible":true,"properties":[{"name":"layer","type":"int","value":3},{"name":"group","type":"int","value":1},{"name":"id","type":"int","value":16},{"name":"fh_layer","type":"int","value":3},{"name":"fh_group","type":"int","value":1},{"name":"fh_id","type":"int","value":16},{"name":"x1","type":"int","value":-321},{"name":"x2","type":"int","value":-321},{"name":"y1","type":"int","value":155},{"name":"y2","type":"int","value":180},{"name":"next","type":"int","value":0},{"name":"prev","type":"int","value":15}],"polyline":[{"x":0,"y":0},{"x":0,"y":25}]},{"id":65,"x":-399,"y":120,"visible":true,"properties":[{"name":"layer","type":"int","value":3},{"name":"group","type":"int","value":3},{"name":"id","type":"int","value":17},{"name":"fh_layer","type":"int","value":3},{"name":"fh_group","type":"int","value":3},{"name":"fh_id","type":"int","value":17},{"name":"x1","type":"int","value":-399},{"name":"x2","type":"int","value":-399},{"name":"y1","type":"int","value":120},{"name":"y2","type":"int","value":95},{"name":"next","type":"int","value":18},{"name":"prev","type":"int","value":0}],"polyline":[{"x":0,"y":0},{"x":0,"y":-25}]},{"id":66,"x":-399,"y":95,"visible":true,"properties":[{"name":"layer","type":"int","value":3},{"name":"group","type":"int","value":3},{"name":"id","type":"int","value":18},{"name":"fh_layer","type":"int","value":3},{"name":"fh_group","type":"int","value":3},{"name":"fh_id","type":"int","value":18},{"name":"x1","type":"int","value":-399},{"name":"x2","type":"int","value":-321},{"name":"y1","type":"int","value":95},{"name":"y2","type":"int","value":95},{"name":"next","type":"int","value":19},{"name":"prev","type":"int","value":17}],"polyline":[{"x":0,"y":0},{"x":78,"y":0}]},{"id":67,"x":-321,"y":95,"visible":true,"properties":[{"name":"layer","type":"int","value":3},{"name":"group","type":"int","value":3},{"name":"id","type":"int","value":19},{"name":"fh_layer","type":"int","value":3},{"name":"fh_group","type":"int","value":3},{"name":"fh_id","type":"int","value":19},{"name":"x1","type":"int","value":-321},{"name":"x2","type":"int","value":-321},{"name":"y1","type":"int","value":95},{"name":"y2","type":"int","value":120},{"name":"next","type":"int","value":0},{"name":"prev","type":"int","value":18}],"polyline":[{"x":0,"y":0},{"x":0,"y":25}]},{"id":68,"x":-399,"y":60,"visible":true,"properties":[{"name":"layer","type":"int","value":3},{"name":"group","type":"int","value":6},{"name":"id","type":"int","value":20},{"name":"fh_layer","type":"int","value":3},{"name":"fh_group","type":"int","value":6},{"name":"fh_id","type":"int","value":20},{"name":"x1","type":"int","value":-399},{"name":"x2","type":"int","value":-399},{"name":"y1","type":"int","value":60},{"name":"y2","type":"int","value":35},{"name":"next","type":"int","value":21},{"name":"prev","type":"int","value":0}],"polyline":[{"x":0,"y":0},{"x":0,"y":-25}]},{"id":69,"x":-399,"y":35,"visible":true,"properties":[{"name":"layer","type":"int","value":3},{"name":"group","type":"int","value":6},{"name":"id","type":"int","value":21},{"name":"fh_layer","type":"int","value":3},{"name":"fh_group","type":"int","value":6},{"name":"fh_id","type":"int","value":21},{"name":"x1","type":"int","value":-399},{"name":"x2","type":"int","value":-321},{"name":"y1","type":"int","value":35},{"name":"y2","type":"int","value":35},{"name":"next","type":"int","value":22},{"name":"prev","type":"int","value":20}],"polyline":[{"x":0,"y":0},{"x":78,"y":0}]},{"id":70,"x":-321,"y":35,"visible":true,"properties":[{"name":"layer","type":"int","value":3},{"name":"group","type":"int","value":6},{"name":"id","type":"int","value":22},{"name":"fh_layer","type":"int","value":3},{"name":"fh_group","type":"int","value":6},{"name":"fh_id","type":"int","value":22},{"name":"x1","type":"int","value":-321},{"name":"x2","type":"int","value":-321},{"name":"y1","type":"int","value":35},{"name":"y2","type":"int","value":60},{"name":"next","type":"int","value":0},{"name":"prev","type":"int","value":21}],"polyline":[{"x":0,"y":0},{"x":0,"y":25}]},{"id":71,"x":-399,"y":0,"visible":true,"properties":[{"name":"layer","type":"int","value":3},{"name":"group","type":"int","value":8},{"name":"id","type":"int","value":23},{"name":"fh_layer","type":"int","value":3},{"name":"fh_group","type":"int","value":8},{"name":"fh_id","type":"int","value":23},{"name":"x1","type":"int","value":-399},{"name":"x2","type":"int","value":-399},{"name":"y1","type":"int","value":0},{"name":"y2","type":"int","value":-25},{"name":"next","type":"int","value":24},{"name":"prev","type":"int","value":0}],"polyline":[{"x":0,"y":0},{"x":0,"y":-25}]},{"id":72,"x":-399,"y":-25,"visible":true,"properties":[{"name":"layer","type":"int","value":3},{"name":"group","type":"int","value":8},{"name":"id","type":"int","value":24},{"name":"fh_layer","type":"int","value":3},{"name":"fh_group","type":"int","value":8},{"name":"fh_id","type":"int","value":24},{"name":"x1","type":"int","value":-399},{"name":"x2","type":"int","value":-321},{"name":"y1","type":"int","value":-25},{"name":"y2","type":"int","value":-25},{"name":"next","type":"int","value":25},{"name":"prev","type":"int","value":23}],"polyline":[{"x":0,"y":0},{"x":78,"y":0}]},{"id":73,"x":-321,"y":-25,"visible":true,"properties":[{"name":"layer","type":"int","value":3},{"name":"group","type":"int","value":8},{"name":"id","type":"int","value":25},{"name":"fh_layer","type":"int","value":3},{"name":"fh_group","type":"int","value":8},{"name":"fh_id","type":"int","value":25},{"name":"x1","type":"int","value":-321},{"name":"x2","type":"int","value":-321},{"name":"y1","type":"int","value":-25},{"name":"y2","type":"int","value":0},{"name":"next","type":"int","value":0},{"name":"prev","type":"int","value":24}],"polyline":[{"x":0,"y":0},{"x":0,"y":25}]},{"id":74,"x":-399,"y":-60,"visible":true,"properties":[{"name":"layer","type":"int","value":3},{"name":"group","type":"int","value":9},{"name":"id","type":"int","value":26},{"name":"fh_layer","type":"int","value":3},{"name":"fh_group","type":"int","value":9},{"name":"fh_id","type":"int","value":26},{"name":"x1","type":"int","value":-399},{"name":"x2","type":"int","value":-399},{"name":"y1","type":"int","value":-60},{"name":"y2","type":"int","value":-85},{"name":"next","type":"int","value":27},{"name":"prev","type":"int","value":0}],"polyline":[{"x":0,"y":0},{"x":0,"y":-25}]},{"id":75,"x":-399,"y":-85,"visible":true,"properties":[{"name":"layer","type":"int","value":3},{"name":"group","type":"int","value":9},{"name":"id","type":"int","value":27},{"name":"fh_layer","type":"int","value":3},{"name":"fh_group","type":"int","value":9},{"name":"fh_id","type":"int","value":27},{"name":"x1","type":"int","value":-399},{"name":"x2","type":"int","value":-321},{"name":"y1","type":"int","value":-85},{"name":"y2","type":"int","value":-85},{"name":"next","type":"int","value":29},{"name":"prev","type":"int","value":26}],"polyline":[{"x":0,"y":0},{"x":78,"y":0}]},{"id":76,"x":-270,"y":-85,"visible":true,"properties":[{"name":"layer","type":"int","value":3},{"name":"group","type":"int","value":9},{"name":"id","type":"int","value":28},{"name":"fh_layer","type":"int","value":3},{"name":"fh_group","type":"int","value":9},{"name":"fh_id","type":"int","value":28},{"name":"x1","type":"int","value":-270},{"name":"x2","type":"int","value":-180},{"name":"y1","type":"int","value":-85},{"name":"y2","type":"int","value":-85},{"name":"next","type":"int","value":31},{"name":"prev","type":"int","value":29}],"polyline":[{"x":0,"y":0},{"x":90,"y":0}]},{"id":77,"x":-321,"y":-85,"visible":true,"properties":[{"name":"layer","type":"int","value":3},{"name":"group","type":"int","value":9},{"name":"id","type":"int","value":29},{"name":"fh_layer","type":"int","value":3},{"name":"fh_group","type":"int","value":9},{"name":"fh_id","type":"int","value":29},{"name":"x1","type":"int","value":-321},{"name":"x2","type":"int","value":-270},{"name":"y1","type":"int","value":-85},{"name":"y2","type":"int","value":-85},{"name":"next","type":"int","value":28},{"name":"prev","type":"int","value":27}],"polyline":[{"x":0,"y":0},{"x":51,"y":0}]},{"id":78,"x":90,"y":-85,"visible":true,"properties":[{"name":"layer","type":"int","value":3},{"name":"group","type":"int","value":9},{"name":"id","type":"int","value":30},{"name":"fh_layer","type":"int","value":3},{"name":"fh_group","type":"int","value":9},{"name":"fh_id","type":"int","value":30},{"name":"x1","type":"int","value":90},{"name":"x2","type":"int","value":141},{"name":"y1","type":"int","value":-85},{"name":"y2","type":"int","value":-85},{"name":"next","type":"int","value":34},{"name":"prev","type":"int","value":32}],"polyline":[{"x":0,"y":0},{"x":51,"y":0}]},{"id":79,"x":-180,"y":-85,"visible":true,"properties":[{"name":"layer","type":"int","value":3},{"name":"group","type":"int","value":9},{"name":"id","type":"int","value":31},{"name":"fh_layer","type":"int","value":3},{"name":"fh_group","type":"int","value":9},{"name":"fh_id","type":"int","value":31},{"name":"x1","type":"int","value":-180},{"name":"x2","type":"int","value":-90},{"name":"y1","type":"int","value":-85},{"name":"y2","type":"int","value":-85},{"name":"next","type":"int","value":33},{"name":"prev","type":"int","value":28}],"polyline":[{"x":0,"y":0},{"x":90,"y":0}]},{"id":80,"x":0,"y":-85,"visible":true,"properties":[{"name":"layer","type":"int","value":3},{"name":"group","type":"int","value":9},{"name":"id","type":"int","value":32},{"name":"fh_layer","type":"int","value":3},{"name":"fh_group","type":"int","value":9},{"name":"fh_id","type":"int","value":32},{"name":"x1","type":"int","value":0},{"name":"x2","type":"int","value":90},{"name":"y1","type":"int","value":-85},{"name":"y2","type":"int","value":-85},{"name":"next","type":"int","value":30},{"name":"prev","type":"int","value":33}],"polyline":[{"x":0,"y":0},{"x":90,"y":0}]},{"id":81,"x":-90,"y":-85,"visible":true,"properties":[{"name":"layer","type":"int","value":3},{"name":"group","type":"int","value":9},{"name":"id","type":"int","value":33},{"name":"fh_layer","type":"int","value":3},{"name":"fh_group","type":"int","value":9},{"name":"fh_id","type":"int","value":33},{"name":"x1","type":"int","value":-90},{"name":"x2","type":"int","value":0},{"name":"y1","type":"int","value":-85},{"name":"y2","type":"int","value":-85},{"name":"next","type":"int","value":32},{"name":"prev","type":"int","value":31}],"polyline":[{"x":0,"y":0},{"x":90,"y":0}]},{"id":82,"x":141,"y":-85,"visible":true,"properties":[{"name":"layer","type":"int","value":3},{"name":"group","type":"int","value":9},{"name":"id","type":"int","value":34},{"name":"fh_layer","type":"int","value":3},{"name":"fh_group","type":"int","value":9},{"name":"fh_id","type":"int","value":34},{"name":"x1","type":"int","value":141},{"name":"x2","type":"int","value":180},{"name":"y1","type":"int","value":-85},{"name":"y2","type":"int","value":-85},{"name":"next","type":"int","value":35},{"name":"prev","type":"int","value":30}],"polyline":[{"x":0,"y":0},{"x":39,"y":0}]},{"id":83,"x":180,"y":-85,"visible":true,"properties":[{"name":"layer","type":"int","value":3},{"name":"group","type":"int","value":9},{"name":"id","type":"int","value":35},{"name":"fh_layer","type":"int","value":3},{"name":"fh_group","type":"int","value":9},{"name":"fh_id","type":"int","value":35},{"name":"x1","type":"int","value":180},{"name":"x2","type":"int","value":219},{"name":"y1","type":"int","value":-85},{"name":"y2","type":"int","value":-85},{"name":"next","type":"int","value":36},{"name":"prev","type":"int","value":34}],"polyline":[{"x":0,"y":0},{"x":39,"y":0}]},{"id":84,"x":219,"y":-85,"visible":true,"properties":[{"name":"layer","type":"int","value":3},{"name":"group","type":"int","value":9},{"name":"id","type":"int","value":36},{"name":"fh_layer","type":"int","value":3},{"name":"fh_group","type":"int","value":9},{"name":"fh_id","type":"int","value":36},{"name":"x1","type":"int","value":219},{"name":"x2","type":"int","value":219},{"name":"y1","type":"int","value":-85},{"name":"y2","type":"int","value":-60},{"name":"next","type":"int","value":0},{"name":"prev","type":"int","value":35}],"polyline":[{"x":0,"y":0},{"x":0,"y":25}]},{"id":85,"x":321,"y":-60,"visible":true,"properties":[{"name":"layer","type":"int","value":3},{"name":"group","type":"int","value":10},{"name":"id","type":"int","value":37},{"name":"fh_layer","type":"int","value":3},{"name":"fh_group","type":"int","value":10},{"name":"fh_id","type":"int","value":37},{"name":"x1","type":"int","value":321},{"name":"x2","type":"int","value":321},{"name":"y1","type":"int","value":-60},{"name":"y2","type":"int","value":-85},{"name":"next","type":"int","value":38},{"name":"prev","type":"int","value":0}],"polyline":[{"x":0,"y":0},{"x":0,"y":-25}]},{"id":86,"x":321,"y":-85,"visible":true,"properties":[{"name":"layer","type":"int","value":3},{"name":"group","type":"int","value":10},{"name":"id","type":"int","value":38},{"name":"fh_layer","type":"int","value":3},{"name":"fh_group","type":"int","value":10},{"name":"fh_id","type":"int","value":38},{"name":"x1","type":"int","value":321},{"name":"x2","type":"int","value":399},{"name":"y1","type":"int","value":-85},{"name":"y2","type":"int","value":-85},{"name":"next","type":"int","value":39},{"name":"prev","type":"int","value":37}],"polyline":[{"x":0,"y":0},{"x":78,"y":0}]},{"id":87,"x":399,"y":-85,"visible":true,"properties":[{"name":"layer","type":"int","value":3},{"name":"group","type":"int","value":10},{"name":"id","type":"int","value":39},{"name":"fh_layer","type":"int","value":3},{"name":"fh_group","type":"int","value":10},{"name":"fh_id","type":"int","value":39},{"name":"x1","type":"int","value":399},{"name":"x2","type":"int","value":399},{"name":"y1","type":"int","value":-85},{"name":"y2","type":"int","value":-60},{"name":"next","type":"int","value":0},{"name":"prev","type":"int","value":38}],"polyline":[{"x":0,"y":0},{"x":0,"y":25}]}],"properties":[]},{"id":4,"name":"ladderRope","type":"objectgroup","visible":true,"opacity":1,"draworder":"index","offsetx":0,"offsety":0,"parallaxx":1,"parallaxy":1,"objects":[{"id":88,"x":-127,"y":-83,"visible":true,"properties":[{"name":"ladder_id","type":"int","value":1},{"name":"l","type":"int","value":1},{"name":"x","type":"int","value":-127},{"name":"uf","type":"int","value":1},{"name":"y1","type":"int","value":-83},{"name":"y2","type":"int","value":178},{"name":"page","type":"int","value":4}],"polyline":[{"x":0,"y":0},{"x":0,"y":261}]},{"id":89,"x":64,"y":-83,"visible":true,"properties":[{"name":"ladder_id","type":"int","value":2},{"name":"l","type":"int","value":0},{"name":"x","type":"int","value":64},{"name":"uf","type":"int","value":1},{"name":"y1","type":"int","value":-83},{"name":"y2","type":"int","value":149},{"name":"page","type":"int","value":4}],"polyline":[{"x":0,"y":0},{"x":0,"y":232}]}],"properties":[]}],"tilesets":[{"firstgid":1,"source":"../tilesets/tile_blackTile.tsj"}],"properties":[{"name":"bgm","type":"string","value":"Bgm02/AboveTheTreetops"},{"name":"swim","type":"int","value":0},{"name":"town","type":"int","value":0},{"name":"cloud","type":"int","value":0},{"name":"mapMark","type":"string","value":"None"},{"name":"mobRate","type":"float","value":1},{"name":"version","type":"int","value":10},{"name":"returnMap","type":"int","value":100000000},{"name":"fieldLimit","type":"int","value":65600},{"name":"hideMinimap","type":"int","value":0},{"name":"forcedReturn","type":"int","value":100000000}]}