{"type":"map","orientation":"orthogonal","renderorder":"right-down","infinite":false,"tilewidth":1,"tileheight":1,"width":2206,"height":4533,"nextlayerid":32,"nextobjectid":484,"layers":[{"id":1,"name":"layer_2_obj","type":"objectgroup","visible":true,"opacity":1,"objects":[{"id":1,"x":118,"y":2258,"visible":true,"properties":[{"name":"layer","type":"int","value":2},{"name":"resource_index","type":"int","value":0},{"name":"oS","type":"string","value":"acc1"},{"name":"l0","type":"string","value":"dryRock"},{"name":"l1","type":"string","value":"artificiality"},{"name":"l2","type":"string","value":"24"},{"name":"z","type":"int","value":4},{"name":"zM","type":"int","value":39},{"name":"f","type":"int","value":0}],"gid":118,"width":93,"height":167},{"id":2,"x":167,"y":2248,"visible":true,"properties":[{"name":"layer","type":"int","value":2},{"name":"resource_index","type":"int","value":1},{"name":"oS","type":"string","value":"acc1"},{"name":"l0","type":"string","value":"dryRock"},{"name":"l1","type":"string","value":"artificiality"},{"name":"l2","type":"string","value":"26"},{"name":"z","type":"int","value":3},{"name":"zM","type":"int","value":39},{"name":"f","type":"int","value":1}],"gid":125,"width":51,"height":170},{"id":3,"x":326,"y":2200,"visible":true,"properties":[{"name":"layer","type":"int","value":2},{"name":"resource_index","type":"int","value":2},{"name":"oS","type":"string","value":"acc1"},{"name":"l0","type":"string","value":"dryRock"},{"name":"l1","type":"string","value":"artificiality"},{"name":"l2","type":"string","value":"24"},{"name":"z","type":"int","value":0},{"name":"zM","type":"int","value":43},{"name":"f","type":"int","value":0}],"gid":118,"width":93,"height":167},{"id":4,"x":326,"y":2265,"visible":true,"properties":[{"name":"layer","type":"int","value":2},{"name":"resource_index","type":"int","value":3},{"name":"oS","type":"string","value":"acc1"},{"name":"l0","type":"string","value":"dryRock"},{"name":"l1","type":"string","value":"nature"},{"name":"l2","type":"string","value":"18"},{"name":"z","type":"int","value":7},{"name":"zM","type":"int","value":40},{"name":"f","type":"int","value":0}],"gid":73,"width":153,"height":63},{"id":5,"x":194,"y":2264,"visible":true,"properties":[{"name":"layer","type":"int","value":2},{"name":"resource_index","type":"int","value":4},{"name":"oS","type":"string","value":"acc1"},{"name":"l0","type":"string","value":"dryRock"},{"name":"l1","type":"string","value":"nature"},{"name":"l2","type":"string","value":"18"},{"name":"z","type":"int","value":5},{"name":"zM","type":"int","value":39},{"name":"f","type":"int","value":0}],"gid":73,"width":153,"height":63},{"id":6,"x":277,"y":2246,"visible":true,"properties":[{"name":"layer","type":"int","value":2},{"name":"resource_index","type":"int","value":5},{"name":"oS","type":"string","value":"acc1"},{"name":"l0","type":"string","value":"dryRock"},{"name":"l1","type":"string","value":"nature"},{"name":"l2","type":"string","value":"18"},{"name":"z","type":"int","value":4},{"name":"zM","type":"int","value":39},{"name":"f","type":"int","value":0}],"gid":73,"width":153,"height":63},{"id":7,"x":136,"y":2265,"visible":true,"properties":[{"name":"layer","type":"int","value":2},{"name":"resource_index","type":"int","value":6},{"name":"oS","type":"string","value":"acc1"},{"name":"l0","type":"string","value":"dryRock"},{"name":"l1","type":"string","value":"nature"},{"name":"l2","type":"string","value":"17"},{"name":"z","type":"int","value":7},{"name":"zM","type":"int","value":39},{"name":"f","type":"int","value":0}],"gid":69,"width":68,"height":20},{"id":8,"x":468,"y":2264,"visible":true,"properties":[{"name":"layer","type":"int","value":2},{"name":"resource_index","type":"int","value":7},{"name":"oS","type":"string","value":"acc1"},{"name":"l0","type":"string","value":"dryRock"},{"name":"l1","type":"string","value":"nature"},{"name":"l2","type":"string","value":"17"},{"name":"z","type":"int","value":6},{"name":"zM","type":"int","value":40},{"name":"f","type":"int","value":0}],"gid":69,"width":68,"height":20},{"id":9,"x":448,"y":2254,"visible":true,"properties":[{"name":"layer","type":"int","value":2},{"name":"resource_index","type":"int","value":8},{"name":"oS","type":"string","value":"acc1"},{"name":"l0","type":"string","value":"dryRock"},{"name":"l1","type":"string","value":"nature"},{"name":"l2","type":"string","value":"17"},{"name":"z","type":"int","value":4},{"name":"zM","type":"int","value":40},{"name":"f","type":"int","value":0}],"gid":69,"width":68,"height":20},{"id":10,"x":196,"y":2229,"visible":true,"properties":[{"name":"layer","type":"int","value":2},{"name":"resource_index","type":"int","value":9},{"name":"oS","type":"string","value":"acc1"},{"name":"l0","type":"string","value":"dryRock"},{"name":"l1","type":"string","value":"artificiality"},{"name":"l2","type":"string","value":"25"},{"name":"z","type":"int","value":1},{"name":"zM","type":"int","value":39},{"name":"f","type":"int","value":0}],"gid":119,"width":75,"height":172},{"id":11,"x":263,"y":2212,"visible":true,"properties":[{"name":"layer","type":"int","value":2},{"name":"resource_index","type":"int","value":10},{"name":"oS","type":"string","value":"acc1"},{"name":"l0","type":"string","value":"dryRock"},{"name":"l1","type":"string","value":"artificiality"},{"name":"l2","type":"string","value":"25"},{"name":"z","type":"int","value":2},{"name":"zM","type":"int","value":39},{"name":"f","type":"int","value":0}],"gid":119,"width":75,"height":172},{"id":12,"x":456,"y":2248,"visible":true,"properties":[{"name":"layer","type":"int","value":2},{"name":"resource_index","type":"int","value":11},{"name":"oS","type":"string","value":"acc1"},{"name":"l0","type":"string","value":"dryRock"},{"name":"l1","type":"string","value":"artificiality"},{"name":"l2","type":"string","value":"25"},{"name":"z","type":"int","value":0},{"name":"zM","type":"int","value":40},{"name":"f","type":"int","value":1}],"gid":119,"width":75,"height":172},{"id":13,"x":374,"y":2210,"visible":true,"properties":[{"name":"layer","type":"int","value":2},{"name":"resource_index","type":"int","value":12},{"name":"oS","type":"string","value":"acc1"},{"name":"l0","type":"string","value":"dryRock"},{"name":"l1","type":"string","value":"artificiality"},{"name":"l2","type":"string","value":"25"},{"name":"z","type":"int","value":2},{"name":"zM","type":"int","value":39},{"name":"f","type":"int","value":0}],"gid":119,"width":75,"height":172},{"id":14,"x":247,"y":2231,"visible":true,"properties":[{"name":"layer","type":"int","value":2},{"name":"resource_index","type":"int","value":13},{"name":"oS","type":"string","value":"acc1"},{"name":"l0","type":"string","value":"dryRock"},{"name":"l1","type":"string","value":"artificiality"},{"name":"l2","type":"string","value":"26"},{"name":"z","type":"int","value":3},{"name":"zM","type":"int","value":39},{"name":"f","type":"int","value":0}],"gid":125,"width":51,"height":170},{"id":15,"x":319,"y":2215,"visible":true,"properties":[{"name":"layer","type":"int","value":2},{"name":"resource_index","type":"int","value":14},{"name":"oS","type":"string","value":"acc1"},{"name":"l0","type":"string","value":"dryRock"},{"name":"l1","type":"string","value":"artificiality"},{"name":"l2","type":"string","value":"26"},{"name":"z","type":"int","value":3},{"name":"zM","type":"int","value":39},{"name":"f","type":"int","value":0}],"gid":125,"width":51,"height":170},{"id":16,"x":429,"y":2250,"visible":true,"properties":[{"name":"layer","type":"int","value":2},{"name":"resource_index","type":"int","value":15},{"name":"oS","type":"string","value":"acc1"},{"name":"l0","type":"string","value":"dryRock"},{"name":"l1","type":"string","value":"artificiality"},{"name":"l2","type":"string","value":"26"},{"name":"z","type":"int","value":3},{"name":"zM","type":"int","value":39},{"name":"f","type":"int","value":1}],"gid":125,"width":51,"height":170}]},{"id":2,"name":"layer_3_obj","type":"objectgroup","visible":true,"opacity":1,"objects":[{"id":17,"x":406,"y":2249,"visible":true,"properties":[{"name":"layer","type":"int","value":3},{"name":"resource_index","type":"int","value":0},{"name":"oS","type":"string","value":"acc1"},{"name":"l0","type":"string","value":"dryRock"},{"name":"l1","type":"string","value":"nature"},{"name":"l2","type":"string","value":"5"},{"name":"z","type":"int","value":1},{"name":"zM","type":"int","value":33},{"name":"f","type":"int","value":0}],"gid":76,"width":25,"height":42},{"id":18,"x":457,"y":2247,"visible":true,"properties":[{"name":"layer","type":"int","value":3},{"name":"resource_index","type":"int","value":1},{"name":"oS","type":"string","value":"acc1"},{"name":"l0","type":"string","value":"dryRock"},{"name":"l1","type":"string","value":"artificiality"},{"name":"l2","type":"string","value":"4"},{"name":"z","type":"int","value":6},{"name":"zM","type":"int","value":35},{"name":"f","type":"int","value":0}],"gid":116,"width":39,"height":66},{"id":19,"x":467,"y":2267,"visible":true,"properties":[{"name":"layer","type":"int","value":3},{"name":"resource_index","type":"int","value":2},{"name":"oS","type":"string","value":"acc1"},{"name":"l0","type":"string","value":"dryRock"},{"name":"l1","type":"string","value":"artificiality"},{"name":"l2","type":"string","value":"5"},{"name":"z","type":"int","value":5},{"name":"zM","type":"int","value":35},{"name":"f","type":"int","value":0}],"gid":115,"width":49,"height":66},{"id":20,"x":321,"y":2232,"visible":true,"properties":[{"name":"layer","type":"int","value":3},{"name":"resource_index","type":"int","value":3},{"name":"oS","type":"string","value":"acc1"},{"name":"l0","type":"string","value":"dryRock"},{"name":"l1","type":"string","value":"artificiality"},{"name":"l2","type":"string","value":"4"},{"name":"z","type":"int","value":3},{"name":"zM","type":"int","value":38},{"name":"f","type":"int","value":0}],"gid":116,"width":39,"height":66},{"id":21,"x":326,"y":2265,"visible":true,"properties":[{"name":"layer","type":"int","value":3},{"name":"resource_index","type":"int","value":4},{"name":"oS","type":"string","value":"acc1"},{"name":"l0","type":"string","value":"dryRock"},{"name":"l1","type":"string","value":"artificiality"},{"name":"l2","type":"string","value":"5"},{"name":"z","type":"int","value":1},{"name":"zM","type":"int","value":38},{"name":"f","type":"int","value":0}],"gid":115,"width":49,"height":66},{"id":22,"x":180,"y":2270,"visible":true,"properties":[{"name":"layer","type":"int","value":3},{"name":"resource_index","type":"int","value":5},{"name":"oS","type":"string","value":"acc1"},{"name":"l0","type":"string","value":"dryRock"},{"name":"l1","type":"string","value":"artificiality"},{"name":"l2","type":"string","value":"0"},{"name":"z","type":"int","value":3},{"name":"zM","type":"int","value":32},{"name":"f","type":"int","value":0}],"gid":105,"width":86,"height":32},{"id":23,"x":199,"y":2248,"visible":true,"properties":[{"name":"layer","type":"int","value":3},{"name":"resource_index","type":"int","value":6},{"name":"oS","type":"string","value":"acc1"},{"name":"l0","type":"string","value":"dryRock"},{"name":"l1","type":"string","value":"artificiality"},{"name":"l2","type":"string","value":"1"},{"name":"z","type":"int","value":2},{"name":"zM","type":"int","value":32},{"name":"f","type":"int","value":0}],"gid":117,"width":38,"height":63},{"id":24,"x":258,"y":2266,"visible":true,"properties":[{"name":"layer","type":"int","value":3},{"name":"resource_index","type":"int","value":7},{"name":"oS","type":"string","value":"acc1"},{"name":"l0","type":"string","value":"dryRock"},{"name":"l1","type":"string","value":"artificiality"},{"name":"l2","type":"string","value":"0"},{"name":"z","type":"int","value":4},{"name":"zM","type":"int","value":38},{"name":"f","type":"int","value":0}],"gid":105,"width":86,"height":32},{"id":25,"x":279,"y":2247,"visible":true,"properties":[{"name":"layer","type":"int","value":3},{"name":"resource_index","type":"int","value":8},{"name":"oS","type":"string","value":"acc1"},{"name":"l0","type":"string","value":"dryRock"},{"name":"l1","type":"string","value":"artificiality"},{"name":"l2","type":"string","value":"1"},{"name":"z","type":"int","value":3},{"name":"zM","type":"int","value":38},{"name":"f","type":"int","value":0}],"gid":117,"width":38,"height":63},{"id":26,"x":228,"y":2256,"visible":true,"properties":[{"name":"layer","type":"int","value":3},{"name":"resource_index","type":"int","value":9},{"name":"oS","type":"string","value":"acc1"},{"name":"l0","type":"string","value":"dryRock"},{"name":"l1","type":"string","value":"artificiality"},{"name":"l2","type":"string","value":"0"},{"name":"z","type":"int","value":1},{"name":"zM","type":"int","value":38},{"name":"f","type":"int","value":0}],"gid":105,"width":86,"height":32},{"id":27,"x":255,"y":2248,"visible":true,"properties":[{"name":"layer","type":"int","value":3},{"name":"resource_index","type":"int","value":10},{"name":"oS","type":"string","value":"acc1"},{"name":"l0","type":"string","value":"dryRock"},{"name":"l1","type":"string","value":"artificiality"},{"name":"l2","type":"string","value":"3"},{"name":"z","type":"int","value":0},{"name":"zM","type":"int","value":38},{"name":"f","type":"int","value":0}],"gid":104,"width":59,"height":57},{"id":28,"x":339,"y":2268,"visible":true,"properties":[{"name":"layer","type":"int","value":3},{"name":"resource_index","type":"int","value":11},{"name":"oS","type":"string","value":"acc1"},{"name":"l0","type":"string","value":"dryRock"},{"name":"l1","type":"string","value":"artificiality"},{"name":"l2","type":"string","value":"0"},{"name":"z","type":"int","value":3},{"name":"zM","type":"int","value":33},{"name":"f","type":"int","value":0}],"gid":105,"width":86,"height":32},{"id":29,"x":361,"y":2247,"visible":true,"properties":[{"name":"layer","type":"int","value":3},{"name":"resource_index","type":"int","value":12},{"name":"oS","type":"string","value":"acc1"},{"name":"l0","type":"string","value":"dryRock"},{"name":"l1","type":"string","value":"artificiality"},{"name":"l2","type":"string","value":"1"},{"name":"z","type":"int","value":2},{"name":"zM","type":"int","value":33},{"name":"f","type":"int","value":0}],"gid":117,"width":38,"height":63},{"id":30,"x":378,"y":2269,"visible":true,"properties":[{"name":"layer","type":"int","value":3},{"name":"resource_index","type":"int","value":13},{"name":"oS","type":"string","value":"acc1"},{"name":"l0","type":"string","value":"dryRock"},{"name":"l1","type":"string","value":"artificiality"},{"name":"l2","type":"string","value":"2"},{"name":"z","type":"int","value":4},{"name":"zM","type":"int","value":33},{"name":"f","type":"int","value":0}],"gid":124,"width":97,"height":28},{"id":31,"x":413,"y":2265,"visible":true,"properties":[{"name":"layer","type":"int","value":3},{"name":"resource_index","type":"int","value":14},{"name":"oS","type":"string","value":"acc1"},{"name":"l0","type":"string","value":"dryRock"},{"name":"l1","type":"string","value":"artificiality"},{"name":"l2","type":"string","value":"3"},{"name":"z","type":"int","value":3},{"name":"zM","type":"int","value":33},{"name":"f","type":"int","value":0}],"gid":104,"width":59,"height":57}]},{"id":3,"name":"layer_4_obj","type":"objectgroup","visible":true,"opacity":1,"objects":[{"id":42,"x":624,"y":2045,"visible":true,"properties":[{"name":"layer","type":"int","value":4},{"name":"resource_index","type":"int","value":0},{"name":"oS","type":"string","value":"acc1"},{"name":"l0","type":"string","value":"dryRock"},{"name":"l1","type":"string","value":"rock"},{"name":"l2","type":"string","value":"8"},{"name":"z","type":"int","value":5},{"name":"zM","type":"int","value":45},{"name":"f","type":"int","value":0}],"gid":56,"width":247,"height":290},{"id":43,"x":871,"y":2280,"visible":true,"properties":[{"name":"layer","type":"int","value":4},{"name":"resource_index","type":"int","value":1},{"name":"oS","type":"string","value":"acc1"},{"name":"l0","type":"string","value":"dryRock"},{"name":"l1","type":"string","value":"rock"},{"name":"l2","type":"string","value":"3"},{"name":"z","type":"int","value":5},{"name":"zM","type":"int","value":31},{"name":"f","type":"int","value":0}],"gid":57,"width":458,"height":586},{"id":44,"x":-518,"y":2420,"visible":true,"properties":[{"name":"layer","type":"int","value":4},{"name":"resource_index","type":"int","value":2},{"name":"oS","type":"string","value":"acc1"},{"name":"l0","type":"string","value":"dryRock"},{"name":"l1","type":"string","value":"rock"},{"name":"l2","type":"string","value":"2"},{"name":"z","type":"int","value":3},{"name":"zM","type":"int","value":25},{"name":"f","type":"int","value":0}],"gid":59,"width":639,"height":720},{"id":45,"x":-254,"y":1973,"visible":true,"properties":[{"name":"layer","type":"int","value":4},{"name":"resource_index","type":"int","value":3},{"name":"oS","type":"string","value":"acc1"},{"name":"l0","type":"string","value":"dryRock"},{"name":"l1","type":"string","value":"rock"},{"name":"l2","type":"string","value":"6"},{"name":"z","type":"int","value":4},{"name":"zM","type":"int","value":45},{"name":"f","type":"int","value":0}],"gid":55,"width":1017,"height":280}]},{"id":4,"name":"layer_4_tile","type":"objectgroup","visible":true,"opacity":1,"objects":[{"id":32,"x":45,"y":2039,"visible":true,"properties":[{"name":"layer","type":"int","value":4},{"name":"resource_index","type":"int","value":0},{"name":"u","type":"string","value":"slLD"},{"name":"no","type":"int","value":0},{"name":"zM","type":"int","value":47}],"gid":41,"width":90,"height":89},{"id":33,"x":45,"y":1950,"visible":true,"properties":[{"name":"layer","type":"int","value":4},{"name":"resource_index","type":"int","value":1},{"name":"u","type":"string","value":"enH0"},{"name":"no","type":"int","value":1},{"name":"zM","type":"int","value":47}],"gid":32,"width":90,"height":20},{"id":34,"x":209,"y":1950,"visible":true,"properties":[{"name":"layer","type":"int","value":4},{"name":"resource_index","type":"int","value":2},{"name":"u","type":"string","value":"edU"},{"name":"no","type":"int","value":1},{"name":"zM","type":"int","value":47}],"gid":37,"width":32,"height":17},{"id":35,"x":209,"y":1968,"visible":true,"properties":[{"name":"layer","type":"int","value":4},{"name":"resource_index","type":"int","value":3},{"name":"u","type":"string","value":"edD"},{"name":"no","type":"int","value":0},{"name":"zM","type":"int","value":47}],"gid":35,"width":32,"height":18},{"id":36,"x":135,"y":1950,"visible":true,"properties":[{"name":"layer","type":"int","value":4},{"name":"resource_index","type":"int","value":4},{"name":"u","type":"string","value":"enH0"},{"name":"no","type":"int","value":0},{"name":"zM","type":"int","value":47}],"gid":29,"width":90,"height":20},{"id":37,"x":135,"y":2038,"visible":true,"properties":[{"name":"layer","type":"int","value":4},{"name":"resource_index","type":"int","value":5},{"name":"u","type":"string","value":"slRD"},{"name":"no","type":"int","value":0},{"name":"zM","type":"int","value":47}],"gid":42,"width":90,"height":88},{"id":38,"x":29,"y":1950,"visible":true,"properties":[{"name":"layer","type":"int","value":4},{"name":"resource_index","type":"int","value":6},{"name":"u","type":"string","value":"edU"},{"name":"no","type":"int","value":0},{"name":"zM","type":"int","value":47}],"gid":34,"width":32,"height":19},{"id":39,"x":29,"y":1967,"visible":true,"properties":[{"name":"layer","type":"int","value":4},{"name":"resource_index","type":"int","value":7},{"name":"u","type":"string","value":"edD"},{"name":"no","type":"int","value":1},{"name":"zM","type":"int","value":47}],"gid":33,"width":32,"height":17},{"id":40,"x":119,"y":2010,"visible":true,"properties":[{"name":"layer","type":"int","value":4},{"name":"resource_index","type":"int","value":8},{"name":"u","type":"string","value":"enV0"},{"name":"no","type":"int","value":0},{"name":"zM","type":"int","value":47}],"gid":40,"width":16,"height":60},{"id":41,"x":119,"y":2027,"visible":true,"properties":[{"name":"layer","type":"int","value":4},{"name":"resource_index","type":"int","value":9},{"name":"u","type":"string","value":"edD"},{"name":"no","type":"int","value":1},{"name":"zM","type":"int","value":47}],"gid":33,"width":32,"height":17}]},{"id":5,"name":"layer_5_obj","type":"objectgroup","visible":true,"opacity":1,"objects":[{"id":207,"x":922,"y":2251,"visible":true,"properties":[{"name":"layer","type":"int","value":5},{"name":"resource_index","type":"int","value":0},{"name":"oS","type":"string","value":"acc1"},{"name":"l0","type":"string","value":"dryRock"},{"name":"l1","type":"string","value":"nature"},{"name":"l2","type":"string","value":"5"},{"name":"z","type":"int","value":0},{"name":"zM","type":"int","value":17},{"name":"f","type":"int","value":0}],"gid":76,"width":25,"height":42},{"id":208,"x":846,"y":2266,"visible":true,"properties":[{"name":"layer","type":"int","value":5},{"name":"resource_index","type":"int","value":1},{"name":"oS","type":"string","value":"acc1"},{"name":"l0","type":"string","value":"dryRock"},{"name":"l1","type":"string","value":"nature"},{"name":"l2","type":"string","value":"5"},{"name":"z","type":"int","value":0},{"name":"zM","type":"int","value":36},{"name":"f","type":"int","value":0}],"gid":76,"width":25,"height":42},{"id":209,"x":872,"y":2247,"visible":true,"properties":[{"name":"layer","type":"int","value":5},{"name":"resource_index","type":"int","value":2},{"name":"oS","type":"string","value":"acc1"},{"name":"l0","type":"string","value":"dryRock"},{"name":"l1","type":"string","value":"nature"},{"name":"l2","type":"string","value":"5"},{"name":"z","type":"int","value":1},{"name":"zM","type":"int","value":41},{"name":"f","type":"int","value":0}],"gid":76,"width":25,"height":42},{"id":210,"x":864,"y":2267,"visible":true,"properties":[{"name":"layer","type":"int","value":5},{"name":"resource_index","type":"int","value":3},{"name":"oS","type":"string","value":"acc1"},{"name":"l0","type":"string","value":"dryRock"},{"name":"l1","type":"string","value":"nature"},{"name":"l2","type":"string","value":"5"},{"name":"z","type":"int","value":5},{"name":"zM","type":"int","value":36},{"name":"f","type":"int","value":0}],"gid":76,"width":25,"height":42},{"id":211,"x":-181,"y":2309,"visible":true,"properties":[{"name":"layer","type":"int","value":5},{"name":"resource_index","type":"int","value":4},{"name":"oS","type":"string","value":"acc1"},{"name":"l0","type":"string","value":"dryRock"},{"name":"l1","type":"string","value":"nature"},{"name":"l2","type":"string","value":"5"},{"name":"z","type":"int","value":0},{"name":"zM","type":"int","value":0},{"name":"f","type":"int","value":0}],"gid":76,"width":25,"height":42},{"id":212,"x":934,"y":2165,"visible":true,"properties":[{"name":"layer","type":"int","value":5},{"name":"resource_index","type":"int","value":5},{"name":"oS","type":"string","value":"connect"},{"name":"l0","type":"string","value":"rope"},{"name":"l1","type":"string","value":"0"},{"name":"l2","type":"string","value":"3"},{"name":"z","type":"int","value":3},{"name":"zM","type":"int","value":44},{"name":"f","type":"int","value":0}],"gid":47,"width":5,"height":120},{"id":213,"x":-200,"y":2326,"visible":true,"properties":[{"name":"layer","type":"int","value":5},{"name":"resource_index","type":"int","value":6},{"name":"oS","type":"string","value":"acc1"},{"name":"l0","type":"string","value":"dryRock"},{"name":"l1","type":"string","value":"nature"},{"name":"l2","type":"string","value":"5"},{"name":"z","type":"int","value":1},{"name":"zM","type":"int","value":0},{"name":"f","type":"int","value":0}],"gid":76,"width":25,"height":42},{"id":214,"x":1009,"y":2272,"visible":true,"properties":[{"name":"layer","type":"int","value":5},{"name":"resource_index","type":"int","value":7},{"name":"oS","type":"string","value":"acc1"},{"name":"l0","type":"string","value":"dryRock"},{"name":"l1","type":"string","value":"nature"},{"name":"l2","type":"string","value":"5"},{"name":"z","type":"int","value":3},{"name":"zM","type":"int","value":0},{"name":"f","type":"int","value":0}],"gid":76,"width":25,"height":42},{"id":215,"x":997,"y":2271,"visible":true,"properties":[{"name":"layer","type":"int","value":5},{"name":"resource_index","type":"int","value":8},{"name":"oS","type":"string","value":"acc1"},{"name":"l0","type":"string","value":"dryRock"},{"name":"l1","type":"string","value":"nature"},{"name":"l2","type":"string","value":"5"},{"name":"z","type":"int","value":4},{"name":"zM","type":"int","value":0},{"name":"f","type":"int","value":0}],"gid":76,"width":25,"height":42},{"id":216,"x":493,"y":2266,"visible":true,"properties":[{"name":"layer","type":"int","value":5},{"name":"resource_index","type":"int","value":9},{"name":"oS","type":"string","value":"acc1"},{"name":"l0","type":"string","value":"dryRock"},{"name":"l1","type":"string","value":"artificiality"},{"name":"l2","type":"string","value":"0"},{"name":"z","type":"int","value":3},{"name":"zM","type":"int","value":37},{"name":"f","type":"int","value":0}],"gid":105,"width":86,"height":32},{"id":217,"x":523,"y":2257,"visible":true,"properties":[{"name":"layer","type":"int","value":5},{"name":"resource_index","type":"int","value":10},{"name":"oS","type":"string","value":"acc1"},{"name":"l0","type":"string","value":"dryRock"},{"name":"l1","type":"string","value":"artificiality"},{"name":"l2","type":"string","value":"3"},{"name":"z","type":"int","value":2},{"name":"zM","type":"int","value":37},{"name":"f","type":"int","value":0}],"gid":104,"width":59,"height":57},{"id":218,"x":496,"y":2246,"visible":true,"properties":[{"name":"layer","type":"int","value":5},{"name":"resource_index","type":"int","value":11},{"name":"oS","type":"string","value":"acc1"},{"name":"l0","type":"string","value":"dryRock"},{"name":"l1","type":"string","value":"artificiality"},{"name":"l2","type":"string","value":"24"},{"name":"z","type":"int","value":0},{"name":"zM","type":"int","value":37},{"name":"f","type":"int","value":1}],"gid":118,"width":93,"height":167},{"id":219,"x":558,"y":2267,"visible":true,"properties":[{"name":"layer","type":"int","value":5},{"name":"resource_index","type":"int","value":12},{"name":"oS","type":"string","value":"acc1"},{"name":"l0","type":"string","value":"dryRock"},{"name":"l1","type":"string","value":"artificiality"},{"name":"l2","type":"string","value":"2"},{"name":"z","type":"int","value":4},{"name":"zM","type":"int","value":37},{"name":"f","type":"int","value":0}],"gid":124,"width":97,"height":28},{"id":220,"x":578,"y":2261,"visible":true,"properties":[{"name":"layer","type":"int","value":5},{"name":"resource_index","type":"int","value":13},{"name":"oS","type":"string","value":"acc1"},{"name":"l0","type":"string","value":"dryRock"},{"name":"l1","type":"string","value":"artificiality"},{"name":"l2","type":"string","value":"3"},{"name":"z","type":"int","value":3},{"name":"zM","type":"int","value":37},{"name":"f","type":"int","value":0}],"gid":104,"width":59,"height":57},{"id":221,"x":986,"y":2267,"visible":true,"properties":[{"name":"layer","type":"int","value":5},{"name":"resource_index","type":"int","value":14},{"name":"oS","type":"string","value":"acc1"},{"name":"l0","type":"string","value":"dryRock"},{"name":"l1","type":"string","value":"nature"},{"name":"l2","type":"string","value":"5"},{"name":"z","type":"int","value":3},{"name":"zM","type":"int","value":0},{"name":"f","type":"int","value":0}],"gid":76,"width":25,"height":42},{"id":222,"x":1032,"y":2275,"visible":true,"properties":[{"name":"layer","type":"int","value":5},{"name":"resource_index","type":"int","value":15},{"name":"oS","type":"string","value":"acc1"},{"name":"l0","type":"string","value":"dryRock"},{"name":"l1","type":"string","value":"nature"},{"name":"l2","type":"string","value":"5"},{"name":"z","type":"int","value":3},{"name":"zM","type":"int","value":0},{"name":"f","type":"int","value":0}],"gid":76,"width":25,"height":42},{"id":223,"x":1037,"y":2782,"visible":true,"properties":[{"name":"layer","type":"int","value":5},{"name":"resource_index","type":"int","value":16},{"name":"oS","type":"string","value":"acc1"},{"name":"l0","type":"string","value":"dryRock"},{"name":"l1","type":"string","value":"rock"},{"name":"l2","type":"string","value":"3"},{"name":"z","type":"int","value":6},{"name":"zM","type":"int","value":0},{"name":"f","type":"int","value":0}],"gid":57,"width":458,"height":586},{"id":224,"x":492,"y":2627,"visible":true,"properties":[{"name":"layer","type":"int","value":5},{"name":"resource_index","type":"int","value":17},{"name":"oS","type":"string","value":"acc1"},{"name":"l0","type":"string","value":"dryRock"},{"name":"l1","type":"string","value":"artificiality"},{"name":"l2","type":"string","value":"20"},{"name":"z","type":"int","value":3},{"name":"zM","type":"int","value":5},{"name":"f","type":"int","value":0}],"gid":123,"width":132,"height":155},{"id":225,"x":434,"y":2551,"visible":true,"properties":[{"name":"layer","type":"int","value":5},{"name":"resource_index","type":"int","value":18},{"name":"oS","type":"string","value":"acc1"},{"name":"l0","type":"string","value":"dryRock"},{"name":"l1","type":"string","value":"artificiality"},{"name":"l2","type":"string","value":"19"},{"name":"z","type":"int","value":7},{"name":"zM","type":"int","value":5},{"name":"f","type":"int","value":0}],"gid":122,"width":83,"height":103},{"id":226,"x":932,"y":2194,"visible":true,"properties":[{"name":"layer","type":"int","value":5},{"name":"resource_index","type":"int","value":19},{"name":"oS","type":"string","value":"connect"},{"name":"l0","type":"string","value":"rope"},{"name":"l1","type":"string","value":"0"},{"name":"l2","type":"string","value":"2"},{"name":"z","type":"int","value":3},{"name":"zM","type":"int","value":44},{"name":"f","type":"int","value":0}],"gid":48,"width":11,"height":30},{"id":227,"x":857,"y":2267,"visible":true,"properties":[{"name":"layer","type":"int","value":5},{"name":"resource_index","type":"int","value":20},{"name":"oS","type":"string","value":"acc1"},{"name":"l0","type":"string","value":"dryRock"},{"name":"l1","type":"string","value":"artificiality"},{"name":"l2","type":"string","value":"0"},{"name":"z","type":"int","value":3},{"name":"zM","type":"int","value":17},{"name":"f","type":"int","value":0}],"gid":105,"width":86,"height":32},{"id":228,"x":881,"y":2243,"visible":true,"properties":[{"name":"layer","type":"int","value":5},{"name":"resource_index","type":"int","value":21},{"name":"oS","type":"string","value":"acc1"},{"name":"l0","type":"string","value":"dryRock"},{"name":"l1","type":"string","value":"artificiality"},{"name":"l2","type":"string","value":"1"},{"name":"z","type":"int","value":2},{"name":"zM","type":"int","value":17},{"name":"f","type":"int","value":0}],"gid":117,"width":38,"height":63},{"id":229,"x":908,"y":2269,"visible":true,"properties":[{"name":"layer","type":"int","value":5},{"name":"resource_index","type":"int","value":22},{"name":"oS","type":"string","value":"acc1"},{"name":"l0","type":"string","value":"dryRock"},{"name":"l1","type":"string","value":"artificiality"},{"name":"l2","type":"string","value":"0"},{"name":"z","type":"int","value":2},{"name":"zM","type":"int","value":17},{"name":"f","type":"int","value":0}],"gid":105,"width":86,"height":32},{"id":230,"x":933,"y":2245,"visible":true,"properties":[{"name":"layer","type":"int","value":5},{"name":"resource_index","type":"int","value":23},{"name":"oS","type":"string","value":"acc1"},{"name":"l0","type":"string","value":"dryRock"},{"name":"l1","type":"string","value":"artificiality"},{"name":"l2","type":"string","value":"1"},{"name":"z","type":"int","value":1},{"name":"zM","type":"int","value":17},{"name":"f","type":"int","value":0}],"gid":117,"width":38,"height":63},{"id":231,"x":101,"y":2268,"visible":true,"properties":[{"name":"layer","type":"int","value":5},{"name":"resource_index","type":"int","value":24},{"name":"oS","type":"string","value":"acc1"},{"name":"l0","type":"string","value":"dryRock"},{"name":"l1","type":"string","value":"artificiality"},{"name":"l2","type":"string","value":"2"},{"name":"z","type":"int","value":3},{"name":"zM","type":"int","value":34},{"name":"f","type":"int","value":0}],"gid":124,"width":97,"height":28},{"id":232,"x":122,"y":2264,"visible":true,"properties":[{"name":"layer","type":"int","value":5},{"name":"resource_index","type":"int","value":25},{"name":"oS","type":"string","value":"acc1"},{"name":"l0","type":"string","value":"dryRock"},{"name":"l1","type":"string","value":"artificiality"},{"name":"l2","type":"string","value":"3"},{"name":"z","type":"int","value":2},{"name":"zM","type":"int","value":34},{"name":"f","type":"int","value":0}],"gid":104,"width":59,"height":57},{"id":233,"x":-391,"y":2290,"visible":true,"properties":[{"name":"layer","type":"int","value":5},{"name":"resource_index","type":"int","value":26},{"name":"oS","type":"string","value":"acc1"},{"name":"l0","type":"string","value":"dryRock"},{"name":"l1","type":"string","value":"nature"},{"name":"l2","type":"string","value":"23"},{"name":"z","type":"int","value":1},{"name":"zM","type":"int","value":0},{"name":"f","type":"int","value":0}],"gid":72,"width":291,"height":236},{"id":234,"x":791,"y":2547,"visible":true,"properties":[{"name":"layer","type":"int","value":5},{"name":"resource_index","type":"int","value":27},{"name":"oS","type":"string","value":"acc1"},{"name":"l0","type":"string","value":"dryRock"},{"name":"l1","type":"string","value":"rock"},{"name":"l2","type":"string","value":"8"},{"name":"z","type":"int","value":6},{"name":"zM","type":"int","value":17},{"name":"f","type":"int","value":0}],"gid":56,"width":247,"height":290},{"id":235,"x":-356,"y":2252,"visible":true,"properties":[{"name":"layer","type":"int","value":5},{"name":"resource_index","type":"int","value":28},{"name":"oS","type":"string","value":"acc1"},{"name":"l0","type":"string","value":"dryRock"},{"name":"l1","type":"string","value":"nature"},{"name":"l2","type":"string","value":"14"},{"name":"z","type":"int","value":3},{"name":"zM","type":"int","value":0},{"name":"f","type":"int","value":0}],"gid":68,"width":102,"height":60},{"id":236,"x":-229,"y":2274,"visible":true,"properties":[{"name":"layer","type":"int","value":5},{"name":"resource_index","type":"int","value":29},{"name":"oS","type":"string","value":"acc1"},{"name":"l0","type":"string","value":"dryRock"},{"name":"l1","type":"string","value":"artificiality"},{"name":"l2","type":"string","value":"0"},{"name":"z","type":"int","value":5},{"name":"zM","type":"int","value":0},{"name":"f","type":"int","value":0}],"gid":105,"width":86,"height":32},{"id":237,"x":-211,"y":2258,"visible":true,"properties":[{"name":"layer","type":"int","value":5},{"name":"resource_index","type":"int","value":30},{"name":"oS","type":"string","value":"acc1"},{"name":"l0","type":"string","value":"dryRock"},{"name":"l1","type":"string","value":"artificiality"},{"name":"l2","type":"string","value":"1"},{"name":"z","type":"int","value":4},{"name":"zM","type":"int","value":0},{"name":"f","type":"int","value":0}],"gid":117,"width":38,"height":63},{"id":238,"x":-504,"y":2976,"visible":true,"properties":[{"name":"layer","type":"int","value":5},{"name":"resource_index","type":"int","value":31},{"name":"oS","type":"string","value":"acc1"},{"name":"l0","type":"string","value":"dryRock"},{"name":"l1","type":"string","value":"rock"},{"name":"l2","type":"string","value":"2"},{"name":"z","type":"int","value":5},{"name":"zM","type":"int","value":0},{"name":"f","type":"int","value":0}],"gid":59,"width":639,"height":720},{"id":239,"x":-239,"y":2529,"visible":true,"properties":[{"name":"layer","type":"int","value":5},{"name":"resource_index","type":"int","value":32},{"name":"oS","type":"string","value":"acc1"},{"name":"l0","type":"string","value":"dryRock"},{"name":"l1","type":"string","value":"rock"},{"name":"l2","type":"string","value":"6"},{"name":"z","type":"int","value":6},{"name":"zM","type":"int","value":0},{"name":"f","type":"int","value":0}],"gid":55,"width":1017,"height":280},{"id":240,"x":196,"y":2249,"visible":true,"properties":[{"name":"layer","type":"int","value":5},{"name":"resource_index","type":"int","value":33},{"name":"oS","type":"string","value":"acc1"},{"name":"l0","type":"string","value":"dryRock"},{"name":"l1","type":"string","value":"nature"},{"name":"l2","type":"string","value":"5"},{"name":"z","type":"int","value":3},{"name":"zM","type":"int","value":0},{"name":"f","type":"int","value":0}],"gid":76,"width":25,"height":42},{"id":241,"x":207,"y":2258,"visible":true,"properties":[{"name":"layer","type":"int","value":5},{"name":"resource_index","type":"int","value":34},{"name":"oS","type":"string","value":"acc1"},{"name":"l0","type":"string","value":"dryRock"},{"name":"l1","type":"string","value":"nature"},{"name":"l2","type":"string","value":"5"},{"name":"z","type":"int","value":4},{"name":"zM","type":"int","value":0},{"name":"f","type":"int","value":0}],"gid":76,"width":25,"height":42},{"id":242,"x":220,"y":2245,"visible":true,"properties":[{"name":"layer","type":"int","value":5},{"name":"resource_index","type":"int","value":35},{"name":"oS","type":"string","value":"acc1"},{"name":"l0","type":"string","value":"dryRock"},{"name":"l1","type":"string","value":"nature"},{"name":"l2","type":"string","value":"5"},{"name":"z","type":"int","value":3},{"name":"zM","type":"int","value":0},{"name":"f","type":"int","value":0}],"gid":76,"width":25,"height":42},{"id":243,"x":279,"y":2249,"visible":true,"properties":[{"name":"layer","type":"int","value":5},{"name":"resource_index","type":"int","value":36},{"name":"oS","type":"string","value":"acc1"},{"name":"l0","type":"string","value":"dryRock"},{"name":"l1","type":"string","value":"nature"},{"name":"l2","type":"string","value":"5"},{"name":"z","type":"int","value":3},{"name":"zM","type":"int","value":0},{"name":"f","type":"int","value":0}],"gid":76,"width":25,"height":42},{"id":244,"x":514,"y":2251,"visible":true,"properties":[{"name":"layer","type":"int","value":5},{"name":"resource_index","type":"int","value":37},{"name":"oS","type":"string","value":"acc1"},{"name":"l0","type":"string","value":"dryRock"},{"name":"l1","type":"string","value":"nature"},{"name":"l2","type":"string","value":"5"},{"name":"z","type":"int","value":5},{"name":"zM","type":"int","value":0},{"name":"f","type":"int","value":0}],"gid":76,"width":25,"height":42},{"id":245,"x":502,"y":2246,"visible":true,"properties":[{"name":"layer","type":"int","value":5},{"name":"resource_index","type":"int","value":38},{"name":"oS","type":"string","value":"acc1"},{"name":"l0","type":"string","value":"dryRock"},{"name":"l1","type":"string","value":"nature"},{"name":"l2","type":"string","value":"5"},{"name":"z","type":"int","value":0},{"name":"zM","type":"int","value":0},{"name":"f","type":"int","value":0}],"gid":76,"width":25,"height":42},{"id":246,"x":557,"y":2250,"visible":true,"properties":[{"name":"layer","type":"int","value":5},{"name":"resource_index","type":"int","value":39},{"name":"oS","type":"string","value":"acc1"},{"name":"l0","type":"string","value":"dryRock"},{"name":"l1","type":"string","value":"nature"},{"name":"l2","type":"string","value":"5"},{"name":"z","type":"int","value":5},{"name":"zM","type":"int","value":0},{"name":"f","type":"int","value":0}],"gid":76,"width":25,"height":42},{"id":247,"x":596,"y":2629,"visible":true,"properties":[{"name":"layer","type":"int","value":5},{"name":"resource_index","type":"int","value":40},{"name":"oS","type":"string","value":"acc1"},{"name":"l0","type":"string","value":"dryRock"},{"name":"l1","type":"string","value":"artificiality"},{"name":"l2","type":"string","value":"21"},{"name":"z","type":"int","value":7},{"name":"zM","type":"int","value":0},{"name":"f","type":"int","value":0}],"gid":128,"width":116,"height":196},{"id":248,"x":68,"y":1967,"visible":true,"properties":[{"name":"layer","type":"int","value":5},{"name":"resource_index","type":"int","value":41},{"name":"oS","type":"string","value":"connect"},{"name":"l0","type":"string","value":"rope"},{"name":"l1","type":"string","value":"0"},{"name":"l2","type":"string","value":"0"},{"name":"z","type":"int","value":3},{"name":"zM","type":"int","value":48},{"name":"f","type":"int","value":0}],"gid":46,"width":19,"height":49},{"id":249,"x":71,"y":2087,"visible":true,"properties":[{"name":"layer","type":"int","value":5},{"name":"resource_index","type":"int","value":42},{"name":"oS","type":"string","value":"connect"},{"name":"l0","type":"string","value":"rope"},{"name":"l1","type":"string","value":"0"},{"name":"l2","type":"string","value":"3"},{"name":"z","type":"int","value":3},{"name":"zM","type":"int","value":0},{"name":"f","type":"int","value":0}],"gid":47,"width":5,"height":120},{"id":250,"x":69,"y":2177,"visible":true,"properties":[{"name":"layer","type":"int","value":5},{"name":"resource_index","type":"int","value":43},{"name":"oS","type":"string","value":"connect"},{"name":"l0","type":"string","value":"rope"},{"name":"l1","type":"string","value":"0"},{"name":"l2","type":"string","value":"2"},{"name":"z","type":"int","value":3},{"name":"zM","type":"int","value":0},{"name":"f","type":"int","value":0}],"gid":48,"width":11,"height":30},{"id":251,"x":71,"y":2117,"visible":true,"properties":[{"name":"layer","type":"int","value":5},{"name":"resource_index","type":"int","value":44},{"name":"oS","type":"string","value":"connect"},{"name":"l0","type":"string","value":"rope"},{"name":"l1","type":"string","value":"0"},{"name":"l2","type":"string","value":"1"},{"name":"z","type":"int","value":3},{"name":"zM","type":"int","value":0},{"name":"f","type":"int","value":0}],"gid":49,"width":5,"height":30},{"id":252,"x":71,"y":2147,"visible":true,"properties":[{"name":"layer","type":"int","value":5},{"name":"resource_index","type":"int","value":45},{"name":"oS","type":"string","value":"connect"},{"name":"l0","type":"string","value":"rope"},{"name":"l1","type":"string","value":"0"},{"name":"l2","type":"string","value":"1"},{"name":"z","type":"int","value":3},{"name":"zM","type":"int","value":0},{"name":"f","type":"int","value":0}],"gid":49,"width":5,"height":30},{"id":253,"x":196,"y":1732,"visible":true,"properties":[{"name":"layer","type":"int","value":5},{"name":"resource_index","type":"int","value":46},{"name":"oS","type":"string","value":"connect"},{"name":"l0","type":"string","value":"rope"},{"name":"l1","type":"string","value":"0"},{"name":"l2","type":"string","value":"0"},{"name":"z","type":"int","value":3},{"name":"zM","type":"int","value":52},{"name":"f","type":"int","value":0}],"gid":46,"width":19,"height":49},{"id":254,"x":199,"y":1852,"visible":true,"properties":[{"name":"layer","type":"int","value":5},{"name":"resource_index","type":"int","value":47},{"name":"oS","type":"string","value":"connect"},{"name":"l0","type":"string","value":"rope"},{"name":"l1","type":"string","value":"0"},{"name":"l2","type":"string","value":"3"},{"name":"z","type":"int","value":3},{"name":"zM","type":"int","value":51},{"name":"f","type":"int","value":0}],"gid":47,"width":5,"height":120},{"id":255,"x":197,"y":1882,"visible":true,"properties":[{"name":"layer","type":"int","value":5},{"name":"resource_index","type":"int","value":48},{"name":"oS","type":"string","value":"connect"},{"name":"l0","type":"string","value":"rope"},{"name":"l1","type":"string","value":"0"},{"name":"l2","type":"string","value":"2"},{"name":"z","type":"int","value":3},{"name":"zM","type":"int","value":50},{"name":"f","type":"int","value":0}],"gid":48,"width":11,"height":30},{"id":256,"x":931,"y":1806,"visible":true,"properties":[{"name":"layer","type":"int","value":5},{"name":"resource_index","type":"int","value":49},{"name":"oS","type":"string","value":"connect"},{"name":"l0","type":"string","value":"rope"},{"name":"l1","type":"string","value":"0"},{"name":"l2","type":"string","value":"0"},{"name":"z","type":"int","value":3},{"name":"zM","type":"int","value":49},{"name":"f","type":"int","value":0}],"gid":46,"width":19,"height":49},{"id":257,"x":934,"y":1925,"visible":true,"properties":[{"name":"layer","type":"int","value":5},{"name":"resource_index","type":"int","value":50},{"name":"oS","type":"string","value":"connect"},{"name":"l0","type":"string","value":"rope"},{"name":"l1","type":"string","value":"0"},{"name":"l2","type":"string","value":"3"},{"name":"z","type":"int","value":3},{"name":"zM","type":"int","value":49},{"name":"f","type":"int","value":0}],"gid":47,"width":5,"height":120},{"id":258,"x":934,"y":2045,"visible":true,"properties":[{"name":"layer","type":"int","value":5},{"name":"resource_index","type":"int","value":51},{"name":"oS","type":"string","value":"connect"},{"name":"l0","type":"string","value":"rope"},{"name":"l1","type":"string","value":"0"},{"name":"l2","type":"string","value":"3"},{"name":"z","type":"int","value":3},{"name":"zM","type":"int","value":46},{"name":"f","type":"int","value":0}],"gid":47,"width":5,"height":120},{"id":259,"x":511,"y":2526,"visible":true,"properties":[{"name":"layer","type":"int","value":5},{"name":"resource_index","type":"int","value":52},{"name":"oS","type":"string","value":"acc1"},{"name":"l0","type":"string","value":"dryRock"},{"name":"l1","type":"string","value":"artificiality"},{"name":"l2","type":"string","value":"18"},{"name":"z","type":"int","value":7},{"name":"zM","type":"int","value":0},{"name":"f","type":"int","value":0}],"gid":121,"width":82,"height":99},{"id":260,"x":1141,"y":2747,"visible":true,"properties":[{"name":"layer","type":"int","value":5},{"name":"resource_index","type":"int","value":53},{"name":"oS","type":"string","value":"door"},{"name":"l0","type":"string","value":"grassySoil"},{"name":"l1","type":"string","value":"door"},{"name":"l2","type":"string","value":"0"},{"name":"z","type":"int","value":7},{"name":"zM","type":"int","value":0},{"name":"f","type":"int","value":0}],"gid":92,"width":108,"height":94}]},{"id":6,"name":"layer_5_tile","type":"objectgroup","visible":true,"opacity":1,"objects":[{"id":46,"x":-630,"y":2940,"visible":true,"properties":[{"name":"layer","type":"int","value":5},{"name":"resource_index","type":"int","value":0},{"name":"u","type":"string","value":"bsc"},{"name":"no","type":"int","value":0},{"name":"zM","type":"int","value":0}],"gid":26,"width":90,"height":60},{"id":47,"x":-630,"y":3000,"visible":true,"properties":[{"name":"layer","type":"int","value":5},{"name":"resource_index","type":"int","value":1},{"name":"u","type":"string","value":"bsc"},{"name":"no","type":"int","value":2},{"name":"zM","type":"int","value":0}],"gid":25,"width":90,"height":60},{"id":48,"x":-180,"y":2940,"visible":true,"properties":[{"name":"layer","type":"int","value":5},{"name":"resource_index","type":"int","value":2},{"name":"u","type":"string","value":"bsc"},{"name":"no","type":"int","value":1},{"name":"zM","type":"int","value":0}],"gid":28,"width":90,"height":60},{"id":49,"x":-180,"y":2880,"visible":true,"properties":[{"name":"layer","type":"int","value":5},{"name":"resource_index","type":"int","value":3},{"name":"u","type":"string","value":"enH0"},{"name":"no","type":"int","value":0},{"name":"zM","type":"int","value":0}],"gid":29,"width":90,"height":20},{"id":50,"x":180,"y":3034,"visible":true,"properties":[{"name":"layer","type":"int","value":5},{"name":"resource_index","type":"int","value":4},{"name":"u","type":"string","value":"enH1"},{"name":"no","type":"int","value":1},{"name":"zM","type":"int","value":0}],"gid":30,"width":90,"height":34},{"id":51,"x":-90,"y":3000,"visible":true,"properties":[{"name":"layer","type":"int","value":5},{"name":"resource_index","type":"int","value":5},{"name":"u","type":"string","value":"bsc"},{"name":"no","type":"int","value":2},{"name":"zM","type":"int","value":0}],"gid":25,"width":90,"height":60},{"id":52,"x":-450,"y":2940,"visible":true,"properties":[{"name":"layer","type":"int","value":5},{"name":"resource_index","type":"int","value":6},{"name":"u","type":"string","value":"bsc"},{"name":"no","type":"int","value":2},{"name":"zM","type":"int","value":0}],"gid":25,"width":90,"height":60},{"id":53,"x":-450,"y":2880,"visible":true,"properties":[{"name":"layer","type":"int","value":5},{"name":"resource_index","type":"int","value":7},{"name":"u","type":"string","value":"enH0"},{"name":"no","type":"int","value":1},{"name":"zM","type":"int","value":0}],"gid":32,"width":90,"height":20},{"id":54,"x":270,"y":2880,"visible":true,"properties":[{"name":"layer","type":"int","value":5},{"name":"resource_index","type":"int","value":8},{"name":"u","type":"string","value":"enH0"},{"name":"no","type":"int","value":0},{"name":"zM","type":"int","value":0}],"gid":29,"width":90,"height":20},{"id":55,"x":0,"y":2940,"visible":true,"properties":[{"name":"layer","type":"int","value":5},{"name":"resource_index","type":"int","value":9},{"name":"u","type":"string","value":"bsc"},{"name":"no","type":"int","value":0},{"name":"zM","type":"int","value":0}],"gid":26,"width":90,"height":60},{"id":56,"x":-90,"y":2880,"visible":true,"properties":[{"name":"layer","type":"int","value":5},{"name":"resource_index","type":"int","value":10},{"name":"u","type":"string","value":"enH0"},{"name":"no","type":"int","value":1},{"name":"zM","type":"int","value":0}],"gid":32,"width":90,"height":20},{"id":57,"x":-90,"y":2940,"visible":true,"properties":[{"name":"layer","type":"int","value":5},{"name":"resource_index","type":"int","value":11},{"name":"u","type":"string","value":"bsc"},{"name":"no","type":"int","value":1},{"name":"zM","type":"int","value":0}],"gid":28,"width":90,"height":60},{"id":58,"x":-270,"y":2880,"visible":true,"properties":[{"name":"layer","type":"int","value":5},{"name":"resource_index","type":"int","value":12},{"name":"u","type":"string","value":"enH0"},{"name":"no","type":"int","value":1},{"name":"zM","type":"int","value":0}],"gid":32,"width":90,"height":20},{"id":59,"x":-270,"y":2940,"visible":true,"properties":[{"name":"layer","type":"int","value":5},{"name":"resource_index","type":"int","value":13},{"name":"u","type":"string","value":"bsc"},{"name":"no","type":"int","value":1},{"name":"zM","type":"int","value":0}],"gid":28,"width":90,"height":60},{"id":60,"x":-360,"y":2940,"visible":true,"properties":[{"name":"layer","type":"int","value":5},{"name":"resource_index","type":"int","value":14},{"name":"u","type":"string","value":"bsc"},{"name":"no","type":"int","value":2},{"name":"zM","type":"int","value":0}],"gid":25,"width":90,"height":60},{"id":61,"x":-360,"y":2880,"visible":true,"properties":[{"name":"layer","type":"int","value":5},{"name":"resource_index","type":"int","value":15},{"name":"u","type":"string","value":"enH0"},{"name":"no","type":"int","value":0},{"name":"zM","type":"int","value":0}],"gid":29,"width":90,"height":20},{"id":62,"x":-540,"y":2940,"visible":true,"properties":[{"name":"layer","type":"int","value":5},{"name":"resource_index","type":"int","value":16},{"name":"u","type":"string","value":"bsc"},{"name":"no","type":"int","value":0},{"name":"zM","type":"int","value":0}],"gid":26,"width":90,"height":60},{"id":63,"x":-540,"y":2880,"visible":true,"properties":[{"name":"layer","type":"int","value":5},{"name":"resource_index","type":"int","value":17},{"name":"u","type":"string","value":"enH0"},{"name":"no","type":"int","value":1},{"name":"zM","type":"int","value":0}],"gid":32,"width":90,"height":20},{"id":64,"x":-180,"y":3000,"visible":true,"properties":[{"name":"layer","type":"int","value":5},{"name":"resource_index","type":"int","value":18},{"name":"u","type":"string","value":"bsc"},{"name":"no","type":"int","value":1},{"name":"zM","type":"int","value":0}],"gid":28,"width":90,"height":60},{"id":65,"x":360,"y":3034,"visible":true,"properties":[{"name":"layer","type":"int","value":5},{"name":"resource_index","type":"int","value":19},{"name":"u","type":"string","value":"enH1"},{"name":"no","type":"int","value":1},{"name":"zM","type":"int","value":0}],"gid":30,"width":90,"height":34},{"id":66,"x":90,"y":3000,"visible":true,"properties":[{"name":"layer","type":"int","value":5},{"name":"resource_index","type":"int","value":20},{"name":"u","type":"string","value":"bsc"},{"name":"no","type":"int","value":1},{"name":"zM","type":"int","value":0}],"gid":28,"width":90,"height":60},{"id":67,"x":270,"y":2940,"visible":true,"properties":[{"name":"layer","type":"int","value":5},{"name":"resource_index","type":"int","value":21},{"name":"u","type":"string","value":"bsc"},{"name":"no","type":"int","value":1},{"name":"zM","type":"int","value":0}],"gid":28,"width":90,"height":60},{"id":68,"x":0,"y":2880,"visible":true,"properties":[{"name":"layer","type":"int","value":5},{"name":"resource_index","type":"int","value":22},{"name":"u","type":"string","value":"enH0"},{"name":"no","type":"int","value":1},{"name":"zM","type":"int","value":0}],"gid":32,"width":90,"height":20},{"id":69,"x":0,"y":3000,"visible":true,"properties":[{"name":"layer","type":"int","value":5},{"name":"resource_index","type":"int","value":23},{"name":"u","type":"string","value":"bsc"},{"name":"no","type":"int","value":1},{"name":"zM","type":"int","value":0}],"gid":28,"width":90,"height":60},{"id":70,"x":-180,"y":3032,"visible":true,"properties":[{"name":"layer","type":"int","value":5},{"name":"resource_index","type":"int","value":24},{"name":"u","type":"string","value":"enH1"},{"name":"no","type":"int","value":0},{"name":"zM","type":"int","value":0}],"gid":27,"width":90,"height":32},{"id":71,"x":-646,"y":3018,"visible":true,"properties":[{"name":"layer","type":"int","value":5},{"name":"resource_index","type":"int","value":25},{"name":"u","type":"string","value":"edD"},{"name":"no","type":"int","value":0},{"name":"zM","type":"int","value":0}],"gid":35,"width":32,"height":18},{"id":72,"x":-540,"y":3000,"visible":true,"properties":[{"name":"layer","type":"int","value":5},{"name":"resource_index","type":"int","value":26},{"name":"u","type":"string","value":"bsc"},{"name":"no","type":"int","value":0},{"name":"zM","type":"int","value":0}],"gid":26,"width":90,"height":60},{"id":73,"x":-360,"y":3000,"visible":true,"properties":[{"name":"layer","type":"int","value":5},{"name":"resource_index","type":"int","value":27},{"name":"u","type":"string","value":"bsc"},{"name":"no","type":"int","value":2},{"name":"zM","type":"int","value":0}],"gid":25,"width":90,"height":60},{"id":74,"x":-90,"y":3032,"visible":true,"properties":[{"name":"layer","type":"int","value":5},{"name":"resource_index","type":"int","value":28},{"name":"u","type":"string","value":"enH1"},{"name":"no","type":"int","value":0},{"name":"zM","type":"int","value":0}],"gid":27,"width":90,"height":32},{"id":75,"x":-450,"y":3000,"visible":true,"properties":[{"name":"layer","type":"int","value":5},{"name":"resource_index","type":"int","value":29},{"name":"u","type":"string","value":"bsc"},{"name":"no","type":"int","value":1},{"name":"zM","type":"int","value":0}],"gid":28,"width":90,"height":60},{"id":76,"x":-270,"y":3000,"visible":true,"properties":[{"name":"layer","type":"int","value":5},{"name":"resource_index","type":"int","value":30},{"name":"u","type":"string","value":"bsc"},{"name":"no","type":"int","value":1},{"name":"zM","type":"int","value":0}],"gid":28,"width":90,"height":60},{"id":77,"x":-270,"y":3034,"visible":true,"properties":[{"name":"layer","type":"int","value":5},{"name":"resource_index","type":"int","value":31},{"name":"u","type":"string","value":"enH1"},{"name":"no","type":"int","value":1},{"name":"zM","type":"int","value":0}],"gid":30,"width":90,"height":34},{"id":78,"x":-540,"y":3032,"visible":true,"properties":[{"name":"layer","type":"int","value":5},{"name":"resource_index","type":"int","value":32},{"name":"u","type":"string","value":"enH1"},{"name":"no","type":"int","value":0},{"name":"zM","type":"int","value":0}],"gid":27,"width":90,"height":32},{"id":79,"x":-630,"y":3034,"visible":true,"properties":[{"name":"layer","type":"int","value":5},{"name":"resource_index","type":"int","value":33},{"name":"u","type":"string","value":"enH1"},{"name":"no","type":"int","value":1},{"name":"zM","type":"int","value":0}],"gid":30,"width":90,"height":34},{"id":80,"x":-450,"y":3032,"visible":true,"properties":[{"name":"layer","type":"int","value":5},{"name":"resource_index","type":"int","value":34},{"name":"u","type":"string","value":"enH1"},{"name":"no","type":"int","value":0},{"name":"zM","type":"int","value":0}],"gid":27,"width":90,"height":32},{"id":81,"x":-360,"y":3032,"visible":true,"properties":[{"name":"layer","type":"int","value":5},{"name":"resource_index","type":"int","value":35},{"name":"u","type":"string","value":"enH1"},{"name":"no","type":"int","value":0},{"name":"zM","type":"int","value":0}],"gid":27,"width":90,"height":32},{"id":82,"x":-646,"y":2880,"visible":true,"properties":[{"name":"layer","type":"int","value":5},{"name":"resource_index","type":"int","value":36},{"name":"u","type":"string","value":"edU"},{"name":"no","type":"int","value":1},{"name":"zM","type":"int","value":0}],"gid":37,"width":32,"height":17},{"id":83,"x":-646,"y":2940,"visible":true,"properties":[{"name":"layer","type":"int","value":5},{"name":"resource_index","type":"int","value":37},{"name":"u","type":"string","value":"enV0"},{"name":"no","type":"int","value":2},{"name":"zM","type":"int","value":0}],"gid":36,"width":16,"height":60},{"id":84,"x":-630,"y":2880,"visible":true,"properties":[{"name":"layer","type":"int","value":5},{"name":"resource_index","type":"int","value":38},{"name":"u","type":"string","value":"enH0"},{"name":"no","type":"int","value":0},{"name":"zM","type":"int","value":0}],"gid":29,"width":90,"height":20},{"id":85,"x":-646,"y":3000,"visible":true,"properties":[{"name":"layer","type":"int","value":5},{"name":"resource_index","type":"int","value":39},{"name":"u","type":"string","value":"enV0"},{"name":"no","type":"int","value":1},{"name":"zM","type":"int","value":0}],"gid":43,"width":16,"height":60},{"id":86,"x":0,"y":3034,"visible":true,"properties":[{"name":"layer","type":"int","value":5},{"name":"resource_index","type":"int","value":40},{"name":"u","type":"string","value":"enH1"},{"name":"no","type":"int","value":1},{"name":"zM","type":"int","value":0}],"gid":30,"width":90,"height":34},{"id":87,"x":270,"y":3000,"visible":true,"properties":[{"name":"layer","type":"int","value":5},{"name":"resource_index","type":"int","value":41},{"name":"u","type":"string","value":"bsc"},{"name":"no","type":"int","value":1},{"name":"zM","type":"int","value":0}],"gid":28,"width":90,"height":60},{"id":88,"x":90,"y":3034,"visible":true,"properties":[{"name":"layer","type":"int","value":5},{"name":"resource_index","type":"int","value":42},{"name":"u","type":"string","value":"enH1"},{"name":"no","type":"int","value":1},{"name":"zM","type":"int","value":0}],"gid":30,"width":90,"height":34},{"id":89,"x":90,"y":2940,"visible":true,"properties":[{"name":"layer","type":"int","value":5},{"name":"resource_index","type":"int","value":43},{"name":"u","type":"string","value":"bsc"},{"name":"no","type":"int","value":1},{"name":"zM","type":"int","value":0}],"gid":28,"width":90,"height":60},{"id":90,"x":180,"y":2940,"visible":true,"properties":[{"name":"layer","type":"int","value":5},{"name":"resource_index","type":"int","value":44},{"name":"u","type":"string","value":"bsc"},{"name":"no","type":"int","value":1},{"name":"zM","type":"int","value":0}],"gid":28,"width":90,"height":60},{"id":91,"x":180,"y":2880,"visible":true,"properties":[{"name":"layer","type":"int","value":5},{"name":"resource_index","type":"int","value":45},{"name":"u","type":"string","value":"enH0"},{"name":"no","type":"int","value":0},{"name":"zM","type":"int","value":0}],"gid":29,"width":90,"height":20},{"id":92,"x":90,"y":2880,"visible":true,"properties":[{"name":"layer","type":"int","value":5},{"name":"resource_index","type":"int","value":46},{"name":"u","type":"string","value":"enH0"},{"name":"no","type":"int","value":1},{"name":"zM","type":"int","value":0}],"gid":32,"width":90,"height":20},{"id":93,"x":360,"y":2940,"visible":true,"properties":[{"name":"layer","type":"int","value":5},{"name":"resource_index","type":"int","value":47},{"name":"u","type":"string","value":"bsc"},{"name":"no","type":"int","value":1},{"name":"zM","type":"int","value":0}],"gid":28,"width":90,"height":60},{"id":94,"x":900,"y":3000,"visible":true,"properties":[{"name":"layer","type":"int","value":5},{"name":"resource_index","type":"int","value":48},{"name":"u","type":"string","value":"bsc"},{"name":"no","type":"int","value":1},{"name":"zM","type":"int","value":0}],"gid":28,"width":90,"height":60},{"id":95,"x":180,"y":3000,"visible":true,"properties":[{"name":"layer","type":"int","value":5},{"name":"resource_index","type":"int","value":49},{"name":"u","type":"string","value":"bsc"},{"name":"no","type":"int","value":0},{"name":"zM","type":"int","value":0}],"gid":26,"width":90,"height":60},{"id":96,"x":630,"y":3032,"visible":true,"properties":[{"name":"layer","type":"int","value":5},{"name":"resource_index","type":"int","value":50},{"name":"u","type":"string","value":"enH1"},{"name":"no","type":"int","value":0},{"name":"zM","type":"int","value":0}],"gid":27,"width":90,"height":32},{"id":97,"x":270,"y":3034,"visible":true,"properties":[{"name":"layer","type":"int","value":5},{"name":"resource_index","type":"int","value":51},{"name":"u","type":"string","value":"enH1"},{"name":"no","type":"int","value":1},{"name":"zM","type":"int","value":0}],"gid":30,"width":90,"height":34},{"id":98,"x":450,"y":2940,"visible":true,"properties":[{"name":"layer","type":"int","value":5},{"name":"resource_index","type":"int","value":52},{"name":"u","type":"string","value":"bsc"},{"name":"no","type":"int","value":2},{"name":"zM","type":"int","value":0}],"gid":25,"width":90,"height":60},{"id":99,"x":450,"y":2880,"visible":true,"properties":[{"name":"layer","type":"int","value":5},{"name":"resource_index","type":"int","value":53},{"name":"u","type":"string","value":"enH0"},{"name":"no","type":"int","value":0},{"name":"zM","type":"int","value":0}],"gid":29,"width":90,"height":20},{"id":100,"x":630,"y":2940,"visible":true,"properties":[{"name":"layer","type":"int","value":5},{"name":"resource_index","type":"int","value":54},{"name":"u","type":"string","value":"bsc"},{"name":"no","type":"int","value":0},{"name":"zM","type":"int","value":0}],"gid":26,"width":90,"height":60},{"id":101,"x":630,"y":2880,"visible":true,"properties":[{"name":"layer","type":"int","value":5},{"name":"resource_index","type":"int","value":55},{"name":"u","type":"string","value":"enH0"},{"name":"no","type":"int","value":0},{"name":"zM","type":"int","value":0}],"gid":29,"width":90,"height":20},{"id":102,"x":360,"y":2880,"visible":true,"properties":[{"name":"layer","type":"int","value":5},{"name":"resource_index","type":"int","value":56},{"name":"u","type":"string","value":"enH0"},{"name":"no","type":"int","value":0},{"name":"zM","type":"int","value":0}],"gid":29,"width":90,"height":20},{"id":103,"x":720,"y":2880,"visible":true,"properties":[{"name":"layer","type":"int","value":5},{"name":"resource_index","type":"int","value":57},{"name":"u","type":"string","value":"enH0"},{"name":"no","type":"int","value":1},{"name":"zM","type":"int","value":0}],"gid":32,"width":90,"height":20},{"id":104,"x":720,"y":2940,"visible":true,"properties":[{"name":"layer","type":"int","value":5},{"name":"resource_index","type":"int","value":58},{"name":"u","type":"string","value":"bsc"},{"name":"no","type":"int","value":2},{"name":"zM","type":"int","value":0}],"gid":25,"width":90,"height":60},{"id":105,"x":540,"y":2880,"visible":true,"properties":[{"name":"layer","type":"int","value":5},{"name":"resource_index","type":"int","value":59},{"name":"u","type":"string","value":"enH0"},{"name":"no","type":"int","value":0},{"name":"zM","type":"int","value":0}],"gid":29,"width":90,"height":20},{"id":106,"x":540,"y":2940,"visible":true,"properties":[{"name":"layer","type":"int","value":5},{"name":"resource_index","type":"int","value":60},{"name":"u","type":"string","value":"bsc"},{"name":"no","type":"int","value":0},{"name":"zM","type":"int","value":0}],"gid":26,"width":90,"height":60},{"id":107,"x":810,"y":2940,"visible":true,"properties":[{"name":"layer","type":"int","value":5},{"name":"resource_index","type":"int","value":61},{"name":"u","type":"string","value":"bsc"},{"name":"no","type":"int","value":0},{"name":"zM","type":"int","value":0}],"gid":26,"width":90,"height":60},{"id":108,"x":810,"y":2880,"visible":true,"properties":[{"name":"layer","type":"int","value":5},{"name":"resource_index","type":"int","value":62},{"name":"u","type":"string","value":"enH0"},{"name":"no","type":"int","value":1},{"name":"zM","type":"int","value":0}],"gid":32,"width":90,"height":20},{"id":109,"x":900,"y":2940,"visible":true,"properties":[{"name":"layer","type":"int","value":5},{"name":"resource_index","type":"int","value":63},{"name":"u","type":"string","value":"bsc"},{"name":"no","type":"int","value":1},{"name":"zM","type":"int","value":0}],"gid":28,"width":90,"height":60},{"id":110,"x":900,"y":2880,"visible":true,"properties":[{"name":"layer","type":"int","value":5},{"name":"resource_index","type":"int","value":64},{"name":"u","type":"string","value":"slLU"},{"name":"no","type":"int","value":0},{"name":"zM","type":"int","value":0}],"gid":44,"width":90,"height":77},{"id":111,"x":-376,"y":2598,"visible":true,"properties":[{"name":"layer","type":"int","value":5},{"name":"resource_index","type":"int","value":65},{"name":"u","type":"string","value":"edD"},{"name":"no","type":"int","value":0},{"name":"zM","type":"int","value":14}],"gid":35,"width":32,"height":18},{"id":112,"x":990,"y":3000,"visible":true,"properties":[{"name":"layer","type":"int","value":5},{"name":"resource_index","type":"int","value":66},{"name":"u","type":"string","value":"bsc"},{"name":"no","type":"int","value":1},{"name":"zM","type":"int","value":0}],"gid":28,"width":90,"height":60},{"id":113,"x":360,"y":3000,"visible":true,"properties":[{"name":"layer","type":"int","value":5},{"name":"resource_index","type":"int","value":67},{"name":"u","type":"string","value":"bsc"},{"name":"no","type":"int","value":0},{"name":"zM","type":"int","value":0}],"gid":26,"width":90,"height":60},{"id":114,"x":630,"y":3000,"visible":true,"properties":[{"name":"layer","type":"int","value":5},{"name":"resource_index","type":"int","value":68},{"name":"u","type":"string","value":"bsc"},{"name":"no","type":"int","value":1},{"name":"zM","type":"int","value":0}],"gid":28,"width":90,"height":60},{"id":115,"x":540,"y":3000,"visible":true,"properties":[{"name":"layer","type":"int","value":5},{"name":"resource_index","type":"int","value":69},{"name":"u","type":"string","value":"bsc"},{"name":"no","type":"int","value":1},{"name":"zM","type":"int","value":0}],"gid":28,"width":90,"height":60},{"id":116,"x":810,"y":3000,"visible":true,"properties":[{"name":"layer","type":"int","value":5},{"name":"resource_index","type":"int","value":70},{"name":"u","type":"string","value":"bsc"},{"name":"no","type":"int","value":0},{"name":"zM","type":"int","value":0}],"gid":26,"width":90,"height":60},{"id":117,"x":450,"y":3000,"visible":true,"properties":[{"name":"layer","type":"int","value":5},{"name":"resource_index","type":"int","value":71},{"name":"u","type":"string","value":"bsc"},{"name":"no","type":"int","value":2},{"name":"zM","type":"int","value":0}],"gid":25,"width":90,"height":60},{"id":118,"x":1080,"y":3032,"visible":true,"properties":[{"name":"layer","type":"int","value":5},{"name":"resource_index","type":"int","value":72},{"name":"u","type":"string","value":"enH1"},{"name":"no","type":"int","value":0},{"name":"zM","type":"int","value":0}],"gid":27,"width":90,"height":32},{"id":119,"x":720,"y":3000,"visible":true,"properties":[{"name":"layer","type":"int","value":5},{"name":"resource_index","type":"int","value":73},{"name":"u","type":"string","value":"bsc"},{"name":"no","type":"int","value":2},{"name":"zM","type":"int","value":0}],"gid":25,"width":90,"height":60},{"id":120,"x":720,"y":3034,"visible":true,"properties":[{"name":"layer","type":"int","value":5},{"name":"resource_index","type":"int","value":74},{"name":"u","type":"string","value":"enH1"},{"name":"no","type":"int","value":1},{"name":"zM","type":"int","value":0}],"gid":30,"width":90,"height":34},{"id":121,"x":450,"y":3034,"visible":true,"properties":[{"name":"layer","type":"int","value":5},{"name":"resource_index","type":"int","value":75},{"name":"u","type":"string","value":"enH1"},{"name":"no","type":"int","value":1},{"name":"zM","type":"int","value":0}],"gid":30,"width":90,"height":34},{"id":122,"x":540,"y":3032,"visible":true,"properties":[{"name":"layer","type":"int","value":5},{"name":"resource_index","type":"int","value":76},{"name":"u","type":"string","value":"enH1"},{"name":"no","type":"int","value":0},{"name":"zM","type":"int","value":0}],"gid":27,"width":90,"height":32},{"id":123,"x":990,"y":3034,"visible":true,"properties":[{"name":"layer","type":"int","value":5},{"name":"resource_index","type":"int","value":77},{"name":"u","type":"string","value":"enH1"},{"name":"no","type":"int","value":1},{"name":"zM","type":"int","value":0}],"gid":30,"width":90,"height":34},{"id":124,"x":900,"y":3034,"visible":true,"properties":[{"name":"layer","type":"int","value":5},{"name":"resource_index","type":"int","value":78},{"name":"u","type":"string","value":"enH1"},{"name":"no","type":"int","value":1},{"name":"zM","type":"int","value":0}],"gid":30,"width":90,"height":34},{"id":125,"x":810,"y":3032,"visible":true,"properties":[{"name":"layer","type":"int","value":5},{"name":"resource_index","type":"int","value":79},{"name":"u","type":"string","value":"enH1"},{"name":"no","type":"int","value":0},{"name":"zM","type":"int","value":0}],"gid":27,"width":90,"height":32},{"id":126,"x":-376,"y":2580,"visible":true,"properties":[{"name":"layer","type":"int","value":5},{"name":"resource_index","type":"int","value":80},{"name":"u","type":"string","value":"edU"},{"name":"no","type":"int","value":0},{"name":"zM","type":"int","value":14}],"gid":34,"width":32,"height":19},{"id":127,"x":1080,"y":2940,"visible":true,"properties":[{"name":"layer","type":"int","value":5},{"name":"resource_index","type":"int","value":81},{"name":"u","type":"string","value":"bsc"},{"name":"no","type":"int","value":1},{"name":"zM","type":"int","value":0}],"gid":28,"width":90,"height":60},{"id":128,"x":990,"y":2880,"visible":true,"properties":[{"name":"layer","type":"int","value":5},{"name":"resource_index","type":"int","value":82},{"name":"u","type":"string","value":"bsc"},{"name":"no","type":"int","value":2},{"name":"zM","type":"int","value":0}],"gid":25,"width":90,"height":60},{"id":129,"x":990,"y":2820,"visible":true,"properties":[{"name":"layer","type":"int","value":5},{"name":"resource_index","type":"int","value":83},{"name":"u","type":"string","value":"slLU"},{"name":"no","type":"int","value":0},{"name":"zM","type":"int","value":0}],"gid":44,"width":90,"height":77},{"id":130,"x":1170,"y":2880,"visible":true,"properties":[{"name":"layer","type":"int","value":5},{"name":"resource_index","type":"int","value":84},{"name":"u","type":"string","value":"bsc"},{"name":"no","type":"int","value":0},{"name":"zM","type":"int","value":0}],"gid":26,"width":90,"height":60},{"id":131,"x":1260,"y":2760,"visible":true,"properties":[{"name":"layer","type":"int","value":5},{"name":"resource_index","type":"int","value":85},{"name":"u","type":"string","value":"enH0"},{"name":"no","type":"int","value":1},{"name":"zM","type":"int","value":0}],"gid":32,"width":90,"height":20},{"id":132,"x":1530,"y":2940,"visible":true,"properties":[{"name":"layer","type":"int","value":5},{"name":"resource_index","type":"int","value":86},{"name":"u","type":"string","value":"enV1"},{"name":"no","type":"int","value":2},{"name":"zM","type":"int","value":0}],"gid":31,"width":17,"height":60},{"id":133,"x":1530,"y":3000,"visible":true,"properties":[{"name":"layer","type":"int","value":5},{"name":"resource_index","type":"int","value":87},{"name":"u","type":"string","value":"enV1"},{"name":"no","type":"int","value":1},{"name":"zM","type":"int","value":0}],"gid":39,"width":18,"height":60},{"id":134,"x":1440,"y":2820,"visible":true,"properties":[{"name":"layer","type":"int","value":5},{"name":"resource_index","type":"int","value":88},{"name":"u","type":"string","value":"bsc"},{"name":"no","type":"int","value":0},{"name":"zM","type":"int","value":0}],"gid":26,"width":90,"height":60},{"id":135,"x":1260,"y":2880,"visible":true,"properties":[{"name":"layer","type":"int","value":5},{"name":"resource_index","type":"int","value":89},{"name":"u","type":"string","value":"bsc"},{"name":"no","type":"int","value":2},{"name":"zM","type":"int","value":0}],"gid":25,"width":90,"height":60},{"id":136,"x":1080,"y":2880,"visible":true,"properties":[{"name":"layer","type":"int","value":5},{"name":"resource_index","type":"int","value":90},{"name":"u","type":"string","value":"bsc"},{"name":"no","type":"int","value":2},{"name":"zM","type":"int","value":0}],"gid":25,"width":90,"height":60},{"id":137,"x":1080,"y":2820,"visible":true,"properties":[{"name":"layer","type":"int","value":5},{"name":"resource_index","type":"int","value":91},{"name":"u","type":"string","value":"bsc"},{"name":"no","type":"int","value":1},{"name":"zM","type":"int","value":0}],"gid":28,"width":90,"height":60},{"id":138,"x":990,"y":2940,"visible":true,"properties":[{"name":"layer","type":"int","value":5},{"name":"resource_index","type":"int","value":92},{"name":"u","type":"string","value":"bsc"},{"name":"no","type":"int","value":2},{"name":"zM","type":"int","value":0}],"gid":25,"width":90,"height":60},{"id":139,"x":1260,"y":2940,"visible":true,"properties":[{"name":"layer","type":"int","value":5},{"name":"resource_index","type":"int","value":93},{"name":"u","type":"string","value":"bsc"},{"name":"no","type":"int","value":2},{"name":"zM","type":"int","value":0}],"gid":25,"width":90,"height":60},{"id":140,"x":1170,"y":2940,"visible":true,"properties":[{"name":"layer","type":"int","value":5},{"name":"resource_index","type":"int","value":94},{"name":"u","type":"string","value":"bsc"},{"name":"no","type":"int","value":0},{"name":"zM","type":"int","value":0}],"gid":26,"width":90,"height":60},{"id":141,"x":1514,"y":3018,"visible":true,"properties":[{"name":"layer","type":"int","value":5},{"name":"resource_index","type":"int","value":95},{"name":"u","type":"string","value":"edD"},{"name":"no","type":"int","value":0},{"name":"zM","type":"int","value":0}],"gid":35,"width":32,"height":18},{"id":142,"x":1440,"y":2880,"visible":true,"properties":[{"name":"layer","type":"int","value":5},{"name":"resource_index","type":"int","value":96},{"name":"u","type":"string","value":"bsc"},{"name":"no","type":"int","value":2},{"name":"zM","type":"int","value":0}],"gid":25,"width":90,"height":60},{"id":143,"x":1440,"y":3000,"visible":true,"properties":[{"name":"layer","type":"int","value":5},{"name":"resource_index","type":"int","value":97},{"name":"u","type":"string","value":"bsc"},{"name":"no","type":"int","value":1},{"name":"zM","type":"int","value":0}],"gid":28,"width":90,"height":60},{"id":144,"x":1080,"y":3000,"visible":true,"properties":[{"name":"layer","type":"int","value":5},{"name":"resource_index","type":"int","value":98},{"name":"u","type":"string","value":"bsc"},{"name":"no","type":"int","value":1},{"name":"zM","type":"int","value":0}],"gid":28,"width":90,"height":60},{"id":145,"x":1170,"y":3000,"visible":true,"properties":[{"name":"layer","type":"int","value":5},{"name":"resource_index","type":"int","value":99},{"name":"u","type":"string","value":"bsc"},{"name":"no","type":"int","value":2},{"name":"zM","type":"int","value":0}],"gid":25,"width":90,"height":60},{"id":146,"x":1350,"y":3000,"visible":true,"properties":[{"name":"layer","type":"int","value":5},{"name":"resource_index","type":"int","value":100},{"name":"u","type":"string","value":"bsc"},{"name":"no","type":"int","value":2},{"name":"zM","type":"int","value":0}],"gid":25,"width":90,"height":60},{"id":147,"x":1260,"y":3000,"visible":true,"properties":[{"name":"layer","type":"int","value":5},{"name":"resource_index","type":"int","value":101},{"name":"u","type":"string","value":"bsc"},{"name":"no","type":"int","value":2},{"name":"zM","type":"int","value":0}],"gid":25,"width":90,"height":60},{"id":148,"x":1350,"y":2880,"visible":true,"properties":[{"name":"layer","type":"int","value":5},{"name":"resource_index","type":"int","value":102},{"name":"u","type":"string","value":"bsc"},{"name":"no","type":"int","value":2},{"name":"zM","type":"int","value":0}],"gid":25,"width":90,"height":60},{"id":149,"x":1350,"y":2940,"visible":true,"properties":[{"name":"layer","type":"int","value":5},{"name":"resource_index","type":"int","value":103},{"name":"u","type":"string","value":"bsc"},{"name":"no","type":"int","value":0},{"name":"zM","type":"int","value":0}],"gid":26,"width":90,"height":60},{"id":150,"x":1170,"y":3034,"visible":true,"properties":[{"name":"layer","type":"int","value":5},{"name":"resource_index","type":"int","value":104},{"name":"u","type":"string","value":"enH1"},{"name":"no","type":"int","value":1},{"name":"zM","type":"int","value":0}],"gid":30,"width":90,"height":34},{"id":151,"x":1440,"y":3032,"visible":true,"properties":[{"name":"layer","type":"int","value":5},{"name":"resource_index","type":"int","value":105},{"name":"u","type":"string","value":"enH1"},{"name":"no","type":"int","value":0},{"name":"zM","type":"int","value":0}],"gid":27,"width":90,"height":32},{"id":152,"x":1350,"y":3032,"visible":true,"properties":[{"name":"layer","type":"int","value":5},{"name":"resource_index","type":"int","value":106},{"name":"u","type":"string","value":"enH1"},{"name":"no","type":"int","value":0},{"name":"zM","type":"int","value":0}],"gid":27,"width":90,"height":32},{"id":153,"x":1260,"y":3032,"visible":true,"properties":[{"name":"layer","type":"int","value":5},{"name":"resource_index","type":"int","value":107},{"name":"u","type":"string","value":"enH1"},{"name":"no","type":"int","value":0},{"name":"zM","type":"int","value":0}],"gid":27,"width":90,"height":32},{"id":154,"x":-450,"y":2580,"visible":true,"properties":[{"name":"layer","type":"int","value":5},{"name":"resource_index","type":"int","value":108},{"name":"u","type":"string","value":"enH0"},{"name":"no","type":"int","value":0},{"name":"zM","type":"int","value":14}],"gid":29,"width":90,"height":20},{"id":155,"x":1080,"y":2760,"visible":true,"properties":[{"name":"layer","type":"int","value":5},{"name":"resource_index","type":"int","value":109},{"name":"u","type":"string","value":"enH0"},{"name":"no","type":"int","value":1},{"name":"zM","type":"int","value":0}],"gid":32,"width":90,"height":20},{"id":156,"x":-450,"y":2612,"visible":true,"properties":[{"name":"layer","type":"int","value":5},{"name":"resource_index","type":"int","value":110},{"name":"u","type":"string","value":"enH1"},{"name":"no","type":"int","value":0},{"name":"zM","type":"int","value":14}],"gid":27,"width":90,"height":32},{"id":157,"x":1260,"y":2820,"visible":true,"properties":[{"name":"layer","type":"int","value":5},{"name":"resource_index","type":"int","value":111},{"name":"u","type":"string","value":"bsc"},{"name":"no","type":"int","value":1},{"name":"zM","type":"int","value":0}],"gid":28,"width":90,"height":60},{"id":158,"x":1170,"y":2820,"visible":true,"properties":[{"name":"layer","type":"int","value":5},{"name":"resource_index","type":"int","value":112},{"name":"u","type":"string","value":"bsc"},{"name":"no","type":"int","value":0},{"name":"zM","type":"int","value":0}],"gid":26,"width":90,"height":60},{"id":159,"x":1170,"y":2760,"visible":true,"properties":[{"name":"layer","type":"int","value":5},{"name":"resource_index","type":"int","value":113},{"name":"u","type":"string","value":"enH0"},{"name":"no","type":"int","value":0},{"name":"zM","type":"int","value":0}],"gid":29,"width":90,"height":20},{"id":160,"x":1350,"y":2820,"visible":true,"properties":[{"name":"layer","type":"int","value":5},{"name":"resource_index","type":"int","value":114},{"name":"u","type":"string","value":"bsc"},{"name":"no","type":"int","value":1},{"name":"zM","type":"int","value":0}],"gid":28,"width":90,"height":60},{"id":161,"x":1350,"y":2760,"visible":true,"properties":[{"name":"layer","type":"int","value":5},{"name":"resource_index","type":"int","value":115},{"name":"u","type":"string","value":"enH0"},{"name":"no","type":"int","value":0},{"name":"zM","type":"int","value":0}],"gid":29,"width":90,"height":20},{"id":162,"x":1440,"y":2760,"visible":true,"properties":[{"name":"layer","type":"int","value":5},{"name":"resource_index","type":"int","value":116},{"name":"u","type":"string","value":"enH0"},{"name":"no","type":"int","value":1},{"name":"zM","type":"int","value":0}],"gid":32,"width":90,"height":20},{"id":163,"x":1514,"y":2760,"visible":true,"properties":[{"name":"layer","type":"int","value":5},{"name":"resource_index","type":"int","value":117},{"name":"u","type":"string","value":"edU"},{"name":"no","type":"int","value":0},{"name":"zM","type":"int","value":0}],"gid":34,"width":32,"height":19},{"id":164,"x":1530,"y":2820,"visible":true,"properties":[{"name":"layer","type":"int","value":5},{"name":"resource_index","type":"int","value":118},{"name":"u","type":"string","value":"enV1"},{"name":"no","type":"int","value":1},{"name":"zM","type":"int","value":0}],"gid":39,"width":18,"height":60},{"id":165,"x":1440,"y":2940,"visible":true,"properties":[{"name":"layer","type":"int","value":5},{"name":"resource_index","type":"int","value":119},{"name":"u","type":"string","value":"bsc"},{"name":"no","type":"int","value":2},{"name":"zM","type":"int","value":0}],"gid":25,"width":90,"height":60},{"id":166,"x":1530,"y":2880,"visible":true,"properties":[{"name":"layer","type":"int","value":5},{"name":"resource_index","type":"int","value":120},{"name":"u","type":"string","value":"enV1"},{"name":"no","type":"int","value":2},{"name":"zM","type":"int","value":0}],"gid":31,"width":17,"height":60},{"id":167,"x":434,"y":2640,"visible":true,"properties":[{"name":"layer","type":"int","value":5},{"name":"resource_index","type":"int","value":121},{"name":"u","type":"string","value":"edU"},{"name":"no","type":"int","value":0},{"name":"zM","type":"int","value":5}],"gid":34,"width":32,"height":19},{"id":168,"x":434,"y":2658,"visible":true,"properties":[{"name":"layer","type":"int","value":5},{"name":"resource_index","type":"int","value":122},{"name":"u","type":"string","value":"edD"},{"name":"no","type":"int","value":0},{"name":"zM","type":"int","value":5}],"gid":35,"width":32,"height":18},{"id":169,"x":540,"y":2700,"visible":true,"properties":[{"name":"layer","type":"int","value":5},{"name":"resource_index","type":"int","value":123},{"name":"u","type":"string","value":"bsc"},{"name":"no","type":"int","value":1},{"name":"zM","type":"int","value":5}],"gid":28,"width":90,"height":60},{"id":170,"x":540,"y":2640,"visible":true,"properties":[{"name":"layer","type":"int","value":5},{"name":"resource_index","type":"int","value":124},{"name":"u","type":"string","value":"enH0"},{"name":"no","type":"int","value":1},{"name":"zM","type":"int","value":5}],"gid":32,"width":90,"height":20},{"id":171,"x":450,"y":2640,"visible":true,"properties":[{"name":"layer","type":"int","value":5},{"name":"resource_index","type":"int","value":125},{"name":"u","type":"string","value":"enH0"},{"name":"no","type":"int","value":1},{"name":"zM","type":"int","value":5}],"gid":32,"width":90,"height":20},{"id":172,"x":450,"y":2729,"visible":true,"properties":[{"name":"layer","type":"int","value":5},{"name":"resource_index","type":"int","value":126},{"name":"u","type":"string","value":"slLD"},{"name":"no","type":"int","value":0},{"name":"zM","type":"int","value":5}],"gid":41,"width":90,"height":89},{"id":173,"x":630,"y":2728,"visible":true,"properties":[{"name":"layer","type":"int","value":5},{"name":"resource_index","type":"int","value":127},{"name":"u","type":"string","value":"slRD"},{"name":"no","type":"int","value":0},{"name":"zM","type":"int","value":5}],"gid":42,"width":90,"height":88},{"id":174,"x":630,"y":2640,"visible":true,"properties":[{"name":"layer","type":"int","value":5},{"name":"resource_index","type":"int","value":128},{"name":"u","type":"string","value":"enH0"},{"name":"no","type":"int","value":1},{"name":"zM","type":"int","value":5}],"gid":32,"width":90,"height":20},{"id":175,"x":704,"y":2640,"visible":true,"properties":[{"name":"layer","type":"int","value":5},{"name":"resource_index","type":"int","value":129},{"name":"u","type":"string","value":"edU"},{"name":"no","type":"int","value":1},{"name":"zM","type":"int","value":5}],"gid":37,"width":32,"height":17},{"id":176,"x":704,"y":2657,"visible":true,"properties":[{"name":"layer","type":"int","value":5},{"name":"resource_index","type":"int","value":130},{"name":"u","type":"string","value":"edD"},{"name":"no","type":"int","value":1},{"name":"zM","type":"int","value":5}],"gid":33,"width":32,"height":17},{"id":177,"x":540,"y":2734,"visible":true,"properties":[{"name":"layer","type":"int","value":5},{"name":"resource_index","type":"int","value":131},{"name":"u","type":"string","value":"enH1"},{"name":"no","type":"int","value":1},{"name":"zM","type":"int","value":5}],"gid":30,"width":90,"height":34},{"id":178,"x":524,"y":2718,"visible":true,"properties":[{"name":"layer","type":"int","value":5},{"name":"resource_index","type":"int","value":132},{"name":"u","type":"string","value":"edD"},{"name":"no","type":"int","value":0},{"name":"zM","type":"int","value":5}],"gid":35,"width":32,"height":18},{"id":179,"x":524,"y":2700,"visible":true,"properties":[{"name":"layer","type":"int","value":5},{"name":"resource_index","type":"int","value":133},{"name":"u","type":"string","value":"enV0"},{"name":"no","type":"int","value":2},{"name":"zM","type":"int","value":5}],"gid":36,"width":16,"height":60},{"id":180,"x":614,"y":2717,"visible":true,"properties":[{"name":"layer","type":"int","value":5},{"name":"resource_index","type":"int","value":134},{"name":"u","type":"string","value":"edD"},{"name":"no","type":"int","value":1},{"name":"zM","type":"int","value":5}],"gid":33,"width":32,"height":17},{"id":181,"x":254,"y":2580,"visible":true,"properties":[{"name":"layer","type":"int","value":5},{"name":"resource_index","type":"int","value":135},{"name":"u","type":"string","value":"edU"},{"name":"no","type":"int","value":0},{"name":"zM","type":"int","value":12}],"gid":34,"width":32,"height":19},{"id":182,"x":254,"y":2598,"visible":true,"properties":[{"name":"layer","type":"int","value":5},{"name":"resource_index","type":"int","value":136},{"name":"u","type":"string","value":"edD"},{"name":"no","type":"int","value":0},{"name":"zM","type":"int","value":12}],"gid":35,"width":32,"height":18},{"id":183,"x":344,"y":2580,"visible":true,"properties":[{"name":"layer","type":"int","value":5},{"name":"resource_index","type":"int","value":137},{"name":"u","type":"string","value":"edU"},{"name":"no","type":"int","value":1},{"name":"zM","type":"int","value":12}],"gid":37,"width":32,"height":17},{"id":184,"x":344,"y":2597,"visible":true,"properties":[{"name":"layer","type":"int","value":5},{"name":"resource_index","type":"int","value":138},{"name":"u","type":"string","value":"edD"},{"name":"no","type":"int","value":1},{"name":"zM","type":"int","value":12}],"gid":33,"width":32,"height":17},{"id":185,"x":270,"y":2580,"visible":true,"properties":[{"name":"layer","type":"int","value":5},{"name":"resource_index","type":"int","value":139},{"name":"u","type":"string","value":"enH0"},{"name":"no","type":"int","value":0},{"name":"zM","type":"int","value":12}],"gid":29,"width":90,"height":20},{"id":186,"x":270,"y":2614,"visible":true,"properties":[{"name":"layer","type":"int","value":5},{"name":"resource_index","type":"int","value":140},{"name":"u","type":"string","value":"enH1"},{"name":"no","type":"int","value":1},{"name":"zM","type":"int","value":12}],"gid":30,"width":90,"height":34},{"id":187,"x":164,"y":2520,"visible":true,"properties":[{"name":"layer","type":"int","value":5},{"name":"resource_index","type":"int","value":141},{"name":"u","type":"string","value":"edU"},{"name":"no","type":"int","value":1},{"name":"zM","type":"int","value":16}],"gid":37,"width":32,"height":17},{"id":188,"x":164,"y":2538,"visible":true,"properties":[{"name":"layer","type":"int","value":5},{"name":"resource_index","type":"int","value":142},{"name":"u","type":"string","value":"edD"},{"name":"no","type":"int","value":0},{"name":"zM","type":"int","value":16}],"gid":35,"width":32,"height":18},{"id":189,"x":254,"y":2520,"visible":true,"properties":[{"name":"layer","type":"int","value":5},{"name":"resource_index","type":"int","value":143},{"name":"u","type":"string","value":"edU"},{"name":"no","type":"int","value":1},{"name":"zM","type":"int","value":16}],"gid":37,"width":32,"height":17},{"id":190,"x":254,"y":2537,"visible":true,"properties":[{"name":"layer","type":"int","value":5},{"name":"resource_index","type":"int","value":144},{"name":"u","type":"string","value":"edD"},{"name":"no","type":"int","value":1},{"name":"zM","type":"int","value":16}],"gid":33,"width":32,"height":17},{"id":191,"x":180,"y":2520,"visible":true,"properties":[{"name":"layer","type":"int","value":5},{"name":"resource_index","type":"int","value":145},{"name":"u","type":"string","value":"enH0"},{"name":"no","type":"int","value":0},{"name":"zM","type":"int","value":16}],"gid":29,"width":90,"height":20},{"id":192,"x":180,"y":2554,"visible":true,"properties":[{"name":"layer","type":"int","value":5},{"name":"resource_index","type":"int","value":146},{"name":"u","type":"string","value":"enH1"},{"name":"no","type":"int","value":1},{"name":"zM","type":"int","value":16}],"gid":30,"width":90,"height":34},{"id":193,"x":794,"y":2580,"visible":true,"properties":[{"name":"layer","type":"int","value":5},{"name":"resource_index","type":"int","value":147},{"name":"u","type":"string","value":"edU"},{"name":"no","type":"int","value":0},{"name":"zM","type":"int","value":13}],"gid":34,"width":32,"height":19},{"id":194,"x":794,"y":2597,"visible":true,"properties":[{"name":"layer","type":"int","value":5},{"name":"resource_index","type":"int","value":148},{"name":"u","type":"string","value":"edD"},{"name":"no","type":"int","value":1},{"name":"zM","type":"int","value":13}],"gid":33,"width":32,"height":17},{"id":195,"x":884,"y":2580,"visible":true,"properties":[{"name":"layer","type":"int","value":5},{"name":"resource_index","type":"int","value":149},{"name":"u","type":"string","value":"edU"},{"name":"no","type":"int","value":0},{"name":"zM","type":"int","value":13}],"gid":34,"width":32,"height":19},{"id":196,"x":884,"y":2597,"visible":true,"properties":[{"name":"layer","type":"int","value":5},{"name":"resource_index","type":"int","value":150},{"name":"u","type":"string","value":"edD"},{"name":"no","type":"int","value":1},{"name":"zM","type":"int","value":13}],"gid":33,"width":32,"height":17},{"id":197,"x":810,"y":2580,"visible":true,"properties":[{"name":"layer","type":"int","value":5},{"name":"resource_index","type":"int","value":151},{"name":"u","type":"string","value":"enH0"},{"name":"no","type":"int","value":1},{"name":"zM","type":"int","value":13}],"gid":32,"width":90,"height":20},{"id":198,"x":810,"y":2612,"visible":true,"properties":[{"name":"layer","type":"int","value":5},{"name":"resource_index","type":"int","value":152},{"name":"u","type":"string","value":"enH1"},{"name":"no","type":"int","value":0},{"name":"zM","type":"int","value":13}],"gid":27,"width":90,"height":32},{"id":199,"x":884,"y":2520,"visible":true,"properties":[{"name":"layer","type":"int","value":5},{"name":"resource_index","type":"int","value":153},{"name":"u","type":"string","value":"edU"},{"name":"no","type":"int","value":0},{"name":"zM","type":"int","value":17}],"gid":34,"width":32,"height":19},{"id":200,"x":884,"y":2537,"visible":true,"properties":[{"name":"layer","type":"int","value":5},{"name":"resource_index","type":"int","value":154},{"name":"u","type":"string","value":"edD"},{"name":"no","type":"int","value":1},{"name":"zM","type":"int","value":17}],"gid":33,"width":32,"height":17},{"id":201,"x":974,"y":2520,"visible":true,"properties":[{"name":"layer","type":"int","value":5},{"name":"resource_index","type":"int","value":155},{"name":"u","type":"string","value":"edU"},{"name":"no","type":"int","value":1},{"name":"zM","type":"int","value":17}],"gid":37,"width":32,"height":17},{"id":202,"x":974,"y":2537,"visible":true,"properties":[{"name":"layer","type":"int","value":5},{"name":"resource_index","type":"int","value":156},{"name":"u","type":"string","value":"edD"},{"name":"no","type":"int","value":1},{"name":"zM","type":"int","value":17}],"gid":33,"width":32,"height":17},{"id":203,"x":900,"y":2520,"visible":true,"properties":[{"name":"layer","type":"int","value":5},{"name":"resource_index","type":"int","value":157},{"name":"u","type":"string","value":"enH0"},{"name":"no","type":"int","value":0},{"name":"zM","type":"int","value":17}],"gid":29,"width":90,"height":20},{"id":204,"x":900,"y":2552,"visible":true,"properties":[{"name":"layer","type":"int","value":5},{"name":"resource_index","type":"int","value":158},{"name":"u","type":"string","value":"enH1"},{"name":"no","type":"int","value":0},{"name":"zM","type":"int","value":17}],"gid":27,"width":90,"height":32},{"id":205,"x":-466,"y":2580,"visible":true,"properties":[{"name":"layer","type":"int","value":5},{"name":"resource_index","type":"int","value":159},{"name":"u","type":"string","value":"edU"},{"name":"no","type":"int","value":1},{"name":"zM","type":"int","value":14}],"gid":37,"width":32,"height":17},{"id":206,"x":-466,"y":2597,"visible":true,"properties":[{"name":"layer","type":"int","value":5},{"name":"resource_index","type":"int","value":160},{"name":"u","type":"string","value":"edD"},{"name":"no","type":"int","value":1},{"name":"zM","type":"int","value":14}],"gid":33,"width":32,"height":17}]},{"id":7,"name":"layer_6_obj","type":"objectgroup","visible":true,"opacity":1,"objects":[{"id":261,"x":565,"y":2633,"visible":true,"properties":[{"name":"layer","type":"int","value":6},{"name":"resource_index","type":"int","value":0},{"name":"oS","type":"string","value":"connect"},{"name":"l0","type":"string","value":"ladder"},{"name":"l1","type":"string","value":"0"},{"name":"l2","type":"string","value":"0"},{"name":"z","type":"int","value":3},{"name":"zM","type":"int","value":10},{"name":"f","type":"int","value":0}],"gid":50,"width":48,"height":23},{"id":262,"x":564,"y":2681,"visible":true,"properties":[{"name":"layer","type":"int","value":6},{"name":"resource_index","type":"int","value":1},{"name":"oS","type":"string","value":"connect"},{"name":"l0","type":"string","value":"ladder"},{"name":"l1","type":"string","value":"0"},{"name":"l2","type":"string","value":"1"},{"name":"z","type":"int","value":3},{"name":"zM","type":"int","value":6},{"name":"f","type":"int","value":0}],"gid":51,"width":54,"height":48},{"id":263,"x":564,"y":2728,"visible":true,"properties":[{"name":"layer","type":"int","value":6},{"name":"resource_index","type":"int","value":2},{"name":"oS","type":"string","value":"connect"},{"name":"l0","type":"string","value":"ladder"},{"name":"l1","type":"string","value":"0"},{"name":"l2","type":"string","value":"1"},{"name":"z","type":"int","value":3},{"name":"zM","type":"int","value":6},{"name":"f","type":"int","value":0}],"gid":51,"width":54,"height":48},{"id":264,"x":564,"y":2776,"visible":true,"properties":[{"name":"layer","type":"int","value":6},{"name":"resource_index","type":"int","value":3},{"name":"oS","type":"string","value":"connect"},{"name":"l0","type":"string","value":"ladder"},{"name":"l1","type":"string","value":"0"},{"name":"l2","type":"string","value":"1"},{"name":"z","type":"int","value":3},{"name":"zM","type":"int","value":2},{"name":"f","type":"int","value":0}],"gid":51,"width":54,"height":48},{"id":265,"x":567,"y":2790,"visible":true,"properties":[{"name":"layer","type":"int","value":6},{"name":"resource_index","type":"int","value":4},{"name":"oS","type":"string","value":"connect"},{"name":"l0","type":"string","value":"ladder"},{"name":"l1","type":"string","value":"0"},{"name":"l2","type":"string","value":"3"},{"name":"z","type":"int","value":3},{"name":"zM","type":"int","value":1},{"name":"f","type":"int","value":0}],"gid":53,"width":47,"height":14},{"id":266,"x":171,"y":2287,"visible":true,"properties":[{"name":"layer","type":"int","value":6},{"name":"resource_index","type":"int","value":5},{"name":"oS","type":"string","value":"connect"},{"name":"l0","type":"string","value":"rope"},{"name":"l1","type":"string","value":"0"},{"name":"l2","type":"string","value":"0"},{"name":"z","type":"int","value":3},{"name":"zM","type":"int","value":30},{"name":"f","type":"int","value":0}],"gid":46,"width":19,"height":49},{"id":267,"x":174,"y":2407,"visible":true,"properties":[{"name":"layer","type":"int","value":6},{"name":"resource_index","type":"int","value":6},{"name":"oS","type":"string","value":"connect"},{"name":"l0","type":"string","value":"rope"},{"name":"l1","type":"string","value":"0"},{"name":"l2","type":"string","value":"3"},{"name":"z","type":"int","value":3},{"name":"zM","type":"int","value":26},{"name":"f","type":"int","value":0}],"gid":47,"width":5,"height":120},{"id":268,"x":172,"y":2437,"visible":true,"properties":[{"name":"layer","type":"int","value":6},{"name":"resource_index","type":"int","value":7},{"name":"oS","type":"string","value":"connect"},{"name":"l0","type":"string","value":"rope"},{"name":"l1","type":"string","value":"0"},{"name":"l2","type":"string","value":"2"},{"name":"z","type":"int","value":3},{"name":"zM","type":"int","value":23},{"name":"f","type":"int","value":0}],"gid":48,"width":11,"height":30},{"id":269,"x":972,"y":2301,"visible":true,"properties":[{"name":"layer","type":"int","value":6},{"name":"resource_index","type":"int","value":8},{"name":"oS","type":"string","value":"connect"},{"name":"l0","type":"string","value":"rope"},{"name":"l1","type":"string","value":"0"},{"name":"l2","type":"string","value":"0"},{"name":"z","type":"int","value":3},{"name":"zM","type":"int","value":29},{"name":"f","type":"int","value":0}],"gid":46,"width":19,"height":49},{"id":270,"x":975,"y":2421,"visible":true,"properties":[{"name":"layer","type":"int","value":6},{"name":"resource_index","type":"int","value":9},{"name":"oS","type":"string","value":"connect"},{"name":"l0","type":"string","value":"rope"},{"name":"l1","type":"string","value":"0"},{"name":"l2","type":"string","value":"3"},{"name":"z","type":"int","value":3},{"name":"zM","type":"int","value":24},{"name":"f","type":"int","value":0}],"gid":47,"width":5,"height":120},{"id":271,"x":973,"y":2451,"visible":true,"properties":[{"name":"layer","type":"int","value":6},{"name":"resource_index","type":"int","value":10},{"name":"oS","type":"string","value":"connect"},{"name":"l0","type":"string","value":"rope"},{"name":"l1","type":"string","value":"0"},{"name":"l2","type":"string","value":"2"},{"name":"z","type":"int","value":3},{"name":"zM","type":"int","value":21},{"name":"f","type":"int","value":0}],"gid":48,"width":11,"height":30},{"id":272,"x":1264,"y":2228,"visible":true,"properties":[{"name":"layer","type":"int","value":6},{"name":"resource_index","type":"int","value":11},{"name":"oS","type":"string","value":"connect"},{"name":"l0","type":"string","value":"rope"},{"name":"l1","type":"string","value":"0"},{"name":"l2","type":"string","value":"0"},{"name":"z","type":"int","value":3},{"name":"zM","type":"int","value":42},{"name":"f","type":"int","value":0}],"gid":46,"width":19,"height":49},{"id":273,"x":1267,"y":2348,"visible":true,"properties":[{"name":"layer","type":"int","value":6},{"name":"resource_index","type":"int","value":12},{"name":"oS","type":"string","value":"connect"},{"name":"l0","type":"string","value":"rope"},{"name":"l1","type":"string","value":"0"},{"name":"l2","type":"string","value":"3"},{"name":"z","type":"int","value":3},{"name":"zM","type":"int","value":27},{"name":"f","type":"int","value":0}],"gid":47,"width":5,"height":120},{"id":274,"x":1267,"y":2468,"visible":true,"properties":[{"name":"layer","type":"int","value":6},{"name":"resource_index","type":"int","value":13},{"name":"oS","type":"string","value":"connect"},{"name":"l0","type":"string","value":"rope"},{"name":"l1","type":"string","value":"0"},{"name":"l2","type":"string","value":"3"},{"name":"z","type":"int","value":3},{"name":"zM","type":"int","value":20},{"name":"f","type":"int","value":0}],"gid":47,"width":5,"height":120},{"id":275,"x":1267,"y":2588,"visible":true,"properties":[{"name":"layer","type":"int","value":6},{"name":"resource_index","type":"int","value":14},{"name":"oS","type":"string","value":"connect"},{"name":"l0","type":"string","value":"rope"},{"name":"l1","type":"string","value":"0"},{"name":"l2","type":"string","value":"3"},{"name":"z","type":"int","value":3},{"name":"zM","type":"int","value":11},{"name":"f","type":"int","value":0}],"gid":47,"width":5,"height":120},{"id":276,"x":1267,"y":2617,"visible":true,"properties":[{"name":"layer","type":"int","value":6},{"name":"resource_index","type":"int","value":15},{"name":"oS","type":"string","value":"connect"},{"name":"l0","type":"string","value":"rope"},{"name":"l1","type":"string","value":"0"},{"name":"l2","type":"string","value":"1"},{"name":"z","type":"int","value":3},{"name":"zM","type":"int","value":11},{"name":"f","type":"int","value":0}],"gid":49,"width":5,"height":30},{"id":277,"x":1267,"y":2647,"visible":true,"properties":[{"name":"layer","type":"int","value":6},{"name":"resource_index","type":"int","value":16},{"name":"oS","type":"string","value":"connect"},{"name":"l0","type":"string","value":"rope"},{"name":"l1","type":"string","value":"0"},{"name":"l2","type":"string","value":"1"},{"name":"z","type":"int","value":3},{"name":"zM","type":"int","value":9},{"name":"f","type":"int","value":0}],"gid":49,"width":5,"height":30},{"id":278,"x":1265,"y":2677,"visible":true,"properties":[{"name":"layer","type":"int","value":6},{"name":"resource_index","type":"int","value":17},{"name":"oS","type":"string","value":"connect"},{"name":"l0","type":"string","value":"rope"},{"name":"l1","type":"string","value":"0"},{"name":"l2","type":"string","value":"2"},{"name":"z","type":"int","value":3},{"name":"zM","type":"int","value":8},{"name":"f","type":"int","value":0}],"gid":48,"width":11,"height":30},{"id":279,"x":-436,"y":2596,"visible":true,"properties":[{"name":"layer","type":"int","value":6},{"name":"resource_index","type":"int","value":18},{"name":"oS","type":"string","value":"connect"},{"name":"l0","type":"string","value":"rope"},{"name":"l1","type":"string","value":"0"},{"name":"l2","type":"string","value":"0"},{"name":"z","type":"int","value":3},{"name":"zM","type":"int","value":15},{"name":"f","type":"int","value":0}],"gid":46,"width":19,"height":49},{"id":280,"x":-433,"y":2716,"visible":true,"properties":[{"name":"layer","type":"int","value":6},{"name":"resource_index","type":"int","value":19},{"name":"oS","type":"string","value":"connect"},{"name":"l0","type":"string","value":"rope"},{"name":"l1","type":"string","value":"0"},{"name":"l2","type":"string","value":"3"},{"name":"z","type":"int","value":3},{"name":"zM","type":"int","value":7},{"name":"f","type":"int","value":0}],"gid":47,"width":5,"height":120},{"id":281,"x":-433,"y":2746,"visible":true,"properties":[{"name":"layer","type":"int","value":6},{"name":"resource_index","type":"int","value":20},{"name":"oS","type":"string","value":"connect"},{"name":"l0","type":"string","value":"rope"},{"name":"l1","type":"string","value":"0"},{"name":"l2","type":"string","value":"1"},{"name":"z","type":"int","value":3},{"name":"zM","type":"int","value":4},{"name":"f","type":"int","value":0}],"gid":49,"width":5,"height":30},{"id":282,"x":-435,"y":2776,"visible":true,"properties":[{"name":"layer","type":"int","value":6},{"name":"resource_index","type":"int","value":21},{"name":"oS","type":"string","value":"connect"},{"name":"l0","type":"string","value":"rope"},{"name":"l1","type":"string","value":"0"},{"name":"l2","type":"string","value":"2"},{"name":"z","type":"int","value":3},{"name":"zM","type":"int","value":3},{"name":"f","type":"int","value":0}],"gid":48,"width":11,"height":30},{"id":283,"x":-389,"y":2319,"visible":true,"properties":[{"name":"layer","type":"int","value":6},{"name":"resource_index","type":"int","value":22},{"name":"oS","type":"string","value":"connect"},{"name":"l0","type":"string","value":"rope"},{"name":"l1","type":"string","value":"0"},{"name":"l2","type":"string","value":"0"},{"name":"z","type":"int","value":3},{"name":"zM","type":"int","value":28},{"name":"f","type":"int","value":0}],"gid":46,"width":19,"height":49},{"id":284,"x":-386,"y":2439,"visible":true,"properties":[{"name":"layer","type":"int","value":6},{"name":"resource_index","type":"int","value":23},{"name":"oS","type":"string","value":"connect"},{"name":"l0","type":"string","value":"rope"},{"name":"l1","type":"string","value":"0"},{"name":"l2","type":"string","value":"3"},{"name":"z","type":"int","value":3},{"name":"zM","type":"int","value":22},{"name":"f","type":"int","value":0}],"gid":47,"width":5,"height":120},{"id":285,"x":-386,"y":2469,"visible":true,"properties":[{"name":"layer","type":"int","value":6},{"name":"resource_index","type":"int","value":24},{"name":"oS","type":"string","value":"connect"},{"name":"l0","type":"string","value":"rope"},{"name":"l1","type":"string","value":"0"},{"name":"l2","type":"string","value":"1"},{"name":"z","type":"int","value":3},{"name":"zM","type":"int","value":19},{"name":"f","type":"int","value":0}],"gid":49,"width":5,"height":30},{"id":286,"x":-388,"y":2499,"visible":true,"properties":[{"name":"layer","type":"int","value":6},{"name":"resource_index","type":"int","value":25},{"name":"oS","type":"string","value":"connect"},{"name":"l0","type":"string","value":"rope"},{"name":"l1","type":"string","value":"0"},{"name":"l2","type":"string","value":"2"},{"name":"z","type":"int","value":3},{"name":"zM","type":"int","value":18},{"name":"f","type":"int","value":0}],"gid":48,"width":11,"height":30},{"id":287,"x":182,"y":1724,"visible":true,"properties":[{"name":"layer","type":"int","value":6},{"name":"resource_index","type":"int","value":26},{"name":"oS","type":"string","value":"acc1"},{"name":"l0","type":"string","value":"dryRock"},{"name":"l1","type":"string","value":"nature"},{"name":"l2","type":"string","value":"8"},{"name":"z","type":"int","value":3},{"name":"zM","type":"int","value":0},{"name":"f","type":"int","value":0}],"gid":81,"width":47,"height":41},{"id":288,"x":918,"y":1797,"visible":true,"properties":[{"name":"layer","type":"int","value":6},{"name":"resource_index","type":"int","value":27},{"name":"oS","type":"string","value":"acc1"},{"name":"l0","type":"string","value":"dryRock"},{"name":"l1","type":"string","value":"nature"},{"name":"l2","type":"string","value":"8"},{"name":"z","type":"int","value":3},{"name":"zM","type":"int","value":0},{"name":"f","type":"int","value":0}],"gid":81,"width":47,"height":41},{"id":289,"x":55,"y":1955,"visible":true,"properties":[{"name":"layer","type":"int","value":6},{"name":"resource_index","type":"int","value":28},{"name":"oS","type":"string","value":"acc1"},{"name":"l0","type":"string","value":"dryRock"},{"name":"l1","type":"string","value":"nature"},{"name":"l2","type":"string","value":"8"},{"name":"z","type":"int","value":3},{"name":"zM","type":"int","value":0},{"name":"f","type":"int","value":0}],"gid":81,"width":47,"height":41},{"id":290,"x":157,"y":2275,"visible":true,"properties":[{"name":"layer","type":"int","value":6},{"name":"resource_index","type":"int","value":29},{"name":"oS","type":"string","value":"acc1"},{"name":"l0","type":"string","value":"dryRock"},{"name":"l1","type":"string","value":"nature"},{"name":"l2","type":"string","value":"8"},{"name":"z","type":"int","value":3},{"name":"zM","type":"int","value":0},{"name":"f","type":"int","value":0}],"gid":81,"width":47,"height":41},{"id":291,"x":-402,"y":2308,"visible":true,"properties":[{"name":"layer","type":"int","value":6},{"name":"resource_index","type":"int","value":30},{"name":"oS","type":"string","value":"acc1"},{"name":"l0","type":"string","value":"dryRock"},{"name":"l1","type":"string","value":"nature"},{"name":"l2","type":"string","value":"8"},{"name":"z","type":"int","value":3},{"name":"zM","type":"int","value":0},{"name":"f","type":"int","value":0}],"gid":81,"width":47,"height":41},{"id":292,"x":959,"y":2288,"visible":true,"properties":[{"name":"layer","type":"int","value":6},{"name":"resource_index","type":"int","value":31},{"name":"oS","type":"string","value":"acc1"},{"name":"l0","type":"string","value":"dryRock"},{"name":"l1","type":"string","value":"nature"},{"name":"l2","type":"string","value":"8"},{"name":"z","type":"int","value":3},{"name":"zM","type":"int","value":0},{"name":"f","type":"int","value":0}],"gid":81,"width":47,"height":41},{"id":293,"x":1251,"y":2214,"visible":true,"properties":[{"name":"layer","type":"int","value":6},{"name":"resource_index","type":"int","value":32},{"name":"oS","type":"string","value":"acc1"},{"name":"l0","type":"string","value":"dryRock"},{"name":"l1","type":"string","value":"nature"},{"name":"l2","type":"string","value":"8"},{"name":"z","type":"int","value":3},{"name":"zM","type":"int","value":0},{"name":"f","type":"int","value":0}],"gid":81,"width":47,"height":41},{"id":294,"x":-450,"y":2582,"visible":true,"properties":[{"name":"layer","type":"int","value":6},{"name":"resource_index","type":"int","value":33},{"name":"oS","type":"string","value":"acc1"},{"name":"l0","type":"string","value":"dryRock"},{"name":"l1","type":"string","value":"nature"},{"name":"l2","type":"string","value":"8"},{"name":"z","type":"int","value":3},{"name":"zM","type":"int","value":0},{"name":"f","type":"int","value":0}],"gid":81,"width":47,"height":41}]},{"id":8,"name":"background_back_0","type":"imagelayer","visible":true,"opacity":1,"image":"../../images/27028.png","imagewidth":256,"imageheight":256,"offsetx":-128,"offsety":-128,"repeatx":true,"repeaty":true,"parallaxx":1,"parallaxy":1,"properties":[{"name":"a","type":"int","value":255},{"name":"f","type":"int","value":0},{"name":"x","type":"int","value":0},{"name":"y","type":"int","value":0},{"name":"bS","type":"string","value":"dryRock"},{"name":"cx","type":"int","value":0},{"name":"cy","type":"int","value":0},{"name":"no","type":"int","value":0},{"name":"rx","type":"int","value":0},{"name":"ry","type":"int","value":0},{"name":"ani","type":"int","value":0},{"name":"type","type":"int","value":3},{"name":"front","type":"int","value":0}]},{"id":9,"name":"background_back_1","type":"imagelayer","visible":true,"opacity":1,"image":"../../images/27029.png","imagewidth":900,"imageheight":882,"offsetx":-441,"offsety":-805,"repeatx":false,"repeaty":false,"parallaxx":1,"parallaxy":1,"properties":[{"name":"a","type":"int","value":255},{"name":"f","type":"int","value":0},{"name":"x","type":"int","value":9},{"name":"y","type":"int","value":-364},{"name":"bS","type":"string","value":"dryRock"},{"name":"cx","type":"int","value":0},{"name":"cy","type":"int","value":0},{"name":"no","type":"int","value":1},{"name":"rx","type":"int","value":-3},{"name":"ry","type":"int","value":-5},{"name":"ani","type":"int","value":0},{"name":"type","type":"int","value":0},{"name":"front","type":"int","value":0}]},{"id":10,"name":"background_back_2","type":"imagelayer","visible":true,"opacity":1,"image":"../../images/27030.png","imagewidth":900,"imageheight":127,"offsetx":-441,"offsety":10,"repeatx":true,"repeaty":false,"parallaxx":1,"parallaxy":1,"properties":[{"name":"a","type":"int","value":255},{"name":"f","type":"int","value":0},{"name":"x","type":"int","value":9},{"name":"y","type":"int","value":73},{"name":"bS","type":"string","value":"dryRock"},{"name":"cx","type":"int","value":0},{"name":"cy","type":"int","value":0},{"name":"no","type":"int","value":2},{"name":"rx","type":"int","value":5},{"name":"ry","type":"int","value":-5},{"name":"ani","type":"int","value":0},{"name":"type","type":"int","value":4},{"name":"front","type":"int","value":0}]},{"id":11,"name":"background_back_3","type":"imagelayer","visible":true,"opacity":1,"image":"../../images/27042.png","imagewidth":68,"imageheight":132,"offsetx":-328,"offsety":-47,"repeatx":false,"repeaty":false,"parallaxx":1,"parallaxy":1,"properties":[{"name":"a","type":"int","value":255},{"name":"f","type":"int","value":0},{"name":"x","type":"int","value":-294},{"name":"y","type":"int","value":19},{"name":"bS","type":"string","value":"dryRock"},{"name":"cx","type":"int","value":0},{"name":"cy","type":"int","value":0},{"name":"no","type":"int","value":14},{"name":"rx","type":"int","value":-2},{"name":"ry","type":"int","value":-5},{"name":"ani","type":"int","value":0},{"name":"type","type":"int","value":0},{"name":"front","type":"int","value":0}]},{"id":12,"name":"background_back_4","type":"imagelayer","visible":true,"opacity":1,"image":"../../images/27031.png","imagewidth":900,"imageheight":145,"offsetx":-502,"offsety":31,"repeatx":true,"repeaty":false,"parallaxx":1,"parallaxy":1,"properties":[{"name":"a","type":"int","value":255},{"name":"f","type":"int","value":0},{"name":"x","type":"int","value":-52},{"name":"y","type":"int","value":103},{"name":"bS","type":"string","value":"dryRock"},{"name":"cx","type":"int","value":0},{"name":"cy","type":"int","value":0},{"name":"no","type":"int","value":3},{"name":"rx","type":"int","value":10},{"name":"ry","type":"int","value":-6},{"name":"ani","type":"int","value":0},{"name":"type","type":"int","value":4},{"name":"front","type":"int","value":0}]},{"id":13,"name":"background_back_5","type":"imagelayer","visible":true,"opacity":1,"image":"../../images/27043.png","imagewidth":105,"imageheight":102,"offsetx":327,"offsety":25,"repeatx":false,"repeaty":false,"parallaxx":1,"parallaxy":1,"properties":[{"name":"a","type":"int","value":255},{"name":"f","type":"int","value":0},{"name":"x","type":"int","value":379},{"name":"y","type":"int","value":76},{"name":"bS","type":"string","value":"dryRock"},{"name":"cx","type":"int","value":0},{"name":"cy","type":"int","value":0},{"name":"no","type":"int","value":15},{"name":"rx","type":"int","value":-4},{"name":"ry","type":"int","value":-7},{"name":"ani","type":"int","value":0},{"name":"type","type":"int","value":0},{"name":"front","type":"int","value":0}]},{"id":14,"name":"background_back_6","type":"imagelayer","visible":true,"opacity":1,"image":"../../images/27040.png","imagewidth":46,"imageheight":83,"offsetx":-8,"offsety":63,"repeatx":false,"repeaty":false,"parallaxx":1,"parallaxy":1,"properties":[{"name":"a","type":"int","value":255},{"name":"f","type":"int","value":0},{"name":"x","type":"int","value":15},{"name":"y","type":"int","value":104},{"name":"bS","type":"string","value":"dryRock"},{"name":"cx","type":"int","value":0},{"name":"cy","type":"int","value":0},{"name":"no","type":"int","value":12},{"name":"rx","type":"int","value":-10},{"name":"ry","type":"int","value":-10},{"name":"ani","type":"int","value":0},{"name":"type","type":"int","value":0},{"name":"front","type":"int","value":0}]},{"id":15,"name":"background_back_7","type":"imagelayer","visible":true,"opacity":1,"image":"../../images/27032.png","imagewidth":900,"imageheight":160,"offsetx":-449,"offsety":143,"repeatx":true,"repeaty":false,"parallaxx":1,"parallaxy":1,"properties":[{"name":"a","type":"int","value":255},{"name":"f","type":"int","value":0},{"name":"x","type":"int","value":1},{"name":"y","type":"int","value":223},{"name":"bS","type":"string","value":"dryRock"},{"name":"cx","type":"int","value":0},{"name":"cy","type":"int","value":0},{"name":"no","type":"int","value":4},{"name":"rx","type":"int","value":15},{"name":"ry","type":"int","value":-12},{"name":"ani","type":"int","value":0},{"name":"type","type":"int","value":4},{"name":"front","type":"int","value":0}]},{"id":16,"name":"background_back_8","type":"imagelayer","visible":true,"opacity":1,"image":"../../images/27044.png","imagewidth":224,"imageheight":263,"offsetx":-408,"offsety":28,"repeatx":false,"repeaty":false,"parallaxx":1,"parallaxy":1,"properties":[{"name":"a","type":"int","value":255},{"name":"f","type":"int","value":0},{"name":"x","type":"int","value":-296},{"name":"y","type":"int","value":159},{"name":"bS","type":"string","value":"dryRock"},{"name":"cx","type":"int","value":0},{"name":"cy","type":"int","value":0},{"name":"no","type":"int","value":16},{"name":"rx","type":"int","value":-20},{"name":"ry","type":"int","value":-14},{"name":"ani","type":"int","value":0},{"name":"type","type":"int","value":0},{"name":"front","type":"int","value":0}]},{"id":17,"name":"background_back_9","type":"imagelayer","visible":true,"opacity":1,"image":"../../images/27033.png","imagewidth":900,"imageheight":184,"offsetx":-363,"offsety":193,"repeatx":true,"repeaty":false,"parallaxx":1,"parallaxy":1,"properties":[{"name":"a","type":"int","value":255},{"name":"f","type":"int","value":0},{"name":"x","type":"int","value":87},{"name":"y","type":"int","value":285},{"name":"bS","type":"string","value":"dryRock"},{"name":"cx","type":"int","value":0},{"name":"cy","type":"int","value":0},{"name":"no","type":"int","value":5},{"name":"rx","type":"int","value":20},{"name":"ry","type":"int","value":-13},{"name":"ani","type":"int","value":0},{"name":"type","type":"int","value":4},{"name":"front","type":"int","value":0}]},{"id":18,"name":"background_back_10","type":"imagelayer","visible":true,"opacity":1,"image":"../../images/27045.png","imagewidth":157,"imageheight":401,"offsetx":152,"offsety":52,"repeatx":false,"repeaty":false,"parallaxx":1,"parallaxy":1,"properties":[{"name":"a","type":"int","value":255},{"name":"f","type":"int","value":0},{"name":"x","type":"int","value":278},{"name":"y","type":"int","value":269},{"name":"bS","type":"string","value":"dryRock"},{"name":"cx","type":"int","value":0},{"name":"cy","type":"int","value":0},{"name":"no","type":"int","value":17},{"name":"rx","type":"int","value":-30},{"name":"ry","type":"int","value":-15},{"name":"ani","type":"int","value":0},{"name":"type","type":"int","value":0},{"name":"front","type":"int","value":0}]},{"id":19,"name":"background_back_11","type":"imagelayer","visible":true,"opacity":1,"image":"../../images/27034.png","imagewidth":900,"imageheight":210,"offsetx":-445,"offsety":296,"repeatx":true,"repeaty":false,"parallaxx":1,"parallaxy":1,"properties":[{"name":"a","type":"int","value":255},{"name":"f","type":"int","value":0},{"name":"x","type":"int","value":5},{"name":"y","type":"int","value":401},{"name":"bS","type":"string","value":"dryRock"},{"name":"cx","type":"int","value":0},{"name":"cy","type":"int","value":0},{"name":"no","type":"int","value":6},{"name":"rx","type":"int","value":25},{"name":"ry","type":"int","value":-15},{"name":"ani","type":"int","value":0},{"name":"type","type":"int","value":4},{"name":"front","type":"int","value":0}]},{"id":20,"name":"background_back_12","type":"imagelayer","visible":true,"opacity":1,"image":"../../images/27052.png","imagewidth":292,"imageheight":510,"offsetx":-191,"offsety":175,"repeatx":false,"repeaty":false,"parallaxx":1,"parallaxy":1,"properties":[{"name":"a","type":"int","value":255},{"name":"f","type":"int","value":0},{"name":"x","type":"int","value":-45},{"name":"y","type":"int","value":430},{"name":"bS","type":"string","value":"dryRock"},{"name":"cx","type":"int","value":0},{"name":"cy","type":"int","value":0},{"name":"no","type":"int","value":24},{"name":"rx","type":"int","value":-45},{"name":"ry","type":"int","value":-18},{"name":"ani","type":"int","value":0},{"name":"type","type":"int","value":0},{"name":"front","type":"int","value":0}]},{"id":21,"name":"background_back_13","type":"imagelayer","visible":true,"opacity":1,"image":"../../images/27053.png","imagewidth":496,"imageheight":540,"offsetx":239,"offsety":141,"repeatx":false,"repeaty":false,"parallaxx":1,"parallaxy":1,"properties":[{"name":"a","type":"int","value":255},{"name":"f","type":"int","value":0},{"name":"x","type":"int","value":487},{"name":"y","type":"int","value":411},{"name":"bS","type":"string","value":"dryRock"},{"name":"cx","type":"int","value":0},{"name":"cy","type":"int","value":0},{"name":"no","type":"int","value":25},{"name":"rx","type":"int","value":-48},{"name":"ry","type":"int","value":-22},{"name":"ani","type":"int","value":0},{"name":"type","type":"int","value":0},{"name":"front","type":"int","value":0}]},{"id":22,"name":"background_back_14","type":"imagelayer","visible":true,"opacity":1,"image":"../../images/27035.png","imagewidth":900,"imageheight":235,"offsetx":-391,"offsety":423,"repeatx":true,"repeaty":false,"parallaxx":1,"parallaxy":1,"properties":[{"name":"a","type":"int","value":255},{"name":"f","type":"int","value":0},{"name":"x","type":"int","value":59},{"name":"y","type":"int","value":540},{"name":"bS","type":"string","value":"dryRock"},{"name":"cx","type":"int","value":0},{"name":"cy","type":"int","value":0},{"name":"no","type":"int","value":7},{"name":"rx","type":"int","value":30},{"name":"ry","type":"int","value":-16},{"name":"ani","type":"int","value":0},{"name":"type","type":"int","value":4},{"name":"front","type":"int","value":0}]},{"id":23,"name":"background_back_15","type":"imagelayer","visible":true,"opacity":1,"image":"../../images/27053.png","imagewidth":496,"imageheight":540,"offsetx":4,"offsety":390,"repeatx":false,"repeaty":false,"parallaxx":1,"parallaxy":1,"properties":[{"name":"a","type":"int","value":255},{"name":"f","type":"int","value":0},{"name":"x","type":"int","value":252},{"name":"y","type":"int","value":660},{"name":"bS","type":"string","value":"dryRock"},{"name":"cx","type":"int","value":0},{"name":"cy","type":"int","value":0},{"name":"no","type":"int","value":25},{"name":"rx","type":"int","value":-50},{"name":"ry","type":"int","value":-26},{"name":"ani","type":"int","value":0},{"name":"type","type":"int","value":0},{"name":"front","type":"int","value":0}]},{"id":24,"name":"background_back_16","type":"imagelayer","visible":true,"opacity":1,"image":"../../images/27036.png","imagewidth":900,"imageheight":224,"offsetx":-560,"offsety":529,"repeatx":true,"repeaty":false,"parallaxx":1,"parallaxy":1,"properties":[{"name":"a","type":"int","value":255},{"name":"f","type":"int","value":0},{"name":"x","type":"int","value":-110},{"name":"y","type":"int","value":641},{"name":"bS","type":"string","value":"dryRock"},{"name":"cx","type":"int","value":0},{"name":"cy","type":"int","value":0},{"name":"no","type":"int","value":8},{"name":"rx","type":"int","value":35},{"name":"ry","type":"int","value":-16},{"name":"ani","type":"int","value":0},{"name":"type","type":"int","value":4},{"name":"front","type":"int","value":0}]},{"id":25,"name":"background_back_17","type":"imagelayer","visible":true,"opacity":1,"image":"../../images/27054.png","imagewidth":697,"imageheight":561,"offsetx":-601,"offsety":533,"repeatx":false,"repeaty":false,"parallaxx":1,"parallaxy":1,"properties":[{"name":"a","type":"int","value":255},{"name":"f","type":"int","value":0},{"name":"x","type":"int","value":-253},{"name":"y","type":"int","value":813},{"name":"bS","type":"string","value":"dryRock"},{"name":"cx","type":"int","value":0},{"name":"cy","type":"int","value":0},{"name":"no","type":"int","value":26},{"name":"rx","type":"int","value":-55},{"name":"ry","type":"int","value":-30},{"name":"ani","type":"int","value":0},{"name":"type","type":"int","value":0},{"name":"front","type":"int","value":0}]},{"id":26,"name":"background_back","type":"objectgroup","visible":true,"opacity":1,"objects":[{"id":295,"x":9,"y":73,"visible":true,"properties":[{"name":"image_layer_name","type":"string","value":"background_back_2"},{"name":"a","type":"int","value":255},{"name":"f","type":"int","value":0},{"name":"x","type":"int","value":9},{"name":"y","type":"int","value":73},{"name":"bS","type":"string","value":"dryRock"},{"name":"cx","type":"int","value":0},{"name":"cy","type":"int","value":0},{"name":"no","type":"int","value":2},{"name":"rx","type":"int","value":5},{"name":"ry","type":"int","value":-5},{"name":"ani","type":"int","value":0},{"name":"type","type":"int","value":4},{"name":"front","type":"int","value":0}],"point":true},{"id":296,"x":-52,"y":103,"visible":true,"properties":[{"name":"image_layer_name","type":"string","value":"background_back_4"},{"name":"a","type":"int","value":255},{"name":"f","type":"int","value":0},{"name":"x","type":"int","value":-52},{"name":"y","type":"int","value":103},{"name":"bS","type":"string","value":"dryRock"},{"name":"cx","type":"int","value":0},{"name":"cy","type":"int","value":0},{"name":"no","type":"int","value":3},{"name":"rx","type":"int","value":10},{"name":"ry","type":"int","value":-6},{"name":"ani","type":"int","value":0},{"name":"type","type":"int","value":4},{"name":"front","type":"int","value":0}],"point":true},{"id":297,"x":1,"y":223,"visible":true,"properties":[{"name":"image_layer_name","type":"string","value":"background_back_7"},{"name":"a","type":"int","value":255},{"name":"f","type":"int","value":0},{"name":"x","type":"int","value":1},{"name":"y","type":"int","value":223},{"name":"bS","type":"string","value":"dryRock"},{"name":"cx","type":"int","value":0},{"name":"cy","type":"int","value":0},{"name":"no","type":"int","value":4},{"name":"rx","type":"int","value":15},{"name":"ry","type":"int","value":-12},{"name":"ani","type":"int","value":0},{"name":"type","type":"int","value":4},{"name":"front","type":"int","value":0}],"point":true},{"id":298,"x":87,"y":285,"visible":true,"properties":[{"name":"image_layer_name","type":"string","value":"background_back_9"},{"name":"a","type":"int","value":255},{"name":"f","type":"int","value":0},{"name":"x","type":"int","value":87},{"name":"y","type":"int","value":285},{"name":"bS","type":"string","value":"dryRock"},{"name":"cx","type":"int","value":0},{"name":"cy","type":"int","value":0},{"name":"no","type":"int","value":5},{"name":"rx","type":"int","value":20},{"name":"ry","type":"int","value":-13},{"name":"ani","type":"int","value":0},{"name":"type","type":"int","value":4},{"name":"front","type":"int","value":0}],"point":true},{"id":299,"x":5,"y":401,"visible":true,"properties":[{"name":"image_layer_name","type":"string","value":"background_back_11"},{"name":"a","type":"int","value":255},{"name":"f","type":"int","value":0},{"name":"x","type":"int","value":5},{"name":"y","type":"int","value":401},{"name":"bS","type":"string","value":"dryRock"},{"name":"cx","type":"int","value":0},{"name":"cy","type":"int","value":0},{"name":"no","type":"int","value":6},{"name":"rx","type":"int","value":25},{"name":"ry","type":"int","value":-15},{"name":"ani","type":"int","value":0},{"name":"type","type":"int","value":4},{"name":"front","type":"int","value":0}],"point":true},{"id":300,"x":59,"y":540,"visible":true,"properties":[{"name":"image_layer_name","type":"string","value":"background_back_14"},{"name":"a","type":"int","value":255},{"name":"f","type":"int","value":0},{"name":"x","type":"int","value":59},{"name":"y","type":"int","value":540},{"name":"bS","type":"string","value":"dryRock"},{"name":"cx","type":"int","value":0},{"name":"cy","type":"int","value":0},{"name":"no","type":"int","value":7},{"name":"rx","type":"int","value":30},{"name":"ry","type":"int","value":-16},{"name":"ani","type":"int","value":0},{"name":"type","type":"int","value":4},{"name":"front","type":"int","value":0}],"point":true},{"id":301,"x":-110,"y":641,"visible":true,"properties":[{"name":"image_layer_name","type":"string","value":"background_back_16"},{"name":"a","type":"int","value":255},{"name":"f","type":"int","value":0},{"name":"x","type":"int","value":-110},{"name":"y","type":"int","value":641},{"name":"bS","type":"string","value":"dryRock"},{"name":"cx","type":"int","value":0},{"name":"cy","type":"int","value":0},{"name":"no","type":"int","value":8},{"name":"rx","type":"int","value":35},{"name":"ry","type":"int","value":-16},{"name":"ani","type":"int","value":0},{"name":"type","type":"int","value":4},{"name":"front","type":"int","value":0}],"point":true}]},{"id":27,"name":"portal","type":"objectgroup","visible":true,"opacity":1,"objects":[{"id":302,"x":469,"y":2567,"visible":true,"properties":[{"name":"x","type":"int","value":469},{"name":"y","type":"int","value":2567},{"name":"pn","type":"string","value":"sp"},{"name":"pt","type":"int","value":0},{"name":"tm","type":"int","value":999999999},{"name":"tn","type":"string","value":""}],"point":true},{"id":303,"x":550,"y":2561,"visible":true,"properties":[{"name":"x","type":"int","value":550},{"name":"y","type":"int","value":2561},{"name":"pn","type":"string","value":"sp"},{"name":"pt","type":"int","value":0},{"name":"tm","type":"int","value":999999999},{"name":"tn","type":"string","value":""}],"point":true},{"id":304,"x":602,"y":2562,"visible":true,"properties":[{"name":"x","type":"int","value":602},{"name":"y","type":"int","value":2562},{"name":"pn","type":"string","value":"sp"},{"name":"pt","type":"int","value":0},{"name":"tm","type":"int","value":999999999},{"name":"tn","type":"string","value":""}],"point":true},{"id":305,"x":662,"y":2568,"visible":true,"properties":[{"name":"x","type":"int","value":662},{"name":"y","type":"int","value":2568},{"name":"pn","type":"string","value":"sp"},{"name":"pt","type":"int","value":0},{"name":"tm","type":"int","value":999999999},{"name":"tn","type":"string","value":""}],"point":true},{"id":306,"x":1196,"y":2743,"visible":true,"properties":[{"name":"x","type":"int","value":1196},{"name":"y","type":"int","value":2743},{"name":"pn","type":"string","value":"out00"},{"name":"pt","type":"int","value":2},{"name":"tm","type":"int","value":106000001},{"name":"tn","type":"string","value":"in00"}],"point":true}]},{"id":28,"name":"life","type":"objectgroup","visible":true,"opacity":1,"objects":[{"id":307,"x":81,"y":2221,"visible":true,"properties":[{"name":"f","type":"int","value":0},{"name":"x","type":"int","value":81},{"name":"y","type":"int","value":2221},{"name":"cy","type":"int","value":2259},{"name":"fh","type":"int","value":89},{"name":"id","type":"int","value":3210100},{"name":"rx0","type":"int","value":-633},{"name":"rx1","type":"int","value":1533},{"name":"type","type":"string","value":"m"},{"name":"mobTime","type":"int","value":0}],"point":true},{"id":308,"x":1157,"y":2170,"visible":true,"properties":[{"name":"f","type":"int","value":0},{"name":"x","type":"int","value":1157},{"name":"y","type":"int","value":2170},{"name":"cy","type":"int","value":2207},{"name":"fh","type":"int","value":79},{"name":"id","type":"int","value":3210100},{"name":"rx0","type":"int","value":-633},{"name":"rx1","type":"int","value":1533},{"name":"type","type":"string","value":"m"},{"name":"mobTime","type":"int","value":0}],"point":true},{"id":309,"x":1021,"y":2224,"visible":true,"properties":[{"name":"f","type":"int","value":0},{"name":"x","type":"int","value":1021},{"name":"y","type":"int","value":2224},{"name":"cy","type":"int","value":2269},{"name":"fh","type":"int","value":138},{"name":"id","type":"int","value":3210100},{"name":"rx0","type":"int","value":812},{"name":"rx1","type":"int","value":1021},{"name":"type","type":"string","value":"m"},{"name":"mobTime","type":"int","value":0}],"point":true},{"id":310,"x":1041,"y":1678,"visible":true,"properties":[{"name":"f","type":"int","value":0},{"name":"x","type":"int","value":1041},{"name":"y","type":"int","value":1678},{"name":"cy","type":"int","value":1703},{"name":"fh","type":"int","value":29},{"name":"id","type":"int","value":3210100},{"name":"rx0","type":"int","value":892},{"name":"rx1","type":"int","value":1152},{"name":"type","type":"string","value":"m"},{"name":"mobTime","type":"int","value":0}],"point":true},{"id":311,"x":845,"y":1761,"visible":true,"properties":[{"name":"f","type":"int","value":0},{"name":"x","type":"int","value":845},{"name":"y","type":"int","value":1761},{"name":"cy","type":"int","value":1767},{"name":"fh","type":"int","value":11},{"name":"id","type":"int","value":3210100},{"name":"rx0","type":"int","value":-236},{"name":"rx1","type":"int","value":852},{"name":"type","type":"string","value":"m"},{"name":"mobTime","type":"int","value":0}],"point":true},{"id":312,"x":75,"y":1658,"visible":true,"properties":[{"name":"f","type":"int","value":0},{"name":"x","type":"int","value":75},{"name":"y","type":"int","value":1658},{"name":"cy","type":"int","value":1703},{"name":"fh","type":"int","value":40},{"name":"id","type":"int","value":3210100},{"name":"rx0","type":"int","value":-471},{"name":"rx1","type":"int","value":102},{"name":"type","type":"string","value":"m"},{"name":"mobTime","type":"int","value":0}],"point":true},{"id":313,"x":492,"y":2828,"visible":true,"properties":[{"name":"f","type":"int","value":0},{"name":"x","type":"int","value":492},{"name":"y","type":"int","value":2828},{"name":"cy","type":"int","value":2865},{"name":"fh","type":"int","value":56},{"name":"id","type":"int","value":3210100},{"name":"rx0","type":"int","value":-633},{"name":"rx1","type":"int","value":1533},{"name":"type","type":"string","value":"m"},{"name":"mobTime","type":"int","value":0}],"point":true},{"id":314,"x":-455,"y":2808,"visible":true,"properties":[{"name":"f","type":"int","value":0},{"name":"x","type":"int","value":-455},{"name":"y","type":"int","value":2808},{"name":"cy","type":"int","value":2865},{"name":"fh","type":"int","value":47},{"name":"id","type":"int","value":3210100},{"name":"rx0","type":"int","value":-633},{"name":"rx1","type":"int","value":1533},{"name":"type","type":"string","value":"m"},{"name":"mobTime","type":"int","value":0}],"point":true},{"id":315,"x":-333,"y":2831,"visible":true,"properties":[{"name":"f","type":"int","value":0},{"name":"x","type":"int","value":-333},{"name":"y","type":"int","value":2831},{"name":"cy","type":"int","value":2865},{"name":"fh","type":"int","value":46},{"name":"id","type":"int","value":3210100},{"name":"rx0","type":"int","value":-633},{"name":"rx1","type":"int","value":1533},{"name":"hide","type":"int","value":0},{"name":"type","type":"string","value":"m"},{"name":"mobTime","type":"int","value":0}],"point":true},{"id":316,"x":-161,"y":2815,"visible":true,"properties":[{"name":"f","type":"int","value":0},{"name":"x","type":"int","value":-161},{"name":"y","type":"int","value":2815},{"name":"cy","type":"int","value":2865},{"name":"fh","type":"int","value":41},{"name":"id","type":"int","value":3210100},{"name":"rx0","type":"int","value":-633},{"name":"rx1","type":"int","value":1533},{"name":"hide","type":"int","value":0},{"name":"type","type":"string","value":"m"},{"name":"mobTime","type":"int","value":0}],"point":true},{"id":317,"x":8,"y":2811,"visible":true,"properties":[{"name":"f","type":"int","value":0},{"name":"x","type":"int","value":8},{"name":"y","type":"int","value":2811},{"name":"cy","type":"int","value":2865},{"name":"fh","type":"int","value":48},{"name":"id","type":"int","value":3210100},{"name":"rx0","type":"int","value":-633},{"name":"rx1","type":"int","value":1533},{"name":"hide","type":"int","value":0},{"name":"type","type":"string","value":"m"},{"name":"mobTime","type":"int","value":0}],"point":true},{"id":318,"x":130,"y":2821,"visible":true,"properties":[{"name":"f","type":"int","value":0},{"name":"x","type":"int","value":130},{"name":"y","type":"int","value":2821},{"name":"cy","type":"int","value":2865},{"name":"fh","type":"int","value":55},{"name":"id","type":"int","value":3210100},{"name":"rx0","type":"int","value":-633},{"name":"rx1","type":"int","value":1533},{"name":"hide","type":"int","value":0},{"name":"type","type":"string","value":"m"},{"name":"mobTime","type":"int","value":0}],"point":true},{"id":319,"x":301,"y":2830,"visible":true,"properties":[{"name":"f","type":"int","value":0},{"name":"x","type":"int","value":301},{"name":"y","type":"int","value":2830},{"name":"cy","type":"int","value":2865},{"name":"fh","type":"int","value":43},{"name":"id","type":"int","value":3210100},{"name":"rx0","type":"int","value":-633},{"name":"rx1","type":"int","value":1533},{"name":"hide","type":"int","value":0},{"name":"type","type":"string","value":"m"},{"name":"mobTime","type":"int","value":0}],"point":true},{"id":320,"x":613,"y":2836,"visible":true,"properties":[{"name":"f","type":"int","value":0},{"name":"x","type":"int","value":613},{"name":"y","type":"int","value":2836},{"name":"cy","type":"int","value":2865},{"name":"fh","type":"int","value":60},{"name":"id","type":"int","value":3210100},{"name":"rx0","type":"int","value":-633},{"name":"rx1","type":"int","value":1533},{"name":"hide","type":"int","value":0},{"name":"type","type":"string","value":"m"},{"name":"mobTime","type":"int","value":0}],"point":true},{"id":321,"x":769,"y":2820,"visible":true,"properties":[{"name":"f","type":"int","value":0},{"name":"x","type":"int","value":769},{"name":"y","type":"int","value":2820},{"name":"cy","type":"int","value":2865},{"name":"fh","type":"int","value":59},{"name":"id","type":"int","value":3210100},{"name":"rx0","type":"int","value":-633},{"name":"rx1","type":"int","value":1533},{"name":"hide","type":"int","value":0},{"name":"type","type":"string","value":"m"},{"name":"mobTime","type":"int","value":0}],"point":true},{"id":322,"x":888,"y":2791,"visible":true,"properties":[{"name":"f","type":"int","value":0},{"name":"x","type":"int","value":888},{"name":"y","type":"int","value":2791},{"name":"cy","type":"int","value":2865},{"name":"fh","type":"int","value":61},{"name":"id","type":"int","value":3210100},{"name":"rx0","type":"int","value":-633},{"name":"rx1","type":"int","value":1533},{"name":"hide","type":"int","value":0},{"name":"type","type":"string","value":"m"},{"name":"mobTime","type":"int","value":0}],"point":true},{"id":323,"x":1038,"y":2719,"visible":true,"properties":[{"name":"f","type":"int","value":0},{"name":"x","type":"int","value":1038},{"name":"y","type":"int","value":2719},{"name":"cy","type":"int","value":2773},{"name":"fh","type":"int","value":63},{"name":"id","type":"int","value":3210100},{"name":"rx0","type":"int","value":-633},{"name":"rx1","type":"int","value":1533},{"name":"hide","type":"int","value":0},{"name":"type","type":"string","value":"m"},{"name":"mobTime","type":"int","value":0}],"point":true},{"id":324,"x":1440,"y":2688,"visible":true,"properties":[{"name":"f","type":"int","value":0},{"name":"x","type":"int","value":1440},{"name":"y","type":"int","value":2688},{"name":"cy","type":"int","value":2745},{"name":"fh","type":"int","value":70},{"name":"id","type":"int","value":3210100},{"name":"rx0","type":"int","value":-633},{"name":"rx1","type":"int","value":1533},{"name":"hide","type":"int","value":0},{"name":"type","type":"string","value":"m"},{"name":"mobTime","type":"int","value":0}],"point":true},{"id":325,"x":-282,"y":2246,"visible":true,"properties":[{"name":"f","type":"int","value":0},{"name":"x","type":"int","value":-282},{"name":"y","type":"int","value":2246},{"name":"cy","type":"int","value":2277},{"name":"fh","type":"int","value":87},{"name":"id","type":"int","value":3210100},{"name":"rx0","type":"int","value":-633},{"name":"rx1","type":"int","value":1533},{"name":"hide","type":"int","value":0},{"name":"type","type":"string","value":"m"},{"name":"mobTime","type":"int","value":0}],"point":true},{"id":326,"x":-111,"y":2234,"visible":true,"properties":[{"name":"f","type":"int","value":0},{"name":"x","type":"int","value":-111},{"name":"y","type":"int","value":2234},{"name":"cy","type":"int","value":2273},{"name":"fh","type":"int","value":90},{"name":"id","type":"int","value":3210100},{"name":"rx0","type":"int","value":-633},{"name":"rx1","type":"int","value":1533},{"name":"hide","type":"int","value":0},{"name":"type","type":"string","value":"m"},{"name":"mobTime","type":"int","value":0}],"point":true},{"id":327,"x":241,"y":2231,"visible":true,"properties":[{"name":"f","type":"int","value":0},{"name":"x","type":"int","value":241},{"name":"y","type":"int","value":2231},{"name":"cy","type":"int","value":2255},{"name":"fh","type":"int","value":96},{"name":"id","type":"int","value":3210100},{"name":"rx0","type":"int","value":-633},{"name":"rx1","type":"int","value":1533},{"name":"hide","type":"int","value":0},{"name":"type","type":"string","value":"m"},{"name":"mobTime","type":"int","value":0}],"point":true},{"id":328,"x":362,"y":2208,"visible":true,"properties":[{"name":"f","type":"int","value":0},{"name":"x","type":"int","value":362},{"name":"y","type":"int","value":2208},{"name":"cy","type":"int","value":2267},{"name":"fh","type":"int","value":98},{"name":"id","type":"int","value":3210100},{"name":"rx0","type":"int","value":-633},{"name":"rx1","type":"int","value":1533},{"name":"hide","type":"int","value":0},{"name":"type","type":"string","value":"m"},{"name":"mobTime","type":"int","value":0}],"point":true},{"id":329,"x":590,"y":2179,"visible":true,"properties":[{"name":"f","type":"int","value":0},{"name":"x","type":"int","value":590},{"name":"y","type":"int","value":2179},{"name":"cy","type":"int","value":2267},{"name":"fh","type":"int","value":98},{"name":"id","type":"int","value":3210100},{"name":"rx0","type":"int","value":-633},{"name":"rx1","type":"int","value":1533},{"name":"hide","type":"int","value":0},{"name":"type","type":"string","value":"m"},{"name":"mobTime","type":"int","value":0}],"point":true},{"id":330,"x":611,"y":1697,"visible":true,"properties":[{"name":"f","type":"int","value":0},{"name":"x","type":"int","value":611},{"name":"y","type":"int","value":1697},{"name":"cy","type":"int","value":1711},{"name":"fh","type":"int","value":21},{"name":"id","type":"int","value":3210100},{"name":"rx0","type":"int","value":-236},{"name":"rx1","type":"int","value":852},{"name":"hide","type":"int","value":0},{"name":"type","type":"string","value":"m"},{"name":"mobTime","type":"int","value":0}],"point":true},{"id":331,"x":401,"y":1657,"visible":true,"properties":[{"name":"f","type":"int","value":0},{"name":"x","type":"int","value":401},{"name":"y","type":"int","value":1657},{"name":"cy","type":"int","value":1711},{"name":"fh","type":"int","value":21},{"name":"id","type":"int","value":3210100},{"name":"rx0","type":"int","value":-236},{"name":"rx1","type":"int","value":852},{"name":"hide","type":"int","value":0},{"name":"type","type":"string","value":"m"},{"name":"mobTime","type":"int","value":0}],"point":true},{"id":332,"x":299,"y":1639,"visible":true,"properties":[{"name":"f","type":"int","value":0},{"name":"x","type":"int","value":299},{"name":"y","type":"int","value":1639},{"name":"cy","type":"int","value":1702},{"name":"fh","type":"int","value":19},{"name":"id","type":"int","value":3210100},{"name":"rx0","type":"int","value":-236},{"name":"rx1","type":"int","value":852},{"name":"hide","type":"int","value":0},{"name":"type","type":"string","value":"m"},{"name":"mobTime","type":"int","value":0}],"point":true},{"id":333,"x":-116,"y":1677,"visible":true,"properties":[{"name":"f","type":"int","value":0},{"name":"x","type":"int","value":-116},{"name":"y","type":"int","value":1677},{"name":"cy","type":"int","value":1716},{"name":"fh","type":"int","value":36},{"name":"id","type":"int","value":3210100},{"name":"rx0","type":"int","value":-471},{"name":"rx1","type":"int","value":102},{"name":"hide","type":"int","value":0},{"name":"type","type":"string","value":"m"},{"name":"mobTime","type":"int","value":0}],"point":true},{"id":334,"x":-392,"y":1673,"visible":true,"properties":[{"name":"f","type":"int","value":0},{"name":"x","type":"int","value":-392},{"name":"y","type":"int","value":1673},{"name":"cy","type":"int","value":1733},{"name":"fh","type":"int","value":33},{"name":"id","type":"int","value":3210100},{"name":"rx0","type":"int","value":-471},{"name":"rx1","type":"int","value":102},{"name":"hide","type":"int","value":0},{"name":"type","type":"string","value":"m"},{"name":"mobTime","type":"int","value":0}],"point":true},{"id":335,"x":-281,"y":1676,"visible":true,"properties":[{"name":"f","type":"int","value":0},{"name":"x","type":"int","value":-281},{"name":"y","type":"int","value":1676},{"name":"cy","type":"int","value":1720},{"name":"fh","type":"int","value":35},{"name":"id","type":"int","value":3210100},{"name":"rx0","type":"int","value":-471},{"name":"rx1","type":"int","value":102},{"name":"hide","type":"int","value":0},{"name":"type","type":"string","value":"m"},{"name":"mobTime","type":"int","value":0}],"point":true}]},{"id":29,"name":"foothold","type":"objectgroup","visible":true,"opacity":1,"objects":[{"id":336,"x":-491,"y":1769,"visible":true,"properties":[{"name":"layer","type":"int","value":4},{"name":"group","type":"int","value":25},{"name":"id","type":"int","value":32},{"name":"fh_layer","type":"int","value":4},{"name":"fh_group","type":"int","value":25},{"name":"fh_id","type":"int","value":32},{"name":"x1","type":"int","value":-491},{"name":"x2","type":"int","value":-456},{"name":"y1","type":"int","value":1769},{"name":"y2","type":"int","value":1736},{"name":"next","type":"int","value":33},{"name":"prev","type":"int","value":0}],"polyline":[{"x":0,"y":0},{"x":35,"y":-33}]},{"id":337,"x":-456,"y":1736,"visible":true,"properties":[{"name":"layer","type":"int","value":4},{"name":"group","type":"int","value":25},{"name":"id","type":"int","value":33},{"name":"fh_layer","type":"int","value":4},{"name":"fh_group","type":"int","value":25},{"name":"fh_id","type":"int","value":33},{"name":"x1","type":"int","value":-456},{"name":"x2","type":"int","value":-345},{"name":"y1","type":"int","value":1736},{"name":"y2","type":"int","value":1730},{"name":"next","type":"int","value":34},{"name":"prev","type":"int","value":32}],"polyline":[{"x":0,"y":0},{"x":111,"y":-6}]},{"id":338,"x":-345,"y":1730,"visible":true,"properties":[{"name":"layer","type":"int","value":4},{"name":"group","type":"int","value":25},{"name":"id","type":"int","value":34},{"name":"fh_layer","type":"int","value":4},{"name":"fh_group","type":"int","value":25},{"name":"fh_id","type":"int","value":34},{"name":"x1","type":"int","value":-345},{"name":"x2","type":"int","value":-318},{"name":"y1","type":"int","value":1730},{"name":"y2","type":"int","value":1721},{"name":"next","type":"int","value":35},{"name":"prev","type":"int","value":33}],"polyline":[{"x":0,"y":0},{"x":27,"y":-9}]},{"id":339,"x":-318,"y":1721,"visible":true,"properties":[{"name":"layer","type":"int","value":4},{"name":"group","type":"int","value":25},{"name":"id","type":"int","value":35},{"name":"fh_layer","type":"int","value":4},{"name":"fh_group","type":"int","value":25},{"name":"fh_id","type":"int","value":35},{"name":"x1","type":"int","value":-318},{"name":"x2","type":"int","value":-255},{"name":"y1","type":"int","value":1721},{"name":"y2","type":"int","value":1719},{"name":"next","type":"int","value":36},{"name":"prev","type":"int","value":34}],"polyline":[{"x":0,"y":0},{"x":63,"y":-2}]},{"id":340,"x":-255,"y":1719,"visible":true,"properties":[{"name":"layer","type":"int","value":4},{"name":"group","type":"int","value":25},{"name":"id","type":"int","value":36},{"name":"fh_layer","type":"int","value":4},{"name":"fh_group","type":"int","value":25},{"name":"fh_id","type":"int","value":36},{"name":"x1","type":"int","value":-255},{"name":"x2","type":"int","value":-73},{"name":"y1","type":"int","value":1719},{"name":"y2","type":"int","value":1715},{"name":"next","type":"int","value":37},{"name":"prev","type":"int","value":35}],"polyline":[{"x":0,"y":0},{"x":182,"y":-4}]},{"id":341,"x":-73,"y":1715,"visible":true,"properties":[{"name":"layer","type":"int","value":4},{"name":"group","type":"int","value":25},{"name":"id","type":"int","value":37},{"name":"fh_layer","type":"int","value":4},{"name":"fh_group","type":"int","value":25},{"name":"fh_id","type":"int","value":37},{"name":"x1","type":"int","value":-73},{"name":"x2","type":"int","value":-51},{"name":"y1","type":"int","value":1715},{"name":"y2","type":"int","value":1708},{"name":"next","type":"int","value":38},{"name":"prev","type":"int","value":36}],"polyline":[{"x":0,"y":0},{"x":22,"y":-7}]},{"id":342,"x":-51,"y":1708,"visible":true,"properties":[{"name":"layer","type":"int","value":4},{"name":"group","type":"int","value":25},{"name":"id","type":"int","value":38},{"name":"fh_layer","type":"int","value":4},{"name":"fh_group","type":"int","value":25},{"name":"fh_id","type":"int","value":38},{"name":"x1","type":"int","value":-51},{"name":"x2","type":"int","value":37},{"name":"y1","type":"int","value":1708},{"name":"y2","type":"int","value":1706},{"name":"next","type":"int","value":39},{"name":"prev","type":"int","value":37}],"polyline":[{"x":0,"y":0},{"x":88,"y":-2}]},{"id":343,"x":37,"y":1706,"visible":true,"properties":[{"name":"layer","type":"int","value":4},{"name":"group","type":"int","value":25},{"name":"id","type":"int","value":39},{"name":"fh_layer","type":"int","value":4},{"name":"fh_group","type":"int","value":25},{"name":"fh_id","type":"int","value":39},{"name":"x1","type":"int","value":37},{"name":"x2","type":"int","value":54},{"name":"y1","type":"int","value":1706},{"name":"y2","type":"int","value":1703},{"name":"next","type":"int","value":40},{"name":"prev","type":"int","value":38}],"polyline":[{"x":0,"y":0},{"x":17,"y":-3}]},{"id":344,"x":54,"y":1703,"visible":true,"properties":[{"name":"layer","type":"int","value":4},{"name":"group","type":"int","value":25},{"name":"id","type":"int","value":40},{"name":"fh_layer","type":"int","value":4},{"name":"fh_group","type":"int","value":25},{"name":"fh_id","type":"int","value":40},{"name":"x1","type":"int","value":54},{"name":"x2","type":"int","value":122},{"name":"y1","type":"int","value":1703},{"name":"y2","type":"int","value":1703},{"name":"next","type":"int","value":17},{"name":"prev","type":"int","value":16}],"polyline":[{"x":0,"y":0},{"x":68,"y":0}]},{"id":345,"x":872,"y":1768,"visible":true,"properties":[{"name":"layer","type":"int","value":4},{"name":"group","type":"int","value":31},{"name":"id","type":"int","value":24},{"name":"fh_layer","type":"int","value":4},{"name":"fh_group","type":"int","value":31},{"name":"fh_id","type":"int","value":24},{"name":"x1","type":"int","value":872},{"name":"x2","type":"int","value":913},{"name":"y1","type":"int","value":1768},{"name":"y2","type":"int","value":1768},{"name":"next","type":"int","value":25},{"name":"prev","type":"int","value":11}],"polyline":[{"x":0,"y":0},{"x":41,"y":0}]},{"id":346,"x":913,"y":1768,"visible":true,"properties":[{"name":"layer","type":"int","value":4},{"name":"group","type":"int","value":31},{"name":"id","type":"int","value":25},{"name":"fh_layer","type":"int","value":4},{"name":"fh_group","type":"int","value":31},{"name":"fh_id","type":"int","value":25},{"name":"x1","type":"int","value":913},{"name":"x2","type":"int","value":957},{"name":"y1","type":"int","value":1768},{"name":"y2","type":"int","value":1772},{"name":"next","type":"int","value":26},{"name":"prev","type":"int","value":24}],"polyline":[{"x":0,"y":0},{"x":44,"y":4}]},{"id":347,"x":957,"y":1772,"visible":true,"properties":[{"name":"layer","type":"int","value":4},{"name":"group","type":"int","value":31},{"name":"id","type":"int","value":26},{"name":"fh_layer","type":"int","value":4},{"name":"fh_group","type":"int","value":31},{"name":"fh_id","type":"int","value":26},{"name":"x1","type":"int","value":957},{"name":"x2","type":"int","value":970},{"name":"y1","type":"int","value":1772},{"name":"y2","type":"int","value":1778},{"name":"next","type":"int","value":0},{"name":"prev","type":"int","value":25}],"polyline":[{"x":0,"y":0},{"x":13,"y":6}]},{"id":348,"x":897,"y":1740,"visible":true,"properties":[{"name":"layer","type":"int","value":4},{"name":"group","type":"int","value":31},{"name":"id","type":"int","value":27},{"name":"fh_layer","type":"int","value":4},{"name":"fh_group","type":"int","value":31},{"name":"fh_id","type":"int","value":27},{"name":"x1","type":"int","value":897},{"name":"x2","type":"int","value":932},{"name":"y1","type":"int","value":1740},{"name":"y2","type":"int","value":1706},{"name":"next","type":"int","value":28},{"name":"prev","type":"int","value":0}],"polyline":[{"x":0,"y":0},{"x":35,"y":-34}]},{"id":349,"x":932,"y":1706,"visible":true,"properties":[{"name":"layer","type":"int","value":4},{"name":"group","type":"int","value":31},{"name":"id","type":"int","value":28},{"name":"fh_layer","type":"int","value":4},{"name":"fh_group","type":"int","value":31},{"name":"fh_id","type":"int","value":28},{"name":"x1","type":"int","value":932},{"name":"x2","type":"int","value":1029},{"name":"y1","type":"int","value":1706},{"name":"y2","type":"int","value":1704},{"name":"next","type":"int","value":29},{"name":"prev","type":"int","value":27}],"polyline":[{"x":0,"y":0},{"x":97,"y":-2}]},{"id":350,"x":1029,"y":1704,"visible":true,"properties":[{"name":"layer","type":"int","value":4},{"name":"group","type":"int","value":31},{"name":"id","type":"int","value":29},{"name":"fh_layer","type":"int","value":4},{"name":"fh_group","type":"int","value":31},{"name":"fh_id","type":"int","value":29},{"name":"x1","type":"int","value":1029},{"name":"x2","type":"int","value":1095},{"name":"y1","type":"int","value":1704},{"name":"y2","type":"int","value":1695},{"name":"next","type":"int","value":30},{"name":"prev","type":"int","value":28}],"polyline":[{"x":0,"y":0},{"x":66,"y":-9}]},{"id":351,"x":1095,"y":1695,"visible":true,"properties":[{"name":"layer","type":"int","value":4},{"name":"group","type":"int","value":31},{"name":"id","type":"int","value":30},{"name":"fh_layer","type":"int","value":4},{"name":"fh_group","type":"int","value":31},{"name":"fh_id","type":"int","value":30},{"name":"x1","type":"int","value":1095},{"name":"x2","type":"int","value":1159},{"name":"y1","type":"int","value":1695},{"name":"y2","type":"int","value":1695},{"name":"next","type":"int","value":31},{"name":"prev","type":"int","value":29}],"polyline":[{"x":0,"y":0},{"x":64,"y":0}]},{"id":352,"x":1159,"y":1695,"visible":true,"properties":[{"name":"layer","type":"int","value":4},{"name":"group","type":"int","value":31},{"name":"id","type":"int","value":31},{"name":"fh_layer","type":"int","value":4},{"name":"fh_group","type":"int","value":31},{"name":"fh_id","type":"int","value":31},{"name":"x1","type":"int","value":1159},{"name":"x2","type":"int","value":1172},{"name":"y1","type":"int","value":1695},{"name":"y2","type":"int","value":1711},{"name":"next","type":"int","value":0},{"name":"prev","type":"int","value":30}],"polyline":[{"x":0,"y":0},{"x":13,"y":16}]},{"id":353,"x":625,"y":1762,"visible":true,"properties":[{"name":"layer","type":"int","value":4},{"name":"group","type":"int","value":45},{"name":"id","type":"int","value":8},{"name":"fh_layer","type":"int","value":4},{"name":"fh_group","type":"int","value":45},{"name":"fh_id","type":"int","value":8},{"name":"x1","type":"int","value":625},{"name":"x2","type":"int","value":636},{"name":"y1","type":"int","value":1762},{"name":"y2","type":"int","value":1758},{"name":"next","type":"int","value":9},{"name":"prev","type":"int","value":0}],"polyline":[{"x":0,"y":0},{"x":11,"y":-4}]},{"id":354,"x":636,"y":1758,"visible":true,"properties":[{"name":"layer","type":"int","value":4},{"name":"group","type":"int","value":45},{"name":"id","type":"int","value":9},{"name":"fh_layer","type":"int","value":4},{"name":"fh_group","type":"int","value":45},{"name":"fh_id","type":"int","value":9},{"name":"x1","type":"int","value":636},{"name":"x2","type":"int","value":701},{"name":"y1","type":"int","value":1758},{"name":"y2","type":"int","value":1759},{"name":"next","type":"int","value":10},{"name":"prev","type":"int","value":8}],"polyline":[{"x":0,"y":0},{"x":65,"y":1}]},{"id":355,"x":701,"y":1759,"visible":true,"properties":[{"name":"layer","type":"int","value":4},{"name":"group","type":"int","value":45},{"name":"id","type":"int","value":10},{"name":"fh_layer","type":"int","value":4},{"name":"fh_group","type":"int","value":45},{"name":"fh_id","type":"int","value":10},{"name":"x1","type":"int","value":701},{"name":"x2","type":"int","value":716},{"name":"y1","type":"int","value":1759},{"name":"y2","type":"int","value":1763},{"name":"next","type":"int","value":11},{"name":"prev","type":"int","value":9}],"polyline":[{"x":0,"y":0},{"x":15,"y":4}]},{"id":356,"x":716,"y":1763,"visible":true,"properties":[{"name":"layer","type":"int","value":4},{"name":"group","type":"int","value":45},{"name":"id","type":"int","value":11},{"name":"fh_layer","type":"int","value":4},{"name":"fh_group","type":"int","value":45},{"name":"fh_id","type":"int","value":11},{"name":"x1","type":"int","value":716},{"name":"x2","type":"int","value":872},{"name":"y1","type":"int","value":1763},{"name":"y2","type":"int","value":1768},{"name":"next","type":"int","value":24},{"name":"prev","type":"int","value":10}],"polyline":[{"x":0,"y":0},{"x":156,"y":5}]},{"id":357,"x":-256,"y":1719,"visible":true,"properties":[{"name":"layer","type":"int","value":4},{"name":"group","type":"int","value":45},{"name":"id","type":"int","value":12},{"name":"fh_layer","type":"int","value":4},{"name":"fh_group","type":"int","value":45},{"name":"fh_id","type":"int","value":12},{"name":"x1","type":"int","value":-256},{"name":"x2","type":"int","value":-74},{"name":"y1","type":"int","value":1719},{"name":"y2","type":"int","value":1715},{"name":"next","type":"int","value":13},{"name":"prev","type":"int","value":0}],"polyline":[{"x":0,"y":0},{"x":182,"y":-4}]},{"id":358,"x":-74,"y":1715,"visible":true,"properties":[{"name":"layer","type":"int","value":4},{"name":"group","type":"int","value":45},{"name":"id","type":"int","value":13},{"name":"fh_layer","type":"int","value":4},{"name":"fh_group","type":"int","value":45},{"name":"fh_id","type":"int","value":13},{"name":"x1","type":"int","value":-74},{"name":"x2","type":"int","value":-52},{"name":"y1","type":"int","value":1715},{"name":"y2","type":"int","value":1708},{"name":"next","type":"int","value":14},{"name":"prev","type":"int","value":12}],"polyline":[{"x":0,"y":0},{"x":22,"y":-7}]},{"id":359,"x":-52,"y":1708,"visible":true,"properties":[{"name":"layer","type":"int","value":4},{"name":"group","type":"int","value":45},{"name":"id","type":"int","value":14},{"name":"fh_layer","type":"int","value":4},{"name":"fh_group","type":"int","value":45},{"name":"fh_id","type":"int","value":14},{"name":"x1","type":"int","value":-52},{"name":"x2","type":"int","value":36},{"name":"y1","type":"int","value":1708},{"name":"y2","type":"int","value":1706},{"name":"next","type":"int","value":15},{"name":"prev","type":"int","value":13}],"polyline":[{"x":0,"y":0},{"x":88,"y":-2}]},{"id":360,"x":36,"y":1706,"visible":true,"properties":[{"name":"layer","type":"int","value":4},{"name":"group","type":"int","value":45},{"name":"id","type":"int","value":15},{"name":"fh_layer","type":"int","value":4},{"name":"fh_group","type":"int","value":45},{"name":"fh_id","type":"int","value":15},{"name":"x1","type":"int","value":36},{"name":"x2","type":"int","value":53},{"name":"y1","type":"int","value":1706},{"name":"y2","type":"int","value":1703},{"name":"next","type":"int","value":16},{"name":"prev","type":"int","value":14}],"polyline":[{"x":0,"y":0},{"x":17,"y":-3}]},{"id":361,"x":53,"y":1703,"visible":true,"properties":[{"name":"layer","type":"int","value":4},{"name":"group","type":"int","value":45},{"name":"id","type":"int","value":16},{"name":"fh_layer","type":"int","value":4},{"name":"fh_group","type":"int","value":45},{"name":"fh_id","type":"int","value":16},{"name":"x1","type":"int","value":53},{"name":"x2","type":"int","value":54},{"name":"y1","type":"int","value":1703},{"name":"y2","type":"int","value":1703},{"name":"next","type":"int","value":40},{"name":"prev","type":"int","value":15}],"polyline":[{"x":0,"y":0},{"x":1,"y":0}]},{"id":362,"x":122,"y":1703,"visible":true,"properties":[{"name":"layer","type":"int","value":4},{"name":"group","type":"int","value":45},{"name":"id","type":"int","value":17},{"name":"fh_layer","type":"int","value":4},{"name":"fh_group","type":"int","value":45},{"name":"fh_id","type":"int","value":17},{"name":"x1","type":"int","value":122},{"name":"x2","type":"int","value":138},{"name":"y1","type":"int","value":1703},{"name":"y2","type":"int","value":1703},{"name":"next","type":"int","value":18},{"name":"prev","type":"int","value":40}],"polyline":[{"x":0,"y":0},{"x":16,"y":0}]},{"id":363,"x":138,"y":1703,"visible":true,"properties":[{"name":"layer","type":"int","value":4},{"name":"group","type":"int","value":45},{"name":"id","type":"int","value":18},{"name":"fh_layer","type":"int","value":4},{"name":"fh_group","type":"int","value":45},{"name":"fh_id","type":"int","value":18},{"name":"x1","type":"int","value":138},{"name":"x2","type":"int","value":226},{"name":"y1","type":"int","value":1703},{"name":"y2","type":"int","value":1699},{"name":"next","type":"int","value":19},{"name":"prev","type":"int","value":17}],"polyline":[{"x":0,"y":0},{"x":88,"y":-4}]},{"id":364,"x":226,"y":1699,"visible":true,"properties":[{"name":"layer","type":"int","value":4},{"name":"group","type":"int","value":45},{"name":"id","type":"int","value":19},{"name":"fh_layer","type":"int","value":4},{"name":"fh_group","type":"int","value":45},{"name":"fh_id","type":"int","value":19},{"name":"x1","type":"int","value":226},{"name":"x2","type":"int","value":306},{"name":"y1","type":"int","value":1699},{"name":"y2","type":"int","value":1703},{"name":"next","type":"int","value":20},{"name":"prev","type":"int","value":18}],"polyline":[{"x":0,"y":0},{"x":80,"y":4}]},{"id":365,"x":306,"y":1703,"visible":true,"properties":[{"name":"layer","type":"int","value":4},{"name":"group","type":"int","value":45},{"name":"id","type":"int","value":20},{"name":"fh_layer","type":"int","value":4},{"name":"fh_group","type":"int","value":45},{"name":"fh_id","type":"int","value":20},{"name":"x1","type":"int","value":306},{"name":"x2","type":"int","value":339},{"name":"y1","type":"int","value":1703},{"name":"y2","type":"int","value":1711},{"name":"next","type":"int","value":21},{"name":"prev","type":"int","value":19}],"polyline":[{"x":0,"y":0},{"x":33,"y":8}]},{"id":366,"x":339,"y":1711,"visible":true,"properties":[{"name":"layer","type":"int","value":4},{"name":"group","type":"int","value":45},{"name":"id","type":"int","value":21},{"name":"fh_layer","type":"int","value":4},{"name":"fh_group","type":"int","value":45},{"name":"fh_id","type":"int","value":21},{"name":"x1","type":"int","value":339},{"name":"x2","type":"int","value":676},{"name":"y1","type":"int","value":1711},{"name":"y2","type":"int","value":1710},{"name":"next","type":"int","value":22},{"name":"prev","type":"int","value":20}],"polyline":[{"x":0,"y":0},{"x":337,"y":-1}]},{"id":367,"x":676,"y":1710,"visible":true,"properties":[{"name":"layer","type":"int","value":4},{"name":"group","type":"int","value":45},{"name":"id","type":"int","value":22},{"name":"fh_layer","type":"int","value":4},{"name":"fh_group","type":"int","value":45},{"name":"fh_id","type":"int","value":22},{"name":"x1","type":"int","value":676},{"name":"x2","type":"int","value":730},{"name":"y1","type":"int","value":1710},{"name":"y2","type":"int","value":1719},{"name":"next","type":"int","value":23},{"name":"prev","type":"int","value":21}],"polyline":[{"x":0,"y":0},{"x":54,"y":9}]},{"id":368,"x":730,"y":1719,"visible":true,"properties":[{"name":"layer","type":"int","value":4},{"name":"group","type":"int","value":45},{"name":"id","type":"int","value":23},{"name":"fh_layer","type":"int","value":4},{"name":"fh_group","type":"int","value":45},{"name":"fh_id","type":"int","value":23},{"name":"x1","type":"int","value":730},{"name":"x2","type":"int","value":759},{"name":"y1","type":"int","value":1719},{"name":"y2","type":"int","value":1743},{"name":"next","type":"int","value":0},{"name":"prev","type":"int","value":22}],"polyline":[{"x":0,"y":0},{"x":29,"y":24}]},{"id":369,"x":45,"y":1935,"visible":true,"properties":[{"name":"layer","type":"int","value":4},{"name":"group","type":"int","value":47},{"name":"id","type":"int","value":1},{"name":"fh_layer","type":"int","value":4},{"name":"fh_group","type":"int","value":47},{"name":"fh_id","type":"int","value":1},{"name":"x1","type":"int","value":45},{"name":"x2","type":"int","value":68},{"name":"y1","type":"int","value":1935},{"name":"y2","type":"int","value":1935},{"name":"next","type":"int","value":7},{"name":"prev","type":"int","value":6}],"polyline":[{"x":0,"y":0},{"x":23,"y":0}]},{"id":370,"x":202,"y":1935,"visible":true,"properties":[{"name":"layer","type":"int","value":4},{"name":"group","type":"int","value":47},{"name":"id","type":"int","value":2},{"name":"fh_layer","type":"int","value":4},{"name":"fh_group","type":"int","value":47},{"name":"fh_id","type":"int","value":2},{"name":"x1","type":"int","value":202},{"name":"x2","type":"int","value":248},{"name":"y1","type":"int","value":1935},{"name":"y2","type":"int","value":1935},{"name":"next","type":"int","value":3},{"name":"prev","type":"int","value":4}],"polyline":[{"x":0,"y":0},{"x":46,"y":0}]},{"id":371,"x":248,"y":1935,"visible":true,"properties":[{"name":"layer","type":"int","value":4},{"name":"group","type":"int","value":47},{"name":"id","type":"int","value":3},{"name":"fh_layer","type":"int","value":4},{"name":"fh_group","type":"int","value":47},{"name":"fh_id","type":"int","value":3},{"name":"x1","type":"int","value":248},{"name":"x2","type":"int","value":248},{"name":"y1","type":"int","value":1935},{"name":"y2","type":"int","value":1950},{"name":"next","type":"int","value":0},{"name":"prev","type":"int","value":2}],"polyline":[{"x":0,"y":0},{"x":0,"y":15}]},{"id":372,"x":135,"y":1935,"visible":true,"properties":[{"name":"layer","type":"int","value":4},{"name":"group","type":"int","value":47},{"name":"id","type":"int","value":4},{"name":"fh_layer","type":"int","value":4},{"name":"fh_group","type":"int","value":47},{"name":"fh_id","type":"int","value":4},{"name":"x1","type":"int","value":135},{"name":"x2","type":"int","value":202},{"name":"y1","type":"int","value":1935},{"name":"y2","type":"int","value":1935},{"name":"next","type":"int","value":2},{"name":"prev","type":"int","value":7}],"polyline":[{"x":0,"y":0},{"x":67,"y":0}]},{"id":373,"x":22,"y":1950,"visible":true,"properties":[{"name":"layer","type":"int","value":4},{"name":"group","type":"int","value":47},{"name":"id","type":"int","value":5},{"name":"fh_layer","type":"int","value":4},{"name":"fh_group","type":"int","value":47},{"name":"fh_id","type":"int","value":5},{"name":"x1","type":"int","value":22},{"name":"x2","type":"int","value":22},{"name":"y1","type":"int","value":1950},{"name":"y2","type":"int","value":1935},{"name":"next","type":"int","value":6},{"name":"prev","type":"int","value":0}],"polyline":[{"x":0,"y":0},{"x":0,"y":-15}]},{"id":374,"x":22,"y":1935,"visible":true,"properties":[{"name":"layer","type":"int","value":4},{"name":"group","type":"int","value":47},{"name":"id","type":"int","value":6},{"name":"fh_layer","type":"int","value":4},{"name":"fh_group","type":"int","value":47},{"name":"fh_id","type":"int","value":6},{"name":"x1","type":"int","value":22},{"name":"x2","type":"int","value":45},{"name":"y1","type":"int","value":1935},{"name":"y2","type":"int","value":1935},{"name":"next","type":"int","value":1},{"name":"prev","type":"int","value":5}],"polyline":[{"x":0,"y":0},{"x":23,"y":0}]},{"id":375,"x":68,"y":1935,"visible":true,"properties":[{"name":"layer","type":"int","value":4},{"name":"group","type":"int","value":47},{"name":"id","type":"int","value":7},{"name":"fh_layer","type":"int","value":4},{"name":"fh_group","type":"int","value":47},{"name":"fh_id","type":"int","value":7},{"name":"x1","type":"int","value":68},{"name":"x2","type":"int","value":135},{"name":"y1","type":"int","value":1935},{"name":"y2","type":"int","value":1935},{"name":"next","type":"int","value":4},{"name":"prev","type":"int","value":1}],"polyline":[{"x":0,"y":0},{"x":67,"y":0}]},{"id":376,"x":-180,"y":2865,"visible":true,"properties":[{"name":"layer","type":"int","value":5},{"name":"group","type":"int","value":0},{"name":"id","type":"int","value":41},{"name":"fh_layer","type":"int","value":5},{"name":"fh_group","type":"int","value":0},{"name":"fh_id","type":"int","value":41},{"name":"x1","type":"int","value":-180},{"name":"x2","type":"int","value":-90},{"name":"y1","type":"int","value":2865},{"name":"y2","type":"int","value":2865},{"name":"next","type":"int","value":44},{"name":"prev","type":"int","value":45}],"polyline":[{"x":0,"y":0},{"x":90,"y":0}]},{"id":377,"x":-450,"y":2865,"visible":true,"properties":[{"name":"layer","type":"int","value":5},{"name":"group","type":"int","value":0},{"name":"id","type":"int","value":42},{"name":"fh_layer","type":"int","value":5},{"name":"fh_group","type":"int","value":0},{"name":"fh_id","type":"int","value":42},{"name":"x1","type":"int","value":-450},{"name":"x2","type":"int","value":-360},{"name":"y1","type":"int","value":2865},{"name":"y2","type":"int","value":2865},{"name":"next","type":"int","value":46},{"name":"prev","type":"int","value":47}],"polyline":[{"x":0,"y":0},{"x":90,"y":0}]},{"id":378,"x":270,"y":2865,"visible":true,"properties":[{"name":"layer","type":"int","value":5},{"name":"group","type":"int","value":0},{"name":"id","type":"int","value":43},{"name":"fh_layer","type":"int","value":5},{"name":"fh_group","type":"int","value":0},{"name":"fh_id","type":"int","value":43},{"name":"x1","type":"int","value":270},{"name":"x2","type":"int","value":360},{"name":"y1","type":"int","value":2865},{"name":"y2","type":"int","value":2865},{"name":"next","type":"int","value":58},{"name":"prev","type":"int","value":54}],"polyline":[{"x":0,"y":0},{"x":90,"y":0}]},{"id":379,"x":-90,"y":2865,"visible":true,"properties":[{"name":"layer","type":"int","value":5},{"name":"group","type":"int","value":0},{"name":"id","type":"int","value":44},{"name":"fh_layer","type":"int","value":5},{"name":"fh_group","type":"int","value":0},{"name":"fh_id","type":"int","value":44},{"name":"x1","type":"int","value":-90},{"name":"x2","type":"int","value":0},{"name":"y1","type":"int","value":2865},{"name":"y2","type":"int","value":2865},{"name":"next","type":"int","value":48},{"name":"prev","type":"int","value":41}],"polyline":[{"x":0,"y":0},{"x":90,"y":0}]},{"id":380,"x":-270,"y":2865,"visible":true,"properties":[{"name":"layer","type":"int","value":5},{"name":"group","type":"int","value":0},{"name":"id","type":"int","value":45},{"name":"fh_layer","type":"int","value":5},{"name":"fh_group","type":"int","value":0},{"name":"fh_id","type":"int","value":45},{"name":"x1","type":"int","value":-270},{"name":"x2","type":"int","value":-180},{"name":"y1","type":"int","value":2865},{"name":"y2","type":"int","value":2865},{"name":"next","type":"int","value":41},{"name":"prev","type":"int","value":46}],"polyline":[{"x":0,"y":0},{"x":90,"y":0}]},{"id":381,"x":-360,"y":2865,"visible":true,"properties":[{"name":"layer","type":"int","value":5},{"name":"group","type":"int","value":0},{"name":"id","type":"int","value":46},{"name":"fh_layer","type":"int","value":5},{"name":"fh_group","type":"int","value":0},{"name":"fh_id","type":"int","value":46},{"name":"x1","type":"int","value":-360},{"name":"x2","type":"int","value":-270},{"name":"y1","type":"int","value":2865},{"name":"y2","type":"int","value":2865},{"name":"next","type":"int","value":45},{"name":"prev","type":"int","value":42}],"polyline":[{"x":0,"y":0},{"x":90,"y":0}]},{"id":382,"x":-540,"y":2865,"visible":true,"properties":[{"name":"layer","type":"int","value":5},{"name":"group","type":"int","value":0},{"name":"id","type":"int","value":47},{"name":"fh_layer","type":"int","value":5},{"name":"fh_group","type":"int","value":0},{"name":"fh_id","type":"int","value":47},{"name":"x1","type":"int","value":-540},{"name":"x2","type":"int","value":-450},{"name":"y1","type":"int","value":2865},{"name":"y2","type":"int","value":2865},{"name":"next","type":"int","value":42},{"name":"prev","type":"int","value":52}],"polyline":[{"x":0,"y":0},{"x":90,"y":0}]},{"id":383,"x":0,"y":2865,"visible":true,"properties":[{"name":"layer","type":"int","value":5},{"name":"group","type":"int","value":0},{"name":"id","type":"int","value":48},{"name":"fh_layer","type":"int","value":5},{"name":"fh_group","type":"int","value":0},{"name":"fh_id","type":"int","value":48},{"name":"x1","type":"int","value":0},{"name":"x2","type":"int","value":90},{"name":"y1","type":"int","value":2865},{"name":"y2","type":"int","value":2865},{"name":"next","type":"int","value":55},{"name":"prev","type":"int","value":44}],"polyline":[{"x":0,"y":0},{"x":90,"y":0}]},{"id":384,"x":-653,"y":2880,"visible":true,"properties":[{"name":"layer","type":"int","value":5},{"name":"group","type":"int","value":0},{"name":"id","type":"int","value":49},{"name":"fh_layer","type":"int","value":5},{"name":"fh_group","type":"int","value":0},{"name":"fh_id","type":"int","value":49},{"name":"x1","type":"int","value":-653},{"name":"x2","type":"int","value":-653},{"name":"y1","type":"int","value":2880},{"name":"y2","type":"int","value":2865},{"name":"next","type":"int","value":50},{"name":"prev","type":"int","value":51}],"polyline":[{"x":0,"y":0},{"x":0,"y":-15}]},{"id":385,"x":-653,"y":2865,"visible":true,"properties":[{"name":"layer","type":"int","value":5},{"name":"group","type":"int","value":0},{"name":"id","type":"int","value":50},{"name":"fh_layer","type":"int","value":5},{"name":"fh_group","type":"int","value":0},{"name":"fh_id","type":"int","value":50},{"name":"x1","type":"int","value":-653},{"name":"x2","type":"int","value":-607},{"name":"y1","type":"int","value":2865},{"name":"y2","type":"int","value":2865},{"name":"next","type":"int","value":52},{"name":"prev","type":"int","value":49}],"polyline":[{"x":0,"y":0},{"x":46,"y":0}]},{"id":386,"x":-653,"y":2940,"visible":true,"properties":[{"name":"layer","type":"int","value":5},{"name":"group","type":"int","value":0},{"name":"id","type":"int","value":51},{"name":"fh_layer","type":"int","value":5},{"name":"fh_group","type":"int","value":0},{"name":"fh_id","type":"int","value":51},{"name":"x1","type":"int","value":-653},{"name":"x2","type":"int","value":-653},{"name":"y1","type":"int","value":2940},{"name":"y2","type":"int","value":2880},{"name":"next","type":"int","value":49},{"name":"prev","type":"int","value":53}],"polyline":[{"x":0,"y":0},{"x":0,"y":-60}]},{"id":387,"x":-607,"y":2865,"visible":true,"properties":[{"name":"layer","type":"int","value":5},{"name":"group","type":"int","value":0},{"name":"id","type":"int","value":52},{"name":"fh_layer","type":"int","value":5},{"name":"fh_group","type":"int","value":0},{"name":"fh_id","type":"int","value":52},{"name":"x1","type":"int","value":-607},{"name":"x2","type":"int","value":-540},{"name":"y1","type":"int","value":2865},{"name":"y2","type":"int","value":2865},{"name":"next","type":"int","value":47},{"name":"prev","type":"int","value":50}],"polyline":[{"x":0,"y":0},{"x":67,"y":0}]},{"id":388,"x":-653,"y":3000,"visible":true,"properties":[{"name":"layer","type":"int","value":5},{"name":"group","type":"int","value":0},{"name":"id","type":"int","value":53},{"name":"fh_layer","type":"int","value":5},{"name":"fh_group","type":"int","value":0},{"name":"fh_id","type":"int","value":53},{"name":"x1","type":"int","value":-653},{"name":"x2","type":"int","value":-653},{"name":"y1","type":"int","value":3000},{"name":"y2","type":"int","value":2940},{"name":"next","type":"int","value":51},{"name":"prev","type":"int","value":0}],"polyline":[{"x":0,"y":0},{"x":0,"y":-60}]},{"id":389,"x":180,"y":2865,"visible":true,"properties":[{"name":"layer","type":"int","value":5},{"name":"group","type":"int","value":0},{"name":"id","type":"int","value":54},{"name":"fh_layer","type":"int","value":5},{"name":"fh_group","type":"int","value":0},{"name":"fh_id","type":"int","value":54},{"name":"x1","type":"int","value":180},{"name":"x2","type":"int","value":270},{"name":"y1","type":"int","value":2865},{"name":"y2","type":"int","value":2865},{"name":"next","type":"int","value":43},{"name":"prev","type":"int","value":55}],"polyline":[{"x":0,"y":0},{"x":90,"y":0}]},{"id":390,"x":90,"y":2865,"visible":true,"properties":[{"name":"layer","type":"int","value":5},{"name":"group","type":"int","value":0},{"name":"id","type":"int","value":55},{"name":"fh_layer","type":"int","value":5},{"name":"fh_group","type":"int","value":0},{"name":"fh_id","type":"int","value":55},{"name":"x1","type":"int","value":90},{"name":"x2","type":"int","value":180},{"name":"y1","type":"int","value":2865},{"name":"y2","type":"int","value":2865},{"name":"next","type":"int","value":54},{"name":"prev","type":"int","value":48}],"polyline":[{"x":0,"y":0},{"x":90,"y":0}]},{"id":391,"x":450,"y":2865,"visible":true,"properties":[{"name":"layer","type":"int","value":5},{"name":"group","type":"int","value":0},{"name":"id","type":"int","value":56},{"name":"fh_layer","type":"int","value":5},{"name":"fh_group","type":"int","value":0},{"name":"fh_id","type":"int","value":56},{"name":"x1","type":"int","value":450},{"name":"x2","type":"int","value":540},{"name":"y1","type":"int","value":2865},{"name":"y2","type":"int","value":2865},{"name":"next","type":"int","value":60},{"name":"prev","type":"int","value":58}],"polyline":[{"x":0,"y":0},{"x":90,"y":0}]},{"id":392,"x":630,"y":2865,"visible":true,"properties":[{"name":"layer","type":"int","value":5},{"name":"group","type":"int","value":0},{"name":"id","type":"int","value":57},{"name":"fh_layer","type":"int","value":5},{"name":"fh_group","type":"int","value":0},{"name":"fh_id","type":"int","value":57},{"name":"x1","type":"int","value":630},{"name":"x2","type":"int","value":720},{"name":"y1","type":"int","value":2865},{"name":"y2","type":"int","value":2865},{"name":"next","type":"int","value":59},{"name":"prev","type":"int","value":60}],"polyline":[{"x":0,"y":0},{"x":90,"y":0}]},{"id":393,"x":360,"y":2865,"visible":true,"properties":[{"name":"layer","type":"int","value":5},{"name":"group","type":"int","value":0},{"name":"id","type":"int","value":58},{"name":"fh_layer","type":"int","value":5},{"name":"fh_group","type":"int","value":0},{"name":"fh_id","type":"int","value":58},{"name":"x1","type":"int","value":360},{"name":"x2","type":"int","value":450},{"name":"y1","type":"int","value":2865},{"name":"y2","type":"int","value":2865},{"name":"next","type":"int","value":56},{"name":"prev","type":"int","value":43}],"polyline":[{"x":0,"y":0},{"x":90,"y":0}]},{"id":394,"x":720,"y":2865,"visible":true,"properties":[{"name":"layer","type":"int","value":5},{"name":"group","type":"int","value":0},{"name":"id","type":"int","value":59},{"name":"fh_layer","type":"int","value":5},{"name":"fh_group","type":"int","value":0},{"name":"fh_id","type":"int","value":59},{"name":"x1","type":"int","value":720},{"name":"x2","type":"int","value":810},{"name":"y1","type":"int","value":2865},{"name":"y2","type":"int","value":2865},{"name":"next","type":"int","value":61},{"name":"prev","type":"int","value":57}],"polyline":[{"x":0,"y":0},{"x":90,"y":0}]},{"id":395,"x":540,"y":2865,"visible":true,"properties":[{"name":"layer","type":"int","value":5},{"name":"group","type":"int","value":0},{"name":"id","type":"int","value":60},{"name":"fh_layer","type":"int","value":5},{"name":"fh_group","type":"int","value":0},{"name":"fh_id","type":"int","value":60},{"name":"x1","type":"int","value":540},{"name":"x2","type":"int","value":630},{"name":"y1","type":"int","value":2865},{"name":"y2","type":"int","value":2865},{"name":"next","type":"int","value":57},{"name":"prev","type":"int","value":56}],"polyline":[{"x":0,"y":0},{"x":90,"y":0}]},{"id":396,"x":810,"y":2865,"visible":true,"properties":[{"name":"layer","type":"int","value":5},{"name":"group","type":"int","value":0},{"name":"id","type":"int","value":61},{"name":"fh_layer","type":"int","value":5},{"name":"fh_group","type":"int","value":0},{"name":"fh_id","type":"int","value":61},{"name":"x1","type":"int","value":810},{"name":"x2","type":"int","value":900},{"name":"y1","type":"int","value":2865},{"name":"y2","type":"int","value":2865},{"name":"next","type":"int","value":62},{"name":"prev","type":"int","value":59}],"polyline":[{"x":0,"y":0},{"x":90,"y":0}]},{"id":397,"x":900,"y":2865,"visible":true,"properties":[{"name":"layer","type":"int","value":5},{"name":"group","type":"int","value":0},{"name":"id","type":"int","value":62},{"name":"fh_layer","type":"int","value":5},{"name":"fh_group","type":"int","value":0},{"name":"fh_id","type":"int","value":62},{"name":"x1","type":"int","value":900},{"name":"x2","type":"int","value":990},{"name":"y1","type":"int","value":2865},{"name":"y2","type":"int","value":2805},{"name":"next","type":"int","value":63},{"name":"prev","type":"int","value":61}],"polyline":[{"x":0,"y":0},{"x":90,"y":-60}]},{"id":398,"x":990,"y":2805,"visible":true,"properties":[{"name":"layer","type":"int","value":5},{"name":"group","type":"int","value":0},{"name":"id","type":"int","value":63},{"name":"fh_layer","type":"int","value":5},{"name":"fh_group","type":"int","value":0},{"name":"fh_id","type":"int","value":63},{"name":"x1","type":"int","value":990},{"name":"x2","type":"int","value":1080},{"name":"y1","type":"int","value":2805},{"name":"y2","type":"int","value":2745},{"name":"next","type":"int","value":67},{"name":"prev","type":"int","value":62}],"polyline":[{"x":0,"y":0},{"x":90,"y":-60}]},{"id":399,"x":1260,"y":2745,"visible":true,"properties":[{"name":"layer","type":"int","value":5},{"name":"group","type":"int","value":0},{"name":"id","type":"int","value":64},{"name":"fh_layer","type":"int","value":5},{"name":"fh_group","type":"int","value":0},{"name":"fh_id","type":"int","value":64},{"name":"x1","type":"int","value":1260},{"name":"x2","type":"int","value":1350},{"name":"y1","type":"int","value":2745},{"name":"y2","type":"int","value":2745},{"name":"next","type":"int","value":69},{"name":"prev","type":"int","value":68}],"polyline":[{"x":0,"y":0},{"x":90,"y":0}]},{"id":400,"x":1553,"y":2880,"visible":true,"properties":[{"name":"layer","type":"int","value":5},{"name":"group","type":"int","value":0},{"name":"id","type":"int","value":65},{"name":"fh_layer","type":"int","value":5},{"name":"fh_group","type":"int","value":0},{"name":"fh_id","type":"int","value":65},{"name":"x1","type":"int","value":1553},{"name":"x2","type":"int","value":1553},{"name":"y1","type":"int","value":2880},{"name":"y2","type":"int","value":2940},{"name":"next","type":"int","value":66},{"name":"prev","type":"int","value":75}],"polyline":[{"x":0,"y":0},{"x":0,"y":60}]},{"id":401,"x":1553,"y":2940,"visible":true,"properties":[{"name":"layer","type":"int","value":5},{"name":"group","type":"int","value":0},{"name":"id","type":"int","value":66},{"name":"fh_layer","type":"int","value":5},{"name":"fh_group","type":"int","value":0},{"name":"fh_id","type":"int","value":66},{"name":"x1","type":"int","value":1553},{"name":"x2","type":"int","value":1553},{"name":"y1","type":"int","value":2940},{"name":"y2","type":"int","value":3000},{"name":"next","type":"int","value":0},{"name":"prev","type":"int","value":65}],"polyline":[{"x":0,"y":0},{"x":0,"y":60}]},{"id":402,"x":1080,"y":2745,"visible":true,"properties":[{"name":"layer","type":"int","value":5},{"name":"group","type":"int","value":0},{"name":"id","type":"int","value":67},{"name":"fh_layer","type":"int","value":5},{"name":"fh_group","type":"int","value":0},{"name":"fh_id","type":"int","value":67},{"name":"x1","type":"int","value":1080},{"name":"x2","type":"int","value":1170},{"name":"y1","type":"int","value":2745},{"name":"y2","type":"int","value":2745},{"name":"next","type":"int","value":68},{"name":"prev","type":"int","value":63}],"polyline":[{"x":0,"y":0},{"x":90,"y":0}]},{"id":403,"x":1170,"y":2745,"visible":true,"properties":[{"name":"layer","type":"int","value":5},{"name":"group","type":"int","value":0},{"name":"id","type":"int","value":68},{"name":"fh_layer","type":"int","value":5},{"name":"fh_group","type":"int","value":0},{"name":"fh_id","type":"int","value":68},{"name":"x1","type":"int","value":1170},{"name":"x2","type":"int","value":1260},{"name":"y1","type":"int","value":2745},{"name":"y2","type":"int","value":2745},{"name":"next","type":"int","value":64},{"name":"prev","type":"int","value":67}],"polyline":[{"x":0,"y":0},{"x":90,"y":0}]},{"id":404,"x":1350,"y":2745,"visible":true,"properties":[{"name":"layer","type":"int","value":5},{"name":"group","type":"int","value":0},{"name":"id","type":"int","value":69},{"name":"fh_layer","type":"int","value":5},{"name":"fh_group","type":"int","value":0},{"name":"fh_id","type":"int","value":69},{"name":"x1","type":"int","value":1350},{"name":"x2","type":"int","value":1440},{"name":"y1","type":"int","value":2745},{"name":"y2","type":"int","value":2745},{"name":"next","type":"int","value":70},{"name":"prev","type":"int","value":64}],"polyline":[{"x":0,"y":0},{"x":90,"y":0}]},{"id":405,"x":1440,"y":2745,"visible":true,"properties":[{"name":"layer","type":"int","value":5},{"name":"group","type":"int","value":0},{"name":"id","type":"int","value":70},{"name":"fh_layer","type":"int","value":5},{"name":"fh_group","type":"int","value":0},{"name":"fh_id","type":"int","value":70},{"name":"x1","type":"int","value":1440},{"name":"x2","type":"int","value":1507},{"name":"y1","type":"int","value":2745},{"name":"y2","type":"int","value":2745},{"name":"next","type":"int","value":71},{"name":"prev","type":"int","value":69}],"polyline":[{"x":0,"y":0},{"x":67,"y":0}]},{"id":406,"x":1507,"y":2745,"visible":true,"properties":[{"name":"layer","type":"int","value":5},{"name":"group","type":"int","value":0},{"name":"id","type":"int","value":71},{"name":"fh_layer","type":"int","value":5},{"name":"fh_group","type":"int","value":0},{"name":"fh_id","type":"int","value":71},{"name":"x1","type":"int","value":1507},{"name":"x2","type":"int","value":1530},{"name":"y1","type":"int","value":2745},{"name":"y2","type":"int","value":2745},{"name":"next","type":"int","value":72},{"name":"prev","type":"int","value":70}],"polyline":[{"x":0,"y":0},{"x":23,"y":0}]},{"id":407,"x":1530,"y":2745,"visible":true,"properties":[{"name":"layer","type":"int","value":5},{"name":"group","type":"int","value":0},{"name":"id","type":"int","value":72},{"name":"fh_layer","type":"int","value":5},{"name":"fh_group","type":"int","value":0},{"name":"fh_id","type":"int","value":72},{"name":"x1","type":"int","value":1530},{"name":"x2","type":"int","value":1553},{"name":"y1","type":"int","value":2745},{"name":"y2","type":"int","value":2745},{"name":"next","type":"int","value":73},{"name":"prev","type":"int","value":71}],"polyline":[{"x":0,"y":0},{"x":23,"y":0}]},{"id":408,"x":1553,"y":2745,"visible":true,"properties":[{"name":"layer","type":"int","value":5},{"name":"group","type":"int","value":0},{"name":"id","type":"int","value":73},{"name":"fh_layer","type":"int","value":5},{"name":"fh_group","type":"int","value":0},{"name":"fh_id","type":"int","value":73},{"name":"x1","type":"int","value":1553},{"name":"x2","type":"int","value":1553},{"name":"y1","type":"int","value":2745},{"name":"y2","type":"int","value":2760},{"name":"next","type":"int","value":74},{"name":"prev","type":"int","value":72}],"polyline":[{"x":0,"y":0},{"x":0,"y":15}]},{"id":409,"x":1553,"y":2760,"visible":true,"properties":[{"name":"layer","type":"int","value":5},{"name":"group","type":"int","value":0},{"name":"id","type":"int","value":74},{"name":"fh_layer","type":"int","value":5},{"name":"fh_group","type":"int","value":0},{"name":"fh_id","type":"int","value":74},{"name":"x1","type":"int","value":1553},{"name":"x2","type":"int","value":1553},{"name":"y1","type":"int","value":2760},{"name":"y2","type":"int","value":2820},{"name":"next","type":"int","value":75},{"name":"prev","type":"int","value":73}],"polyline":[{"x":0,"y":0},{"x":0,"y":60}]},{"id":410,"x":1553,"y":2820,"visible":true,"properties":[{"name":"layer","type":"int","value":5},{"name":"group","type":"int","value":0},{"name":"id","type":"int","value":75},{"name":"fh_layer","type":"int","value":5},{"name":"fh_group","type":"int","value":0},{"name":"fh_id","type":"int","value":75},{"name":"x1","type":"int","value":1553},{"name":"x2","type":"int","value":1553},{"name":"y1","type":"int","value":2820},{"name":"y2","type":"int","value":2880},{"name":"next","type":"int","value":65},{"name":"prev","type":"int","value":74}],"polyline":[{"x":0,"y":0},{"x":0,"y":60}]},{"id":411,"x":1079,"y":2270,"visible":true,"properties":[{"name":"layer","type":"int","value":5},{"name":"group","type":"int","value":0},{"name":"id","type":"int","value":76},{"name":"fh_layer","type":"int","value":5},{"name":"fh_group","type":"int","value":0},{"name":"fh_id","type":"int","value":76},{"name":"x1","type":"int","value":1079},{"name":"x2","type":"int","value":1123},{"name":"y1","type":"int","value":2270},{"name":"y2","type":"int","value":2274},{"name":"next","type":"int","value":77},{"name":"prev","type":"int","value":83}],"polyline":[{"x":0,"y":0},{"x":44,"y":4}]},{"id":412,"x":1123,"y":2274,"visible":true,"properties":[{"name":"layer","type":"int","value":5},{"name":"group","type":"int","value":0},{"name":"id","type":"int","value":77},{"name":"fh_layer","type":"int","value":5},{"name":"fh_group","type":"int","value":0},{"name":"fh_id","type":"int","value":77},{"name":"x1","type":"int","value":1123},{"name":"x2","type":"int","value":1136},{"name":"y1","type":"int","value":2274},{"name":"y2","type":"int","value":2280},{"name":"next","type":"int","value":0},{"name":"prev","type":"int","value":76}],"polyline":[{"x":0,"y":0},{"x":13,"y":6}]},{"id":413,"x":1063,"y":2242,"visible":true,"properties":[{"name":"layer","type":"int","value":5},{"name":"group","type":"int","value":0},{"name":"id","type":"int","value":78},{"name":"fh_layer","type":"int","value":5},{"name":"fh_group","type":"int","value":0},{"name":"fh_id","type":"int","value":78},{"name":"x1","type":"int","value":1063},{"name":"x2","type":"int","value":1098},{"name":"y1","type":"int","value":2242},{"name":"y2","type":"int","value":2208},{"name":"next","type":"int","value":79},{"name":"prev","type":"int","value":0}],"polyline":[{"x":0,"y":0},{"x":35,"y":-34}]},{"id":414,"x":1098,"y":2208,"visible":true,"properties":[{"name":"layer","type":"int","value":5},{"name":"group","type":"int","value":0},{"name":"id","type":"int","value":79},{"name":"fh_layer","type":"int","value":5},{"name":"fh_group","type":"int","value":0},{"name":"fh_id","type":"int","value":79},{"name":"x1","type":"int","value":1098},{"name":"x2","type":"int","value":1195},{"name":"y1","type":"int","value":2208},{"name":"y2","type":"int","value":2206},{"name":"next","type":"int","value":80},{"name":"prev","type":"int","value":78}],"polyline":[{"x":0,"y":0},{"x":97,"y":-2}]},{"id":415,"x":1195,"y":2206,"visible":true,"properties":[{"name":"layer","type":"int","value":5},{"name":"group","type":"int","value":0},{"name":"id","type":"int","value":80},{"name":"fh_layer","type":"int","value":5},{"name":"fh_group","type":"int","value":0},{"name":"fh_id","type":"int","value":80},{"name":"x1","type":"int","value":1195},{"name":"x2","type":"int","value":1261},{"name":"y1","type":"int","value":2206},{"name":"y2","type":"int","value":2197},{"name":"next","type":"int","value":81},{"name":"prev","type":"int","value":79}],"polyline":[{"x":0,"y":0},{"x":66,"y":-9}]},{"id":416,"x":1261,"y":2197,"visible":true,"properties":[{"name":"layer","type":"int","value":5},{"name":"group","type":"int","value":0},{"name":"id","type":"int","value":81},{"name":"fh_layer","type":"int","value":5},{"name":"fh_group","type":"int","value":0},{"name":"fh_id","type":"int","value":81},{"name":"x1","type":"int","value":1261},{"name":"x2","type":"int","value":1325},{"name":"y1","type":"int","value":2197},{"name":"y2","type":"int","value":2197},{"name":"next","type":"int","value":82},{"name":"prev","type":"int","value":80}],"polyline":[{"x":0,"y":0},{"x":64,"y":0}]},{"id":417,"x":1325,"y":2197,"visible":true,"properties":[{"name":"layer","type":"int","value":5},{"name":"group","type":"int","value":0},{"name":"id","type":"int","value":82},{"name":"fh_layer","type":"int","value":5},{"name":"fh_group","type":"int","value":0},{"name":"fh_id","type":"int","value":82},{"name":"x1","type":"int","value":1325},{"name":"x2","type":"int","value":1338},{"name":"y1","type":"int","value":2197},{"name":"y2","type":"int","value":2213},{"name":"next","type":"int","value":0},{"name":"prev","type":"int","value":81}],"polyline":[{"x":0,"y":0},{"x":13,"y":16}]},{"id":418,"x":1039,"y":2270,"visible":true,"properties":[{"name":"layer","type":"int","value":5},{"name":"group","type":"int","value":0},{"name":"id","type":"int","value":83},{"name":"fh_layer","type":"int","value":5},{"name":"fh_group","type":"int","value":0},{"name":"fh_id","type":"int","value":83},{"name":"x1","type":"int","value":1039},{"name":"x2","type":"int","value":1079},{"name":"y1","type":"int","value":2270},{"name":"y2","type":"int","value":2270},{"name":"next","type":"int","value":76},{"name":"prev","type":"int","value":138}],"polyline":[{"x":0,"y":0},{"x":40,"y":0}]},{"id":419,"x":-477,"y":2325,"visible":true,"properties":[{"name":"layer","type":"int","value":5},{"name":"group","type":"int","value":0},{"name":"id","type":"int","value":84},{"name":"fh_layer","type":"int","value":5},{"name":"fh_group","type":"int","value":0},{"name":"fh_id","type":"int","value":84},{"name":"x1","type":"int","value":-477},{"name":"x2","type":"int","value":-442},{"name":"y1","type":"int","value":2325},{"name":"y2","type":"int","value":2292},{"name":"next","type":"int","value":85},{"name":"prev","type":"int","value":0}],"polyline":[{"x":0,"y":0},{"x":35,"y":-33}]},{"id":420,"x":-442,"y":2292,"visible":true,"properties":[{"name":"layer","type":"int","value":5},{"name":"group","type":"int","value":0},{"name":"id","type":"int","value":85},{"name":"fh_layer","type":"int","value":5},{"name":"fh_group","type":"int","value":0},{"name":"fh_id","type":"int","value":85},{"name":"x1","type":"int","value":-442},{"name":"x2","type":"int","value":-331},{"name":"y1","type":"int","value":2292},{"name":"y2","type":"int","value":2286},{"name":"next","type":"int","value":86},{"name":"prev","type":"int","value":84}],"polyline":[{"x":0,"y":0},{"x":111,"y":-6}]},{"id":421,"x":-331,"y":2286,"visible":true,"properties":[{"name":"layer","type":"int","value":5},{"name":"group","type":"int","value":0},{"name":"id","type":"int","value":86},{"name":"fh_layer","type":"int","value":5},{"name":"fh_group","type":"int","value":0},{"name":"fh_id","type":"int","value":86},{"name":"x1","type":"int","value":-331},{"name":"x2","type":"int","value":-304},{"name":"y1","type":"int","value":2286},{"name":"y2","type":"int","value":2277},{"name":"next","type":"int","value":87},{"name":"prev","type":"int","value":85}],"polyline":[{"x":0,"y":0},{"x":27,"y":-9}]},{"id":422,"x":-304,"y":2277,"visible":true,"properties":[{"name":"layer","type":"int","value":5},{"name":"group","type":"int","value":0},{"name":"id","type":"int","value":87},{"name":"fh_layer","type":"int","value":5},{"name":"fh_group","type":"int","value":0},{"name":"fh_id","type":"int","value":87},{"name":"x1","type":"int","value":-304},{"name":"x2","type":"int","value":-241},{"name":"y1","type":"int","value":2277},{"name":"y2","type":"int","value":2275},{"name":"next","type":"int","value":90},{"name":"prev","type":"int","value":86}],"polyline":[{"x":0,"y":0},{"x":63,"y":-2}]},{"id":423,"x":-59,"y":2271,"visible":true,"properties":[{"name":"layer","type":"int","value":5},{"name":"group","type":"int","value":0},{"name":"id","type":"int","value":88},{"name":"fh_layer","type":"int","value":5},{"name":"fh_group","type":"int","value":0},{"name":"fh_id","type":"int","value":88},{"name":"x1","type":"int","value":-59},{"name":"x2","type":"int","value":-37},{"name":"y1","type":"int","value":2271},{"name":"y2","type":"int","value":2264},{"name":"next","type":"int","value":92},{"name":"prev","type":"int","value":90}],"polyline":[{"x":0,"y":0},{"x":22,"y":-7}]},{"id":424,"x":68,"y":2259,"visible":true,"properties":[{"name":"layer","type":"int","value":5},{"name":"group","type":"int","value":0},{"name":"id","type":"int","value":89},{"name":"fh_layer","type":"int","value":5},{"name":"fh_group","type":"int","value":0},{"name":"fh_id","type":"int","value":89},{"name":"x1","type":"int","value":68},{"name":"x2","type":"int","value":136},{"name":"y1","type":"int","value":2259},{"name":"y2","type":"int","value":2259},{"name":"next","type":"int","value":94},{"name":"prev","type":"int","value":93}],"polyline":[{"x":0,"y":0},{"x":68,"y":0}]},{"id":425,"x":-241,"y":2275,"visible":true,"properties":[{"name":"layer","type":"int","value":5},{"name":"group","type":"int","value":0},{"name":"id","type":"int","value":90},{"name":"fh_layer","type":"int","value":5},{"name":"fh_group","type":"int","value":0},{"name":"fh_id","type":"int","value":90},{"name":"x1","type":"int","value":-241},{"name":"x2","type":"int","value":-59},{"name":"y1","type":"int","value":2275},{"name":"y2","type":"int","value":2271},{"name":"next","type":"int","value":91},{"name":"prev","type":"int","value":87}],"polyline":[{"x":0,"y":0},{"x":182,"y":-4}]},{"id":426,"x":-59,"y":2271,"visible":true,"properties":[{"name":"layer","type":"int","value":5},{"name":"group","type":"int","value":0},{"name":"id","type":"int","value":91},{"name":"fh_layer","type":"int","value":5},{"name":"fh_group","type":"int","value":0},{"name":"fh_id","type":"int","value":91},{"name":"x1","type":"int","value":-59},{"name":"x2","type":"int","value":-37},{"name":"y1","type":"int","value":2271},{"name":"y2","type":"int","value":2264},{"name":"next","type":"int","value":92},{"name":"prev","type":"int","value":90}],"polyline":[{"x":0,"y":0},{"x":22,"y":-7}]},{"id":427,"x":-37,"y":2264,"visible":true,"properties":[{"name":"layer","type":"int","value":5},{"name":"group","type":"int","value":0},{"name":"id","type":"int","value":92},{"name":"fh_layer","type":"int","value":5},{"name":"fh_group","type":"int","value":0},{"name":"fh_id","type":"int","value":92},{"name":"x1","type":"int","value":-37},{"name":"x2","type":"int","value":51},{"name":"y1","type":"int","value":2264},{"name":"y2","type":"int","value":2262},{"name":"next","type":"int","value":93},{"name":"prev","type":"int","value":88}],"polyline":[{"x":0,"y":0},{"x":88,"y":-2}]},{"id":428,"x":51,"y":2262,"visible":true,"properties":[{"name":"layer","type":"int","value":5},{"name":"group","type":"int","value":0},{"name":"id","type":"int","value":93},{"name":"fh_layer","type":"int","value":5},{"name":"fh_group","type":"int","value":0},{"name":"fh_id","type":"int","value":93},{"name":"x1","type":"int","value":51},{"name":"x2","type":"int","value":68},{"name":"y1","type":"int","value":2262},{"name":"y2","type":"int","value":2259},{"name":"next","type":"int","value":89},{"name":"prev","type":"int","value":92}],"polyline":[{"x":0,"y":0},{"x":17,"y":-3}]},{"id":429,"x":136,"y":2259,"visible":true,"properties":[{"name":"layer","type":"int","value":5},{"name":"group","type":"int","value":0},{"name":"id","type":"int","value":94},{"name":"fh_layer","type":"int","value":5},{"name":"fh_group","type":"int","value":0},{"name":"fh_id","type":"int","value":94},{"name":"x1","type":"int","value":136},{"name":"x2","type":"int","value":153},{"name":"y1","type":"int","value":2259},{"name":"y2","type":"int","value":2259},{"name":"next","type":"int","value":95},{"name":"prev","type":"int","value":89}],"polyline":[{"x":0,"y":0},{"x":17,"y":0}]},{"id":430,"x":153,"y":2259,"visible":true,"properties":[{"name":"layer","type":"int","value":5},{"name":"group","type":"int","value":0},{"name":"id","type":"int","value":95},{"name":"fh_layer","type":"int","value":5},{"name":"fh_group","type":"int","value":0},{"name":"fh_id","type":"int","value":95},{"name":"x1","type":"int","value":153},{"name":"x2","type":"int","value":241},{"name":"y1","type":"int","value":2259},{"name":"y2","type":"int","value":2255},{"name":"next","type":"int","value":96},{"name":"prev","type":"int","value":94}],"polyline":[{"x":0,"y":0},{"x":88,"y":-4}]},{"id":431,"x":241,"y":2255,"visible":true,"properties":[{"name":"layer","type":"int","value":5},{"name":"group","type":"int","value":0},{"name":"id","type":"int","value":96},{"name":"fh_layer","type":"int","value":5},{"name":"fh_group","type":"int","value":0},{"name":"fh_id","type":"int","value":96},{"name":"x1","type":"int","value":241},{"name":"x2","type":"int","value":321},{"name":"y1","type":"int","value":2255},{"name":"y2","type":"int","value":2259},{"name":"next","type":"int","value":97},{"name":"prev","type":"int","value":95}],"polyline":[{"x":0,"y":0},{"x":80,"y":4}]},{"id":432,"x":321,"y":2259,"visible":true,"properties":[{"name":"layer","type":"int","value":5},{"name":"group","type":"int","value":0},{"name":"id","type":"int","value":97},{"name":"fh_layer","type":"int","value":5},{"name":"fh_group","type":"int","value":0},{"name":"fh_id","type":"int","value":97},{"name":"x1","type":"int","value":321},{"name":"x2","type":"int","value":354},{"name":"y1","type":"int","value":2259},{"name":"y2","type":"int","value":2267},{"name":"next","type":"int","value":98},{"name":"prev","type":"int","value":96}],"polyline":[{"x":0,"y":0},{"x":33,"y":8}]},{"id":433,"x":354,"y":2267,"visible":true,"properties":[{"name":"layer","type":"int","value":5},{"name":"group","type":"int","value":0},{"name":"id","type":"int","value":98},{"name":"fh_layer","type":"int","value":5},{"name":"fh_group","type":"int","value":0},{"name":"fh_id","type":"int","value":98},{"name":"x1","type":"int","value":354},{"name":"x2","type":"int","value":691},{"name":"y1","type":"int","value":2267},{"name":"y2","type":"int","value":2266},{"name":"next","type":"int","value":99},{"name":"prev","type":"int","value":97}],"polyline":[{"x":0,"y":0},{"x":337,"y":-1}]},{"id":434,"x":691,"y":2266,"visible":true,"properties":[{"name":"layer","type":"int","value":5},{"name":"group","type":"int","value":0},{"name":"id","type":"int","value":99},{"name":"fh_layer","type":"int","value":5},{"name":"fh_group","type":"int","value":0},{"name":"fh_id","type":"int","value":99},{"name":"x1","type":"int","value":691},{"name":"x2","type":"int","value":745},{"name":"y1","type":"int","value":2266},{"name":"y2","type":"int","value":2275},{"name":"next","type":"int","value":100},{"name":"prev","type":"int","value":98}],"polyline":[{"x":0,"y":0},{"x":54,"y":9}]},{"id":435,"x":745,"y":2275,"visible":true,"properties":[{"name":"layer","type":"int","value":5},{"name":"group","type":"int","value":0},{"name":"id","type":"int","value":100},{"name":"fh_layer","type":"int","value":5},{"name":"fh_group","type":"int","value":0},{"name":"fh_id","type":"int","value":100},{"name":"x1","type":"int","value":745},{"name":"x2","type":"int","value":774},{"name":"y1","type":"int","value":2275},{"name":"y2","type":"int","value":2299},{"name":"next","type":"int","value":0},{"name":"prev","type":"int","value":99}],"polyline":[{"x":0,"y":0},{"x":29,"y":24}]},{"id":436,"x":427,"y":2640,"visible":true,"properties":[{"name":"layer","type":"int","value":5},{"name":"group","type":"int","value":5},{"name":"id","type":"int","value":107},{"name":"fh_layer","type":"int","value":5},{"name":"fh_group","type":"int","value":5},{"name":"fh_id","type":"int","value":107},{"name":"x1","type":"int","value":427},{"name":"x2","type":"int","value":427},{"name":"y1","type":"int","value":2640},{"name":"y2","type":"int","value":2625},{"name":"next","type":"int","value":108},{"name":"prev","type":"int","value":0}],"polyline":[{"x":0,"y":0},{"x":0,"y":-15}]},{"id":437,"x":427,"y":2625,"visible":true,"properties":[{"name":"layer","type":"int","value":5},{"name":"group","type":"int","value":5},{"name":"id","type":"int","value":108},{"name":"fh_layer","type":"int","value":5},{"name":"fh_group","type":"int","value":5},{"name":"fh_id","type":"int","value":108},{"name":"x1","type":"int","value":427},{"name":"x2","type":"int","value":473},{"name":"y1","type":"int","value":2625},{"name":"y2","type":"int","value":2625},{"name":"next","type":"int","value":110},{"name":"prev","type":"int","value":107}],"polyline":[{"x":0,"y":0},{"x":46,"y":0}]},{"id":438,"x":540,"y":2625,"visible":true,"properties":[{"name":"layer","type":"int","value":5},{"name":"group","type":"int","value":5},{"name":"id","type":"int","value":109},{"name":"fh_layer","type":"int","value":5},{"name":"fh_group","type":"int","value":5},{"name":"fh_id","type":"int","value":109},{"name":"x1","type":"int","value":540},{"name":"x2","type":"int","value":630},{"name":"y1","type":"int","value":2625},{"name":"y2","type":"int","value":2625},{"name":"next","type":"int","value":111},{"name":"prev","type":"int","value":110}],"polyline":[{"x":0,"y":0},{"x":90,"y":0}]},{"id":439,"x":473,"y":2625,"visible":true,"properties":[{"name":"layer","type":"int","value":5},{"name":"group","type":"int","value":5},{"name":"id","type":"int","value":110},{"name":"fh_layer","type":"int","value":5},{"name":"fh_group","type":"int","value":5},{"name":"fh_id","type":"int","value":110},{"name":"x1","type":"int","value":473},{"name":"x2","type":"int","value":540},{"name":"y1","type":"int","value":2625},{"name":"y2","type":"int","value":2625},{"name":"next","type":"int","value":109},{"name":"prev","type":"int","value":108}],"polyline":[{"x":0,"y":0},{"x":67,"y":0}]},{"id":440,"x":630,"y":2625,"visible":true,"properties":[{"name":"layer","type":"int","value":5},{"name":"group","type":"int","value":5},{"name":"id","type":"int","value":111},{"name":"fh_layer","type":"int","value":5},{"name":"fh_group","type":"int","value":5},{"name":"fh_id","type":"int","value":111},{"name":"x1","type":"int","value":630},{"name":"x2","type":"int","value":697},{"name":"y1","type":"int","value":2625},{"name":"y2","type":"int","value":2625},{"name":"next","type":"int","value":112},{"name":"prev","type":"int","value":109}],"polyline":[{"x":0,"y":0},{"x":67,"y":0}]},{"id":441,"x":697,"y":2625,"visible":true,"properties":[{"name":"layer","type":"int","value":5},{"name":"group","type":"int","value":5},{"name":"id","type":"int","value":112},{"name":"fh_layer","type":"int","value":5},{"name":"fh_group","type":"int","value":5},{"name":"fh_id","type":"int","value":112},{"name":"x1","type":"int","value":697},{"name":"x2","type":"int","value":720},{"name":"y1","type":"int","value":2625},{"name":"y2","type":"int","value":2625},{"name":"next","type":"int","value":113},{"name":"prev","type":"int","value":111}],"polyline":[{"x":0,"y":0},{"x":23,"y":0}]},{"id":442,"x":720,"y":2625,"visible":true,"properties":[{"name":"layer","type":"int","value":5},{"name":"group","type":"int","value":5},{"name":"id","type":"int","value":113},{"name":"fh_layer","type":"int","value":5},{"name":"fh_group","type":"int","value":5},{"name":"fh_id","type":"int","value":113},{"name":"x1","type":"int","value":720},{"name":"x2","type":"int","value":743},{"name":"y1","type":"int","value":2625},{"name":"y2","type":"int","value":2625},{"name":"next","type":"int","value":114},{"name":"prev","type":"int","value":112}],"polyline":[{"x":0,"y":0},{"x":23,"y":0}]},{"id":443,"x":743,"y":2625,"visible":true,"properties":[{"name":"layer","type":"int","value":5},{"name":"group","type":"int","value":5},{"name":"id","type":"int","value":114},{"name":"fh_layer","type":"int","value":5},{"name":"fh_group","type":"int","value":5},{"name":"fh_id","type":"int","value":114},{"name":"x1","type":"int","value":743},{"name":"x2","type":"int","value":743},{"name":"y1","type":"int","value":2625},{"name":"y2","type":"int","value":2640},{"name":"next","type":"int","value":0},{"name":"prev","type":"int","value":113}],"polyline":[{"x":0,"y":0},{"x":0,"y":15}]},{"id":444,"x":247,"y":2580,"visible":true,"properties":[{"name":"layer","type":"int","value":5},{"name":"group","type":"int","value":12},{"name":"id","type":"int","value":115},{"name":"fh_layer","type":"int","value":5},{"name":"fh_group","type":"int","value":12},{"name":"fh_id","type":"int","value":115},{"name":"x1","type":"int","value":247},{"name":"x2","type":"int","value":247},{"name":"y1","type":"int","value":2580},{"name":"y2","type":"int","value":2565},{"name":"next","type":"int","value":116},{"name":"prev","type":"int","value":0}],"polyline":[{"x":0,"y":0},{"x":0,"y":-15}]},{"id":445,"x":247,"y":2565,"visible":true,"properties":[{"name":"layer","type":"int","value":5},{"name":"group","type":"int","value":12},{"name":"id","type":"int","value":116},{"name":"fh_layer","type":"int","value":5},{"name":"fh_group","type":"int","value":12},{"name":"fh_id","type":"int","value":116},{"name":"x1","type":"int","value":247},{"name":"x2","type":"int","value":293},{"name":"y1","type":"int","value":2565},{"name":"y2","type":"int","value":2565},{"name":"next","type":"int","value":119},{"name":"prev","type":"int","value":115}],"polyline":[{"x":0,"y":0},{"x":46,"y":0}]},{"id":446,"x":337,"y":2565,"visible":true,"properties":[{"name":"layer","type":"int","value":5},{"name":"group","type":"int","value":12},{"name":"id","type":"int","value":117},{"name":"fh_layer","type":"int","value":5},{"name":"fh_group","type":"int","value":12},{"name":"fh_id","type":"int","value":117},{"name":"x1","type":"int","value":337},{"name":"x2","type":"int","value":383},{"name":"y1","type":"int","value":2565},{"name":"y2","type":"int","value":2565},{"name":"next","type":"int","value":118},{"name":"prev","type":"int","value":119}],"polyline":[{"x":0,"y":0},{"x":46,"y":0}]},{"id":447,"x":383,"y":2565,"visible":true,"properties":[{"name":"layer","type":"int","value":5},{"name":"group","type":"int","value":12},{"name":"id","type":"int","value":118},{"name":"fh_layer","type":"int","value":5},{"name":"fh_group","type":"int","value":12},{"name":"fh_id","type":"int","value":118},{"name":"x1","type":"int","value":383},{"name":"x2","type":"int","value":383},{"name":"y1","type":"int","value":2565},{"name":"y2","type":"int","value":2580},{"name":"next","type":"int","value":0},{"name":"prev","type":"int","value":117}],"polyline":[{"x":0,"y":0},{"x":0,"y":15}]},{"id":448,"x":293,"y":2565,"visible":true,"properties":[{"name":"layer","type":"int","value":5},{"name":"group","type":"int","value":12},{"name":"id","type":"int","value":119},{"name":"fh_layer","type":"int","value":5},{"name":"fh_group","type":"int","value":12},{"name":"fh_id","type":"int","value":119},{"name":"x1","type":"int","value":293},{"name":"x2","type":"int","value":337},{"name":"y1","type":"int","value":2565},{"name":"y2","type":"int","value":2565},{"name":"next","type":"int","value":117},{"name":"prev","type":"int","value":116}],"polyline":[{"x":0,"y":0},{"x":44,"y":0}]},{"id":449,"x":787,"y":2580,"visible":true,"properties":[{"name":"layer","type":"int","value":5},{"name":"group","type":"int","value":13},{"name":"id","type":"int","value":125},{"name":"fh_layer","type":"int","value":5},{"name":"fh_group","type":"int","value":13},{"name":"fh_id","type":"int","value":125},{"name":"x1","type":"int","value":787},{"name":"x2","type":"int","value":787},{"name":"y1","type":"int","value":2580},{"name":"y2","type":"int","value":2565},{"name":"next","type":"int","value":126},{"name":"prev","type":"int","value":0}],"polyline":[{"x":0,"y":0},{"x":0,"y":-15}]},{"id":450,"x":787,"y":2565,"visible":true,"properties":[{"name":"layer","type":"int","value":5},{"name":"group","type":"int","value":13},{"name":"id","type":"int","value":126},{"name":"fh_layer","type":"int","value":5},{"name":"fh_group","type":"int","value":13},{"name":"fh_id","type":"int","value":126},{"name":"x1","type":"int","value":787},{"name":"x2","type":"int","value":833},{"name":"y1","type":"int","value":2565},{"name":"y2","type":"int","value":2565},{"name":"next","type":"int","value":129},{"name":"prev","type":"int","value":125}],"polyline":[{"x":0,"y":0},{"x":46,"y":0}]},{"id":451,"x":877,"y":2565,"visible":true,"properties":[{"name":"layer","type":"int","value":5},{"name":"group","type":"int","value":13},{"name":"id","type":"int","value":127},{"name":"fh_layer","type":"int","value":5},{"name":"fh_group","type":"int","value":13},{"name":"fh_id","type":"int","value":127},{"name":"x1","type":"int","value":877},{"name":"x2","type":"int","value":923},{"name":"y1","type":"int","value":2565},{"name":"y2","type":"int","value":2565},{"name":"next","type":"int","value":128},{"name":"prev","type":"int","value":129}],"polyline":[{"x":0,"y":0},{"x":46,"y":0}]},{"id":452,"x":923,"y":2565,"visible":true,"properties":[{"name":"layer","type":"int","value":5},{"name":"group","type":"int","value":13},{"name":"id","type":"int","value":128},{"name":"fh_layer","type":"int","value":5},{"name":"fh_group","type":"int","value":13},{"name":"fh_id","type":"int","value":128},{"name":"x1","type":"int","value":923},{"name":"x2","type":"int","value":923},{"name":"y1","type":"int","value":2565},{"name":"y2","type":"int","value":2580},{"name":"next","type":"int","value":0},{"name":"prev","type":"int","value":127}],"polyline":[{"x":0,"y":0},{"x":0,"y":15}]},{"id":453,"x":833,"y":2565,"visible":true,"properties":[{"name":"layer","type":"int","value":5},{"name":"group","type":"int","value":13},{"name":"id","type":"int","value":129},{"name":"fh_layer","type":"int","value":5},{"name":"fh_group","type":"int","value":13},{"name":"fh_id","type":"int","value":129},{"name":"x1","type":"int","value":833},{"name":"x2","type":"int","value":877},{"name":"y1","type":"int","value":2565},{"name":"y2","type":"int","value":2565},{"name":"next","type":"int","value":127},{"name":"prev","type":"int","value":126}],"polyline":[{"x":0,"y":0},{"x":44,"y":0}]},{"id":454,"x":-383,"y":2565,"visible":true,"properties":[{"name":"layer","type":"int","value":5},{"name":"group","type":"int","value":14},{"name":"id","type":"int","value":101},{"name":"fh_layer","type":"int","value":5},{"name":"fh_group","type":"int","value":14},{"name":"fh_id","type":"int","value":101},{"name":"x1","type":"int","value":-383},{"name":"x2","type":"int","value":-337},{"name":"y1","type":"int","value":2565},{"name":"y2","type":"int","value":2565},{"name":"next","type":"int","value":102},{"name":"prev","type":"int","value":106}],"polyline":[{"x":0,"y":0},{"x":46,"y":0}]},{"id":455,"x":-337,"y":2565,"visible":true,"properties":[{"name":"layer","type":"int","value":5},{"name":"group","type":"int","value":14},{"name":"id","type":"int","value":102},{"name":"fh_layer","type":"int","value":5},{"name":"fh_group","type":"int","value":14},{"name":"fh_id","type":"int","value":102},{"name":"x1","type":"int","value":-337},{"name":"x2","type":"int","value":-337},{"name":"y1","type":"int","value":2565},{"name":"y2","type":"int","value":2580},{"name":"next","type":"int","value":0},{"name":"prev","type":"int","value":101}],"polyline":[{"x":0,"y":0},{"x":0,"y":15}]},{"id":456,"x":-450,"y":2565,"visible":true,"properties":[{"name":"layer","type":"int","value":5},{"name":"group","type":"int","value":14},{"name":"id","type":"int","value":103},{"name":"fh_layer","type":"int","value":5},{"name":"fh_group","type":"int","value":14},{"name":"fh_id","type":"int","value":103},{"name":"x1","type":"int","value":-450},{"name":"x2","type":"int","value":-427},{"name":"y1","type":"int","value":2565},{"name":"y2","type":"int","value":2565},{"name":"next","type":"int","value":106},{"name":"prev","type":"int","value":105}],"polyline":[{"x":0,"y":0},{"x":23,"y":0}]},{"id":457,"x":-473,"y":2580,"visible":true,"properties":[{"name":"layer","type":"int","value":5},{"name":"group","type":"int","value":14},{"name":"id","type":"int","value":104},{"name":"fh_layer","type":"int","value":5},{"name":"fh_group","type":"int","value":14},{"name":"fh_id","type":"int","value":104},{"name":"x1","type":"int","value":-473},{"name":"x2","type":"int","value":-473},{"name":"y1","type":"int","value":2580},{"name":"y2","type":"int","value":2565},{"name":"next","type":"int","value":105},{"name":"prev","type":"int","value":0}],"polyline":[{"x":0,"y":0},{"x":0,"y":-15}]},{"id":458,"x":-473,"y":2565,"visible":true,"properties":[{"name":"layer","type":"int","value":5},{"name":"group","type":"int","value":14},{"name":"id","type":"int","value":105},{"name":"fh_layer","type":"int","value":5},{"name":"fh_group","type":"int","value":14},{"name":"fh_id","type":"int","value":105},{"name":"x1","type":"int","value":-473},{"name":"x2","type":"int","value":-450},{"name":"y1","type":"int","value":2565},{"name":"y2","type":"int","value":2565},{"name":"next","type":"int","value":103},{"name":"prev","type":"int","value":104}],"polyline":[{"x":0,"y":0},{"x":23,"y":0}]},{"id":459,"x":-427,"y":2565,"visible":true,"properties":[{"name":"layer","type":"int","value":5},{"name":"group","type":"int","value":14},{"name":"id","type":"int","value":106},{"name":"fh_layer","type":"int","value":5},{"name":"fh_group","type":"int","value":14},{"name":"fh_id","type":"int","value":106},{"name":"x1","type":"int","value":-427},{"name":"x2","type":"int","value":-383},{"name":"y1","type":"int","value":2565},{"name":"y2","type":"int","value":2565},{"name":"next","type":"int","value":101},{"name":"prev","type":"int","value":103}],"polyline":[{"x":0,"y":0},{"x":44,"y":0}]},{"id":460,"x":157,"y":2520,"visible":true,"properties":[{"name":"layer","type":"int","value":5},{"name":"group","type":"int","value":16},{"name":"id","type":"int","value":120},{"name":"fh_layer","type":"int","value":5},{"name":"fh_group","type":"int","value":16},{"name":"fh_id","type":"int","value":120},{"name":"x1","type":"int","value":157},{"name":"x2","type":"int","value":157},{"name":"y1","type":"int","value":2520},{"name":"y2","type":"int","value":2505},{"name":"next","type":"int","value":121},{"name":"prev","type":"int","value":0}],"polyline":[{"x":0,"y":0},{"x":0,"y":-15}]},{"id":461,"x":157,"y":2505,"visible":true,"properties":[{"name":"layer","type":"int","value":5},{"name":"group","type":"int","value":16},{"name":"id","type":"int","value":121},{"name":"fh_layer","type":"int","value":5},{"name":"fh_group","type":"int","value":16},{"name":"fh_id","type":"int","value":121},{"name":"x1","type":"int","value":157},{"name":"x2","type":"int","value":203},{"name":"y1","type":"int","value":2505},{"name":"y2","type":"int","value":2505},{"name":"next","type":"int","value":124},{"name":"prev","type":"int","value":120}],"polyline":[{"x":0,"y":0},{"x":46,"y":0}]},{"id":462,"x":247,"y":2505,"visible":true,"properties":[{"name":"layer","type":"int","value":5},{"name":"group","type":"int","value":16},{"name":"id","type":"int","value":122},{"name":"fh_layer","type":"int","value":5},{"name":"fh_group","type":"int","value":16},{"name":"fh_id","type":"int","value":122},{"name":"x1","type":"int","value":247},{"name":"x2","type":"int","value":293},{"name":"y1","type":"int","value":2505},{"name":"y2","type":"int","value":2505},{"name":"next","type":"int","value":123},{"name":"prev","type":"int","value":124}],"polyline":[{"x":0,"y":0},{"x":46,"y":0}]},{"id":463,"x":293,"y":2505,"visible":true,"properties":[{"name":"layer","type":"int","value":5},{"name":"group","type":"int","value":16},{"name":"id","type":"int","value":123},{"name":"fh_layer","type":"int","value":5},{"name":"fh_group","type":"int","value":16},{"name":"fh_id","type":"int","value":123},{"name":"x1","type":"int","value":293},{"name":"x2","type":"int","value":293},{"name":"y1","type":"int","value":2505},{"name":"y2","type":"int","value":2520},{"name":"next","type":"int","value":0},{"name":"prev","type":"int","value":122}],"polyline":[{"x":0,"y":0},{"x":0,"y":15}]},{"id":464,"x":203,"y":2505,"visible":true,"properties":[{"name":"layer","type":"int","value":5},{"name":"group","type":"int","value":16},{"name":"id","type":"int","value":124},{"name":"fh_layer","type":"int","value":5},{"name":"fh_group","type":"int","value":16},{"name":"fh_id","type":"int","value":124},{"name":"x1","type":"int","value":203},{"name":"x2","type":"int","value":247},{"name":"y1","type":"int","value":2505},{"name":"y2","type":"int","value":2505},{"name":"next","type":"int","value":122},{"name":"prev","type":"int","value":121}],"polyline":[{"x":0,"y":0},{"x":44,"y":0}]},{"id":465,"x":877,"y":2520,"visible":true,"properties":[{"name":"layer","type":"int","value":5},{"name":"group","type":"int","value":17},{"name":"id","type":"int","value":130},{"name":"fh_layer","type":"int","value":5},{"name":"fh_group","type":"int","value":17},{"name":"fh_id","type":"int","value":130},{"name":"x1","type":"int","value":877},{"name":"x2","type":"int","value":877},{"name":"y1","type":"int","value":2520},{"name":"y2","type":"int","value":2505},{"name":"next","type":"int","value":131},{"name":"prev","type":"int","value":0}],"polyline":[{"x":0,"y":0},{"x":0,"y":-15}]},{"id":466,"x":877,"y":2505,"visible":true,"properties":[{"name":"layer","type":"int","value":5},{"name":"group","type":"int","value":17},{"name":"id","type":"int","value":131},{"name":"fh_layer","type":"int","value":5},{"name":"fh_group","type":"int","value":17},{"name":"fh_id","type":"int","value":131},{"name":"x1","type":"int","value":877},{"name":"x2","type":"int","value":923},{"name":"y1","type":"int","value":2505},{"name":"y2","type":"int","value":2505},{"name":"next","type":"int","value":134},{"name":"prev","type":"int","value":130}],"polyline":[{"x":0,"y":0},{"x":46,"y":0}]},{"id":467,"x":967,"y":2505,"visible":true,"properties":[{"name":"layer","type":"int","value":5},{"name":"group","type":"int","value":17},{"name":"id","type":"int","value":132},{"name":"fh_layer","type":"int","value":5},{"name":"fh_group","type":"int","value":17},{"name":"fh_id","type":"int","value":132},{"name":"x1","type":"int","value":967},{"name":"x2","type":"int","value":1013},{"name":"y1","type":"int","value":2505},{"name":"y2","type":"int","value":2505},{"name":"next","type":"int","value":133},{"name":"prev","type":"int","value":134}],"polyline":[{"x":0,"y":0},{"x":46,"y":0}]},{"id":468,"x":1013,"y":2505,"visible":true,"properties":[{"name":"layer","type":"int","value":5},{"name":"group","type":"int","value":17},{"name":"id","type":"int","value":133},{"name":"fh_layer","type":"int","value":5},{"name":"fh_group","type":"int","value":17},{"name":"fh_id","type":"int","value":133},{"name":"x1","type":"int","value":1013},{"name":"x2","type":"int","value":1013},{"name":"y1","type":"int","value":2505},{"name":"y2","type":"int","value":2520},{"name":"next","type":"int","value":0},{"name":"prev","type":"int","value":132}],"polyline":[{"x":0,"y":0},{"x":0,"y":15}]},{"id":469,"x":923,"y":2505,"visible":true,"properties":[{"name":"layer","type":"int","value":5},{"name":"group","type":"int","value":17},{"name":"id","type":"int","value":134},{"name":"fh_layer","type":"int","value":5},{"name":"fh_group","type":"int","value":17},{"name":"fh_id","type":"int","value":134},{"name":"x1","type":"int","value":923},{"name":"x2","type":"int","value":967},{"name":"y1","type":"int","value":2505},{"name":"y2","type":"int","value":2505},{"name":"next","type":"int","value":132},{"name":"prev","type":"int","value":131}],"polyline":[{"x":0,"y":0},{"x":44,"y":0}]},{"id":470,"x":792,"y":2264,"visible":true,"properties":[{"name":"layer","type":"int","value":5},{"name":"group","type":"int","value":17},{"name":"id","type":"int","value":135},{"name":"fh_layer","type":"int","value":5},{"name":"fh_group","type":"int","value":17},{"name":"fh_id","type":"int","value":135},{"name":"x1","type":"int","value":792},{"name":"x2","type":"int","value":803},{"name":"y1","type":"int","value":2264},{"name":"y2","type":"int","value":2260},{"name":"next","type":"int","value":136},{"name":"prev","type":"int","value":0}],"polyline":[{"x":0,"y":0},{"x":11,"y":-4}]},{"id":471,"x":803,"y":2260,"visible":true,"properties":[{"name":"layer","type":"int","value":5},{"name":"group","type":"int","value":17},{"name":"id","type":"int","value":136},{"name":"fh_layer","type":"int","value":5},{"name":"fh_group","type":"int","value":17},{"name":"fh_id","type":"int","value":136},{"name":"x1","type":"int","value":803},{"name":"x2","type":"int","value":868},{"name":"y1","type":"int","value":2260},{"name":"y2","type":"int","value":2261},{"name":"next","type":"int","value":137},{"name":"prev","type":"int","value":135}],"polyline":[{"x":0,"y":0},{"x":65,"y":1}]},{"id":472,"x":868,"y":2261,"visible":true,"properties":[{"name":"layer","type":"int","value":5},{"name":"group","type":"int","value":17},{"name":"id","type":"int","value":137},{"name":"fh_layer","type":"int","value":5},{"name":"fh_group","type":"int","value":17},{"name":"fh_id","type":"int","value":137},{"name":"x1","type":"int","value":868},{"name":"x2","type":"int","value":883},{"name":"y1","type":"int","value":2261},{"name":"y2","type":"int","value":2265},{"name":"next","type":"int","value":138},{"name":"prev","type":"int","value":136}],"polyline":[{"x":0,"y":0},{"x":15,"y":4}]},{"id":473,"x":883,"y":2265,"visible":true,"properties":[{"name":"layer","type":"int","value":5},{"name":"group","type":"int","value":17},{"name":"id","type":"int","value":138},{"name":"fh_layer","type":"int","value":5},{"name":"fh_group","type":"int","value":17},{"name":"fh_id","type":"int","value":138},{"name":"x1","type":"int","value":883},{"name":"x2","type":"int","value":1039},{"name":"y1","type":"int","value":2265},{"name":"y2","type":"int","value":2270},{"name":"next","type":"int","value":83},{"name":"prev","type":"int","value":137}],"polyline":[{"x":0,"y":0},{"x":156,"y":5}]}]},{"id":30,"name":"ladderRope","type":"objectgroup","visible":true,"opacity":1,"objects":[{"id":474,"x":73,"y":1937,"visible":true,"properties":[{"name":"ladder_id","type":"int","value":1},{"name":"l","type":"int","value":0},{"name":"x","type":"int","value":73},{"name":"uf","type":"int","value":1},{"name":"y1","type":"int","value":1937},{"name":"y2","type":"int","value":2199},{"name":"page","type":"int","value":5}],"polyline":[{"x":0,"y":0},{"x":0,"y":262}]},{"id":475,"x":201,"y":1702,"visible":true,"properties":[{"name":"ladder_id","type":"int","value":2},{"name":"l","type":"int","value":0},{"name":"x","type":"int","value":201},{"name":"uf","type":"int","value":1},{"name":"y1","type":"int","value":1702},{"name":"y2","type":"int","value":1904},{"name":"page","type":"int","value":5}],"polyline":[{"x":0,"y":0},{"x":0,"y":202}]},{"id":476,"x":936,"y":1772,"visible":true,"properties":[{"name":"ladder_id","type":"int","value":3},{"name":"l","type":"int","value":0},{"name":"x","type":"int","value":936},{"name":"uf","type":"int","value":1},{"name":"y1","type":"int","value":1772},{"name":"y2","type":"int","value":2216},{"name":"page","type":"int","value":5}],"polyline":[{"x":0,"y":0},{"x":0,"y":444}]},{"id":477,"x":589,"y":2627,"visible":true,"properties":[{"name":"ladder_id","type":"int","value":4},{"name":"l","type":"int","value":1},{"name":"x","type":"int","value":589},{"name":"uf","type":"int","value":1},{"name":"y1","type":"int","value":2627},{"name":"y2","type":"int","value":2812},{"name":"page","type":"int","value":6}],"polyline":[{"x":0,"y":0},{"x":0,"y":185}]},{"id":478,"x":176,"y":2259,"visible":true,"properties":[{"name":"ladder_id","type":"int","value":5},{"name":"l","type":"int","value":0},{"name":"x","type":"int","value":176},{"name":"uf","type":"int","value":1},{"name":"y1","type":"int","value":2259},{"name":"y2","type":"int","value":2459},{"name":"page","type":"int","value":6}],"polyline":[{"x":0,"y":0},{"x":0,"y":200}]},{"id":479,"x":977,"y":2270,"visible":true,"properties":[{"name":"ladder_id","type":"int","value":6},{"name":"l","type":"int","value":0},{"name":"x","type":"int","value":977},{"name":"uf","type":"int","value":1},{"name":"y1","type":"int","value":2270},{"name":"y2","type":"int","value":2473},{"name":"page","type":"int","value":6}],"polyline":[{"x":0,"y":0},{"x":0,"y":203}]},{"id":480,"x":1269,"y":2199,"visible":true,"properties":[{"name":"ladder_id","type":"int","value":7},{"name":"l","type":"int","value":0},{"name":"x","type":"int","value":1269},{"name":"uf","type":"int","value":1},{"name":"y1","type":"int","value":2199},{"name":"y2","type":"int","value":2699},{"name":"page","type":"int","value":6}],"polyline":[{"x":0,"y":0},{"x":0,"y":500}]},{"id":481,"x":-431,"y":2567,"visible":true,"properties":[{"name":"ladder_id","type":"int","value":8},{"name":"l","type":"int","value":0},{"name":"x","type":"int","value":-431},{"name":"uf","type":"int","value":1},{"name":"y1","type":"int","value":2567},{"name":"y2","type":"int","value":2798},{"name":"page","type":"int","value":6}],"polyline":[{"x":0,"y":0},{"x":0,"y":231}]},{"id":482,"x":-384,"y":2290,"visible":true,"properties":[{"name":"ladder_id","type":"int","value":9},{"name":"l","type":"int","value":0},{"name":"x","type":"int","value":-384},{"name":"uf","type":"int","value":1},{"name":"y1","type":"int","value":2290},{"name":"y2","type":"int","value":2521},{"name":"page","type":"int","value":6}],"polyline":[{"x":0,"y":0},{"x":0,"y":231}]}]},{"id":31,"name":"miniMap","type":"objectgroup","visible":true,"opacity":1,"objects":[{"id":483,"x":694,"y":-1533,"visible":true,"properties":[{"name":"mag","type":"int","value":4},{"name":"centerX","type":"int","value":694},{"name":"centerY","type":"int","value":-1533},{"name":"canvas_path","type":"string","value":"../../images/30735.png"},{"name":"canvas_width","type":"int","value":143},{"name":"canvas_height","type":"int","value":96},{"name":"canvas_origin_x","type":"int","value":0},{"name":"canvas_origin_y","type":"int","value":0}],"point":true}]}],"tilesets":[{"firstgid":1,"source":"../../tilesets/bg_dryRock.tsj"},{"firstgid":25,"source":"../../tilesets/tile_dryRock.tsj"},{"firstgid":46,"source":"../../tilesets/obj_connect_rope_0.tsj"},{"firstgid":50,"source":"../../tilesets/obj_connect_ladder_0.tsj"},{"firstgid":55,"source":"../../tilesets/obj_acc1_dryRock_rock.tsj"},{"firstgid":64,"source":"../../tilesets/obj_acc1_dryRock_nature.tsj"},{"firstgid":88,"source":"../../tilesets/obj_door_grassySoil_door.tsj"},{"firstgid":101,"source":"../../tilesets/obj_acc1_dryRock_artificiality.tsj"}],"properties":[{"name":"bgm","type":"string","value":"Bgm01/HighlandStar"},{"name":"town","type":"int","value":0},{"name":"cloud","type":"int","value":1},{"name":"mapDesc","type":"string","value":""},{"name":"mapMark","type":"string","value":"Perion"},{"name":"mobRate","type":"float","value":0.6000000238418579},{"name":"version","type":"int","value":10},{"name":"moveLimit","type":"int","value":0},{"name":"returnMap","type":"int","value":102000000},{"name":"hideMinimap","type":"int","value":0},{"name":"forcedReturn","type":"int","value":999999999}]}