{"type":"map","orientation":"orthogonal","renderorder":"right-down","infinite":false,"tilewidth":1,"tileheight":1,"width":1696,"height":2350,"nextlayerid":21,"nextobjectid":530,"layers":[{"id":1,"name":"layer_0_obj","type":"objectgroup","visible":true,"opacity":1,"objects":[{"id":25,"x":375,"y":-832,"visible":true,"properties":[{"name":"layer","type":"int","value":0},{"name":"resource_index","type":"int","value":0},{"name":"oS","type":"string","value":"event"},{"name":"l0","type":"string","value":"grassySoil"},{"name":"l1","type":"string","value":"awarding"},{"name":"l2","type":"string","value":"1"},{"name":"z","type":"int","value":5},{"name":"zM","type":"int","value":28},{"name":"f","type":"int","value":0}],"gid":93,"width":130,"height":79},{"id":26,"x":379,"y":-910,"visible":true,"properties":[{"name":"layer","type":"int","value":0},{"name":"resource_index","type":"int","value":1},{"name":"oS","type":"string","value":"event"},{"name":"l0","type":"string","value":"grassySoil"},{"name":"l1","type":"string","value":"awarding"},{"name":"l2","type":"string","value":"2"},{"name":"z","type":"int","value":4},{"name":"zM","type":"int","value":28},{"name":"f","type":"int","value":0}],"gid":94,"width":90,"height":84},{"id":27,"x":-44,"y":-837,"visible":true,"properties":[{"name":"layer","type":"int","value":0},{"name":"resource_index","type":"int","value":2},{"name":"oS","type":"string","value":"event"},{"name":"l0","type":"string","value":"grassySoil"},{"name":"l1","type":"string","value":"awarding"},{"name":"l2","type":"string","value":"3"},{"name":"z","type":"int","value":5},{"name":"zM","type":"int","value":28},{"name":"f","type":"int","value":0}],"gid":95,"width":118,"height":57},{"id":28,"x":52,"y":-930,"visible":true,"properties":[{"name":"layer","type":"int","value":0},{"name":"resource_index","type":"int","value":3},{"name":"oS","type":"string","value":"event"},{"name":"l0","type":"string","value":"grassySoil"},{"name":"l1","type":"string","value":"awarding"},{"name":"l2","type":"string","value":"0"},{"name":"z","type":"int","value":1},{"name":"zM","type":"int","value":28},{"name":"f","type":"int","value":0}],"gid":96,"width":334,"height":194},{"id":29,"x":356,"y":-796,"visible":true,"properties":[{"name":"layer","type":"int","value":0},{"name":"resource_index","type":"int","value":4},{"name":"oS","type":"string","value":"acc1"},{"name":"l0","type":"string","value":"grassySoil"},{"name":"l1","type":"string","value":"nature"},{"name":"l2","type":"string","value":"13"},{"name":"z","type":"int","value":0},{"name":"zM","type":"int","value":28},{"name":"f","type":"int","value":0}],"gid":65,"width":223,"height":128},{"id":30,"x":-142,"y":-823,"visible":true,"properties":[{"name":"layer","type":"int","value":0},{"name":"resource_index","type":"int","value":5},{"name":"oS","type":"string","value":"acc1"},{"name":"l0","type":"string","value":"darkWood"},{"name":"l1","type":"string","value":"nature"},{"name":"l2","type":"string","value":"20"},{"name":"z","type":"int","value":2},{"name":"zM","type":"int","value":28},{"name":"f","type":"int","value":0}],"gid":33,"width":149,"height":67},{"id":31,"x":486,"y":-826,"visible":true,"properties":[{"name":"layer","type":"int","value":0},{"name":"resource_index","type":"int","value":6},{"name":"oS","type":"string","value":"acc1"},{"name":"l0","type":"string","value":"darkWood"},{"name":"l1","type":"string","value":"nature"},{"name":"l2","type":"string","value":"20"},{"name":"z","type":"int","value":4},{"name":"zM","type":"int","value":28},{"name":"f","type":"int","value":0}],"gid":33,"width":149,"height":67},{"id":32,"x":486,"y":-833,"visible":true,"properties":[{"name":"layer","type":"int","value":0},{"name":"resource_index","type":"int","value":7},{"name":"oS","type":"string","value":"acc1"},{"name":"l0","type":"string","value":"grassySoil"},{"name":"l1","type":"string","value":"nature"},{"name":"l2","type":"string","value":"5"},{"name":"z","type":"int","value":2},{"name":"zM","type":"int","value":28},{"name":"f","type":"int","value":0}],"gid":78,"width":47,"height":66},{"id":33,"x":341,"y":-835,"visible":true,"properties":[{"name":"layer","type":"int","value":0},{"name":"resource_index","type":"int","value":8},{"name":"oS","type":"string","value":"acc1"},{"name":"l0","type":"string","value":"grassySoil"},{"name":"l1","type":"string","value":"nature"},{"name":"l2","type":"string","value":"6"},{"name":"z","type":"int","value":3},{"name":"zM","type":"int","value":28},{"name":"f","type":"int","value":0}],"gid":77,"width":56,"height":52},{"id":34,"x":324,"y":-832,"visible":true,"properties":[{"name":"layer","type":"int","value":0},{"name":"resource_index","type":"int","value":9},{"name":"oS","type":"string","value":"acc1"},{"name":"l0","type":"string","value":"grassySoil"},{"name":"l1","type":"string","value":"nature"},{"name":"l2","type":"string","value":"5"},{"name":"z","type":"int","value":2},{"name":"zM","type":"int","value":28},{"name":"f","type":"int","value":0}],"gid":78,"width":47,"height":66},{"id":35,"x":499,"y":-842,"visible":true,"properties":[{"name":"layer","type":"int","value":0},{"name":"resource_index","type":"int","value":10},{"name":"oS","type":"string","value":"acc1"},{"name":"l0","type":"string","value":"grassySoil"},{"name":"l1","type":"string","value":"nature"},{"name":"l2","type":"string","value":"5"},{"name":"z","type":"int","value":3},{"name":"zM","type":"int","value":28},{"name":"f","type":"int","value":0}],"gid":78,"width":47,"height":66},{"id":36,"x":515,"y":-847,"visible":true,"properties":[{"name":"layer","type":"int","value":0},{"name":"resource_index","type":"int","value":11},{"name":"oS","type":"string","value":"acc1"},{"name":"l0","type":"string","value":"grassySoil"},{"name":"l1","type":"string","value":"nature"},{"name":"l2","type":"string","value":"6"},{"name":"z","type":"int","value":2},{"name":"zM","type":"int","value":28},{"name":"f","type":"int","value":0}],"gid":77,"width":56,"height":52},{"id":37,"x":272,"y":-804,"visible":true,"properties":[{"name":"layer","type":"int","value":0},{"name":"resource_index","type":"int","value":12},{"name":"oS","type":"string","value":"acc1"},{"name":"l0","type":"string","value":"darkWood"},{"name":"l1","type":"string","value":"nature"},{"name":"l2","type":"string","value":"20"},{"name":"z","type":"int","value":6},{"name":"zM","type":"int","value":28},{"name":"f","type":"int","value":0}],"gid":33,"width":149,"height":67},{"id":38,"x":18,"y":-819,"visible":true,"properties":[{"name":"layer","type":"int","value":0},{"name":"resource_index","type":"int","value":13},{"name":"oS","type":"string","value":"acc1"},{"name":"l0","type":"string","value":"darkWood"},{"name":"l1","type":"string","value":"nature"},{"name":"l2","type":"string","value":"20"},{"name":"z","type":"int","value":1},{"name":"zM","type":"int","value":28},{"name":"f","type":"int","value":0}],"gid":33,"width":149,"height":67},{"id":39,"x":68,"y":-833,"visible":true,"properties":[{"name":"layer","type":"int","value":0},{"name":"resource_index","type":"int","value":14},{"name":"oS","type":"string","value":"acc1"},{"name":"l0","type":"string","value":"grassySoil"},{"name":"l1","type":"string","value":"nature"},{"name":"l2","type":"string","value":"4"},{"name":"z","type":"int","value":4},{"name":"zM","type":"int","value":28},{"name":"f","type":"int","value":0}],"gid":75,"width":43,"height":42},{"id":40,"x":99,"y":-833,"visible":true,"properties":[{"name":"layer","type":"int","value":0},{"name":"resource_index","type":"int","value":15},{"name":"oS","type":"string","value":"acc1"},{"name":"l0","type":"string","value":"grassySoil"},{"name":"l1","type":"string","value":"nature"},{"name":"l2","type":"string","value":"3"},{"name":"z","type":"int","value":3},{"name":"zM","type":"int","value":28},{"name":"f","type":"int","value":0}],"gid":74,"width":46,"height":44},{"id":41,"x":-79,"y":-834,"visible":true,"properties":[{"name":"layer","type":"int","value":0},{"name":"resource_index","type":"int","value":16},{"name":"oS","type":"string","value":"acc1"},{"name":"l0","type":"string","value":"grassySoil"},{"name":"l1","type":"string","value":"nature"},{"name":"l2","type":"string","value":"4"},{"name":"z","type":"int","value":3},{"name":"zM","type":"int","value":28},{"name":"f","type":"int","value":0}],"gid":75,"width":43,"height":42},{"id":42,"x":669,"y":8,"visible":true,"properties":[{"name":"layer","type":"int","value":0},{"name":"resource_index","type":"int","value":17},{"name":"oS","type":"string","value":"houseGS"},{"name":"l0","type":"string","value":"house12"},{"name":"l1","type":"string","value":"basic"},{"name":"l2","type":"string","value":"0"},{"name":"z","type":"int","value":2},{"name":"zM","type":"int","value":2},{"name":"f","type":"int","value":0}],"gid":64,"width":507,"height":603},{"id":43,"x":983,"y":23,"visible":true,"properties":[{"name":"layer","type":"int","value":0},{"name":"resource_index","type":"int","value":18},{"name":"oS","type":"string","value":"acc1"},{"name":"l0","type":"string","value":"darkWood"},{"name":"l1","type":"string","value":"nature"},{"name":"l2","type":"string","value":"20"},{"name":"z","type":"int","value":3},{"name":"zM","type":"int","value":2},{"name":"f","type":"int","value":0}],"gid":33,"width":149,"height":67},{"id":44,"x":631,"y":23,"visible":true,"properties":[{"name":"layer","type":"int","value":0},{"name":"resource_index","type":"int","value":19},{"name":"oS","type":"string","value":"acc1"},{"name":"l0","type":"string","value":"grassySoil"},{"name":"l1","type":"string","value":"nature"},{"name":"l2","type":"string","value":"13"},{"name":"z","type":"int","value":3},{"name":"zM","type":"int","value":2},{"name":"f","type":"int","value":0}],"gid":65,"width":223,"height":128},{"id":45,"x":-577,"y":16,"visible":true,"properties":[{"name":"layer","type":"int","value":0},{"name":"resource_index","type":"int","value":20},{"name":"oS","type":"string","value":"acc1"},{"name":"l0","type":"string","value":"grassySoil"},{"name":"l1","type":"string","value":"nature"},{"name":"l2","type":"string","value":"15"},{"name":"z","type":"int","value":3},{"name":"zM","type":"int","value":4},{"name":"f","type":"int","value":0}],"gid":68,"width":290,"height":239},{"id":46,"x":-548,"y":-74,"visible":true,"properties":[{"name":"layer","type":"int","value":0},{"name":"resource_index","type":"int","value":21},{"name":"oS","type":"string","value":"acc1"},{"name":"l0","type":"string","value":"grassySoil"},{"name":"l1","type":"string","value":"nature"},{"name":"l2","type":"string","value":"16"},{"name":"z","type":"int","value":4},{"name":"zM","type":"int","value":4},{"name":"f","type":"int","value":0}],"gid":88,"width":200,"height":105}]},{"id":2,"name":"layer_0_tile","type":"objectgroup","visible":true,"opacity":1,"objects":[{"id":1,"x":585,"y":-810,"visible":true,"properties":[{"name":"layer","type":"int","value":0},{"name":"resource_index","type":"int","value":0},{"name":"u","type":"string","value":"enH0"},{"name":"no","type":"int","value":1},{"name":"zM","type":"int","value":28}],"gid":23,"width":90,"height":32},{"id":2,"x":495,"y":-789,"visible":true,"properties":[{"name":"layer","type":"int","value":0},{"name":"resource_index","type":"int","value":1},{"name":"u","type":"string","value":"enH1"},{"name":"no","type":"int","value":0},{"name":"zM","type":"int","value":28}],"gid":20,"width":90,"height":21},{"id":3,"x":405,"y":-789,"visible":true,"properties":[{"name":"layer","type":"int","value":0},{"name":"resource_index","type":"int","value":2},{"name":"u","type":"string","value":"enH1"},{"name":"no","type":"int","value":0},{"name":"zM","type":"int","value":28}],"gid":20,"width":90,"height":21},{"id":4,"x":405,"y":-810,"visible":true,"properties":[{"name":"layer","type":"int","value":0},{"name":"resource_index","type":"int","value":3},{"name":"u","type":"string","value":"enH0"},{"name":"no","type":"int","value":3},{"name":"zM","type":"int","value":28}],"gid":15,"width":90,"height":32},{"id":5,"x":315,"y":-789,"visible":true,"properties":[{"name":"layer","type":"int","value":0},{"name":"resource_index","type":"int","value":4},{"name":"u","type":"string","value":"enH1"},{"name":"no","type":"int","value":0},{"name":"zM","type":"int","value":28}],"gid":20,"width":90,"height":21},{"id":6,"x":315,"y":-810,"visible":true,"properties":[{"name":"layer","type":"int","value":0},{"name":"resource_index","type":"int","value":5},{"name":"u","type":"string","value":"enH0"},{"name":"no","type":"int","value":2},{"name":"zM","type":"int","value":28}],"gid":22,"width":90,"height":32},{"id":7,"x":-45,"y":-788,"visible":true,"properties":[{"name":"layer","type":"int","value":0},{"name":"resource_index","type":"int","value":6},{"name":"u","type":"string","value":"enH1"},{"name":"no","type":"int","value":3},{"name":"zM","type":"int","value":28}],"gid":28,"width":90,"height":22},{"id":8,"x":225,"y":-789,"visible":true,"properties":[{"name":"layer","type":"int","value":0},{"name":"resource_index","type":"int","value":7},{"name":"u","type":"string","value":"enH1"},{"name":"no","type":"int","value":0},{"name":"zM","type":"int","value":28}],"gid":20,"width":90,"height":21},{"id":9,"x":585,"y":-788,"visible":true,"properties":[{"name":"layer","type":"int","value":0},{"name":"resource_index","type":"int","value":8},{"name":"u","type":"string","value":"enH1"},{"name":"no","type":"int","value":3},{"name":"zM","type":"int","value":28}],"gid":28,"width":90,"height":22},{"id":10,"x":-135,"y":-790,"visible":true,"properties":[{"name":"layer","type":"int","value":0},{"name":"resource_index","type":"int","value":9},{"name":"u","type":"string","value":"enH1"},{"name":"no","type":"int","value":2},{"name":"zM","type":"int","value":28}],"gid":18,"width":90,"height":20},{"id":11,"x":45,"y":-789,"visible":true,"properties":[{"name":"layer","type":"int","value":0},{"name":"resource_index","type":"int","value":10},{"name":"u","type":"string","value":"enH1"},{"name":"no","type":"int","value":0},{"name":"zM","type":"int","value":28}],"gid":20,"width":90,"height":21},{"id":12,"x":45,"y":-810,"visible":true,"properties":[{"name":"layer","type":"int","value":0},{"name":"resource_index","type":"int","value":11},{"name":"u","type":"string","value":"enH0"},{"name":"no","type":"int","value":1},{"name":"zM","type":"int","value":28}],"gid":23,"width":90,"height":32},{"id":13,"x":135,"y":-791,"visible":true,"properties":[{"name":"layer","type":"int","value":0},{"name":"resource_index","type":"int","value":12},{"name":"u","type":"string","value":"enH1"},{"name":"no","type":"int","value":1},{"name":"zM","type":"int","value":28}],"gid":10,"width":90,"height":19},{"id":14,"x":495,"y":-810,"visible":true,"properties":[{"name":"layer","type":"int","value":0},{"name":"resource_index","type":"int","value":13},{"name":"u","type":"string","value":"enH0"},{"name":"no","type":"int","value":2},{"name":"zM","type":"int","value":28}],"gid":22,"width":90,"height":32},{"id":15,"x":-45,"y":-810,"visible":true,"properties":[{"name":"layer","type":"int","value":0},{"name":"resource_index","type":"int","value":14},{"name":"u","type":"string","value":"enH0"},{"name":"no","type":"int","value":3},{"name":"zM","type":"int","value":28}],"gid":15,"width":90,"height":32},{"id":16,"x":135,"y":-810,"visible":true,"properties":[{"name":"layer","type":"int","value":0},{"name":"resource_index","type":"int","value":15},{"name":"u","type":"string","value":"enH0"},{"name":"no","type":"int","value":1},{"name":"zM","type":"int","value":28}],"gid":23,"width":90,"height":32},{"id":17,"x":225,"y":-810,"visible":true,"properties":[{"name":"layer","type":"int","value":0},{"name":"resource_index","type":"int","value":16},{"name":"u","type":"string","value":"enH0"},{"name":"no","type":"int","value":2},{"name":"zM","type":"int","value":28}],"gid":22,"width":90,"height":32},{"id":18,"x":-225,"y":-810,"visible":true,"properties":[{"name":"layer","type":"int","value":0},{"name":"resource_index","type":"int","value":17},{"name":"u","type":"string","value":"enH0"},{"name":"no","type":"int","value":3},{"name":"zM","type":"int","value":28}],"gid":15,"width":90,"height":32},{"id":19,"x":-135,"y":-810,"visible":true,"properties":[{"name":"layer","type":"int","value":0},{"name":"resource_index","type":"int","value":18},{"name":"u","type":"string","value":"enH0"},{"name":"no","type":"int","value":1},{"name":"zM","type":"int","value":28}],"gid":23,"width":90,"height":32},{"id":20,"x":-225,"y":-789,"visible":true,"properties":[{"name":"layer","type":"int","value":0},{"name":"resource_index","type":"int","value":19},{"name":"u","type":"string","value":"enH1"},{"name":"no","type":"int","value":0},{"name":"zM","type":"int","value":28}],"gid":20,"width":90,"height":21},{"id":21,"x":-249,"y":-797,"visible":true,"properties":[{"name":"layer","type":"int","value":0},{"name":"resource_index","type":"int","value":20},{"name":"u","type":"string","value":"edD"},{"name":"no","type":"int","value":0},{"name":"zM","type":"int","value":28}],"gid":24,"width":45,"height":13},{"id":22,"x":650,"y":-795,"visible":true,"properties":[{"name":"layer","type":"int","value":0},{"name":"resource_index","type":"int","value":21},{"name":"u","type":"string","value":"edD"},{"name":"no","type":"int","value":1},{"name":"zM","type":"int","value":28}],"gid":8,"width":46,"height":15},{"id":23,"x":-253,"y":-810,"visible":true,"properties":[{"name":"layer","type":"int","value":0},{"name":"resource_index","type":"int","value":22},{"name":"u","type":"string","value":"edU"},{"name":"no","type":"int","value":1},{"name":"zM","type":"int","value":0}],"gid":12,"width":54,"height":32},{"id":24,"x":647,"y":-810,"visible":true,"properties":[{"name":"layer","type":"int","value":0},{"name":"resource_index","type":"int","value":23},{"name":"u","type":"string","value":"edU"},{"name":"no","type":"int","value":1},{"name":"zM","type":"int","value":0}],"gid":12,"width":54,"height":32}]},{"id":3,"name":"layer_1_obj","type":"objectgroup","visible":true,"opacity":1,"objects":[{"id":59,"x":183,"y":-683,"visible":true,"properties":[{"name":"layer","type":"int","value":1},{"name":"resource_index","type":"int","value":0},{"name":"oS","type":"string","value":"event"},{"name":"l0","type":"string","value":"grassySoil"},{"name":"l1","type":"string","value":"awarding"},{"name":"l2","type":"string","value":"4"},{"name":"z","type":"int","value":3},{"name":"zM","type":"int","value":27},{"name":"f","type":"int","value":0}],"gid":97,"width":80,"height":87}]},{"id":4,"name":"layer_1_tile","type":"objectgroup","visible":true,"opacity":1,"objects":[{"id":47,"x":62,"y":-660,"visible":true,"properties":[{"name":"layer","type":"int","value":1},{"name":"resource_index","type":"int","value":0},{"name":"u","type":"string","value":"edU"},{"name":"no","type":"int","value":1},{"name":"zM","type":"int","value":27}],"gid":12,"width":54,"height":32},{"id":48,"x":66,"y":-647,"visible":true,"properties":[{"name":"layer","type":"int","value":1},{"name":"resource_index","type":"int","value":1},{"name":"u","type":"string","value":"edD"},{"name":"no","type":"int","value":0},{"name":"zM","type":"int","value":27}],"gid":24,"width":45,"height":13},{"id":49,"x":90,"y":-638,"visible":true,"properties":[{"name":"layer","type":"int","value":1},{"name":"resource_index","type":"int","value":2},{"name":"u","type":"string","value":"enH1"},{"name":"no","type":"int","value":3},{"name":"zM","type":"int","value":27}],"gid":28,"width":90,"height":22},{"id":50,"x":90,"y":-660,"visible":true,"properties":[{"name":"layer","type":"int","value":1},{"name":"resource_index","type":"int","value":3},{"name":"u","type":"string","value":"enH0"},{"name":"no","type":"int","value":3},{"name":"zM","type":"int","value":27}],"gid":15,"width":90,"height":32},{"id":51,"x":180,"y":-640,"visible":true,"properties":[{"name":"layer","type":"int","value":1},{"name":"resource_index","type":"int","value":4},{"name":"u","type":"string","value":"enH1"},{"name":"no","type":"int","value":2},{"name":"zM","type":"int","value":27}],"gid":18,"width":90,"height":20},{"id":52,"x":180,"y":-660,"visible":true,"properties":[{"name":"layer","type":"int","value":1},{"name":"resource_index","type":"int","value":5},{"name":"u","type":"string","value":"enH0"},{"name":"no","type":"int","value":0},{"name":"zM","type":"int","value":27}],"gid":26,"width":90,"height":33},{"id":53,"x":330,"y":-660,"visible":true,"properties":[{"name":"layer","type":"int","value":1},{"name":"resource_index","type":"int","value":6},{"name":"u","type":"string","value":"edU"},{"name":"no","type":"int","value":0},{"name":"zM","type":"int","value":27}],"gid":16,"width":61,"height":33},{"id":54,"x":335,"y":-645,"visible":true,"properties":[{"name":"layer","type":"int","value":1},{"name":"resource_index","type":"int","value":7},{"name":"u","type":"string","value":"edD"},{"name":"no","type":"int","value":1},{"name":"zM","type":"int","value":27}],"gid":8,"width":46,"height":15},{"id":55,"x":270,"y":-660,"visible":true,"properties":[{"name":"layer","type":"int","value":1},{"name":"resource_index","type":"int","value":8},{"name":"u","type":"string","value":"enH0"},{"name":"no","type":"int","value":3},{"name":"zM","type":"int","value":27}],"gid":15,"width":90,"height":32},{"id":56,"x":270,"y":-641,"visible":true,"properties":[{"name":"layer","type":"int","value":1},{"name":"resource_index","type":"int","value":9},{"name":"u","type":"string","value":"enH1"},{"name":"no","type":"int","value":1},{"name":"zM","type":"int","value":27}],"gid":10,"width":90,"height":19},{"id":57,"x":512,"y":0,"visible":true,"properties":[{"name":"layer","type":"int","value":1},{"name":"resource_index","type":"int","value":10},{"name":"u","type":"string","value":"edU"},{"name":"no","type":"int","value":1},{"name":"zM","type":"int","value":3}],"gid":12,"width":54,"height":32},{"id":58,"x":515,"y":15,"visible":true,"properties":[{"name":"layer","type":"int","value":1},{"name":"resource_index","type":"int","value":11},{"name":"u","type":"string","value":"edD"},{"name":"no","type":"int","value":1},{"name":"zM","type":"int","value":3}],"gid":8,"width":46,"height":15}]},{"id":5,"name":"layer_2_obj","type":"objectgroup","visible":true,"opacity":1,"objects":[{"id":78,"x":182,"y":-588,"visible":true,"properties":[{"name":"layer","type":"int","value":2},{"name":"resource_index","type":"int","value":0},{"name":"oS","type":"string","value":"event"},{"name":"l0","type":"string","value":"grassySoil"},{"name":"l1","type":"string","value":"awarding"},{"name":"l2","type":"string","value":"5"},{"name":"z","type":"int","value":3},{"name":"zM","type":"int","value":24},{"name":"f","type":"int","value":0}],"gid":98,"width":80,"height":87}]},{"id":6,"name":"layer_2_tile","type":"objectgroup","visible":true,"opacity":1,"objects":[{"id":60,"x":15,"y":-510,"visible":true,"properties":[{"name":"layer","type":"int","value":2},{"name":"resource_index","type":"int","value":0},{"name":"u","type":"string","value":"edU"},{"name":"no","type":"int","value":0},{"name":"zM","type":"int","value":22}],"gid":16,"width":61,"height":33},{"id":61,"x":20,"y":-495,"visible":true,"properties":[{"name":"layer","type":"int","value":2},{"name":"resource_index","type":"int","value":1},{"name":"u","type":"string","value":"edD"},{"name":"no","type":"int","value":1},{"name":"zM","type":"int","value":22}],"gid":8,"width":46,"height":15},{"id":62,"x":45,"y":-488,"visible":true,"properties":[{"name":"layer","type":"int","value":2},{"name":"resource_index","type":"int","value":2},{"name":"u","type":"string","value":"enH1"},{"name":"no","type":"int","value":3},{"name":"zM","type":"int","value":22}],"gid":28,"width":90,"height":22},{"id":63,"x":45,"y":-510,"visible":true,"properties":[{"name":"layer","type":"int","value":2},{"name":"resource_index","type":"int","value":3},{"name":"u","type":"string","value":"enH0"},{"name":"no","type":"int","value":1},{"name":"zM","type":"int","value":22}],"gid":23,"width":90,"height":32},{"id":64,"x":135,"y":-491,"visible":true,"properties":[{"name":"layer","type":"int","value":2},{"name":"resource_index","type":"int","value":4},{"name":"u","type":"string","value":"enH1"},{"name":"no","type":"int","value":1},{"name":"zM","type":"int","value":22}],"gid":10,"width":90,"height":19},{"id":65,"x":135,"y":-510,"visible":true,"properties":[{"name":"layer","type":"int","value":2},{"name":"resource_index","type":"int","value":5},{"name":"u","type":"string","value":"enH0"},{"name":"no","type":"int","value":0},{"name":"zM","type":"int","value":22}],"gid":26,"width":90,"height":33},{"id":66,"x":225,"y":-488,"visible":true,"properties":[{"name":"layer","type":"int","value":2},{"name":"resource_index","type":"int","value":6},{"name":"u","type":"string","value":"enH1"},{"name":"no","type":"int","value":3},{"name":"zM","type":"int","value":22}],"gid":28,"width":90,"height":22},{"id":67,"x":225,"y":-510,"visible":true,"properties":[{"name":"layer","type":"int","value":2},{"name":"resource_index","type":"int","value":7},{"name":"u","type":"string","value":"enH0"},{"name":"no","type":"int","value":2},{"name":"zM","type":"int","value":22}],"gid":22,"width":90,"height":32},{"id":68,"x":375,"y":-510,"visible":true,"properties":[{"name":"layer","type":"int","value":2},{"name":"resource_index","type":"int","value":8},{"name":"u","type":"string","value":"edU"},{"name":"no","type":"int","value":0},{"name":"zM","type":"int","value":22}],"gid":16,"width":61,"height":33},{"id":69,"x":380,"y":-495,"visible":true,"properties":[{"name":"layer","type":"int","value":2},{"name":"resource_index","type":"int","value":9},{"name":"u","type":"string","value":"edD"},{"name":"no","type":"int","value":1},{"name":"zM","type":"int","value":22}],"gid":8,"width":46,"height":15},{"id":70,"x":315,"y":-510,"visible":true,"properties":[{"name":"layer","type":"int","value":2},{"name":"resource_index","type":"int","value":10},{"name":"u","type":"string","value":"enH0"},{"name":"no","type":"int","value":0},{"name":"zM","type":"int","value":22}],"gid":26,"width":90,"height":33},{"id":71,"x":315,"y":-490,"visible":true,"properties":[{"name":"layer","type":"int","value":2},{"name":"resource_index","type":"int","value":11},{"name":"u","type":"string","value":"enH1"},{"name":"no","type":"int","value":2},{"name":"zM","type":"int","value":22}],"gid":18,"width":90,"height":20},{"id":72,"x":195,"y":-570,"visible":true,"properties":[{"name":"layer","type":"int","value":2},{"name":"resource_index","type":"int","value":12},{"name":"u","type":"string","value":"edU"},{"name":"no","type":"int","value":0},{"name":"zM","type":"int","value":23}],"gid":16,"width":61,"height":33},{"id":73,"x":201,"y":-557,"visible":true,"properties":[{"name":"layer","type":"int","value":2},{"name":"resource_index","type":"int","value":13},{"name":"u","type":"string","value":"edD"},{"name":"no","type":"int","value":0},{"name":"zM","type":"int","value":23}],"gid":24,"width":45,"height":13},{"id":74,"x":290,"y":-615,"visible":true,"properties":[{"name":"layer","type":"int","value":2},{"name":"resource_index","type":"int","value":14},{"name":"u","type":"string","value":"edD"},{"name":"no","type":"int","value":1},{"name":"zM","type":"int","value":25}],"gid":8,"width":46,"height":15},{"id":75,"x":287,"y":-630,"visible":true,"properties":[{"name":"layer","type":"int","value":2},{"name":"resource_index","type":"int","value":15},{"name":"u","type":"string","value":"edU"},{"name":"no","type":"int","value":1},{"name":"zM","type":"int","value":25}],"gid":12,"width":54,"height":32},{"id":76,"x":105,"y":-630,"visible":true,"properties":[{"name":"layer","type":"int","value":2},{"name":"resource_index","type":"int","value":16},{"name":"u","type":"string","value":"edU"},{"name":"no","type":"int","value":0},{"name":"zM","type":"int","value":26}],"gid":16,"width":61,"height":33},{"id":77,"x":111,"y":-617,"visible":true,"properties":[{"name":"layer","type":"int","value":2},{"name":"resource_index","type":"int","value":17},{"name":"u","type":"string","value":"edD"},{"name":"no","type":"int","value":0},{"name":"zM","type":"int","value":26}],"gid":24,"width":45,"height":13}]},{"id":7,"name":"layer_4_obj","type":"objectgroup","visible":true,"opacity":1,"objects":[{"id":156,"x":136,"y":-53,"visible":true,"properties":[{"name":"layer","type":"int","value":4},{"name":"resource_index","type":"int","value":0},{"name":"oS","type":"string","value":"event"},{"name":"l0","type":"string","value":"grassySoil"},{"name":"l1","type":"string","value":"awarding"},{"name":"l2","type":"string","value":"8"},{"name":"z","type":"int","value":3},{"name":"zM","type":"int","value":1},{"name":"f","type":"int","value":0}],"gid":99,"width":80,"height":87},{"id":157,"x":230,"y":-204,"visible":true,"properties":[{"name":"layer","type":"int","value":4},{"name":"resource_index","type":"int","value":1},{"name":"oS","type":"string","value":"event"},{"name":"l0","type":"string","value":"grassySoil"},{"name":"l1","type":"string","value":"awarding"},{"name":"l2","type":"string","value":"7"},{"name":"z","type":"int","value":3},{"name":"zM","type":"int","value":10},{"name":"f","type":"int","value":0}],"gid":100,"width":80,"height":87},{"id":158,"x":182,"y":-409,"visible":true,"properties":[{"name":"layer","type":"int","value":4},{"name":"resource_index","type":"int","value":2},{"name":"oS","type":"string","value":"event"},{"name":"l0","type":"string","value":"grassySoil"},{"name":"l1","type":"string","value":"awarding"},{"name":"l2","type":"string","value":"6"},{"name":"z","type":"int","value":3},{"name":"zM","type":"int","value":19},{"name":"f","type":"int","value":0}],"gid":101,"width":80,"height":87}]},{"id":8,"name":"layer_4_tile","type":"objectgroup","visible":true,"opacity":1,"objects":[{"id":79,"x":585,"y":30,"visible":true,"properties":[{"name":"layer","type":"int","value":4},{"name":"resource_index","type":"int","value":0},{"name":"u","type":"string","value":"bsc"},{"name":"no","type":"int","value":4},{"name":"zM","type":"int","value":1}],"gid":9,"width":90,"height":60},{"id":80,"x":651,"y":43,"visible":true,"properties":[{"name":"layer","type":"int","value":4},{"name":"resource_index","type":"int","value":1},{"name":"u","type":"string","value":"edD"},{"name":"no","type":"int","value":0},{"name":"zM","type":"int","value":1}],"gid":24,"width":45,"height":13},{"id":81,"x":405,"y":30,"visible":true,"properties":[{"name":"layer","type":"int","value":4},{"name":"resource_index","type":"int","value":2},{"name":"u","type":"string","value":"bsc"},{"name":"no","type":"int","value":2},{"name":"zM","type":"int","value":1}],"gid":11,"width":90,"height":60},{"id":82,"x":315,"y":52,"visible":true,"properties":[{"name":"layer","type":"int","value":4},{"name":"resource_index","type":"int","value":3},{"name":"u","type":"string","value":"enH1"},{"name":"no","type":"int","value":3},{"name":"zM","type":"int","value":1}],"gid":28,"width":90,"height":22},{"id":83,"x":495,"y":-30,"visible":true,"properties":[{"name":"layer","type":"int","value":4},{"name":"resource_index","type":"int","value":4},{"name":"u","type":"string","value":"enH0"},{"name":"no","type":"int","value":2},{"name":"zM","type":"int","value":1}],"gid":22,"width":90,"height":32},{"id":84,"x":495,"y":30,"visible":true,"properties":[{"name":"layer","type":"int","value":4},{"name":"resource_index","type":"int","value":5},{"name":"u","type":"string","value":"bsc"},{"name":"no","type":"int","value":4},{"name":"zM","type":"int","value":1}],"gid":9,"width":90,"height":60},{"id":85,"x":495,"y":52,"visible":true,"properties":[{"name":"layer","type":"int","value":4},{"name":"resource_index","type":"int","value":6},{"name":"u","type":"string","value":"enH1"},{"name":"no","type":"int","value":3},{"name":"zM","type":"int","value":1}],"gid":28,"width":90,"height":22},{"id":86,"x":585,"y":49,"visible":true,"properties":[{"name":"layer","type":"int","value":4},{"name":"resource_index","type":"int","value":7},{"name":"u","type":"string","value":"enH1"},{"name":"no","type":"int","value":1},{"name":"zM","type":"int","value":1}],"gid":10,"width":90,"height":19},{"id":87,"x":405,"y":52,"visible":true,"properties":[{"name":"layer","type":"int","value":4},{"name":"resource_index","type":"int","value":8},{"name":"u","type":"string","value":"enH1"},{"name":"no","type":"int","value":3},{"name":"zM","type":"int","value":1}],"gid":28,"width":90,"height":22},{"id":88,"x":315,"y":30,"visible":true,"properties":[{"name":"layer","type":"int","value":4},{"name":"resource_index","type":"int","value":9},{"name":"u","type":"string","value":"bsc"},{"name":"no","type":"int","value":4},{"name":"zM","type":"int","value":1}],"gid":9,"width":90,"height":60},{"id":89,"x":225,"y":49,"visible":true,"properties":[{"name":"layer","type":"int","value":4},{"name":"resource_index","type":"int","value":10},{"name":"u","type":"string","value":"enH1"},{"name":"no","type":"int","value":1},{"name":"zM","type":"int","value":1}],"gid":10,"width":90,"height":19},{"id":90,"x":405,"y":-30,"visible":true,"properties":[{"name":"layer","type":"int","value":4},{"name":"resource_index","type":"int","value":11},{"name":"u","type":"string","value":"enH0"},{"name":"no","type":"int","value":2},{"name":"zM","type":"int","value":1}],"gid":22,"width":90,"height":32},{"id":91,"x":225,"y":30,"visible":true,"properties":[{"name":"layer","type":"int","value":4},{"name":"resource_index","type":"int","value":12},{"name":"u","type":"string","value":"bsc"},{"name":"no","type":"int","value":4},{"name":"zM","type":"int","value":1}],"gid":9,"width":90,"height":60},{"id":92,"x":135,"y":52,"visible":true,"properties":[{"name":"layer","type":"int","value":4},{"name":"resource_index","type":"int","value":13},{"name":"u","type":"string","value":"enH1"},{"name":"no","type":"int","value":3},{"name":"zM","type":"int","value":1}],"gid":28,"width":90,"height":22},{"id":93,"x":315,"y":-30,"visible":true,"properties":[{"name":"layer","type":"int","value":4},{"name":"resource_index","type":"int","value":14},{"name":"u","type":"string","value":"enH0"},{"name":"no","type":"int","value":2},{"name":"zM","type":"int","value":1}],"gid":22,"width":90,"height":32},{"id":94,"x":135,"y":30,"visible":true,"properties":[{"name":"layer","type":"int","value":4},{"name":"resource_index","type":"int","value":15},{"name":"u","type":"string","value":"bsc"},{"name":"no","type":"int","value":0},{"name":"zM","type":"int","value":1}],"gid":17,"width":90,"height":60},{"id":95,"x":45,"y":50,"visible":true,"properties":[{"name":"layer","type":"int","value":4},{"name":"resource_index","type":"int","value":16},{"name":"u","type":"string","value":"enH1"},{"name":"no","type":"int","value":2},{"name":"zM","type":"int","value":1}],"gid":18,"width":90,"height":20},{"id":96,"x":225,"y":-30,"visible":true,"properties":[{"name":"layer","type":"int","value":4},{"name":"resource_index","type":"int","value":17},{"name":"u","type":"string","value":"enH0"},{"name":"no","type":"int","value":1},{"name":"zM","type":"int","value":1}],"gid":23,"width":90,"height":32},{"id":97,"x":45,"y":30,"visible":true,"properties":[{"name":"layer","type":"int","value":4},{"name":"resource_index","type":"int","value":18},{"name":"u","type":"string","value":"bsc"},{"name":"no","type":"int","value":1},{"name":"zM","type":"int","value":1}],"gid":14,"width":90,"height":60},{"id":98,"x":45,"y":-30,"visible":true,"properties":[{"name":"layer","type":"int","value":4},{"name":"resource_index","type":"int","value":19},{"name":"u","type":"string","value":"enH0"},{"name":"no","type":"int","value":2},{"name":"zM","type":"int","value":1}],"gid":22,"width":90,"height":32},{"id":99,"x":135,"y":-30,"visible":true,"properties":[{"name":"layer","type":"int","value":4},{"name":"resource_index","type":"int","value":20},{"name":"u","type":"string","value":"enH0"},{"name":"no","type":"int","value":1},{"name":"zM","type":"int","value":1}],"gid":23,"width":90,"height":32},{"id":100,"x":-45,"y":30,"visible":true,"properties":[{"name":"layer","type":"int","value":4},{"name":"resource_index","type":"int","value":21},{"name":"u","type":"string","value":"bsc"},{"name":"no","type":"int","value":3},{"name":"zM","type":"int","value":1}],"gid":13,"width":91,"height":60},{"id":101,"x":-135,"y":49,"visible":true,"properties":[{"name":"layer","type":"int","value":4},{"name":"resource_index","type":"int","value":22},{"name":"u","type":"string","value":"enH1"},{"name":"no","type":"int","value":1},{"name":"zM","type":"int","value":1}],"gid":10,"width":90,"height":19},{"id":102,"x":-45,"y":52,"visible":true,"properties":[{"name":"layer","type":"int","value":4},{"name":"resource_index","type":"int","value":23},{"name":"u","type":"string","value":"enH1"},{"name":"no","type":"int","value":3},{"name":"zM","type":"int","value":1}],"gid":28,"width":90,"height":22},{"id":103,"x":291,"y":-437,"visible":true,"properties":[{"name":"layer","type":"int","value":4},{"name":"resource_index","type":"int","value":24},{"name":"u","type":"string","value":"edD"},{"name":"no","type":"int","value":0},{"name":"zM","type":"int","value":21}],"gid":24,"width":45,"height":13},{"id":104,"x":377,"y":-390,"visible":true,"properties":[{"name":"layer","type":"int","value":4},{"name":"resource_index","type":"int","value":25},{"name":"u","type":"string","value":"edU"},{"name":"no","type":"int","value":1},{"name":"zM","type":"int","value":16}],"gid":12,"width":54,"height":32},{"id":105,"x":-45,"y":-30,"visible":true,"properties":[{"name":"layer","type":"int","value":4},{"name":"resource_index","type":"int","value":26},{"name":"u","type":"string","value":"enH0"},{"name":"no","type":"int","value":3},{"name":"zM","type":"int","value":1}],"gid":15,"width":90,"height":32},{"id":106,"x":381,"y":-377,"visible":true,"properties":[{"name":"layer","type":"int","value":4},{"name":"resource_index","type":"int","value":27},{"name":"u","type":"string","value":"edD"},{"name":"no","type":"int","value":0},{"name":"zM","type":"int","value":16}],"gid":24,"width":45,"height":13},{"id":107,"x":-315,"y":-30,"visible":true,"properties":[{"name":"layer","type":"int","value":4},{"name":"resource_index","type":"int","value":28},{"name":"u","type":"string","value":"enH0"},{"name":"no","type":"int","value":0},{"name":"zM","type":"int","value":1}],"gid":26,"width":90,"height":33},{"id":108,"x":-315,"y":30,"visible":true,"properties":[{"name":"layer","type":"int","value":4},{"name":"resource_index","type":"int","value":29},{"name":"u","type":"string","value":"bsc"},{"name":"no","type":"int","value":4},{"name":"zM","type":"int","value":1}],"gid":9,"width":90,"height":60},{"id":109,"x":-340,"y":45,"visible":true,"properties":[{"name":"layer","type":"int","value":4},{"name":"resource_index","type":"int","value":30},{"name":"u","type":"string","value":"edD"},{"name":"no","type":"int","value":1},{"name":"zM","type":"int","value":1}],"gid":8,"width":46,"height":15},{"id":110,"x":-343,"y":-30,"visible":true,"properties":[{"name":"layer","type":"int","value":4},{"name":"resource_index","type":"int","value":31},{"name":"u","type":"string","value":"edU"},{"name":"no","type":"int","value":1},{"name":"zM","type":"int","value":1}],"gid":12,"width":54,"height":32},{"id":111,"x":-342,"y":30,"visible":true,"properties":[{"name":"layer","type":"int","value":4},{"name":"resource_index","type":"int","value":32},{"name":"u","type":"string","value":"enV0"},{"name":"no","type":"int","value":1},{"name":"zM","type":"int","value":1}],"gid":25,"width":27,"height":60},{"id":112,"x":-315,"y":52,"visible":true,"properties":[{"name":"layer","type":"int","value":4},{"name":"resource_index","type":"int","value":33},{"name":"u","type":"string","value":"enH1"},{"name":"no","type":"int","value":3},{"name":"zM","type":"int","value":1}],"gid":28,"width":90,"height":22},{"id":113,"x":-225,"y":50,"visible":true,"properties":[{"name":"layer","type":"int","value":4},{"name":"resource_index","type":"int","value":34},{"name":"u","type":"string","value":"enH1"},{"name":"no","type":"int","value":2},{"name":"zM","type":"int","value":1}],"gid":18,"width":90,"height":20},{"id":114,"x":285,"y":-450,"visible":true,"properties":[{"name":"layer","type":"int","value":4},{"name":"resource_index","type":"int","value":35},{"name":"u","type":"string","value":"edU"},{"name":"no","type":"int","value":0},{"name":"zM","type":"int","value":21}],"gid":16,"width":61,"height":33},{"id":115,"x":645,"y":-30,"visible":true,"properties":[{"name":"layer","type":"int","value":4},{"name":"resource_index","type":"int","value":36},{"name":"u","type":"string","value":"edU"},{"name":"no","type":"int","value":0},{"name":"zM","type":"int","value":1}],"gid":16,"width":61,"height":33},{"id":116,"x":675,"y":30,"visible":true,"properties":[{"name":"layer","type":"int","value":4},{"name":"resource_index","type":"int","value":37},{"name":"u","type":"string","value":"enV1"},{"name":"no","type":"int","value":1},{"name":"zM","type":"int","value":1}],"gid":21,"width":26,"height":60},{"id":117,"x":585,"y":-30,"visible":true,"properties":[{"name":"layer","type":"int","value":4},{"name":"resource_index","type":"int","value":38},{"name":"u","type":"string","value":"enH0"},{"name":"no","type":"int","value":1},{"name":"zM","type":"int","value":1}],"gid":23,"width":90,"height":32},{"id":118,"x":21,"y":-377,"visible":true,"properties":[{"name":"layer","type":"int","value":4},{"name":"resource_index","type":"int","value":39},{"name":"u","type":"string","value":"edD"},{"name":"no","type":"int","value":0},{"name":"zM","type":"int","value":18}],"gid":24,"width":45,"height":13},{"id":119,"x":195,"y":-390,"visible":true,"properties":[{"name":"layer","type":"int","value":4},{"name":"resource_index","type":"int","value":40},{"name":"u","type":"string","value":"edU"},{"name":"no","type":"int","value":0},{"name":"zM","type":"int","value":17}],"gid":16,"width":61,"height":33},{"id":120,"x":-159,"y":-317,"visible":true,"properties":[{"name":"layer","type":"int","value":4},{"name":"resource_index","type":"int","value":41},{"name":"u","type":"string","value":"edD"},{"name":"no","type":"int","value":0},{"name":"zM","type":"int","value":15}],"gid":24,"width":45,"height":13},{"id":121,"x":-135,"y":-330,"visible":true,"properties":[{"name":"layer","type":"int","value":4},{"name":"resource_index","type":"int","value":42},{"name":"u","type":"string","value":"enH0"},{"name":"no","type":"int","value":2},{"name":"zM","type":"int","value":15}],"gid":22,"width":90,"height":32},{"id":122,"x":-45,"y":-309,"visible":true,"properties":[{"name":"layer","type":"int","value":4},{"name":"resource_index","type":"int","value":43},{"name":"u","type":"string","value":"enH1"},{"name":"no","type":"int","value":0},{"name":"zM","type":"int","value":15}],"gid":20,"width":90,"height":21},{"id":123,"x":-45,"y":-330,"visible":true,"properties":[{"name":"layer","type":"int","value":4},{"name":"resource_index","type":"int","value":44},{"name":"u","type":"string","value":"enH0"},{"name":"no","type":"int","value":0},{"name":"zM","type":"int","value":15}],"gid":26,"width":90,"height":33},{"id":124,"x":135,"y":-311,"visible":true,"properties":[{"name":"layer","type":"int","value":4},{"name":"resource_index","type":"int","value":45},{"name":"u","type":"string","value":"enH1"},{"name":"no","type":"int","value":1},{"name":"zM","type":"int","value":15}],"gid":10,"width":90,"height":19},{"id":125,"x":135,"y":-330,"visible":true,"properties":[{"name":"layer","type":"int","value":4},{"name":"resource_index","type":"int","value":46},{"name":"u","type":"string","value":"enH0"},{"name":"no","type":"int","value":0},{"name":"zM","type":"int","value":15}],"gid":26,"width":90,"height":33},{"id":126,"x":45,"y":-330,"visible":true,"properties":[{"name":"layer","type":"int","value":4},{"name":"resource_index","type":"int","value":47},{"name":"u","type":"string","value":"enH0"},{"name":"no","type":"int","value":1},{"name":"zM","type":"int","value":15}],"gid":23,"width":90,"height":32},{"id":127,"x":45,"y":-310,"visible":true,"properties":[{"name":"layer","type":"int","value":4},{"name":"resource_index","type":"int","value":48},{"name":"u","type":"string","value":"enH1"},{"name":"no","type":"int","value":2},{"name":"zM","type":"int","value":15}],"gid":18,"width":90,"height":20},{"id":128,"x":225,"y":-309,"visible":true,"properties":[{"name":"layer","type":"int","value":4},{"name":"resource_index","type":"int","value":49},{"name":"u","type":"string","value":"enH1"},{"name":"no","type":"int","value":0},{"name":"zM","type":"int","value":15}],"gid":20,"width":90,"height":21},{"id":129,"x":225,"y":-330,"visible":true,"properties":[{"name":"layer","type":"int","value":4},{"name":"resource_index","type":"int","value":50},{"name":"u","type":"string","value":"enH0"},{"name":"no","type":"int","value":1},{"name":"zM","type":"int","value":15}],"gid":23,"width":90,"height":32},{"id":130,"x":315,"y":-308,"visible":true,"properties":[{"name":"layer","type":"int","value":4},{"name":"resource_index","type":"int","value":51},{"name":"u","type":"string","value":"enH1"},{"name":"no","type":"int","value":3},{"name":"zM","type":"int","value":15}],"gid":28,"width":90,"height":22},{"id":131,"x":315,"y":-330,"visible":true,"properties":[{"name":"layer","type":"int","value":4},{"name":"resource_index","type":"int","value":52},{"name":"u","type":"string","value":"enH0"},{"name":"no","type":"int","value":3},{"name":"zM","type":"int","value":15}],"gid":15,"width":90,"height":32},{"id":132,"x":495,"y":-309,"visible":true,"properties":[{"name":"layer","type":"int","value":4},{"name":"resource_index","type":"int","value":53},{"name":"u","type":"string","value":"enH1"},{"name":"no","type":"int","value":0},{"name":"zM","type":"int","value":15}],"gid":20,"width":90,"height":21},{"id":133,"x":495,"y":-330,"visible":true,"properties":[{"name":"layer","type":"int","value":4},{"name":"resource_index","type":"int","value":54},{"name":"u","type":"string","value":"enH0"},{"name":"no","type":"int","value":1},{"name":"zM","type":"int","value":15}],"gid":23,"width":90,"height":32},{"id":134,"x":405,"y":-311,"visible":true,"properties":[{"name":"layer","type":"int","value":4},{"name":"resource_index","type":"int","value":55},{"name":"u","type":"string","value":"enH1"},{"name":"no","type":"int","value":1},{"name":"zM","type":"int","value":15}],"gid":10,"width":90,"height":19},{"id":135,"x":405,"y":-330,"visible":true,"properties":[{"name":"layer","type":"int","value":4},{"name":"resource_index","type":"int","value":56},{"name":"u","type":"string","value":"enH0"},{"name":"no","type":"int","value":1},{"name":"zM","type":"int","value":15}],"gid":23,"width":90,"height":32},{"id":136,"x":-165,"y":-330,"visible":true,"properties":[{"name":"layer","type":"int","value":4},{"name":"resource_index","type":"int","value":57},{"name":"u","type":"string","value":"edU"},{"name":"no","type":"int","value":0},{"name":"zM","type":"int","value":15}],"gid":16,"width":61,"height":33},{"id":137,"x":560,"y":-315,"visible":true,"properties":[{"name":"layer","type":"int","value":4},{"name":"resource_index","type":"int","value":58},{"name":"u","type":"string","value":"edD"},{"name":"no","type":"int","value":1},{"name":"zM","type":"int","value":15}],"gid":8,"width":46,"height":15},{"id":138,"x":-135,"y":-310,"visible":true,"properties":[{"name":"layer","type":"int","value":4},{"name":"resource_index","type":"int","value":59},{"name":"u","type":"string","value":"enH1"},{"name":"no","type":"int","value":2},{"name":"zM","type":"int","value":15}],"gid":18,"width":90,"height":20},{"id":139,"x":110,"y":-435,"visible":true,"properties":[{"name":"layer","type":"int","value":4},{"name":"resource_index","type":"int","value":60},{"name":"u","type":"string","value":"edD"},{"name":"no","type":"int","value":1},{"name":"zM","type":"int","value":20}],"gid":8,"width":46,"height":15},{"id":140,"x":201,"y":-377,"visible":true,"properties":[{"name":"layer","type":"int","value":4},{"name":"resource_index","type":"int","value":61},{"name":"u","type":"string","value":"edD"},{"name":"no","type":"int","value":0},{"name":"zM","type":"int","value":17}],"gid":24,"width":45,"height":13},{"id":141,"x":107,"y":-450,"visible":true,"properties":[{"name":"layer","type":"int","value":4},{"name":"resource_index","type":"int","value":62},{"name":"u","type":"string","value":"edU"},{"name":"no","type":"int","value":1},{"name":"zM","type":"int","value":20}],"gid":12,"width":54,"height":32},{"id":142,"x":15,"y":-390,"visible":true,"properties":[{"name":"layer","type":"int","value":4},{"name":"resource_index","type":"int","value":63},{"name":"u","type":"string","value":"edU"},{"name":"no","type":"int","value":0},{"name":"zM","type":"int","value":18}],"gid":16,"width":61,"height":33},{"id":143,"x":555,"y":-330,"visible":true,"properties":[{"name":"layer","type":"int","value":4},{"name":"resource_index","type":"int","value":64},{"name":"u","type":"string","value":"edU"},{"name":"no","type":"int","value":0},{"name":"zM","type":"int","value":15}],"gid":16,"width":61,"height":33},{"id":144,"x":-225,"y":-30,"visible":true,"properties":[{"name":"layer","type":"int","value":4},{"name":"resource_index","type":"int","value":65},{"name":"u","type":"string","value":"enH0"},{"name":"no","type":"int","value":3},{"name":"zM","type":"int","value":1}],"gid":15,"width":90,"height":32},{"id":145,"x":-225,"y":30,"visible":true,"properties":[{"name":"layer","type":"int","value":4},{"name":"resource_index","type":"int","value":66},{"name":"u","type":"string","value":"bsc"},{"name":"no","type":"int","value":4},{"name":"zM","type":"int","value":1}],"gid":9,"width":90,"height":60},{"id":146,"x":-135,"y":30,"visible":true,"properties":[{"name":"layer","type":"int","value":4},{"name":"resource_index","type":"int","value":67},{"name":"u","type":"string","value":"bsc"},{"name":"no","type":"int","value":2},{"name":"zM","type":"int","value":1}],"gid":11,"width":90,"height":60},{"id":147,"x":-135,"y":-30,"visible":true,"properties":[{"name":"layer","type":"int","value":4},{"name":"resource_index","type":"int","value":68},{"name":"u","type":"string","value":"enH0"},{"name":"no","type":"int","value":3},{"name":"zM","type":"int","value":1}],"gid":15,"width":90,"height":32},{"id":148,"x":-435,"y":-90,"visible":true,"properties":[{"name":"layer","type":"int","value":4},{"name":"resource_index","type":"int","value":69},{"name":"u","type":"string","value":"edU"},{"name":"no","type":"int","value":0},{"name":"zM","type":"int","value":6}],"gid":16,"width":61,"height":33},{"id":149,"x":-429,"y":-77,"visible":true,"properties":[{"name":"layer","type":"int","value":4},{"name":"resource_index","type":"int","value":70},{"name":"u","type":"string","value":"edD"},{"name":"no","type":"int","value":0},{"name":"zM","type":"int","value":6}],"gid":24,"width":45,"height":13},{"id":150,"x":-343,"y":-150,"visible":true,"properties":[{"name":"layer","type":"int","value":4},{"name":"resource_index","type":"int","value":71},{"name":"u","type":"string","value":"edU"},{"name":"no","type":"int","value":1},{"name":"zM","type":"int","value":7}],"gid":12,"width":54,"height":32},{"id":151,"x":-340,"y":-135,"visible":true,"properties":[{"name":"layer","type":"int","value":4},{"name":"resource_index","type":"int","value":72},{"name":"u","type":"string","value":"edD"},{"name":"no","type":"int","value":1},{"name":"zM","type":"int","value":7}],"gid":8,"width":46,"height":15},{"id":152,"x":647,"y":-150,"visible":true,"properties":[{"name":"layer","type":"int","value":4},{"name":"resource_index","type":"int","value":73},{"name":"u","type":"string","value":"edU"},{"name":"no","type":"int","value":1},{"name":"zM","type":"int","value":8}],"gid":12,"width":54,"height":32},{"id":153,"x":650,"y":-135,"visible":true,"properties":[{"name":"layer","type":"int","value":4},{"name":"resource_index","type":"int","value":74},{"name":"u","type":"string","value":"edD"},{"name":"no","type":"int","value":1},{"name":"zM","type":"int","value":8}],"gid":8,"width":46,"height":15},{"id":154,"x":737,"y":-90,"visible":true,"properties":[{"name":"layer","type":"int","value":4},{"name":"resource_index","type":"int","value":75},{"name":"u","type":"string","value":"edU"},{"name":"no","type":"int","value":1},{"name":"zM","type":"int","value":5}],"gid":12,"width":54,"height":32},{"id":155,"x":740,"y":-75,"visible":true,"properties":[{"name":"layer","type":"int","value":4},{"name":"resource_index","type":"int","value":76},{"name":"u","type":"string","value":"edD"},{"name":"no","type":"int","value":1},{"name":"zM","type":"int","value":5}],"gid":8,"width":46,"height":15}]},{"id":9,"name":"layer_5_tile","type":"objectgroup","visible":true,"opacity":1,"objects":[{"id":159,"x":-300,"y":-180,"visible":true,"properties":[{"name":"layer","type":"int","value":5},{"name":"resource_index","type":"int","value":0},{"name":"u","type":"string","value":"edU"},{"name":"no","type":"int","value":0},{"name":"zM","type":"int","value":9}],"gid":16,"width":61,"height":33},{"id":160,"x":-294,"y":-167,"visible":true,"properties":[{"name":"layer","type":"int","value":5},{"name":"resource_index","type":"int","value":1},{"name":"u","type":"string","value":"edD"},{"name":"no","type":"int","value":0},{"name":"zM","type":"int","value":9}],"gid":24,"width":45,"height":13},{"id":161,"x":-270,"y":-158,"visible":true,"properties":[{"name":"layer","type":"int","value":5},{"name":"resource_index","type":"int","value":2},{"name":"u","type":"string","value":"enH1"},{"name":"no","type":"int","value":3},{"name":"zM","type":"int","value":9}],"gid":28,"width":90,"height":22},{"id":162,"x":-270,"y":-180,"visible":true,"properties":[{"name":"layer","type":"int","value":5},{"name":"resource_index","type":"int","value":3},{"name":"u","type":"string","value":"enH0"},{"name":"no","type":"int","value":2},{"name":"zM","type":"int","value":9}],"gid":22,"width":90,"height":32},{"id":163,"x":-180,"y":-158,"visible":true,"properties":[{"name":"layer","type":"int","value":5},{"name":"resource_index","type":"int","value":4},{"name":"u","type":"string","value":"enH1"},{"name":"no","type":"int","value":3},{"name":"zM","type":"int","value":9}],"gid":28,"width":90,"height":22},{"id":164,"x":-180,"y":-180,"visible":true,"properties":[{"name":"layer","type":"int","value":5},{"name":"resource_index","type":"int","value":5},{"name":"u","type":"string","value":"enH0"},{"name":"no","type":"int","value":3},{"name":"zM","type":"int","value":9}],"gid":15,"width":90,"height":32},{"id":165,"x":0,"y":-161,"visible":true,"properties":[{"name":"layer","type":"int","value":5},{"name":"resource_index","type":"int","value":6},{"name":"u","type":"string","value":"enH1"},{"name":"no","type":"int","value":1},{"name":"zM","type":"int","value":9}],"gid":10,"width":90,"height":19},{"id":166,"x":0,"y":-180,"visible":true,"properties":[{"name":"layer","type":"int","value":5},{"name":"resource_index","type":"int","value":7},{"name":"u","type":"string","value":"enH0"},{"name":"no","type":"int","value":2},{"name":"zM","type":"int","value":9}],"gid":22,"width":90,"height":32},{"id":167,"x":-90,"y":-180,"visible":true,"properties":[{"name":"layer","type":"int","value":5},{"name":"resource_index","type":"int","value":8},{"name":"u","type":"string","value":"enH0"},{"name":"no","type":"int","value":1},{"name":"zM","type":"int","value":9}],"gid":23,"width":90,"height":32},{"id":168,"x":-90,"y":-158,"visible":true,"properties":[{"name":"layer","type":"int","value":5},{"name":"resource_index","type":"int","value":9},{"name":"u","type":"string","value":"enH1"},{"name":"no","type":"int","value":3},{"name":"zM","type":"int","value":9}],"gid":28,"width":90,"height":22},{"id":169,"x":360,"y":-161,"visible":true,"properties":[{"name":"layer","type":"int","value":5},{"name":"resource_index","type":"int","value":10},{"name":"u","type":"string","value":"enH1"},{"name":"no","type":"int","value":1},{"name":"zM","type":"int","value":9}],"gid":10,"width":90,"height":19},{"id":170,"x":360,"y":-180,"visible":true,"properties":[{"name":"layer","type":"int","value":5},{"name":"resource_index","type":"int","value":11},{"name":"u","type":"string","value":"enH0"},{"name":"no","type":"int","value":1},{"name":"zM","type":"int","value":9}],"gid":23,"width":90,"height":32},{"id":171,"x":602,"y":-180,"visible":true,"properties":[{"name":"layer","type":"int","value":5},{"name":"resource_index","type":"int","value":12},{"name":"u","type":"string","value":"edU"},{"name":"no","type":"int","value":1},{"name":"zM","type":"int","value":9}],"gid":12,"width":54,"height":32},{"id":172,"x":606,"y":-167,"visible":true,"properties":[{"name":"layer","type":"int","value":5},{"name":"resource_index","type":"int","value":13},{"name":"u","type":"string","value":"edD"},{"name":"no","type":"int","value":0},{"name":"zM","type":"int","value":9}],"gid":24,"width":45,"height":13},{"id":173,"x":180,"y":-159,"visible":true,"properties":[{"name":"layer","type":"int","value":5},{"name":"resource_index","type":"int","value":14},{"name":"u","type":"string","value":"enH1"},{"name":"no","type":"int","value":0},{"name":"zM","type":"int","value":9}],"gid":20,"width":90,"height":21},{"id":174,"x":180,"y":-180,"visible":true,"properties":[{"name":"layer","type":"int","value":5},{"name":"resource_index","type":"int","value":15},{"name":"u","type":"string","value":"enH0"},{"name":"no","type":"int","value":2},{"name":"zM","type":"int","value":9}],"gid":22,"width":90,"height":32},{"id":175,"x":512,"y":-300,"visible":true,"properties":[{"name":"layer","type":"int","value":5},{"name":"resource_index","type":"int","value":16},{"name":"u","type":"string","value":"edU"},{"name":"no","type":"int","value":1},{"name":"zM","type":"int","value":14}],"gid":12,"width":54,"height":32},{"id":176,"x":516,"y":-287,"visible":true,"properties":[{"name":"layer","type":"int","value":5},{"name":"resource_index","type":"int","value":17},{"name":"u","type":"string","value":"edD"},{"name":"no","type":"int","value":0},{"name":"zM","type":"int","value":14}],"gid":24,"width":45,"height":13},{"id":177,"x":450,"y":-160,"visible":true,"properties":[{"name":"layer","type":"int","value":5},{"name":"resource_index","type":"int","value":18},{"name":"u","type":"string","value":"enH1"},{"name":"no","type":"int","value":2},{"name":"zM","type":"int","value":9}],"gid":18,"width":90,"height":20},{"id":178,"x":450,"y":-180,"visible":true,"properties":[{"name":"layer","type":"int","value":5},{"name":"resource_index","type":"int","value":19},{"name":"u","type":"string","value":"enH0"},{"name":"no","type":"int","value":2},{"name":"zM","type":"int","value":9}],"gid":22,"width":90,"height":32},{"id":179,"x":540,"y":-158,"visible":true,"properties":[{"name":"layer","type":"int","value":5},{"name":"resource_index","type":"int","value":20},{"name":"u","type":"string","value":"enH1"},{"name":"no","type":"int","value":3},{"name":"zM","type":"int","value":9}],"gid":28,"width":90,"height":22},{"id":180,"x":540,"y":-180,"visible":true,"properties":[{"name":"layer","type":"int","value":5},{"name":"resource_index","type":"int","value":21},{"name":"u","type":"string","value":"enH0"},{"name":"no","type":"int","value":0},{"name":"zM","type":"int","value":9}],"gid":26,"width":90,"height":33},{"id":181,"x":90,"y":-158,"visible":true,"properties":[{"name":"layer","type":"int","value":5},{"name":"resource_index","type":"int","value":22},{"name":"u","type":"string","value":"enH1"},{"name":"no","type":"int","value":3},{"name":"zM","type":"int","value":9}],"gid":28,"width":90,"height":22},{"id":182,"x":90,"y":-180,"visible":true,"properties":[{"name":"layer","type":"int","value":5},{"name":"resource_index","type":"int","value":23},{"name":"u","type":"string","value":"enH0"},{"name":"no","type":"int","value":1},{"name":"zM","type":"int","value":9}],"gid":23,"width":90,"height":32},{"id":183,"x":-28,"y":-240,"visible":true,"properties":[{"name":"layer","type":"int","value":5},{"name":"resource_index","type":"int","value":24},{"name":"u","type":"string","value":"edU"},{"name":"no","type":"int","value":1},{"name":"zM","type":"int","value":12}],"gid":12,"width":54,"height":32},{"id":184,"x":-24,"y":-227,"visible":true,"properties":[{"name":"layer","type":"int","value":5},{"name":"resource_index","type":"int","value":25},{"name":"u","type":"string","value":"edD"},{"name":"no","type":"int","value":0},{"name":"zM","type":"int","value":12}],"gid":24,"width":45,"height":13},{"id":185,"x":-120,"y":-300,"visible":true,"properties":[{"name":"layer","type":"int","value":5},{"name":"resource_index","type":"int","value":26},{"name":"u","type":"string","value":"edU"},{"name":"no","type":"int","value":0},{"name":"zM","type":"int","value":13}],"gid":16,"width":61,"height":33},{"id":186,"x":-115,"y":-285,"visible":true,"properties":[{"name":"layer","type":"int","value":5},{"name":"resource_index","type":"int","value":27},{"name":"u","type":"string","value":"edD"},{"name":"no","type":"int","value":1},{"name":"zM","type":"int","value":13}],"gid":8,"width":46,"height":15},{"id":187,"x":420,"y":-240,"visible":true,"properties":[{"name":"layer","type":"int","value":5},{"name":"resource_index","type":"int","value":28},{"name":"u","type":"string","value":"edU"},{"name":"no","type":"int","value":0},{"name":"zM","type":"int","value":11}],"gid":16,"width":61,"height":33},{"id":188,"x":426,"y":-227,"visible":true,"properties":[{"name":"layer","type":"int","value":5},{"name":"resource_index","type":"int","value":29},{"name":"u","type":"string","value":"edD"},{"name":"no","type":"int","value":0},{"name":"zM","type":"int","value":11}],"gid":24,"width":45,"height":13},{"id":189,"x":270,"y":-161,"visible":true,"properties":[{"name":"layer","type":"int","value":5},{"name":"resource_index","type":"int","value":30},{"name":"u","type":"string","value":"enH1"},{"name":"no","type":"int","value":1},{"name":"zM","type":"int","value":9}],"gid":10,"width":90,"height":19},{"id":190,"x":270,"y":-180,"visible":true,"properties":[{"name":"layer","type":"int","value":5},{"name":"resource_index","type":"int","value":31},{"name":"u","type":"string","value":"enH0"},{"name":"no","type":"int","value":1},{"name":"zM","type":"int","value":9}],"gid":23,"width":90,"height":32}]},{"id":10,"name":"layer_6_tile","type":"objectgroup","visible":true,"opacity":1,"objects":[{"id":191,"x":-135,"y":150,"visible":true,"properties":[{"name":"layer","type":"int","value":6},{"name":"resource_index","type":"int","value":0},{"name":"u","type":"string","value":"bsc"},{"name":"no","type":"int","value":0},{"name":"zM","type":"int","value":0}],"gid":17,"width":90,"height":60},{"id":192,"x":-405,"y":90,"visible":true,"properties":[{"name":"layer","type":"int","value":6},{"name":"resource_index","type":"int","value":1},{"name":"u","type":"string","value":"bsc"},{"name":"no","type":"int","value":1},{"name":"zM","type":"int","value":0}],"gid":14,"width":90,"height":60},{"id":193,"x":-135,"y":270,"visible":true,"properties":[{"name":"layer","type":"int","value":6},{"name":"resource_index","type":"int","value":2},{"name":"u","type":"string","value":"bsc"},{"name":"no","type":"int","value":4},{"name":"zM","type":"int","value":0}],"gid":9,"width":90,"height":60},{"id":194,"x":-225,"y":292,"visible":true,"properties":[{"name":"layer","type":"int","value":6},{"name":"resource_index","type":"int","value":3},{"name":"u","type":"string","value":"enH1"},{"name":"no","type":"int","value":3},{"name":"zM","type":"int","value":0}],"gid":28,"width":90,"height":22},{"id":195,"x":-315,"y":30,"visible":true,"properties":[{"name":"layer","type":"int","value":6},{"name":"resource_index","type":"int","value":4},{"name":"u","type":"string","value":"enH0"},{"name":"no","type":"int","value":2},{"name":"zM","type":"int","value":0}],"gid":22,"width":90,"height":32},{"id":196,"x":-495,"y":292,"visible":true,"properties":[{"name":"layer","type":"int","value":6},{"name":"resource_index","type":"int","value":5},{"name":"u","type":"string","value":"enH1"},{"name":"no","type":"int","value":3},{"name":"zM","type":"int","value":0}],"gid":28,"width":90,"height":22},{"id":197,"x":-45,"y":150,"visible":true,"properties":[{"name":"layer","type":"int","value":6},{"name":"resource_index","type":"int","value":6},{"name":"u","type":"string","value":"bsc"},{"name":"no","type":"int","value":1},{"name":"zM","type":"int","value":0}],"gid":14,"width":90,"height":60},{"id":198,"x":-45,"y":270,"visible":true,"properties":[{"name":"layer","type":"int","value":6},{"name":"resource_index","type":"int","value":7},{"name":"u","type":"string","value":"bsc"},{"name":"no","type":"int","value":4},{"name":"zM","type":"int","value":0}],"gid":9,"width":90,"height":60},{"id":199,"x":-225,"y":150,"visible":true,"properties":[{"name":"layer","type":"int","value":6},{"name":"resource_index","type":"int","value":8},{"name":"u","type":"string","value":"bsc"},{"name":"no","type":"int","value":2},{"name":"zM","type":"int","value":0}],"gid":11,"width":90,"height":60},{"id":200,"x":-45,"y":289,"visible":true,"properties":[{"name":"layer","type":"int","value":6},{"name":"resource_index","type":"int","value":9},{"name":"u","type":"string","value":"enH1"},{"name":"no","type":"int","value":1},{"name":"zM","type":"int","value":0}],"gid":10,"width":90,"height":19},{"id":201,"x":675,"y":90,"visible":true,"properties":[{"name":"layer","type":"int","value":6},{"name":"resource_index","type":"int","value":10},{"name":"u","type":"string","value":"bsc"},{"name":"no","type":"int","value":4},{"name":"zM","type":"int","value":0}],"gid":9,"width":90,"height":60},{"id":202,"x":675,"y":30,"visible":true,"properties":[{"name":"layer","type":"int","value":6},{"name":"resource_index","type":"int","value":11},{"name":"u","type":"string","value":"enH0"},{"name":"no","type":"int","value":0},{"name":"zM","type":"int","value":0}],"gid":26,"width":90,"height":33},{"id":203,"x":405,"y":90,"visible":true,"properties":[{"name":"layer","type":"int","value":6},{"name":"resource_index","type":"int","value":12},{"name":"u","type":"string","value":"bsc"},{"name":"no","type":"int","value":3},{"name":"zM","type":"int","value":0}],"gid":13,"width":91,"height":60},{"id":204,"x":405,"y":30,"visible":true,"properties":[{"name":"layer","type":"int","value":6},{"name":"resource_index","type":"int","value":13},{"name":"u","type":"string","value":"enH0"},{"name":"no","type":"int","value":1},{"name":"zM","type":"int","value":0}],"gid":23,"width":90,"height":32},{"id":205,"x":-405,"y":291,"visible":true,"properties":[{"name":"layer","type":"int","value":6},{"name":"resource_index","type":"int","value":14},{"name":"u","type":"string","value":"enH1"},{"name":"no","type":"int","value":0},{"name":"zM","type":"int","value":0}],"gid":20,"width":90,"height":21},{"id":206,"x":135,"y":270,"visible":true,"properties":[{"name":"layer","type":"int","value":6},{"name":"resource_index","type":"int","value":15},{"name":"u","type":"string","value":"bsc"},{"name":"no","type":"int","value":4},{"name":"zM","type":"int","value":0}],"gid":9,"width":90,"height":60},{"id":207,"x":-135,"y":210,"visible":true,"properties":[{"name":"layer","type":"int","value":6},{"name":"resource_index","type":"int","value":16},{"name":"u","type":"string","value":"bsc"},{"name":"no","type":"int","value":0},{"name":"zM","type":"int","value":0}],"gid":17,"width":90,"height":60},{"id":208,"x":-225,"y":210,"visible":true,"properties":[{"name":"layer","type":"int","value":6},{"name":"resource_index","type":"int","value":17},{"name":"u","type":"string","value":"bsc"},{"name":"no","type":"int","value":3},{"name":"zM","type":"int","value":0}],"gid":13,"width":91,"height":60},{"id":209,"x":-135,"y":90,"visible":true,"properties":[{"name":"layer","type":"int","value":6},{"name":"resource_index","type":"int","value":18},{"name":"u","type":"string","value":"bsc"},{"name":"no","type":"int","value":4},{"name":"zM","type":"int","value":0}],"gid":9,"width":90,"height":60},{"id":210,"x":45,"y":270,"visible":true,"properties":[{"name":"layer","type":"int","value":6},{"name":"resource_index","type":"int","value":19},{"name":"u","type":"string","value":"bsc"},{"name":"no","type":"int","value":1},{"name":"zM","type":"int","value":0}],"gid":14,"width":90,"height":60},{"id":211,"x":-135,"y":292,"visible":true,"properties":[{"name":"layer","type":"int","value":6},{"name":"resource_index","type":"int","value":20},{"name":"u","type":"string","value":"enH1"},{"name":"no","type":"int","value":3},{"name":"zM","type":"int","value":0}],"gid":28,"width":90,"height":22},{"id":212,"x":45,"y":210,"visible":true,"properties":[{"name":"layer","type":"int","value":6},{"name":"resource_index","type":"int","value":21},{"name":"u","type":"string","value":"bsc"},{"name":"no","type":"int","value":0},{"name":"zM","type":"int","value":0}],"gid":17,"width":90,"height":60},{"id":213,"x":-135,"y":30,"visible":true,"properties":[{"name":"layer","type":"int","value":6},{"name":"resource_index","type":"int","value":22},{"name":"u","type":"string","value":"enH0"},{"name":"no","type":"int","value":0},{"name":"zM","type":"int","value":0}],"gid":26,"width":90,"height":33},{"id":214,"x":-225,"y":270,"visible":true,"properties":[{"name":"layer","type":"int","value":6},{"name":"resource_index","type":"int","value":23},{"name":"u","type":"string","value":"bsc"},{"name":"no","type":"int","value":3},{"name":"zM","type":"int","value":0}],"gid":13,"width":91,"height":60},{"id":215,"x":-315,"y":150,"visible":true,"properties":[{"name":"layer","type":"int","value":6},{"name":"resource_index","type":"int","value":24},{"name":"u","type":"string","value":"bsc"},{"name":"no","type":"int","value":0},{"name":"zM","type":"int","value":0}],"gid":17,"width":90,"height":60},{"id":216,"x":45,"y":150,"visible":true,"properties":[{"name":"layer","type":"int","value":6},{"name":"resource_index","type":"int","value":25},{"name":"u","type":"string","value":"bsc"},{"name":"no","type":"int","value":3},{"name":"zM","type":"int","value":0}],"gid":13,"width":91,"height":60},{"id":217,"x":-225,"y":30,"visible":true,"properties":[{"name":"layer","type":"int","value":6},{"name":"resource_index","type":"int","value":26},{"name":"u","type":"string","value":"enH0"},{"name":"no","type":"int","value":2},{"name":"zM","type":"int","value":0}],"gid":22,"width":90,"height":32},{"id":218,"x":-495,"y":210,"visible":true,"properties":[{"name":"layer","type":"int","value":6},{"name":"resource_index","type":"int","value":27},{"name":"u","type":"string","value":"bsc"},{"name":"no","type":"int","value":3},{"name":"zM","type":"int","value":0}],"gid":13,"width":91,"height":60},{"id":219,"x":-225,"y":90,"visible":true,"properties":[{"name":"layer","type":"int","value":6},{"name":"resource_index","type":"int","value":28},{"name":"u","type":"string","value":"bsc"},{"name":"no","type":"int","value":0},{"name":"zM","type":"int","value":0}],"gid":17,"width":90,"height":60},{"id":220,"x":-315,"y":290,"visible":true,"properties":[{"name":"layer","type":"int","value":6},{"name":"resource_index","type":"int","value":29},{"name":"u","type":"string","value":"enH1"},{"name":"no","type":"int","value":2},{"name":"zM","type":"int","value":0}],"gid":18,"width":90,"height":20},{"id":221,"x":-315,"y":210,"visible":true,"properties":[{"name":"layer","type":"int","value":6},{"name":"resource_index","type":"int","value":30},{"name":"u","type":"string","value":"bsc"},{"name":"no","type":"int","value":4},{"name":"zM","type":"int","value":0}],"gid":9,"width":90,"height":60},{"id":222,"x":-405,"y":270,"visible":true,"properties":[{"name":"layer","type":"int","value":6},{"name":"resource_index","type":"int","value":31},{"name":"u","type":"string","value":"bsc"},{"name":"no","type":"int","value":4},{"name":"zM","type":"int","value":0}],"gid":9,"width":90,"height":60},{"id":223,"x":-315,"y":270,"visible":true,"properties":[{"name":"layer","type":"int","value":6},{"name":"resource_index","type":"int","value":32},{"name":"u","type":"string","value":"bsc"},{"name":"no","type":"int","value":4},{"name":"zM","type":"int","value":0}],"gid":9,"width":90,"height":60},{"id":224,"x":675,"y":210,"visible":true,"properties":[{"name":"layer","type":"int","value":6},{"name":"resource_index","type":"int","value":33},{"name":"u","type":"string","value":"bsc"},{"name":"no","type":"int","value":0},{"name":"zM","type":"int","value":0}],"gid":17,"width":90,"height":60},{"id":225,"x":-405,"y":210,"visible":true,"properties":[{"name":"layer","type":"int","value":6},{"name":"resource_index","type":"int","value":34},{"name":"u","type":"string","value":"bsc"},{"name":"no","type":"int","value":0},{"name":"zM","type":"int","value":0}],"gid":17,"width":90,"height":60},{"id":226,"x":585,"y":90,"visible":true,"properties":[{"name":"layer","type":"int","value":6},{"name":"resource_index","type":"int","value":35},{"name":"u","type":"string","value":"bsc"},{"name":"no","type":"int","value":0},{"name":"zM","type":"int","value":0}],"gid":17,"width":90,"height":60},{"id":227,"x":585,"y":30,"visible":true,"properties":[{"name":"layer","type":"int","value":6},{"name":"resource_index","type":"int","value":36},{"name":"u","type":"string","value":"enH0"},{"name":"no","type":"int","value":2},{"name":"zM","type":"int","value":0}],"gid":22,"width":90,"height":32},{"id":228,"x":495,"y":90,"visible":true,"properties":[{"name":"layer","type":"int","value":6},{"name":"resource_index","type":"int","value":37},{"name":"u","type":"string","value":"bsc"},{"name":"no","type":"int","value":3},{"name":"zM","type":"int","value":0}],"gid":13,"width":91,"height":60},{"id":229,"x":495,"y":30,"visible":true,"properties":[{"name":"layer","type":"int","value":6},{"name":"resource_index","type":"int","value":38},{"name":"u","type":"string","value":"enH0"},{"name":"no","type":"int","value":3},{"name":"zM","type":"int","value":0}],"gid":15,"width":90,"height":32},{"id":230,"x":315,"y":90,"visible":true,"properties":[{"name":"layer","type":"int","value":6},{"name":"resource_index","type":"int","value":39},{"name":"u","type":"string","value":"bsc"},{"name":"no","type":"int","value":2},{"name":"zM","type":"int","value":0}],"gid":11,"width":90,"height":60},{"id":231,"x":315,"y":30,"visible":true,"properties":[{"name":"layer","type":"int","value":6},{"name":"resource_index","type":"int","value":40},{"name":"u","type":"string","value":"enH0"},{"name":"no","type":"int","value":0},{"name":"zM","type":"int","value":0}],"gid":26,"width":90,"height":33},{"id":232,"x":675,"y":270,"visible":true,"properties":[{"name":"layer","type":"int","value":6},{"name":"resource_index","type":"int","value":41},{"name":"u","type":"string","value":"bsc"},{"name":"no","type":"int","value":3},{"name":"zM","type":"int","value":0}],"gid":13,"width":91,"height":60},{"id":233,"x":585,"y":150,"visible":true,"properties":[{"name":"layer","type":"int","value":6},{"name":"resource_index","type":"int","value":42},{"name":"u","type":"string","value":"bsc"},{"name":"no","type":"int","value":4},{"name":"zM","type":"int","value":0}],"gid":9,"width":90,"height":60},{"id":234,"x":675,"y":150,"visible":true,"properties":[{"name":"layer","type":"int","value":6},{"name":"resource_index","type":"int","value":43},{"name":"u","type":"string","value":"bsc"},{"name":"no","type":"int","value":0},{"name":"zM","type":"int","value":0}],"gid":17,"width":90,"height":60},{"id":235,"x":585,"y":210,"visible":true,"properties":[{"name":"layer","type":"int","value":6},{"name":"resource_index","type":"int","value":44},{"name":"u","type":"string","value":"bsc"},{"name":"no","type":"int","value":0},{"name":"zM","type":"int","value":0}],"gid":17,"width":90,"height":60},{"id":236,"x":585,"y":270,"visible":true,"properties":[{"name":"layer","type":"int","value":6},{"name":"resource_index","type":"int","value":45},{"name":"u","type":"string","value":"bsc"},{"name":"no","type":"int","value":2},{"name":"zM","type":"int","value":0}],"gid":11,"width":90,"height":60},{"id":237,"x":495,"y":150,"visible":true,"properties":[{"name":"layer","type":"int","value":6},{"name":"resource_index","type":"int","value":46},{"name":"u","type":"string","value":"bsc"},{"name":"no","type":"int","value":2},{"name":"zM","type":"int","value":0}],"gid":11,"width":90,"height":60},{"id":238,"x":495,"y":210,"visible":true,"properties":[{"name":"layer","type":"int","value":6},{"name":"resource_index","type":"int","value":47},{"name":"u","type":"string","value":"bsc"},{"name":"no","type":"int","value":3},{"name":"zM","type":"int","value":0}],"gid":13,"width":91,"height":60},{"id":239,"x":675,"y":292,"visible":true,"properties":[{"name":"layer","type":"int","value":6},{"name":"resource_index","type":"int","value":48},{"name":"u","type":"string","value":"enH1"},{"name":"no","type":"int","value":3},{"name":"zM","type":"int","value":0}],"gid":28,"width":90,"height":22},{"id":240,"x":405,"y":289,"visible":true,"properties":[{"name":"layer","type":"int","value":6},{"name":"resource_index","type":"int","value":49},{"name":"u","type":"string","value":"enH1"},{"name":"no","type":"int","value":1},{"name":"zM","type":"int","value":0}],"gid":10,"width":90,"height":19},{"id":241,"x":495,"y":292,"visible":true,"properties":[{"name":"layer","type":"int","value":6},{"name":"resource_index","type":"int","value":50},{"name":"u","type":"string","value":"enH1"},{"name":"no","type":"int","value":3},{"name":"zM","type":"int","value":0}],"gid":28,"width":90,"height":22},{"id":242,"x":225,"y":270,"visible":true,"properties":[{"name":"layer","type":"int","value":6},{"name":"resource_index","type":"int","value":51},{"name":"u","type":"string","value":"bsc"},{"name":"no","type":"int","value":3},{"name":"zM","type":"int","value":0}],"gid":13,"width":91,"height":60},{"id":243,"x":585,"y":289,"visible":true,"properties":[{"name":"layer","type":"int","value":6},{"name":"resource_index","type":"int","value":52},{"name":"u","type":"string","value":"enH1"},{"name":"no","type":"int","value":1},{"name":"zM","type":"int","value":0}],"gid":10,"width":90,"height":19},{"id":244,"x":405,"y":210,"visible":true,"properties":[{"name":"layer","type":"int","value":6},{"name":"resource_index","type":"int","value":53},{"name":"u","type":"string","value":"bsc"},{"name":"no","type":"int","value":0},{"name":"zM","type":"int","value":0}],"gid":17,"width":90,"height":60},{"id":245,"x":405,"y":270,"visible":true,"properties":[{"name":"layer","type":"int","value":6},{"name":"resource_index","type":"int","value":54},{"name":"u","type":"string","value":"bsc"},{"name":"no","type":"int","value":4},{"name":"zM","type":"int","value":0}],"gid":9,"width":90,"height":60},{"id":246,"x":405,"y":150,"visible":true,"properties":[{"name":"layer","type":"int","value":6},{"name":"resource_index","type":"int","value":55},{"name":"u","type":"string","value":"bsc"},{"name":"no","type":"int","value":3},{"name":"zM","type":"int","value":0}],"gid":13,"width":91,"height":60},{"id":247,"x":495,"y":270,"visible":true,"properties":[{"name":"layer","type":"int","value":6},{"name":"resource_index","type":"int","value":56},{"name":"u","type":"string","value":"bsc"},{"name":"no","type":"int","value":4},{"name":"zM","type":"int","value":0}],"gid":9,"width":90,"height":60},{"id":248,"x":225,"y":90,"visible":true,"properties":[{"name":"layer","type":"int","value":6},{"name":"resource_index","type":"int","value":57},{"name":"u","type":"string","value":"bsc"},{"name":"no","type":"int","value":1},{"name":"zM","type":"int","value":0}],"gid":14,"width":90,"height":60},{"id":249,"x":225,"y":30,"visible":true,"properties":[{"name":"layer","type":"int","value":6},{"name":"resource_index","type":"int","value":58},{"name":"u","type":"string","value":"enH0"},{"name":"no","type":"int","value":3},{"name":"zM","type":"int","value":0}],"gid":15,"width":90,"height":32},{"id":250,"x":135,"y":90,"visible":true,"properties":[{"name":"layer","type":"int","value":6},{"name":"resource_index","type":"int","value":59},{"name":"u","type":"string","value":"bsc"},{"name":"no","type":"int","value":0},{"name":"zM","type":"int","value":0}],"gid":17,"width":90,"height":60},{"id":251,"x":135,"y":30,"visible":true,"properties":[{"name":"layer","type":"int","value":6},{"name":"resource_index","type":"int","value":60},{"name":"u","type":"string","value":"enH0"},{"name":"no","type":"int","value":3},{"name":"zM","type":"int","value":0}],"gid":15,"width":90,"height":32},{"id":252,"x":45,"y":90,"visible":true,"properties":[{"name":"layer","type":"int","value":6},{"name":"resource_index","type":"int","value":61},{"name":"u","type":"string","value":"bsc"},{"name":"no","type":"int","value":1},{"name":"zM","type":"int","value":0}],"gid":14,"width":90,"height":60},{"id":253,"x":45,"y":30,"visible":true,"properties":[{"name":"layer","type":"int","value":6},{"name":"resource_index","type":"int","value":62},{"name":"u","type":"string","value":"enH0"},{"name":"no","type":"int","value":3},{"name":"zM","type":"int","value":0}],"gid":15,"width":90,"height":32},{"id":254,"x":-315,"y":90,"visible":true,"properties":[{"name":"layer","type":"int","value":6},{"name":"resource_index","type":"int","value":63},{"name":"u","type":"string","value":"bsc"},{"name":"no","type":"int","value":2},{"name":"zM","type":"int","value":0}],"gid":11,"width":90,"height":60},{"id":255,"x":-45,"y":210,"visible":true,"properties":[{"name":"layer","type":"int","value":6},{"name":"resource_index","type":"int","value":64},{"name":"u","type":"string","value":"bsc"},{"name":"no","type":"int","value":2},{"name":"zM","type":"int","value":0}],"gid":11,"width":90,"height":60},{"id":256,"x":-45,"y":30,"visible":true,"properties":[{"name":"layer","type":"int","value":6},{"name":"resource_index","type":"int","value":65},{"name":"u","type":"string","value":"enH0"},{"name":"no","type":"int","value":2},{"name":"zM","type":"int","value":0}],"gid":22,"width":90,"height":32},{"id":257,"x":-45,"y":90,"visible":true,"properties":[{"name":"layer","type":"int","value":6},{"name":"resource_index","type":"int","value":66},{"name":"u","type":"string","value":"bsc"},{"name":"no","type":"int","value":1},{"name":"zM","type":"int","value":0}],"gid":14,"width":90,"height":60},{"id":258,"x":315,"y":292,"visible":true,"properties":[{"name":"layer","type":"int","value":6},{"name":"resource_index","type":"int","value":67},{"name":"u","type":"string","value":"enH1"},{"name":"no","type":"int","value":3},{"name":"zM","type":"int","value":0}],"gid":28,"width":90,"height":22},{"id":259,"x":315,"y":210,"visible":true,"properties":[{"name":"layer","type":"int","value":6},{"name":"resource_index","type":"int","value":68},{"name":"u","type":"string","value":"bsc"},{"name":"no","type":"int","value":0},{"name":"zM","type":"int","value":0}],"gid":17,"width":90,"height":60},{"id":260,"x":315,"y":150,"visible":true,"properties":[{"name":"layer","type":"int","value":6},{"name":"resource_index","type":"int","value":69},{"name":"u","type":"string","value":"bsc"},{"name":"no","type":"int","value":2},{"name":"zM","type":"int","value":0}],"gid":11,"width":90,"height":60},{"id":261,"x":315,"y":270,"visible":true,"properties":[{"name":"layer","type":"int","value":6},{"name":"resource_index","type":"int","value":70},{"name":"u","type":"string","value":"bsc"},{"name":"no","type":"int","value":2},{"name":"zM","type":"int","value":0}],"gid":11,"width":90,"height":60},{"id":262,"x":135,"y":291,"visible":true,"properties":[{"name":"layer","type":"int","value":6},{"name":"resource_index","type":"int","value":71},{"name":"u","type":"string","value":"enH1"},{"name":"no","type":"int","value":0},{"name":"zM","type":"int","value":0}],"gid":20,"width":90,"height":21},{"id":263,"x":225,"y":210,"visible":true,"properties":[{"name":"layer","type":"int","value":6},{"name":"resource_index","type":"int","value":72},{"name":"u","type":"string","value":"bsc"},{"name":"no","type":"int","value":4},{"name":"zM","type":"int","value":0}],"gid":9,"width":90,"height":60},{"id":264,"x":225,"y":150,"visible":true,"properties":[{"name":"layer","type":"int","value":6},{"name":"resource_index","type":"int","value":73},{"name":"u","type":"string","value":"bsc"},{"name":"no","type":"int","value":0},{"name":"zM","type":"int","value":0}],"gid":17,"width":90,"height":60},{"id":265,"x":225,"y":290,"visible":true,"properties":[{"name":"layer","type":"int","value":6},{"name":"resource_index","type":"int","value":74},{"name":"u","type":"string","value":"enH1"},{"name":"no","type":"int","value":2},{"name":"zM","type":"int","value":0}],"gid":18,"width":90,"height":20},{"id":266,"x":45,"y":291,"visible":true,"properties":[{"name":"layer","type":"int","value":6},{"name":"resource_index","type":"int","value":75},{"name":"u","type":"string","value":"enH1"},{"name":"no","type":"int","value":0},{"name":"zM","type":"int","value":0}],"gid":20,"width":90,"height":21},{"id":267,"x":135,"y":210,"visible":true,"properties":[{"name":"layer","type":"int","value":6},{"name":"resource_index","type":"int","value":76},{"name":"u","type":"string","value":"bsc"},{"name":"no","type":"int","value":4},{"name":"zM","type":"int","value":0}],"gid":9,"width":90,"height":60},{"id":268,"x":135,"y":150,"visible":true,"properties":[{"name":"layer","type":"int","value":6},{"name":"resource_index","type":"int","value":77},{"name":"u","type":"string","value":"bsc"},{"name":"no","type":"int","value":1},{"name":"zM","type":"int","value":0}],"gid":14,"width":90,"height":60},{"id":269,"x":765,"y":90,"visible":true,"properties":[{"name":"layer","type":"int","value":6},{"name":"resource_index","type":"int","value":78},{"name":"u","type":"string","value":"bsc"},{"name":"no","type":"int","value":0},{"name":"zM","type":"int","value":0}],"gid":17,"width":90,"height":60},{"id":270,"x":1035,"y":289,"visible":true,"properties":[{"name":"layer","type":"int","value":6},{"name":"resource_index","type":"int","value":79},{"name":"u","type":"string","value":"enH1"},{"name":"no","type":"int","value":1},{"name":"zM","type":"int","value":0}],"gid":10,"width":90,"height":19},{"id":271,"x":765,"y":292,"visible":true,"properties":[{"name":"layer","type":"int","value":6},{"name":"resource_index","type":"int","value":80},{"name":"u","type":"string","value":"enH1"},{"name":"no","type":"int","value":3},{"name":"zM","type":"int","value":0}],"gid":28,"width":90,"height":22},{"id":272,"x":765,"y":150,"visible":true,"properties":[{"name":"layer","type":"int","value":6},{"name":"resource_index","type":"int","value":81},{"name":"u","type":"string","value":"bsc"},{"name":"no","type":"int","value":4},{"name":"zM","type":"int","value":0}],"gid":9,"width":90,"height":60},{"id":273,"x":765,"y":270,"visible":true,"properties":[{"name":"layer","type":"int","value":6},{"name":"resource_index","type":"int","value":82},{"name":"u","type":"string","value":"bsc"},{"name":"no","type":"int","value":3},{"name":"zM","type":"int","value":0}],"gid":13,"width":91,"height":60},{"id":274,"x":765,"y":210,"visible":true,"properties":[{"name":"layer","type":"int","value":6},{"name":"resource_index","type":"int","value":83},{"name":"u","type":"string","value":"bsc"},{"name":"no","type":"int","value":0},{"name":"zM","type":"int","value":0}],"gid":17,"width":90,"height":60},{"id":275,"x":855,"y":90,"visible":true,"properties":[{"name":"layer","type":"int","value":6},{"name":"resource_index","type":"int","value":84},{"name":"u","type":"string","value":"bsc"},{"name":"no","type":"int","value":1},{"name":"zM","type":"int","value":0}],"gid":14,"width":90,"height":60},{"id":276,"x":945,"y":150,"visible":true,"properties":[{"name":"layer","type":"int","value":6},{"name":"resource_index","type":"int","value":85},{"name":"u","type":"string","value":"bsc"},{"name":"no","type":"int","value":4},{"name":"zM","type":"int","value":0}],"gid":9,"width":90,"height":60},{"id":277,"x":765,"y":30,"visible":true,"properties":[{"name":"layer","type":"int","value":6},{"name":"resource_index","type":"int","value":86},{"name":"u","type":"string","value":"enH0"},{"name":"no","type":"int","value":1},{"name":"zM","type":"int","value":0}],"gid":23,"width":90,"height":32},{"id":278,"x":855,"y":289,"visible":true,"properties":[{"name":"layer","type":"int","value":6},{"name":"resource_index","type":"int","value":87},{"name":"u","type":"string","value":"enH1"},{"name":"no","type":"int","value":1},{"name":"zM","type":"int","value":0}],"gid":10,"width":90,"height":19},{"id":279,"x":1035,"y":210,"visible":true,"properties":[{"name":"layer","type":"int","value":6},{"name":"resource_index","type":"int","value":88},{"name":"u","type":"string","value":"bsc"},{"name":"no","type":"int","value":4},{"name":"zM","type":"int","value":0}],"gid":9,"width":90,"height":60},{"id":280,"x":1125,"y":270,"visible":true,"properties":[{"name":"layer","type":"int","value":6},{"name":"resource_index","type":"int","value":89},{"name":"u","type":"string","value":"enV1"},{"name":"no","type":"int","value":0},{"name":"zM","type":"int","value":0}],"gid":19,"width":28,"height":60},{"id":281,"x":-525,"y":90,"visible":true,"properties":[{"name":"layer","type":"int","value":6},{"name":"resource_index","type":"int","value":90},{"name":"u","type":"string","value":"enV0"},{"name":"no","type":"int","value":0},{"name":"zM","type":"int","value":0}],"gid":27,"width":30,"height":60},{"id":282,"x":-519,"y":283,"visible":true,"properties":[{"name":"layer","type":"int","value":6},{"name":"resource_index","type":"int","value":91},{"name":"u","type":"string","value":"edD"},{"name":"no","type":"int","value":0},{"name":"zM","type":"int","value":0}],"gid":24,"width":45,"height":13},{"id":283,"x":-405,"y":30,"visible":true,"properties":[{"name":"layer","type":"int","value":6},{"name":"resource_index","type":"int","value":92},{"name":"u","type":"string","value":"enH0"},{"name":"no","type":"int","value":0},{"name":"zM","type":"int","value":0}],"gid":26,"width":90,"height":33},{"id":284,"x":-495,"y":90,"visible":true,"properties":[{"name":"layer","type":"int","value":6},{"name":"resource_index","type":"int","value":93},{"name":"u","type":"string","value":"bsc"},{"name":"no","type":"int","value":2},{"name":"zM","type":"int","value":0}],"gid":11,"width":90,"height":60},{"id":285,"x":-405,"y":150,"visible":true,"properties":[{"name":"layer","type":"int","value":6},{"name":"resource_index","type":"int","value":94},{"name":"u","type":"string","value":"bsc"},{"name":"no","type":"int","value":0},{"name":"zM","type":"int","value":0}],"gid":17,"width":90,"height":60},{"id":286,"x":-495,"y":270,"visible":true,"properties":[{"name":"layer","type":"int","value":6},{"name":"resource_index","type":"int","value":95},{"name":"u","type":"string","value":"bsc"},{"name":"no","type":"int","value":3},{"name":"zM","type":"int","value":0}],"gid":13,"width":91,"height":60},{"id":287,"x":945,"y":30,"visible":true,"properties":[{"name":"layer","type":"int","value":6},{"name":"resource_index","type":"int","value":96},{"name":"u","type":"string","value":"enH0"},{"name":"no","type":"int","value":2},{"name":"zM","type":"int","value":0}],"gid":22,"width":90,"height":32},{"id":288,"x":855,"y":150,"visible":true,"properties":[{"name":"layer","type":"int","value":6},{"name":"resource_index","type":"int","value":97},{"name":"u","type":"string","value":"bsc"},{"name":"no","type":"int","value":2},{"name":"zM","type":"int","value":0}],"gid":11,"width":90,"height":60},{"id":289,"x":855,"y":30,"visible":true,"properties":[{"name":"layer","type":"int","value":6},{"name":"resource_index","type":"int","value":98},{"name":"u","type":"string","value":"enH0"},{"name":"no","type":"int","value":2},{"name":"zM","type":"int","value":0}],"gid":22,"width":90,"height":32},{"id":290,"x":945,"y":90,"visible":true,"properties":[{"name":"layer","type":"int","value":6},{"name":"resource_index","type":"int","value":99},{"name":"u","type":"string","value":"bsc"},{"name":"no","type":"int","value":2},{"name":"zM","type":"int","value":0}],"gid":11,"width":90,"height":60},{"id":291,"x":1035,"y":150,"visible":true,"properties":[{"name":"layer","type":"int","value":6},{"name":"resource_index","type":"int","value":100},{"name":"u","type":"string","value":"bsc"},{"name":"no","type":"int","value":1},{"name":"zM","type":"int","value":0}],"gid":14,"width":90,"height":60},{"id":292,"x":1035,"y":90,"visible":true,"properties":[{"name":"layer","type":"int","value":6},{"name":"resource_index","type":"int","value":101},{"name":"u","type":"string","value":"bsc"},{"name":"no","type":"int","value":0},{"name":"zM","type":"int","value":0}],"gid":17,"width":90,"height":60},{"id":293,"x":1125,"y":90,"visible":true,"properties":[{"name":"layer","type":"int","value":6},{"name":"resource_index","type":"int","value":102},{"name":"u","type":"string","value":"enV1"},{"name":"no","type":"int","value":1},{"name":"zM","type":"int","value":0}],"gid":21,"width":26,"height":60},{"id":294,"x":1035,"y":30,"visible":true,"properties":[{"name":"layer","type":"int","value":6},{"name":"resource_index","type":"int","value":103},{"name":"u","type":"string","value":"enH0"},{"name":"no","type":"int","value":3},{"name":"zM","type":"int","value":0}],"gid":15,"width":90,"height":32},{"id":295,"x":1125,"y":150,"visible":true,"properties":[{"name":"layer","type":"int","value":6},{"name":"resource_index","type":"int","value":104},{"name":"u","type":"string","value":"enV1"},{"name":"no","type":"int","value":1},{"name":"zM","type":"int","value":0}],"gid":21,"width":26,"height":60},{"id":296,"x":1097,"y":30,"visible":true,"properties":[{"name":"layer","type":"int","value":6},{"name":"resource_index","type":"int","value":105},{"name":"u","type":"string","value":"edU"},{"name":"no","type":"int","value":1},{"name":"zM","type":"int","value":0}],"gid":12,"width":54,"height":32},{"id":297,"x":945,"y":210,"visible":true,"properties":[{"name":"layer","type":"int","value":6},{"name":"resource_index","type":"int","value":106},{"name":"u","type":"string","value":"bsc"},{"name":"no","type":"int","value":4},{"name":"zM","type":"int","value":0}],"gid":9,"width":90,"height":60},{"id":298,"x":855,"y":210,"visible":true,"properties":[{"name":"layer","type":"int","value":6},{"name":"resource_index","type":"int","value":107},{"name":"u","type":"string","value":"bsc"},{"name":"no","type":"int","value":0},{"name":"zM","type":"int","value":0}],"gid":17,"width":90,"height":60},{"id":299,"x":1125,"y":210,"visible":true,"properties":[{"name":"layer","type":"int","value":6},{"name":"resource_index","type":"int","value":108},{"name":"u","type":"string","value":"enV1"},{"name":"no","type":"int","value":0},{"name":"zM","type":"int","value":0}],"gid":19,"width":28,"height":60},{"id":300,"x":1035,"y":270,"visible":true,"properties":[{"name":"layer","type":"int","value":6},{"name":"resource_index","type":"int","value":109},{"name":"u","type":"string","value":"bsc"},{"name":"no","type":"int","value":3},{"name":"zM","type":"int","value":0}],"gid":13,"width":91,"height":60},{"id":301,"x":945,"y":270,"visible":true,"properties":[{"name":"layer","type":"int","value":6},{"name":"resource_index","type":"int","value":110},{"name":"u","type":"string","value":"bsc"},{"name":"no","type":"int","value":0},{"name":"zM","type":"int","value":0}],"gid":17,"width":90,"height":60},{"id":302,"x":855,"y":270,"visible":true,"properties":[{"name":"layer","type":"int","value":6},{"name":"resource_index","type":"int","value":111},{"name":"u","type":"string","value":"bsc"},{"name":"no","type":"int","value":1},{"name":"zM","type":"int","value":0}],"gid":14,"width":90,"height":60},{"id":303,"x":945,"y":291,"visible":true,"properties":[{"name":"layer","type":"int","value":6},{"name":"resource_index","type":"int","value":112},{"name":"u","type":"string","value":"enH1"},{"name":"no","type":"int","value":0},{"name":"zM","type":"int","value":0}],"gid":20,"width":90,"height":21},{"id":304,"x":1101,"y":283,"visible":true,"properties":[{"name":"layer","type":"int","value":6},{"name":"resource_index","type":"int","value":113},{"name":"u","type":"string","value":"edD"},{"name":"no","type":"int","value":0},{"name":"zM","type":"int","value":0}],"gid":24,"width":45,"height":13},{"id":305,"x":-523,"y":30,"visible":true,"properties":[{"name":"layer","type":"int","value":6},{"name":"resource_index","type":"int","value":114},{"name":"u","type":"string","value":"edU"},{"name":"no","type":"int","value":1},{"name":"zM","type":"int","value":0}],"gid":12,"width":54,"height":32},{"id":306,"x":-495,"y":30,"visible":true,"properties":[{"name":"layer","type":"int","value":6},{"name":"resource_index","type":"int","value":115},{"name":"u","type":"string","value":"enH0"},{"name":"no","type":"int","value":1},{"name":"zM","type":"int","value":0}],"gid":23,"width":90,"height":32},{"id":307,"x":-495,"y":150,"visible":true,"properties":[{"name":"layer","type":"int","value":6},{"name":"resource_index","type":"int","value":116},{"name":"u","type":"string","value":"bsc"},{"name":"no","type":"int","value":1},{"name":"zM","type":"int","value":0}],"gid":14,"width":90,"height":60},{"id":308,"x":-522,"y":150,"visible":true,"properties":[{"name":"layer","type":"int","value":6},{"name":"resource_index","type":"int","value":117},{"name":"u","type":"string","value":"enV0"},{"name":"no","type":"int","value":1},{"name":"zM","type":"int","value":0}],"gid":25,"width":27,"height":60},{"id":309,"x":-525,"y":210,"visible":true,"properties":[{"name":"layer","type":"int","value":6},{"name":"resource_index","type":"int","value":118},{"name":"u","type":"string","value":"enV0"},{"name":"no","type":"int","value":0},{"name":"zM","type":"int","value":0}],"gid":27,"width":30,"height":60},{"id":310,"x":-525,"y":270,"visible":true,"properties":[{"name":"layer","type":"int","value":6},{"name":"resource_index","type":"int","value":119},{"name":"u","type":"string","value":"enV0"},{"name":"no","type":"int","value":0},{"name":"zM","type":"int","value":0}],"gid":27,"width":30,"height":60}]},{"id":11,"name":"background_back_0","type":"imagelayer","visible":true,"opacity":1,"image":"../../images/29098.png","imagewidth":256,"imageheight":256,"offsetx":-128,"offsety":-128,"repeatx":true,"repeaty":true,"parallaxx":1,"parallaxy":1,"properties":[{"name":"a","type":"int","value":255},{"name":"f","type":"int","value":0},{"name":"x","type":"int","value":0},{"name":"y","type":"int","value":0},{"name":"bS","type":"string","value":"grassySoil"},{"name":"cx","type":"int","value":0},{"name":"cy","type":"int","value":0},{"name":"no","type":"int","value":0},{"name":"rx","type":"int","value":0},{"name":"ry","type":"int","value":0},{"name":"ani","type":"int","value":0},{"name":"type","type":"int","value":3},{"name":"front","type":"int","value":0}]},{"id":12,"name":"background_back_1","type":"imagelayer","visible":true,"opacity":1,"image":"../../images/29099.png","imagewidth":1024,"imageheight":579,"offsetx":-394,"offsety":-382,"repeatx":true,"repeaty":false,"parallaxx":1,"parallaxy":1,"properties":[{"name":"a","type":"int","value":255},{"name":"f","type":"int","value":0},{"name":"x","type":"int","value":118},{"name":"y","type":"int","value":-93},{"name":"bS","type":"string","value":"grassySoil"},{"name":"cx","type":"int","value":0},{"name":"cy","type":"int","value":0},{"name":"no","type":"int","value":1},{"name":"rx","type":"int","value":-5},{"name":"ry","type":"int","value":-3},{"name":"ani","type":"int","value":0},{"name":"type","type":"int","value":4},{"name":"front","type":"int","value":0}]},{"id":13,"name":"background_back_2","type":"imagelayer","visible":true,"opacity":1,"image":"../../images/29100.png","imagewidth":2493,"imageheight":340,"offsetx":-920,"offsety":-71,"repeatx":false,"repeaty":false,"parallaxx":1,"parallaxy":1,"properties":[{"name":"a","type":"int","value":255},{"name":"f","type":"int","value":0},{"name":"x","type":"int","value":326},{"name":"y","type":"int","value":99},{"name":"bS","type":"string","value":"grassySoil"},{"name":"cx","type":"int","value":0},{"name":"cy","type":"int","value":0},{"name":"no","type":"int","value":2},{"name":"rx","type":"int","value":-20},{"name":"ry","type":"int","value":-10},{"name":"ani","type":"int","value":0},{"name":"type","type":"int","value":0},{"name":"front","type":"int","value":0}]},{"id":14,"name":"background_back_3","type":"imagelayer","visible":true,"opacity":1,"image":"../../images/29101.png","imagewidth":315,"imageheight":268,"offsetx":48,"offsety":-339,"repeatx":false,"repeaty":false,"parallaxx":1,"parallaxy":1,"properties":[{"name":"a","type":"int","value":255},{"name":"f","type":"int","value":0},{"name":"x","type":"int","value":205},{"name":"y","type":"int","value":-205},{"name":"bS","type":"string","value":"grassySoil"},{"name":"cx","type":"int","value":0},{"name":"cy","type":"int","value":0},{"name":"no","type":"int","value":3},{"name":"rx","type":"int","value":-20},{"name":"ry","type":"int","value":-10},{"name":"ani","type":"int","value":0},{"name":"type","type":"int","value":0},{"name":"front","type":"int","value":0}]},{"id":15,"name":"background_back_4","type":"imagelayer","visible":true,"opacity":1,"image":"../../images/29102.png","imagewidth":1024,"imageheight":257,"offsetx":-580,"offsety":-25,"repeatx":true,"repeaty":false,"parallaxx":1,"parallaxy":1,"properties":[{"name":"a","type":"int","value":255},{"name":"f","type":"int","value":0},{"name":"x","type":"int","value":-68},{"name":"y","type":"int","value":103},{"name":"bS","type":"string","value":"grassySoil"},{"name":"cx","type":"int","value":0},{"name":"cy","type":"int","value":0},{"name":"no","type":"int","value":4},{"name":"rx","type":"int","value":-40},{"name":"ry","type":"int","value":-30},{"name":"ani","type":"int","value":0},{"name":"type","type":"int","value":1},{"name":"front","type":"int","value":0}]},{"id":16,"name":"background_back","type":"objectgroup","visible":true,"opacity":1,"objects":[{"id":311,"x":118,"y":-93,"visible":true,"properties":[{"name":"image_layer_name","type":"string","value":"background_back_1"},{"name":"a","type":"int","value":255},{"name":"f","type":"int","value":0},{"name":"x","type":"int","value":118},{"name":"y","type":"int","value":-93},{"name":"bS","type":"string","value":"grassySoil"},{"name":"cx","type":"int","value":0},{"name":"cy","type":"int","value":0},{"name":"no","type":"int","value":1},{"name":"rx","type":"int","value":-5},{"name":"ry","type":"int","value":-3},{"name":"ani","type":"int","value":0},{"name":"type","type":"int","value":4},{"name":"front","type":"int","value":0}],"point":true}]},{"id":17,"name":"portal","type":"objectgroup","visible":true,"opacity":1,"objects":[{"id":312,"x":833,"y":-45,"visible":true,"properties":[{"name":"x","type":"int","value":833},{"name":"y","type":"int","value":-45},{"name":"pn","type":"string","value":"sp"},{"name":"pt","type":"int","value":0},{"name":"tm","type":"int","value":999999999},{"name":"tn","type":"string","value":""}],"point":true},{"id":313,"x":897,"y":-45,"visible":true,"properties":[{"name":"x","type":"int","value":897},{"name":"y","type":"int","value":-45},{"name":"pn","type":"string","value":"sp"},{"name":"pt","type":"int","value":0},{"name":"tm","type":"int","value":999999999},{"name":"tn","type":"string","value":""}],"point":true},{"id":314,"x":958,"y":-48,"visible":true,"properties":[{"name":"x","type":"int","value":958},{"name":"y","type":"int","value":-48},{"name":"pn","type":"string","value":"sp"},{"name":"pt","type":"int","value":0},{"name":"tm","type":"int","value":999999999},{"name":"tn","type":"string","value":""}],"point":true},{"id":315,"x":1035,"y":-44,"visible":true,"properties":[{"name":"x","type":"int","value":1035},{"name":"y","type":"int","value":-44},{"name":"pn","type":"string","value":"sp"},{"name":"pt","type":"int","value":0},{"name":"tm","type":"int","value":999999999},{"name":"tn","type":"string","value":""}],"point":true},{"id":316,"x":760,"y":-49,"visible":true,"properties":[{"name":"x","type":"int","value":760},{"name":"y","type":"int","value":-49},{"name":"pn","type":"string","value":"sp"},{"name":"pt","type":"int","value":0},{"name":"tm","type":"int","value":999999999},{"name":"tn","type":"string","value":""}],"point":true},{"id":317,"x":599,"y":-837,"visible":true,"properties":[{"name":"x","type":"int","value":599},{"name":"y","type":"int","value":-837},{"name":"pn","type":"string","value":"out01"},{"name":"pt","type":"int","value":2},{"name":"tm","type":"int","value":109050001},{"name":"tn","type":"string","value":"start00"}],"point":true},{"id":318,"x":-150,"y":-836,"visible":true,"properties":[{"name":"x","type":"int","value":-150},{"name":"y","type":"int","value":-836},{"name":"pn","type":"string","value":"out02"},{"name":"pt","type":"int","value":2},{"name":"tm","type":"int","value":109050001},{"name":"tn","type":"string","value":"start00"}],"point":true},{"id":319,"x":882,"y":3,"visible":true,"properties":[{"name":"x","type":"int","value":882},{"name":"y","type":"int","value":3},{"name":"pn","type":"string","value":"out00"},{"name":"pt","type":"int","value":4},{"name":"tm","type":"int","value":109050001},{"name":"tn","type":"string","value":"start00"}],"point":true}]},{"id":18,"name":"foothold","type":"objectgroup","visible":true,"opacity":1,"objects":[{"id":320,"x":585,"y":-836,"visible":true,"properties":[{"name":"layer","type":"int","value":0},{"name":"group","type":"int","value":28},{"name":"id","type":"int","value":1},{"name":"fh_layer","type":"int","value":0},{"name":"fh_group","type":"int","value":28},{"name":"fh_id","type":"int","value":1},{"name":"x1","type":"int","value":585},{"name":"x2","type":"int","value":637},{"name":"y1","type":"int","value":-836},{"name":"y2","type":"int","value":-836},{"name":"next","type":"int","value":11},{"name":"prev","type":"int","value":5}],"polyline":[{"x":0,"y":0},{"x":52,"y":0}]},{"id":321,"x":405,"y":-836,"visible":true,"properties":[{"name":"layer","type":"int","value":0},{"name":"group","type":"int","value":28},{"name":"id","type":"int","value":2},{"name":"fh_layer","type":"int","value":0},{"name":"fh_group","type":"int","value":28},{"name":"fh_id","type":"int","value":2},{"name":"x1","type":"int","value":405},{"name":"x2","type":"int","value":495},{"name":"y1","type":"int","value":-836},{"name":"y2","type":"int","value":-836},{"name":"next","type":"int","value":5},{"name":"prev","type":"int","value":3}],"polyline":[{"x":0,"y":0},{"x":90,"y":0}]},{"id":322,"x":315,"y":-836,"visible":true,"properties":[{"name":"layer","type":"int","value":0},{"name":"group","type":"int","value":28},{"name":"id","type":"int","value":3},{"name":"fh_layer","type":"int","value":0},{"name":"fh_group","type":"int","value":28},{"name":"fh_id","type":"int","value":3},{"name":"x1","type":"int","value":315},{"name":"x2","type":"int","value":405},{"name":"y1","type":"int","value":-836},{"name":"y2","type":"int","value":-836},{"name":"next","type":"int","value":2},{"name":"prev","type":"int","value":46}],"polyline":[{"x":0,"y":0},{"x":90,"y":0}]},{"id":323,"x":45,"y":-836,"visible":true,"properties":[{"name":"layer","type":"int","value":0},{"name":"group","type":"int","value":28},{"name":"id","type":"int","value":4},{"name":"fh_layer","type":"int","value":0},{"name":"fh_group","type":"int","value":28},{"name":"fh_id","type":"int","value":4},{"name":"x1","type":"int","value":45},{"name":"x2","type":"int","value":135},{"name":"y1","type":"int","value":-836},{"name":"y2","type":"int","value":-836},{"name":"next","type":"int","value":7},{"name":"prev","type":"int","value":6}],"polyline":[{"x":0,"y":0},{"x":90,"y":0}]},{"id":324,"x":495,"y":-836,"visible":true,"properties":[{"name":"layer","type":"int","value":0},{"name":"group","type":"int","value":28},{"name":"id","type":"int","value":5},{"name":"fh_layer","type":"int","value":0},{"name":"fh_group","type":"int","value":28},{"name":"fh_id","type":"int","value":5},{"name":"x1","type":"int","value":495},{"name":"x2","type":"int","value":585},{"name":"y1","type":"int","value":-836},{"name":"y2","type":"int","value":-836},{"name":"next","type":"int","value":1},{"name":"prev","type":"int","value":2}],"polyline":[{"x":0,"y":0},{"x":90,"y":0}]},{"id":325,"x":-45,"y":-836,"visible":true,"properties":[{"name":"layer","type":"int","value":0},{"name":"group","type":"int","value":28},{"name":"id","type":"int","value":6},{"name":"fh_layer","type":"int","value":0},{"name":"fh_group","type":"int","value":28},{"name":"fh_id","type":"int","value":6},{"name":"x1","type":"int","value":-45},{"name":"x2","type":"int","value":45},{"name":"y1","type":"int","value":-836},{"name":"y2","type":"int","value":-836},{"name":"next","type":"int","value":4},{"name":"prev","type":"int","value":9}],"polyline":[{"x":0,"y":0},{"x":90,"y":0}]},{"id":326,"x":135,"y":-836,"visible":true,"properties":[{"name":"layer","type":"int","value":0},{"name":"group","type":"int","value":28},{"name":"id","type":"int","value":7},{"name":"fh_layer","type":"int","value":0},{"name":"fh_group","type":"int","value":28},{"name":"fh_id","type":"int","value":7},{"name":"x1","type":"int","value":135},{"name":"x2","type":"int","value":187},{"name":"y1","type":"int","value":-836},{"name":"y2","type":"int","value":-836},{"name":"next","type":"int","value":53},{"name":"prev","type":"int","value":4}],"polyline":[{"x":0,"y":0},{"x":52,"y":0}]},{"id":327,"x":225,"y":-836,"visible":true,"properties":[{"name":"layer","type":"int","value":0},{"name":"group","type":"int","value":28},{"name":"id","type":"int","value":8},{"name":"fh_layer","type":"int","value":0},{"name":"fh_group","type":"int","value":28},{"name":"fh_id","type":"int","value":8},{"name":"x1","type":"int","value":225},{"name":"x2","type":"int","value":263},{"name":"y1","type":"int","value":-836},{"name":"y2","type":"int","value":-836},{"name":"next","type":"int","value":46},{"name":"prev","type":"int","value":52}],"polyline":[{"x":0,"y":0},{"x":38,"y":0}]},{"id":328,"x":-135,"y":-836,"visible":true,"properties":[{"name":"layer","type":"int","value":0},{"name":"group","type":"int","value":28},{"name":"id","type":"int","value":9},{"name":"fh_layer","type":"int","value":0},{"name":"fh_group","type":"int","value":28},{"name":"fh_id","type":"int","value":9},{"name":"x1","type":"int","value":-135},{"name":"x2","type":"int","value":-45},{"name":"y1","type":"int","value":-836},{"name":"y2","type":"int","value":-836},{"name":"next","type":"int","value":6},{"name":"prev","type":"int","value":14}],"polyline":[{"x":0,"y":0},{"x":90,"y":0}]},{"id":329,"x":-263,"y":-810,"visible":true,"properties":[{"name":"layer","type":"int","value":0},{"name":"group","type":"int","value":28},{"name":"id","type":"int","value":10},{"name":"fh_layer","type":"int","value":0},{"name":"fh_group","type":"int","value":28},{"name":"fh_id","type":"int","value":10},{"name":"x1","type":"int","value":-263},{"name":"x2","type":"int","value":-263},{"name":"y1","type":"int","value":-810},{"name":"y2","type":"int","value":-870},{"name":"next","type":"int","value":12},{"name":"prev","type":"int","value":0}],"polyline":[{"x":0,"y":0},{"x":0,"y":-60}]},{"id":330,"x":637,"y":-836,"visible":true,"properties":[{"name":"layer","type":"int","value":0},{"name":"group","type":"int","value":28},{"name":"id","type":"int","value":11},{"name":"fh_layer","type":"int","value":0},{"name":"fh_group","type":"int","value":28},{"name":"fh_id","type":"int","value":11},{"name":"x1","type":"int","value":637},{"name":"x2","type":"int","value":637},{"name":"y1","type":"int","value":-836},{"name":"y2","type":"int","value":-870},{"name":"next","type":"int","value":42},{"name":"prev","type":"int","value":1}],"polyline":[{"x":0,"y":0},{"x":0,"y":-34}]},{"id":331,"x":-263,"y":-870,"visible":true,"properties":[{"name":"layer","type":"int","value":0},{"name":"group","type":"int","value":28},{"name":"id","type":"int","value":12},{"name":"fh_layer","type":"int","value":0},{"name":"fh_group","type":"int","value":28},{"name":"fh_id","type":"int","value":12},{"name":"x1","type":"int","value":-263},{"name":"x2","type":"int","value":-263},{"name":"y1","type":"int","value":-870},{"name":"y2","type":"int","value":-930},{"name":"next","type":"int","value":15},{"name":"prev","type":"int","value":10}],"polyline":[{"x":0,"y":0},{"x":0,"y":-60}]},{"id":332,"x":-187,"y":-870,"visible":true,"properties":[{"name":"layer","type":"int","value":0},{"name":"group","type":"int","value":28},{"name":"id","type":"int","value":13},{"name":"fh_layer","type":"int","value":0},{"name":"fh_group","type":"int","value":28},{"name":"fh_id","type":"int","value":13},{"name":"x1","type":"int","value":-187},{"name":"x2","type":"int","value":-187},{"name":"y1","type":"int","value":-870},{"name":"y2","type":"int","value":-836},{"name":"next","type":"int","value":14},{"name":"prev","type":"int","value":16}],"polyline":[{"x":0,"y":0},{"x":0,"y":34}]},{"id":333,"x":-187,"y":-836,"visible":true,"properties":[{"name":"layer","type":"int","value":0},{"name":"group","type":"int","value":28},{"name":"id","type":"int","value":14},{"name":"fh_layer","type":"int","value":0},{"name":"fh_group","type":"int","value":28},{"name":"fh_id","type":"int","value":14},{"name":"x1","type":"int","value":-187},{"name":"x2","type":"int","value":-135},{"name":"y1","type":"int","value":-836},{"name":"y2","type":"int","value":-836},{"name":"next","type":"int","value":9},{"name":"prev","type":"int","value":13}],"polyline":[{"x":0,"y":0},{"x":52,"y":0}]},{"id":334,"x":-263,"y":-930,"visible":true,"properties":[{"name":"layer","type":"int","value":0},{"name":"group","type":"int","value":28},{"name":"id","type":"int","value":15},{"name":"fh_layer","type":"int","value":0},{"name":"fh_group","type":"int","value":28},{"name":"fh_id","type":"int","value":15},{"name":"x1","type":"int","value":-263},{"name":"x2","type":"int","value":-263},{"name":"y1","type":"int","value":-930},{"name":"y2","type":"int","value":-990},{"name":"next","type":"int","value":17},{"name":"prev","type":"int","value":12}],"polyline":[{"x":0,"y":0},{"x":0,"y":-60}]},{"id":335,"x":-187,"y":-930,"visible":true,"properties":[{"name":"layer","type":"int","value":0},{"name":"group","type":"int","value":28},{"name":"id","type":"int","value":16},{"name":"fh_layer","type":"int","value":0},{"name":"fh_group","type":"int","value":28},{"name":"fh_id","type":"int","value":16},{"name":"x1","type":"int","value":-187},{"name":"x2","type":"int","value":-187},{"name":"y1","type":"int","value":-930},{"name":"y2","type":"int","value":-870},{"name":"next","type":"int","value":13},{"name":"prev","type":"int","value":18}],"polyline":[{"x":0,"y":0},{"x":0,"y":60}]},{"id":336,"x":-263,"y":-990,"visible":true,"properties":[{"name":"layer","type":"int","value":0},{"name":"group","type":"int","value":28},{"name":"id","type":"int","value":17},{"name":"fh_layer","type":"int","value":0},{"name":"fh_group","type":"int","value":28},{"name":"fh_id","type":"int","value":17},{"name":"x1","type":"int","value":-263},{"name":"x2","type":"int","value":-263},{"name":"y1","type":"int","value":-990},{"name":"y2","type":"int","value":-1050},{"name":"next","type":"int","value":19},{"name":"prev","type":"int","value":15}],"polyline":[{"x":0,"y":0},{"x":0,"y":-60}]},{"id":337,"x":-187,"y":-990,"visible":true,"properties":[{"name":"layer","type":"int","value":0},{"name":"group","type":"int","value":28},{"name":"id","type":"int","value":18},{"name":"fh_layer","type":"int","value":0},{"name":"fh_group","type":"int","value":28},{"name":"fh_id","type":"int","value":18},{"name":"x1","type":"int","value":-187},{"name":"x2","type":"int","value":-187},{"name":"y1","type":"int","value":-990},{"name":"y2","type":"int","value":-930},{"name":"next","type":"int","value":16},{"name":"prev","type":"int","value":22}],"polyline":[{"x":0,"y":0},{"x":0,"y":60}]},{"id":338,"x":-263,"y":-1050,"visible":true,"properties":[{"name":"layer","type":"int","value":0},{"name":"group","type":"int","value":28},{"name":"id","type":"int","value":19},{"name":"fh_layer","type":"int","value":0},{"name":"fh_group","type":"int","value":28},{"name":"fh_id","type":"int","value":19},{"name":"x1","type":"int","value":-263},{"name":"x2","type":"int","value":-263},{"name":"y1","type":"int","value":-1050},{"name":"y2","type":"int","value":-1076},{"name":"next","type":"int","value":20},{"name":"prev","type":"int","value":17}],"polyline":[{"x":0,"y":0},{"x":0,"y":-26}]},{"id":339,"x":-263,"y":-1076,"visible":true,"properties":[{"name":"layer","type":"int","value":0},{"name":"group","type":"int","value":28},{"name":"id","type":"int","value":20},{"name":"fh_layer","type":"int","value":0},{"name":"fh_group","type":"int","value":28},{"name":"fh_id","type":"int","value":20},{"name":"x1","type":"int","value":-263},{"name":"x2","type":"int","value":-187},{"name":"y1","type":"int","value":-1076},{"name":"y2","type":"int","value":-1076},{"name":"next","type":"int","value":23},{"name":"prev","type":"int","value":19}],"polyline":[{"x":0,"y":0},{"x":76,"y":0}]},{"id":340,"x":-187,"y":-1076,"visible":true,"properties":[{"name":"layer","type":"int","value":0},{"name":"group","type":"int","value":28},{"name":"id","type":"int","value":21},{"name":"fh_layer","type":"int","value":0},{"name":"fh_group","type":"int","value":28},{"name":"fh_id","type":"int","value":21},{"name":"x1","type":"int","value":-187},{"name":"x2","type":"int","value":-187},{"name":"y1","type":"int","value":-1076},{"name":"y2","type":"int","value":-1050},{"name":"next","type":"int","value":22},{"name":"prev","type":"int","value":20}],"polyline":[{"x":0,"y":0},{"x":0,"y":26}]},{"id":341,"x":-187,"y":-1050,"visible":true,"properties":[{"name":"layer","type":"int","value":0},{"name":"group","type":"int","value":28},{"name":"id","type":"int","value":22},{"name":"fh_layer","type":"int","value":0},{"name":"fh_group","type":"int","value":28},{"name":"fh_id","type":"int","value":22},{"name":"x1","type":"int","value":-187},{"name":"x2","type":"int","value":-187},{"name":"y1","type":"int","value":-1050},{"name":"y2","type":"int","value":-990},{"name":"next","type":"int","value":18},{"name":"prev","type":"int","value":21}],"polyline":[{"x":0,"y":0},{"x":0,"y":60}]},{"id":342,"x":-187,"y":-1076,"visible":true,"properties":[{"name":"layer","type":"int","value":0},{"name":"group","type":"int","value":28},{"name":"id","type":"int","value":23},{"name":"fh_layer","type":"int","value":0},{"name":"fh_group","type":"int","value":28},{"name":"fh_id","type":"int","value":23},{"name":"x1","type":"int","value":-187},{"name":"x2","type":"int","value":-135},{"name":"y1","type":"int","value":-1076},{"name":"y2","type":"int","value":-1076},{"name":"next","type":"int","value":24},{"name":"prev","type":"int","value":20}],"polyline":[{"x":0,"y":0},{"x":52,"y":0}]},{"id":343,"x":-135,"y":-1076,"visible":true,"properties":[{"name":"layer","type":"int","value":0},{"name":"group","type":"int","value":28},{"name":"id","type":"int","value":24},{"name":"fh_layer","type":"int","value":0},{"name":"fh_group","type":"int","value":28},{"name":"fh_id","type":"int","value":24},{"name":"x1","type":"int","value":-135},{"name":"x2","type":"int","value":-45},{"name":"y1","type":"int","value":-1076},{"name":"y2","type":"int","value":-1076},{"name":"next","type":"int","value":31},{"name":"prev","type":"int","value":23}],"polyline":[{"x":0,"y":0},{"x":90,"y":0}]},{"id":344,"x":315,"y":-1076,"visible":true,"properties":[{"name":"layer","type":"int","value":0},{"name":"group","type":"int","value":28},{"name":"id","type":"int","value":25},{"name":"fh_layer","type":"int","value":0},{"name":"fh_group","type":"int","value":28},{"name":"fh_id","type":"int","value":25},{"name":"x1","type":"int","value":315},{"name":"x2","type":"int","value":405},{"name":"y1","type":"int","value":-1076},{"name":"y2","type":"int","value":-1076},{"name":"next","type":"int","value":27},{"name":"prev","type":"int","value":28}],"polyline":[{"x":0,"y":0},{"x":90,"y":0}]},{"id":345,"x":495,"y":-1076,"visible":true,"properties":[{"name":"layer","type":"int","value":0},{"name":"group","type":"int","value":28},{"name":"id","type":"int","value":26},{"name":"fh_layer","type":"int","value":0},{"name":"fh_group","type":"int","value":28},{"name":"fh_id","type":"int","value":26},{"name":"x1","type":"int","value":495},{"name":"x2","type":"int","value":585},{"name":"y1","type":"int","value":-1076},{"name":"y2","type":"int","value":-1076},{"name":"next","type":"int","value":32},{"name":"prev","type":"int","value":27}],"polyline":[{"x":0,"y":0},{"x":90,"y":0}]},{"id":346,"x":405,"y":-1076,"visible":true,"properties":[{"name":"layer","type":"int","value":0},{"name":"group","type":"int","value":28},{"name":"id","type":"int","value":27},{"name":"fh_layer","type":"int","value":0},{"name":"fh_group","type":"int","value":28},{"name":"fh_id","type":"int","value":27},{"name":"x1","type":"int","value":405},{"name":"x2","type":"int","value":495},{"name":"y1","type":"int","value":-1076},{"name":"y2","type":"int","value":-1076},{"name":"next","type":"int","value":26},{"name":"prev","type":"int","value":25}],"polyline":[{"x":0,"y":0},{"x":90,"y":0}]},{"id":347,"x":225,"y":-1076,"visible":true,"properties":[{"name":"layer","type":"int","value":0},{"name":"group","type":"int","value":28},{"name":"id","type":"int","value":28},{"name":"fh_layer","type":"int","value":0},{"name":"fh_group","type":"int","value":28},{"name":"fh_id","type":"int","value":28},{"name":"x1","type":"int","value":225},{"name":"x2","type":"int","value":315},{"name":"y1","type":"int","value":-1076},{"name":"y2","type":"int","value":-1076},{"name":"next","type":"int","value":25},{"name":"prev","type":"int","value":29}],"polyline":[{"x":0,"y":0},{"x":90,"y":0}]},{"id":348,"x":135,"y":-1076,"visible":true,"properties":[{"name":"layer","type":"int","value":0},{"name":"group","type":"int","value":28},{"name":"id","type":"int","value":29},{"name":"fh_layer","type":"int","value":0},{"name":"fh_group","type":"int","value":28},{"name":"fh_id","type":"int","value":29},{"name":"x1","type":"int","value":135},{"name":"x2","type":"int","value":225},{"name":"y1","type":"int","value":-1076},{"name":"y2","type":"int","value":-1076},{"name":"next","type":"int","value":28},{"name":"prev","type":"int","value":30}],"polyline":[{"x":0,"y":0},{"x":90,"y":0}]},{"id":349,"x":45,"y":-1076,"visible":true,"properties":[{"name":"layer","type":"int","value":0},{"name":"group","type":"int","value":28},{"name":"id","type":"int","value":30},{"name":"fh_layer","type":"int","value":0},{"name":"fh_group","type":"int","value":28},{"name":"fh_id","type":"int","value":30},{"name":"x1","type":"int","value":45},{"name":"x2","type":"int","value":135},{"name":"y1","type":"int","value":-1076},{"name":"y2","type":"int","value":-1076},{"name":"next","type":"int","value":29},{"name":"prev","type":"int","value":31}],"polyline":[{"x":0,"y":0},{"x":90,"y":0}]},{"id":350,"x":-45,"y":-1076,"visible":true,"properties":[{"name":"layer","type":"int","value":0},{"name":"group","type":"int","value":28},{"name":"id","type":"int","value":31},{"name":"fh_layer","type":"int","value":0},{"name":"fh_group","type":"int","value":28},{"name":"fh_id","type":"int","value":31},{"name":"x1","type":"int","value":-45},{"name":"x2","type":"int","value":45},{"name":"y1","type":"int","value":-1076},{"name":"y2","type":"int","value":-1076},{"name":"next","type":"int","value":30},{"name":"prev","type":"int","value":24}],"polyline":[{"x":0,"y":0},{"x":90,"y":0}]},{"id":351,"x":585,"y":-1076,"visible":true,"properties":[{"name":"layer","type":"int","value":0},{"name":"group","type":"int","value":28},{"name":"id","type":"int","value":32},{"name":"fh_layer","type":"int","value":0},{"name":"fh_group","type":"int","value":28},{"name":"fh_id","type":"int","value":32},{"name":"x1","type":"int","value":585},{"name":"x2","type":"int","value":637},{"name":"y1","type":"int","value":-1076},{"name":"y2","type":"int","value":-1076},{"name":"next","type":"int","value":34},{"name":"prev","type":"int","value":26}],"polyline":[{"x":0,"y":0},{"x":52,"y":0}]},{"id":352,"x":637,"y":-1050,"visible":true,"properties":[{"name":"layer","type":"int","value":0},{"name":"group","type":"int","value":28},{"name":"id","type":"int","value":33},{"name":"fh_layer","type":"int","value":0},{"name":"fh_group","type":"int","value":28},{"name":"fh_id","type":"int","value":33},{"name":"x1","type":"int","value":637},{"name":"x2","type":"int","value":637},{"name":"y1","type":"int","value":-1050},{"name":"y2","type":"int","value":-1076},{"name":"next","type":"int","value":34},{"name":"prev","type":"int","value":38}],"polyline":[{"x":0,"y":0},{"x":0,"y":-26}]},{"id":353,"x":637,"y":-1076,"visible":true,"properties":[{"name":"layer","type":"int","value":0},{"name":"group","type":"int","value":28},{"name":"id","type":"int","value":34},{"name":"fh_layer","type":"int","value":0},{"name":"fh_group","type":"int","value":28},{"name":"fh_id","type":"int","value":34},{"name":"x1","type":"int","value":637},{"name":"x2","type":"int","value":675},{"name":"y1","type":"int","value":-1076},{"name":"y2","type":"int","value":-1076},{"name":"next","type":"int","value":35},{"name":"prev","type":"int","value":32}],"polyline":[{"x":0,"y":0},{"x":38,"y":0}]},{"id":354,"x":675,"y":-1076,"visible":true,"properties":[{"name":"layer","type":"int","value":0},{"name":"group","type":"int","value":28},{"name":"id","type":"int","value":35},{"name":"fh_layer","type":"int","value":0},{"name":"fh_group","type":"int","value":28},{"name":"fh_id","type":"int","value":35},{"name":"x1","type":"int","value":675},{"name":"x2","type":"int","value":713},{"name":"y1","type":"int","value":-1076},{"name":"y2","type":"int","value":-1076},{"name":"next","type":"int","value":36},{"name":"prev","type":"int","value":34}],"polyline":[{"x":0,"y":0},{"x":38,"y":0}]},{"id":355,"x":713,"y":-1076,"visible":true,"properties":[{"name":"layer","type":"int","value":0},{"name":"group","type":"int","value":28},{"name":"id","type":"int","value":36},{"name":"fh_layer","type":"int","value":0},{"name":"fh_group","type":"int","value":28},{"name":"fh_id","type":"int","value":36},{"name":"x1","type":"int","value":713},{"name":"x2","type":"int","value":713},{"name":"y1","type":"int","value":-1076},{"name":"y2","type":"int","value":-1050},{"name":"next","type":"int","value":37},{"name":"prev","type":"int","value":35}],"polyline":[{"x":0,"y":0},{"x":0,"y":26}]},{"id":356,"x":713,"y":-1050,"visible":true,"properties":[{"name":"layer","type":"int","value":0},{"name":"group","type":"int","value":28},{"name":"id","type":"int","value":37},{"name":"fh_layer","type":"int","value":0},{"name":"fh_group","type":"int","value":28},{"name":"fh_id","type":"int","value":37},{"name":"x1","type":"int","value":713},{"name":"x2","type":"int","value":713},{"name":"y1","type":"int","value":-1050},{"name":"y2","type":"int","value":-990},{"name":"next","type":"int","value":39},{"name":"prev","type":"int","value":36}],"polyline":[{"x":0,"y":0},{"x":0,"y":60}]},{"id":357,"x":637,"y":-990,"visible":true,"properties":[{"name":"layer","type":"int","value":0},{"name":"group","type":"int","value":28},{"name":"id","type":"int","value":38},{"name":"fh_layer","type":"int","value":0},{"name":"fh_group","type":"int","value":28},{"name":"fh_id","type":"int","value":38},{"name":"x1","type":"int","value":637},{"name":"x2","type":"int","value":637},{"name":"y1","type":"int","value":-990},{"name":"y2","type":"int","value":-1050},{"name":"next","type":"int","value":33},{"name":"prev","type":"int","value":40}],"polyline":[{"x":0,"y":0},{"x":0,"y":-60}]},{"id":358,"x":713,"y":-990,"visible":true,"properties":[{"name":"layer","type":"int","value":0},{"name":"group","type":"int","value":28},{"name":"id","type":"int","value":39},{"name":"fh_layer","type":"int","value":0},{"name":"fh_group","type":"int","value":28},{"name":"fh_id","type":"int","value":39},{"name":"x1","type":"int","value":713},{"name":"x2","type":"int","value":713},{"name":"y1","type":"int","value":-990},{"name":"y2","type":"int","value":-930},{"name":"next","type":"int","value":41},{"name":"prev","type":"int","value":37}],"polyline":[{"x":0,"y":0},{"x":0,"y":60}]},{"id":359,"x":637,"y":-930,"visible":true,"properties":[{"name":"layer","type":"int","value":0},{"name":"group","type":"int","value":28},{"name":"id","type":"int","value":40},{"name":"fh_layer","type":"int","value":0},{"name":"fh_group","type":"int","value":28},{"name":"fh_id","type":"int","value":40},{"name":"x1","type":"int","value":637},{"name":"x2","type":"int","value":637},{"name":"y1","type":"int","value":-930},{"name":"y2","type":"int","value":-990},{"name":"next","type":"int","value":38},{"name":"prev","type":"int","value":42}],"polyline":[{"x":0,"y":0},{"x":0,"y":-60}]},{"id":360,"x":713,"y":-930,"visible":true,"properties":[{"name":"layer","type":"int","value":0},{"name":"group","type":"int","value":28},{"name":"id","type":"int","value":41},{"name":"fh_layer","type":"int","value":0},{"name":"fh_group","type":"int","value":28},{"name":"fh_id","type":"int","value":41},{"name":"x1","type":"int","value":713},{"name":"x2","type":"int","value":713},{"name":"y1","type":"int","value":-930},{"name":"y2","type":"int","value":-870},{"name":"next","type":"int","value":43},{"name":"prev","type":"int","value":39}],"polyline":[{"x":0,"y":0},{"x":0,"y":60}]},{"id":361,"x":637,"y":-870,"visible":true,"properties":[{"name":"layer","type":"int","value":0},{"name":"group","type":"int","value":28},{"name":"id","type":"int","value":42},{"name":"fh_layer","type":"int","value":0},{"name":"fh_group","type":"int","value":28},{"name":"fh_id","type":"int","value":42},{"name":"x1","type":"int","value":637},{"name":"x2","type":"int","value":637},{"name":"y1","type":"int","value":-870},{"name":"y2","type":"int","value":-930},{"name":"next","type":"int","value":40},{"name":"prev","type":"int","value":11}],"polyline":[{"x":0,"y":0},{"x":0,"y":-60}]},{"id":362,"x":713,"y":-870,"visible":true,"properties":[{"name":"layer","type":"int","value":0},{"name":"group","type":"int","value":28},{"name":"id","type":"int","value":43},{"name":"fh_layer","type":"int","value":0},{"name":"fh_group","type":"int","value":28},{"name":"fh_id","type":"int","value":43},{"name":"x1","type":"int","value":713},{"name":"x2","type":"int","value":713},{"name":"y1","type":"int","value":-870},{"name":"y2","type":"int","value":-810},{"name":"next","type":"int","value":0},{"name":"prev","type":"int","value":41}],"polyline":[{"x":0,"y":0},{"x":0,"y":60}]},{"id":363,"x":187,"y":-870,"visible":true,"properties":[{"name":"layer","type":"int","value":0},{"name":"group","type":"int","value":28},{"name":"id","type":"int","value":44},{"name":"fh_layer","type":"int","value":0},{"name":"fh_group","type":"int","value":28},{"name":"fh_id","type":"int","value":44},{"name":"x1","type":"int","value":187},{"name":"x2","type":"int","value":187},{"name":"y1","type":"int","value":-870},{"name":"y2","type":"int","value":-930},{"name":"next","type":"int","value":47},{"name":"prev","type":"int","value":53}],"polyline":[{"x":0,"y":0},{"x":0,"y":-60}]},{"id":364,"x":263,"y":-870,"visible":true,"properties":[{"name":"layer","type":"int","value":0},{"name":"group","type":"int","value":28},{"name":"id","type":"int","value":45},{"name":"fh_layer","type":"int","value":0},{"name":"fh_group","type":"int","value":28},{"name":"fh_id","type":"int","value":45},{"name":"x1","type":"int","value":263},{"name":"x2","type":"int","value":263},{"name":"y1","type":"int","value":-870},{"name":"y2","type":"int","value":-836},{"name":"next","type":"int","value":46},{"name":"prev","type":"int","value":48}],"polyline":[{"x":0,"y":0},{"x":0,"y":34}]},{"id":365,"x":263,"y":-836,"visible":true,"properties":[{"name":"layer","type":"int","value":0},{"name":"group","type":"int","value":28},{"name":"id","type":"int","value":46},{"name":"fh_layer","type":"int","value":0},{"name":"fh_group","type":"int","value":28},{"name":"fh_id","type":"int","value":46},{"name":"x1","type":"int","value":263},{"name":"x2","type":"int","value":315},{"name":"y1","type":"int","value":-836},{"name":"y2","type":"int","value":-836},{"name":"next","type":"int","value":3},{"name":"prev","type":"int","value":45}],"polyline":[{"x":0,"y":0},{"x":52,"y":0}]},{"id":366,"x":187,"y":-930,"visible":true,"properties":[{"name":"layer","type":"int","value":0},{"name":"group","type":"int","value":28},{"name":"id","type":"int","value":47},{"name":"fh_layer","type":"int","value":0},{"name":"fh_group","type":"int","value":28},{"name":"fh_id","type":"int","value":47},{"name":"x1","type":"int","value":187},{"name":"x2","type":"int","value":187},{"name":"y1","type":"int","value":-930},{"name":"y2","type":"int","value":-990},{"name":"next","type":"int","value":51},{"name":"prev","type":"int","value":44}],"polyline":[{"x":0,"y":0},{"x":0,"y":-60}]},{"id":367,"x":263,"y":-930,"visible":true,"properties":[{"name":"layer","type":"int","value":0},{"name":"group","type":"int","value":28},{"name":"id","type":"int","value":48},{"name":"fh_layer","type":"int","value":0},{"name":"fh_group","type":"int","value":28},{"name":"fh_id","type":"int","value":48},{"name":"x1","type":"int","value":263},{"name":"x2","type":"int","value":263},{"name":"y1","type":"int","value":-930},{"name":"y2","type":"int","value":-870},{"name":"next","type":"int","value":45},{"name":"prev","type":"int","value":50}],"polyline":[{"x":0,"y":0},{"x":0,"y":60}]},{"id":368,"x":263,"y":-1050,"visible":true,"properties":[{"name":"layer","type":"int","value":0},{"name":"group","type":"int","value":28},{"name":"id","type":"int","value":49},{"name":"fh_layer","type":"int","value":0},{"name":"fh_group","type":"int","value":28},{"name":"fh_id","type":"int","value":49},{"name":"x1","type":"int","value":263},{"name":"x2","type":"int","value":263},{"name":"y1","type":"int","value":-1050},{"name":"y2","type":"int","value":-990},{"name":"next","type":"int","value":50},{"name":"prev","type":"int","value":0}],"polyline":[{"x":0,"y":0},{"x":0,"y":60}]},{"id":369,"x":263,"y":-990,"visible":true,"properties":[{"name":"layer","type":"int","value":0},{"name":"group","type":"int","value":28},{"name":"id","type":"int","value":50},{"name":"fh_layer","type":"int","value":0},{"name":"fh_group","type":"int","value":28},{"name":"fh_id","type":"int","value":50},{"name":"x1","type":"int","value":263},{"name":"x2","type":"int","value":263},{"name":"y1","type":"int","value":-990},{"name":"y2","type":"int","value":-930},{"name":"next","type":"int","value":48},{"name":"prev","type":"int","value":49}],"polyline":[{"x":0,"y":0},{"x":0,"y":60}]},{"id":370,"x":187,"y":-990,"visible":true,"properties":[{"name":"layer","type":"int","value":0},{"name":"group","type":"int","value":28},{"name":"id","type":"int","value":51},{"name":"fh_layer","type":"int","value":0},{"name":"fh_group","type":"int","value":28},{"name":"fh_id","type":"int","value":51},{"name":"x1","type":"int","value":187},{"name":"x2","type":"int","value":187},{"name":"y1","type":"int","value":-990},{"name":"y2","type":"int","value":-1050},{"name":"next","type":"int","value":0},{"name":"prev","type":"int","value":47}],"polyline":[{"x":0,"y":0},{"x":0,"y":-60}]},{"id":371,"x":187,"y":-836,"visible":true,"properties":[{"name":"layer","type":"int","value":0},{"name":"group","type":"int","value":28},{"name":"id","type":"int","value":52},{"name":"fh_layer","type":"int","value":0},{"name":"fh_group","type":"int","value":28},{"name":"fh_id","type":"int","value":52},{"name":"x1","type":"int","value":187},{"name":"x2","type":"int","value":225},{"name":"y1","type":"int","value":-836},{"name":"y2","type":"int","value":-836},{"name":"next","type":"int","value":8},{"name":"prev","type":"int","value":7}],"polyline":[{"x":0,"y":0},{"x":38,"y":0}]},{"id":372,"x":187,"y":-836,"visible":true,"properties":[{"name":"layer","type":"int","value":0},{"name":"group","type":"int","value":28},{"name":"id","type":"int","value":53},{"name":"fh_layer","type":"int","value":0},{"name":"fh_group","type":"int","value":28},{"name":"fh_id","type":"int","value":53},{"name":"x1","type":"int","value":187},{"name":"x2","type":"int","value":187},{"name":"y1","type":"int","value":-836},{"name":"y2","type":"int","value":-870},{"name":"next","type":"int","value":44},{"name":"prev","type":"int","value":7}],"polyline":[{"x":0,"y":0},{"x":0,"y":-34}]},{"id":373,"x":385,"y":-911,"visible":true,"properties":[{"name":"layer","type":"int","value":0},{"name":"group","type":"int","value":28},{"name":"id","type":"int","value":54},{"name":"fh_layer","type":"int","value":0},{"name":"fh_group","type":"int","value":28},{"name":"fh_id","type":"int","value":54},{"name":"x1","type":"int","value":385},{"name":"x2","type":"int","value":454},{"name":"y1","type":"int","value":-911},{"name":"y2","type":"int","value":-911},{"name":"next","type":"int","value":55},{"name":"prev","type":"int","value":0}],"polyline":[{"x":0,"y":0},{"x":69,"y":0}]},{"id":374,"x":454,"y":-911,"visible":true,"properties":[{"name":"layer","type":"int","value":0},{"name":"group","type":"int","value":28},{"name":"id","type":"int","value":55},{"name":"fh_layer","type":"int","value":0},{"name":"fh_group","type":"int","value":28},{"name":"fh_id","type":"int","value":55},{"name":"x1","type":"int","value":454},{"name":"x2","type":"int","value":456},{"name":"y1","type":"int","value":-911},{"name":"y2","type":"int","value":-896},{"name":"next","type":"int","value":56},{"name":"prev","type":"int","value":54}],"polyline":[{"x":0,"y":0},{"x":2,"y":15}]},{"id":375,"x":456,"y":-896,"visible":true,"properties":[{"name":"layer","type":"int","value":0},{"name":"group","type":"int","value":28},{"name":"id","type":"int","value":56},{"name":"fh_layer","type":"int","value":0},{"name":"fh_group","type":"int","value":28},{"name":"fh_id","type":"int","value":56},{"name":"x1","type":"int","value":456},{"name":"x2","type":"int","value":483},{"name":"y1","type":"int","value":-896},{"name":"y2","type":"int","value":-896},{"name":"next","type":"int","value":0},{"name":"prev","type":"int","value":55}],"polyline":[{"x":0,"y":0},{"x":27,"y":0}]},{"id":376,"x":456,"y":-895,"visible":true,"properties":[{"name":"layer","type":"int","value":0},{"name":"group","type":"int","value":28},{"name":"id","type":"int","value":57},{"name":"fh_layer","type":"int","value":0},{"name":"fh_group","type":"int","value":28},{"name":"fh_id","type":"int","value":57},{"name":"x1","type":"int","value":456},{"name":"x2","type":"int","value":459},{"name":"y1","type":"int","value":-895},{"name":"y2","type":"int","value":-876},{"name":"next","type":"int","value":58},{"name":"prev","type":"int","value":0}],"polyline":[{"x":0,"y":0},{"x":3,"y":19}]},{"id":377,"x":459,"y":-876,"visible":true,"properties":[{"name":"layer","type":"int","value":0},{"name":"group","type":"int","value":28},{"name":"id","type":"int","value":58},{"name":"fh_layer","type":"int","value":0},{"name":"fh_group","type":"int","value":28},{"name":"fh_id","type":"int","value":58},{"name":"x1","type":"int","value":459},{"name":"x2","type":"int","value":494},{"name":"y1","type":"int","value":-876},{"name":"y2","type":"int","value":-876},{"name":"next","type":"int","value":0},{"name":"prev","type":"int","value":57}],"polyline":[{"x":0,"y":0},{"x":35,"y":0}]},{"id":378,"x":459,"y":-875,"visible":true,"properties":[{"name":"layer","type":"int","value":0},{"name":"group","type":"int","value":28},{"name":"id","type":"int","value":59},{"name":"fh_layer","type":"int","value":0},{"name":"fh_group","type":"int","value":28},{"name":"fh_id","type":"int","value":59},{"name":"x1","type":"int","value":459},{"name":"x2","type":"int","value":461},{"name":"y1","type":"int","value":-875},{"name":"y2","type":"int","value":-855},{"name":"next","type":"int","value":60},{"name":"prev","type":"int","value":0}],"polyline":[{"x":0,"y":0},{"x":2,"y":20}]},{"id":379,"x":461,"y":-855,"visible":true,"properties":[{"name":"layer","type":"int","value":0},{"name":"group","type":"int","value":28},{"name":"id","type":"int","value":60},{"name":"fh_layer","type":"int","value":0},{"name":"fh_group","type":"int","value":28},{"name":"fh_id","type":"int","value":60},{"name":"x1","type":"int","value":461},{"name":"x2","type":"int","value":504},{"name":"y1","type":"int","value":-855},{"name":"y2","type":"int","value":-855},{"name":"next","type":"int","value":0},{"name":"prev","type":"int","value":59}],"polyline":[{"x":0,"y":0},{"x":43,"y":0}]},{"id":380,"x":-33,"y":-879,"visible":true,"properties":[{"name":"layer","type":"int","value":0},{"name":"group","type":"int","value":28},{"name":"id","type":"int","value":61},{"name":"fh_layer","type":"int","value":0},{"name":"fh_group","type":"int","value":28},{"name":"fh_id","type":"int","value":61},{"name":"x1","type":"int","value":-33},{"name":"x2","type":"int","value":-7},{"name":"y1","type":"int","value":-879},{"name":"y2","type":"int","value":-879},{"name":"next","type":"int","value":62},{"name":"prev","type":"int","value":0}],"polyline":[{"x":0,"y":0},{"x":26,"y":0}]},{"id":381,"x":-7,"y":-879,"visible":true,"properties":[{"name":"layer","type":"int","value":0},{"name":"group","type":"int","value":28},{"name":"id","type":"int","value":62},{"name":"fh_layer","type":"int","value":0},{"name":"fh_group","type":"int","value":28},{"name":"fh_id","type":"int","value":62},{"name":"x1","type":"int","value":-7},{"name":"x2","type":"int","value":-4},{"name":"y1","type":"int","value":-879},{"name":"y2","type":"int","value":-894},{"name":"next","type":"int","value":63},{"name":"prev","type":"int","value":61}],"polyline":[{"x":0,"y":0},{"x":3,"y":-15}]},{"id":382,"x":-4,"y":-894,"visible":true,"properties":[{"name":"layer","type":"int","value":0},{"name":"group","type":"int","value":28},{"name":"id","type":"int","value":63},{"name":"fh_layer","type":"int","value":0},{"name":"fh_group","type":"int","value":28},{"name":"fh_id","type":"int","value":63},{"name":"x1","type":"int","value":-4},{"name":"x2","type":"int","value":66},{"name":"y1","type":"int","value":-894},{"name":"y2","type":"int","value":-894},{"name":"next","type":"int","value":0},{"name":"prev","type":"int","value":62}],"polyline":[{"x":0,"y":0},{"x":70,"y":0}]},{"id":383,"x":-43,"y":-859,"visible":true,"properties":[{"name":"layer","type":"int","value":0},{"name":"group","type":"int","value":28},{"name":"id","type":"int","value":64},{"name":"fh_layer","type":"int","value":0},{"name":"fh_group","type":"int","value":28},{"name":"fh_id","type":"int","value":64},{"name":"x1","type":"int","value":-43},{"name":"x2","type":"int","value":-10},{"name":"y1","type":"int","value":-859},{"name":"y2","type":"int","value":-859},{"name":"next","type":"int","value":65},{"name":"prev","type":"int","value":0}],"polyline":[{"x":0,"y":0},{"x":33,"y":0}]},{"id":384,"x":-10,"y":-859,"visible":true,"properties":[{"name":"layer","type":"int","value":0},{"name":"group","type":"int","value":28},{"name":"id","type":"int","value":65},{"name":"fh_layer","type":"int","value":0},{"name":"fh_group","type":"int","value":28},{"name":"fh_id","type":"int","value":65},{"name":"x1","type":"int","value":-10},{"name":"x2","type":"int","value":-7},{"name":"y1","type":"int","value":-859},{"name":"y2","type":"int","value":-878},{"name":"next","type":"int","value":0},{"name":"prev","type":"int","value":64}],"polyline":[{"x":0,"y":0},{"x":3,"y":-19}]},{"id":385,"x":502,"y":0,"visible":true,"properties":[{"name":"layer","type":"int","value":1},{"name":"group","type":"int","value":3},{"name":"id","type":"int","value":73},{"name":"fh_layer","type":"int","value":1},{"name":"fh_group","type":"int","value":3},{"name":"fh_id","type":"int","value":73},{"name":"x1","type":"int","value":502},{"name":"x2","type":"int","value":502},{"name":"y1","type":"int","value":0},{"name":"y2","type":"int","value":-26},{"name":"next","type":"int","value":74},{"name":"prev","type":"int","value":0}],"polyline":[{"x":0,"y":0},{"x":0,"y":-26}]},{"id":386,"x":502,"y":-26,"visible":true,"properties":[{"name":"layer","type":"int","value":1},{"name":"group","type":"int","value":3},{"name":"id","type":"int","value":74},{"name":"fh_layer","type":"int","value":1},{"name":"fh_group","type":"int","value":3},{"name":"fh_id","type":"int","value":74},{"name":"x1","type":"int","value":502},{"name":"x2","type":"int","value":578},{"name":"y1","type":"int","value":-26},{"name":"y2","type":"int","value":-26},{"name":"next","type":"int","value":75},{"name":"prev","type":"int","value":73}],"polyline":[{"x":0,"y":0},{"x":76,"y":0}]},{"id":387,"x":578,"y":-26,"visible":true,"properties":[{"name":"layer","type":"int","value":1},{"name":"group","type":"int","value":3},{"name":"id","type":"int","value":75},{"name":"fh_layer","type":"int","value":1},{"name":"fh_group","type":"int","value":3},{"name":"fh_id","type":"int","value":75},{"name":"x1","type":"int","value":578},{"name":"x2","type":"int","value":578},{"name":"y1","type":"int","value":-26},{"name":"y2","type":"int","value":0},{"name":"next","type":"int","value":0},{"name":"prev","type":"int","value":74}],"polyline":[{"x":0,"y":0},{"x":0,"y":26}]},{"id":388,"x":52,"y":-660,"visible":true,"properties":[{"name":"layer","type":"int","value":1},{"name":"group","type":"int","value":27},{"name":"id","type":"int","value":66},{"name":"fh_layer","type":"int","value":1},{"name":"fh_group","type":"int","value":27},{"name":"fh_id","type":"int","value":66},{"name":"x1","type":"int","value":52},{"name":"x2","type":"int","value":52},{"name":"y1","type":"int","value":-660},{"name":"y2","type":"int","value":-686},{"name":"next","type":"int","value":67},{"name":"prev","type":"int","value":0}],"polyline":[{"x":0,"y":0},{"x":0,"y":-26}]},{"id":389,"x":52,"y":-686,"visible":true,"properties":[{"name":"layer","type":"int","value":1},{"name":"group","type":"int","value":27},{"name":"id","type":"int","value":67},{"name":"fh_layer","type":"int","value":1},{"name":"fh_group","type":"int","value":27},{"name":"fh_id","type":"int","value":67},{"name":"x1","type":"int","value":52},{"name":"x2","type":"int","value":128},{"name":"y1","type":"int","value":-686},{"name":"y2","type":"int","value":-686},{"name":"next","type":"int","value":68},{"name":"prev","type":"int","value":66}],"polyline":[{"x":0,"y":0},{"x":76,"y":0}]},{"id":390,"x":128,"y":-686,"visible":true,"properties":[{"name":"layer","type":"int","value":1},{"name":"group","type":"int","value":27},{"name":"id","type":"int","value":68},{"name":"fh_layer","type":"int","value":1},{"name":"fh_group","type":"int","value":27},{"name":"fh_id","type":"int","value":68},{"name":"x1","type":"int","value":128},{"name":"x2","type":"int","value":180},{"name":"y1","type":"int","value":-686},{"name":"y2","type":"int","value":-686},{"name":"next","type":"int","value":69},{"name":"prev","type":"int","value":67}],"polyline":[{"x":0,"y":0},{"x":52,"y":0}]},{"id":391,"x":180,"y":-686,"visible":true,"properties":[{"name":"layer","type":"int","value":1},{"name":"group","type":"int","value":27},{"name":"id","type":"int","value":69},{"name":"fh_layer","type":"int","value":1},{"name":"fh_group","type":"int","value":27},{"name":"fh_id","type":"int","value":69},{"name":"x1","type":"int","value":180},{"name":"x2","type":"int","value":270},{"name":"y1","type":"int","value":-686},{"name":"y2","type":"int","value":-686},{"name":"next","type":"int","value":72},{"name":"prev","type":"int","value":68}],"polyline":[{"x":0,"y":0},{"x":90,"y":0}]},{"id":392,"x":322,"y":-686,"visible":true,"properties":[{"name":"layer","type":"int","value":1},{"name":"group","type":"int","value":27},{"name":"id","type":"int","value":70},{"name":"fh_layer","type":"int","value":1},{"name":"fh_group","type":"int","value":27},{"name":"fh_id","type":"int","value":70},{"name":"x1","type":"int","value":322},{"name":"x2","type":"int","value":398},{"name":"y1","type":"int","value":-686},{"name":"y2","type":"int","value":-686},{"name":"next","type":"int","value":71},{"name":"prev","type":"int","value":72}],"polyline":[{"x":0,"y":0},{"x":76,"y":0}]},{"id":393,"x":398,"y":-686,"visible":true,"properties":[{"name":"layer","type":"int","value":1},{"name":"group","type":"int","value":27},{"name":"id","type":"int","value":71},{"name":"fh_layer","type":"int","value":1},{"name":"fh_group","type":"int","value":27},{"name":"fh_id","type":"int","value":71},{"name":"x1","type":"int","value":398},{"name":"x2","type":"int","value":398},{"name":"y1","type":"int","value":-686},{"name":"y2","type":"int","value":-660},{"name":"next","type":"int","value":0},{"name":"prev","type":"int","value":70}],"polyline":[{"x":0,"y":0},{"x":0,"y":26}]},{"id":394,"x":270,"y":-686,"visible":true,"properties":[{"name":"layer","type":"int","value":1},{"name":"group","type":"int","value":27},{"name":"id","type":"int","value":72},{"name":"fh_layer","type":"int","value":1},{"name":"fh_group","type":"int","value":27},{"name":"fh_id","type":"int","value":72},{"name":"x1","type":"int","value":270},{"name":"x2","type":"int","value":322},{"name":"y1","type":"int","value":-686},{"name":"y2","type":"int","value":-686},{"name":"next","type":"int","value":70},{"name":"prev","type":"int","value":69}],"polyline":[{"x":0,"y":0},{"x":52,"y":0}]},{"id":395,"x":7,"y":-510,"visible":true,"properties":[{"name":"layer","type":"int","value":2},{"name":"group","type":"int","value":22},{"name":"id","type":"int","value":76},{"name":"fh_layer","type":"int","value":2},{"name":"fh_group","type":"int","value":22},{"name":"fh_id","type":"int","value":76},{"name":"x1","type":"int","value":7},{"name":"x2","type":"int","value":7},{"name":"y1","type":"int","value":-510},{"name":"y2","type":"int","value":-536},{"name":"next","type":"int","value":77},{"name":"prev","type":"int","value":0}],"polyline":[{"x":0,"y":0},{"x":0,"y":-26}]},{"id":396,"x":7,"y":-536,"visible":true,"properties":[{"name":"layer","type":"int","value":2},{"name":"group","type":"int","value":22},{"name":"id","type":"int","value":77},{"name":"fh_layer","type":"int","value":2},{"name":"fh_group","type":"int","value":22},{"name":"fh_id","type":"int","value":77},{"name":"x1","type":"int","value":7},{"name":"x2","type":"int","value":83},{"name":"y1","type":"int","value":-536},{"name":"y2","type":"int","value":-536},{"name":"next","type":"int","value":78},{"name":"prev","type":"int","value":76}],"polyline":[{"x":0,"y":0},{"x":76,"y":0}]},{"id":397,"x":83,"y":-536,"visible":true,"properties":[{"name":"layer","type":"int","value":2},{"name":"group","type":"int","value":22},{"name":"id","type":"int","value":78},{"name":"fh_layer","type":"int","value":2},{"name":"fh_group","type":"int","value":22},{"name":"fh_id","type":"int","value":78},{"name":"x1","type":"int","value":83},{"name":"x2","type":"int","value":135},{"name":"y1","type":"int","value":-536},{"name":"y2","type":"int","value":-536},{"name":"next","type":"int","value":79},{"name":"prev","type":"int","value":77}],"polyline":[{"x":0,"y":0},{"x":52,"y":0}]},{"id":398,"x":135,"y":-536,"visible":true,"properties":[{"name":"layer","type":"int","value":2},{"name":"group","type":"int","value":22},{"name":"id","type":"int","value":79},{"name":"fh_layer","type":"int","value":2},{"name":"fh_group","type":"int","value":22},{"name":"fh_id","type":"int","value":79},{"name":"x1","type":"int","value":135},{"name":"x2","type":"int","value":225},{"name":"y1","type":"int","value":-536},{"name":"y2","type":"int","value":-536},{"name":"next","type":"int","value":80},{"name":"prev","type":"int","value":78}],"polyline":[{"x":0,"y":0},{"x":90,"y":0}]},{"id":399,"x":225,"y":-536,"visible":true,"properties":[{"name":"layer","type":"int","value":2},{"name":"group","type":"int","value":22},{"name":"id","type":"int","value":80},{"name":"fh_layer","type":"int","value":2},{"name":"fh_group","type":"int","value":22},{"name":"fh_id","type":"int","value":80},{"name":"x1","type":"int","value":225},{"name":"x2","type":"int","value":315},{"name":"y1","type":"int","value":-536},{"name":"y2","type":"int","value":-536},{"name":"next","type":"int","value":83},{"name":"prev","type":"int","value":79}],"polyline":[{"x":0,"y":0},{"x":90,"y":0}]},{"id":400,"x":367,"y":-536,"visible":true,"properties":[{"name":"layer","type":"int","value":2},{"name":"group","type":"int","value":22},{"name":"id","type":"int","value":81},{"name":"fh_layer","type":"int","value":2},{"name":"fh_group","type":"int","value":22},{"name":"fh_id","type":"int","value":81},{"name":"x1","type":"int","value":367},{"name":"x2","type":"int","value":443},{"name":"y1","type":"int","value":-536},{"name":"y2","type":"int","value":-536},{"name":"next","type":"int","value":82},{"name":"prev","type":"int","value":83}],"polyline":[{"x":0,"y":0},{"x":76,"y":0}]},{"id":401,"x":443,"y":-536,"visible":true,"properties":[{"name":"layer","type":"int","value":2},{"name":"group","type":"int","value":22},{"name":"id","type":"int","value":82},{"name":"fh_layer","type":"int","value":2},{"name":"fh_group","type":"int","value":22},{"name":"fh_id","type":"int","value":82},{"name":"x1","type":"int","value":443},{"name":"x2","type":"int","value":443},{"name":"y1","type":"int","value":-536},{"name":"y2","type":"int","value":-510},{"name":"next","type":"int","value":0},{"name":"prev","type":"int","value":81}],"polyline":[{"x":0,"y":0},{"x":0,"y":26}]},{"id":402,"x":315,"y":-536,"visible":true,"properties":[{"name":"layer","type":"int","value":2},{"name":"group","type":"int","value":22},{"name":"id","type":"int","value":83},{"name":"fh_layer","type":"int","value":2},{"name":"fh_group","type":"int","value":22},{"name":"fh_id","type":"int","value":83},{"name":"x1","type":"int","value":315},{"name":"x2","type":"int","value":367},{"name":"y1","type":"int","value":-536},{"name":"y2","type":"int","value":-536},{"name":"next","type":"int","value":81},{"name":"prev","type":"int","value":80}],"polyline":[{"x":0,"y":0},{"x":52,"y":0}]},{"id":403,"x":187,"y":-570,"visible":true,"properties":[{"name":"layer","type":"int","value":2},{"name":"group","type":"int","value":23},{"name":"id","type":"int","value":84},{"name":"fh_layer","type":"int","value":2},{"name":"fh_group","type":"int","value":23},{"name":"fh_id","type":"int","value":84},{"name":"x1","type":"int","value":187},{"name":"x2","type":"int","value":187},{"name":"y1","type":"int","value":-570},{"name":"y2","type":"int","value":-596},{"name":"next","type":"int","value":85},{"name":"prev","type":"int","value":0}],"polyline":[{"x":0,"y":0},{"x":0,"y":-26}]},{"id":404,"x":187,"y":-596,"visible":true,"properties":[{"name":"layer","type":"int","value":2},{"name":"group","type":"int","value":23},{"name":"id","type":"int","value":85},{"name":"fh_layer","type":"int","value":2},{"name":"fh_group","type":"int","value":23},{"name":"fh_id","type":"int","value":85},{"name":"x1","type":"int","value":187},{"name":"x2","type":"int","value":263},{"name":"y1","type":"int","value":-596},{"name":"y2","type":"int","value":-596},{"name":"next","type":"int","value":86},{"name":"prev","type":"int","value":84}],"polyline":[{"x":0,"y":0},{"x":76,"y":0}]},{"id":405,"x":263,"y":-596,"visible":true,"properties":[{"name":"layer","type":"int","value":2},{"name":"group","type":"int","value":23},{"name":"id","type":"int","value":86},{"name":"fh_layer","type":"int","value":2},{"name":"fh_group","type":"int","value":23},{"name":"fh_id","type":"int","value":86},{"name":"x1","type":"int","value":263},{"name":"x2","type":"int","value":263},{"name":"y1","type":"int","value":-596},{"name":"y2","type":"int","value":-570},{"name":"next","type":"int","value":0},{"name":"prev","type":"int","value":85}],"polyline":[{"x":0,"y":0},{"x":0,"y":26}]},{"id":406,"x":277,"y":-630,"visible":true,"properties":[{"name":"layer","type":"int","value":2},{"name":"group","type":"int","value":25},{"name":"id","type":"int","value":87},{"name":"fh_layer","type":"int","value":2},{"name":"fh_group","type":"int","value":25},{"name":"fh_id","type":"int","value":87},{"name":"x1","type":"int","value":277},{"name":"x2","type":"int","value":277},{"name":"y1","type":"int","value":-630},{"name":"y2","type":"int","value":-656},{"name":"next","type":"int","value":88},{"name":"prev","type":"int","value":0}],"polyline":[{"x":0,"y":0},{"x":0,"y":-26}]},{"id":407,"x":277,"y":-656,"visible":true,"properties":[{"name":"layer","type":"int","value":2},{"name":"group","type":"int","value":25},{"name":"id","type":"int","value":88},{"name":"fh_layer","type":"int","value":2},{"name":"fh_group","type":"int","value":25},{"name":"fh_id","type":"int","value":88},{"name":"x1","type":"int","value":277},{"name":"x2","type":"int","value":353},{"name":"y1","type":"int","value":-656},{"name":"y2","type":"int","value":-656},{"name":"next","type":"int","value":89},{"name":"prev","type":"int","value":87}],"polyline":[{"x":0,"y":0},{"x":76,"y":0}]},{"id":408,"x":353,"y":-656,"visible":true,"properties":[{"name":"layer","type":"int","value":2},{"name":"group","type":"int","value":25},{"name":"id","type":"int","value":89},{"name":"fh_layer","type":"int","value":2},{"name":"fh_group","type":"int","value":25},{"name":"fh_id","type":"int","value":89},{"name":"x1","type":"int","value":353},{"name":"x2","type":"int","value":353},{"name":"y1","type":"int","value":-656},{"name":"y2","type":"int","value":-630},{"name":"next","type":"int","value":0},{"name":"prev","type":"int","value":88}],"polyline":[{"x":0,"y":0},{"x":0,"y":26}]},{"id":409,"x":97,"y":-630,"visible":true,"properties":[{"name":"layer","type":"int","value":2},{"name":"group","type":"int","value":26},{"name":"id","type":"int","value":90},{"name":"fh_layer","type":"int","value":2},{"name":"fh_group","type":"int","value":26},{"name":"fh_id","type":"int","value":90},{"name":"x1","type":"int","value":97},{"name":"x2","type":"int","value":97},{"name":"y1","type":"int","value":-630},{"name":"y2","type":"int","value":-656},{"name":"next","type":"int","value":91},{"name":"prev","type":"int","value":0}],"polyline":[{"x":0,"y":0},{"x":0,"y":-26}]},{"id":410,"x":97,"y":-656,"visible":true,"properties":[{"name":"layer","type":"int","value":2},{"name":"group","type":"int","value":26},{"name":"id","type":"int","value":91},{"name":"fh_layer","type":"int","value":2},{"name":"fh_group","type":"int","value":26},{"name":"fh_id","type":"int","value":91},{"name":"x1","type":"int","value":97},{"name":"x2","type":"int","value":173},{"name":"y1","type":"int","value":-656},{"name":"y2","type":"int","value":-656},{"name":"next","type":"int","value":92},{"name":"prev","type":"int","value":90}],"polyline":[{"x":0,"y":0},{"x":76,"y":0}]},{"id":411,"x":173,"y":-656,"visible":true,"properties":[{"name":"layer","type":"int","value":2},{"name":"group","type":"int","value":26},{"name":"id","type":"int","value":92},{"name":"fh_layer","type":"int","value":2},{"name":"fh_group","type":"int","value":26},{"name":"fh_id","type":"int","value":92},{"name":"x1","type":"int","value":173},{"name":"x2","type":"int","value":173},{"name":"y1","type":"int","value":-656},{"name":"y2","type":"int","value":-630},{"name":"next","type":"int","value":0},{"name":"prev","type":"int","value":91}],"polyline":[{"x":0,"y":0},{"x":0,"y":26}]},{"id":412,"x":495,"y":-56,"visible":true,"properties":[{"name":"layer","type":"int","value":4},{"name":"group","type":"int","value":1},{"name":"id","type":"int","value":93},{"name":"fh_layer","type":"int","value":4},{"name":"fh_group","type":"int","value":1},{"name":"fh_id","type":"int","value":93},{"name":"x1","type":"int","value":495},{"name":"x2","type":"int","value":585},{"name":"y1","type":"int","value":-56},{"name":"y2","type":"int","value":-56},{"name":"next","type":"int","value":108},{"name":"prev","type":"int","value":94}],"polyline":[{"x":0,"y":0},{"x":90,"y":0}]},{"id":413,"x":405,"y":-56,"visible":true,"properties":[{"name":"layer","type":"int","value":4},{"name":"group","type":"int","value":1},{"name":"id","type":"int","value":94},{"name":"fh_layer","type":"int","value":4},{"name":"fh_group","type":"int","value":1},{"name":"fh_id","type":"int","value":94},{"name":"x1","type":"int","value":405},{"name":"x2","type":"int","value":495},{"name":"y1","type":"int","value":-56},{"name":"y2","type":"int","value":-56},{"name":"next","type":"int","value":93},{"name":"prev","type":"int","value":95}],"polyline":[{"x":0,"y":0},{"x":90,"y":0}]},{"id":414,"x":315,"y":-56,"visible":true,"properties":[{"name":"layer","type":"int","value":4},{"name":"group","type":"int","value":1},{"name":"id","type":"int","value":95},{"name":"fh_layer","type":"int","value":4},{"name":"fh_group","type":"int","value":1},{"name":"fh_id","type":"int","value":95},{"name":"x1","type":"int","value":315},{"name":"x2","type":"int","value":405},{"name":"y1","type":"int","value":-56},{"name":"y2","type":"int","value":-56},{"name":"next","type":"int","value":94},{"name":"prev","type":"int","value":96}],"polyline":[{"x":0,"y":0},{"x":90,"y":0}]},{"id":415,"x":225,"y":-56,"visible":true,"properties":[{"name":"layer","type":"int","value":4},{"name":"group","type":"int","value":1},{"name":"id","type":"int","value":96},{"name":"fh_layer","type":"int","value":4},{"name":"fh_group","type":"int","value":1},{"name":"fh_id","type":"int","value":96},{"name":"x1","type":"int","value":225},{"name":"x2","type":"int","value":315},{"name":"y1","type":"int","value":-56},{"name":"y2","type":"int","value":-56},{"name":"next","type":"int","value":95},{"name":"prev","type":"int","value":98}],"polyline":[{"x":0,"y":0},{"x":90,"y":0}]},{"id":416,"x":45,"y":-56,"visible":true,"properties":[{"name":"layer","type":"int","value":4},{"name":"group","type":"int","value":1},{"name":"id","type":"int","value":97},{"name":"fh_layer","type":"int","value":4},{"name":"fh_group","type":"int","value":1},{"name":"fh_id","type":"int","value":97},{"name":"x1","type":"int","value":45},{"name":"x2","type":"int","value":135},{"name":"y1","type":"int","value":-56},{"name":"y2","type":"int","value":-56},{"name":"next","type":"int","value":98},{"name":"prev","type":"int","value":99}],"polyline":[{"x":0,"y":0},{"x":90,"y":0}]},{"id":417,"x":135,"y":-56,"visible":true,"properties":[{"name":"layer","type":"int","value":4},{"name":"group","type":"int","value":1},{"name":"id","type":"int","value":98},{"name":"fh_layer","type":"int","value":4},{"name":"fh_group","type":"int","value":1},{"name":"fh_id","type":"int","value":98},{"name":"x1","type":"int","value":135},{"name":"x2","type":"int","value":225},{"name":"y1","type":"int","value":-56},{"name":"y2","type":"int","value":-56},{"name":"next","type":"int","value":96},{"name":"prev","type":"int","value":97}],"polyline":[{"x":0,"y":0},{"x":90,"y":0}]},{"id":418,"x":-45,"y":-56,"visible":true,"properties":[{"name":"layer","type":"int","value":4},{"name":"group","type":"int","value":1},{"name":"id","type":"int","value":99},{"name":"fh_layer","type":"int","value":4},{"name":"fh_group","type":"int","value":1},{"name":"fh_id","type":"int","value":99},{"name":"x1","type":"int","value":-45},{"name":"x2","type":"int","value":45},{"name":"y1","type":"int","value":-56},{"name":"y2","type":"int","value":-56},{"name":"next","type":"int","value":97},{"name":"prev","type":"int","value":110}],"polyline":[{"x":0,"y":0},{"x":90,"y":0}]},{"id":419,"x":-315,"y":-56,"visible":true,"properties":[{"name":"layer","type":"int","value":4},{"name":"group","type":"int","value":1},{"name":"id","type":"int","value":100},{"name":"fh_layer","type":"int","value":4},{"name":"fh_group","type":"int","value":1},{"name":"fh_id","type":"int","value":100},{"name":"x1","type":"int","value":-315},{"name":"x2","type":"int","value":-277},{"name":"y1","type":"int","value":-56},{"name":"y2","type":"int","value":-56},{"name":"next","type":"int","value":103},{"name":"prev","type":"int","value":102}],"polyline":[{"x":0,"y":0},{"x":38,"y":0}]},{"id":420,"x":-353,"y":-30,"visible":true,"properties":[{"name":"layer","type":"int","value":4},{"name":"group","type":"int","value":1},{"name":"id","type":"int","value":101},{"name":"fh_layer","type":"int","value":4},{"name":"fh_group","type":"int","value":1},{"name":"fh_id","type":"int","value":101},{"name":"x1","type":"int","value":-353},{"name":"x2","type":"int","value":-353},{"name":"y1","type":"int","value":-30},{"name":"y2","type":"int","value":-56},{"name":"next","type":"int","value":102},{"name":"prev","type":"int","value":104}],"polyline":[{"x":0,"y":0},{"x":0,"y":-26}]},{"id":421,"x":-353,"y":-56,"visible":true,"properties":[{"name":"layer","type":"int","value":4},{"name":"group","type":"int","value":1},{"name":"id","type":"int","value":102},{"name":"fh_layer","type":"int","value":4},{"name":"fh_group","type":"int","value":1},{"name":"fh_id","type":"int","value":102},{"name":"x1","type":"int","value":-353},{"name":"x2","type":"int","value":-315},{"name":"y1","type":"int","value":-56},{"name":"y2","type":"int","value":-56},{"name":"next","type":"int","value":100},{"name":"prev","type":"int","value":101}],"polyline":[{"x":0,"y":0},{"x":38,"y":0}]},{"id":422,"x":-277,"y":-56,"visible":true,"properties":[{"name":"layer","type":"int","value":4},{"name":"group","type":"int","value":1},{"name":"id","type":"int","value":103},{"name":"fh_layer","type":"int","value":4},{"name":"fh_group","type":"int","value":1},{"name":"fh_id","type":"int","value":103},{"name":"x1","type":"int","value":-277},{"name":"x2","type":"int","value":-225},{"name":"y1","type":"int","value":-56},{"name":"y2","type":"int","value":-56},{"name":"next","type":"int","value":109},{"name":"prev","type":"int","value":100}],"polyline":[{"x":0,"y":0},{"x":52,"y":0}]},{"id":423,"x":-353,"y":30,"visible":true,"properties":[{"name":"layer","type":"int","value":4},{"name":"group","type":"int","value":1},{"name":"id","type":"int","value":104},{"name":"fh_layer","type":"int","value":4},{"name":"fh_group","type":"int","value":1},{"name":"fh_id","type":"int","value":104},{"name":"x1","type":"int","value":-353},{"name":"x2","type":"int","value":-353},{"name":"y1","type":"int","value":30},{"name":"y2","type":"int","value":-30},{"name":"next","type":"int","value":101},{"name":"prev","type":"int","value":0}],"polyline":[{"x":0,"y":0},{"x":0,"y":-60}]},{"id":424,"x":637,"y":-56,"visible":true,"properties":[{"name":"layer","type":"int","value":4},{"name":"group","type":"int","value":1},{"name":"id","type":"int","value":105},{"name":"fh_layer","type":"int","value":4},{"name":"fh_group","type":"int","value":1},{"name":"fh_id","type":"int","value":105},{"name":"x1","type":"int","value":637},{"name":"x2","type":"int","value":713},{"name":"y1","type":"int","value":-56},{"name":"y2","type":"int","value":-56},{"name":"next","type":"int","value":106},{"name":"prev","type":"int","value":108}],"polyline":[{"x":0,"y":0},{"x":76,"y":0}]},{"id":425,"x":713,"y":-56,"visible":true,"properties":[{"name":"layer","type":"int","value":4},{"name":"group","type":"int","value":1},{"name":"id","type":"int","value":106},{"name":"fh_layer","type":"int","value":4},{"name":"fh_group","type":"int","value":1},{"name":"fh_id","type":"int","value":106},{"name":"x1","type":"int","value":713},{"name":"x2","type":"int","value":713},{"name":"y1","type":"int","value":-56},{"name":"y2","type":"int","value":-30},{"name":"next","type":"int","value":107},{"name":"prev","type":"int","value":105}],"polyline":[{"x":0,"y":0},{"x":0,"y":26}]},{"id":426,"x":713,"y":-30,"visible":true,"properties":[{"name":"layer","type":"int","value":4},{"name":"group","type":"int","value":1},{"name":"id","type":"int","value":107},{"name":"fh_layer","type":"int","value":4},{"name":"fh_group","type":"int","value":1},{"name":"fh_id","type":"int","value":107},{"name":"x1","type":"int","value":713},{"name":"x2","type":"int","value":713},{"name":"y1","type":"int","value":-30},{"name":"y2","type":"int","value":30},{"name":"next","type":"int","value":0},{"name":"prev","type":"int","value":106}],"polyline":[{"x":0,"y":0},{"x":0,"y":60}]},{"id":427,"x":585,"y":-56,"visible":true,"properties":[{"name":"layer","type":"int","value":4},{"name":"group","type":"int","value":1},{"name":"id","type":"int","value":108},{"name":"fh_layer","type":"int","value":4},{"name":"fh_group","type":"int","value":1},{"name":"fh_id","type":"int","value":108},{"name":"x1","type":"int","value":585},{"name":"x2","type":"int","value":637},{"name":"y1","type":"int","value":-56},{"name":"y2","type":"int","value":-56},{"name":"next","type":"int","value":105},{"name":"prev","type":"int","value":93}],"polyline":[{"x":0,"y":0},{"x":52,"y":0}]},{"id":428,"x":-225,"y":-56,"visible":true,"properties":[{"name":"layer","type":"int","value":4},{"name":"group","type":"int","value":1},{"name":"id","type":"int","value":109},{"name":"fh_layer","type":"int","value":4},{"name":"fh_group","type":"int","value":1},{"name":"fh_id","type":"int","value":109},{"name":"x1","type":"int","value":-225},{"name":"x2","type":"int","value":-135},{"name":"y1","type":"int","value":-56},{"name":"y2","type":"int","value":-56},{"name":"next","type":"int","value":110},{"name":"prev","type":"int","value":103}],"polyline":[{"x":0,"y":0},{"x":90,"y":0}]},{"id":429,"x":-135,"y":-56,"visible":true,"properties":[{"name":"layer","type":"int","value":4},{"name":"group","type":"int","value":1},{"name":"id","type":"int","value":110},{"name":"fh_layer","type":"int","value":4},{"name":"fh_group","type":"int","value":1},{"name":"fh_id","type":"int","value":110},{"name":"x1","type":"int","value":-135},{"name":"x2","type":"int","value":-45},{"name":"y1","type":"int","value":-56},{"name":"y2","type":"int","value":-56},{"name":"next","type":"int","value":99},{"name":"prev","type":"int","value":109}],"polyline":[{"x":0,"y":0},{"x":90,"y":0}]},{"id":430,"x":727,"y":-90,"visible":true,"properties":[{"name":"layer","type":"int","value":4},{"name":"group","type":"int","value":5},{"name":"id","type":"int","value":149},{"name":"fh_layer","type":"int","value":4},{"name":"fh_group","type":"int","value":5},{"name":"fh_id","type":"int","value":149},{"name":"x1","type":"int","value":727},{"name":"x2","type":"int","value":727},{"name":"y1","type":"int","value":-90},{"name":"y2","type":"int","value":-116},{"name":"next","type":"int","value":150},{"name":"prev","type":"int","value":0}],"polyline":[{"x":0,"y":0},{"x":0,"y":-26}]},{"id":431,"x":727,"y":-116,"visible":true,"properties":[{"name":"layer","type":"int","value":4},{"name":"group","type":"int","value":5},{"name":"id","type":"int","value":150},{"name":"fh_layer","type":"int","value":4},{"name":"fh_group","type":"int","value":5},{"name":"fh_id","type":"int","value":150},{"name":"x1","type":"int","value":727},{"name":"x2","type":"int","value":803},{"name":"y1","type":"int","value":-116},{"name":"y2","type":"int","value":-116},{"name":"next","type":"int","value":151},{"name":"prev","type":"int","value":149}],"polyline":[{"x":0,"y":0},{"x":76,"y":0}]},{"id":432,"x":803,"y":-116,"visible":true,"properties":[{"name":"layer","type":"int","value":4},{"name":"group","type":"int","value":5},{"name":"id","type":"int","value":151},{"name":"fh_layer","type":"int","value":4},{"name":"fh_group","type":"int","value":5},{"name":"fh_id","type":"int","value":151},{"name":"x1","type":"int","value":803},{"name":"x2","type":"int","value":803},{"name":"y1","type":"int","value":-116},{"name":"y2","type":"int","value":-90},{"name":"next","type":"int","value":0},{"name":"prev","type":"int","value":150}],"polyline":[{"x":0,"y":0},{"x":0,"y":26}]},{"id":433,"x":-443,"y":-90,"visible":true,"properties":[{"name":"layer","type":"int","value":4},{"name":"group","type":"int","value":6},{"name":"id","type":"int","value":140},{"name":"fh_layer","type":"int","value":4},{"name":"fh_group","type":"int","value":6},{"name":"fh_id","type":"int","value":140},{"name":"x1","type":"int","value":-443},{"name":"x2","type":"int","value":-443},{"name":"y1","type":"int","value":-90},{"name":"y2","type":"int","value":-116},{"name":"next","type":"int","value":141},{"name":"prev","type":"int","value":0}],"polyline":[{"x":0,"y":0},{"x":0,"y":-26}]},{"id":434,"x":-443,"y":-116,"visible":true,"properties":[{"name":"layer","type":"int","value":4},{"name":"group","type":"int","value":6},{"name":"id","type":"int","value":141},{"name":"fh_layer","type":"int","value":4},{"name":"fh_group","type":"int","value":6},{"name":"fh_id","type":"int","value":141},{"name":"x1","type":"int","value":-443},{"name":"x2","type":"int","value":-367},{"name":"y1","type":"int","value":-116},{"name":"y2","type":"int","value":-116},{"name":"next","type":"int","value":142},{"name":"prev","type":"int","value":140}],"polyline":[{"x":0,"y":0},{"x":76,"y":0}]},{"id":435,"x":-367,"y":-116,"visible":true,"properties":[{"name":"layer","type":"int","value":4},{"name":"group","type":"int","value":6},{"name":"id","type":"int","value":142},{"name":"fh_layer","type":"int","value":4},{"name":"fh_group","type":"int","value":6},{"name":"fh_id","type":"int","value":142},{"name":"x1","type":"int","value":-367},{"name":"x2","type":"int","value":-367},{"name":"y1","type":"int","value":-116},{"name":"y2","type":"int","value":-90},{"name":"next","type":"int","value":0},{"name":"prev","type":"int","value":141}],"polyline":[{"x":0,"y":0},{"x":0,"y":26}]},{"id":436,"x":-353,"y":-150,"visible":true,"properties":[{"name":"layer","type":"int","value":4},{"name":"group","type":"int","value":7},{"name":"id","type":"int","value":143},{"name":"fh_layer","type":"int","value":4},{"name":"fh_group","type":"int","value":7},{"name":"fh_id","type":"int","value":143},{"name":"x1","type":"int","value":-353},{"name":"x2","type":"int","value":-353},{"name":"y1","type":"int","value":-150},{"name":"y2","type":"int","value":-176},{"name":"next","type":"int","value":144},{"name":"prev","type":"int","value":0}],"polyline":[{"x":0,"y":0},{"x":0,"y":-26}]},{"id":437,"x":-353,"y":-176,"visible":true,"properties":[{"name":"layer","type":"int","value":4},{"name":"group","type":"int","value":7},{"name":"id","type":"int","value":144},{"name":"fh_layer","type":"int","value":4},{"name":"fh_group","type":"int","value":7},{"name":"fh_id","type":"int","value":144},{"name":"x1","type":"int","value":-353},{"name":"x2","type":"int","value":-277},{"name":"y1","type":"int","value":-176},{"name":"y2","type":"int","value":-176},{"name":"next","type":"int","value":145},{"name":"prev","type":"int","value":143}],"polyline":[{"x":0,"y":0},{"x":76,"y":0}]},{"id":438,"x":-277,"y":-176,"visible":true,"properties":[{"name":"layer","type":"int","value":4},{"name":"group","type":"int","value":7},{"name":"id","type":"int","value":145},{"name":"fh_layer","type":"int","value":4},{"name":"fh_group","type":"int","value":7},{"name":"fh_id","type":"int","value":145},{"name":"x1","type":"int","value":-277},{"name":"x2","type":"int","value":-277},{"name":"y1","type":"int","value":-176},{"name":"y2","type":"int","value":-150},{"name":"next","type":"int","value":0},{"name":"prev","type":"int","value":144}],"polyline":[{"x":0,"y":0},{"x":0,"y":26}]},{"id":439,"x":637,"y":-150,"visible":true,"properties":[{"name":"layer","type":"int","value":4},{"name":"group","type":"int","value":8},{"name":"id","type":"int","value":146},{"name":"fh_layer","type":"int","value":4},{"name":"fh_group","type":"int","value":8},{"name":"fh_id","type":"int","value":146},{"name":"x1","type":"int","value":637},{"name":"x2","type":"int","value":637},{"name":"y1","type":"int","value":-150},{"name":"y2","type":"int","value":-176},{"name":"next","type":"int","value":147},{"name":"prev","type":"int","value":0}],"polyline":[{"x":0,"y":0},{"x":0,"y":-26}]},{"id":440,"x":637,"y":-176,"visible":true,"properties":[{"name":"layer","type":"int","value":4},{"name":"group","type":"int","value":8},{"name":"id","type":"int","value":147},{"name":"fh_layer","type":"int","value":4},{"name":"fh_group","type":"int","value":8},{"name":"fh_id","type":"int","value":147},{"name":"x1","type":"int","value":637},{"name":"x2","type":"int","value":713},{"name":"y1","type":"int","value":-176},{"name":"y2","type":"int","value":-176},{"name":"next","type":"int","value":148},{"name":"prev","type":"int","value":146}],"polyline":[{"x":0,"y":0},{"x":76,"y":0}]},{"id":441,"x":713,"y":-176,"visible":true,"properties":[{"name":"layer","type":"int","value":4},{"name":"group","type":"int","value":8},{"name":"id","type":"int","value":148},{"name":"fh_layer","type":"int","value":4},{"name":"fh_group","type":"int","value":8},{"name":"fh_id","type":"int","value":148},{"name":"x1","type":"int","value":713},{"name":"x2","type":"int","value":713},{"name":"y1","type":"int","value":-176},{"name":"y2","type":"int","value":-150},{"name":"next","type":"int","value":0},{"name":"prev","type":"int","value":147}],"polyline":[{"x":0,"y":0},{"x":0,"y":26}]},{"id":442,"x":-135,"y":-356,"visible":true,"properties":[{"name":"layer","type":"int","value":4},{"name":"group","type":"int","value":15},{"name":"id","type":"int","value":120},{"name":"fh_layer","type":"int","value":4},{"name":"fh_group","type":"int","value":15},{"name":"fh_id","type":"int","value":120},{"name":"x1","type":"int","value":-135},{"name":"x2","type":"int","value":-97},{"name":"y1","type":"int","value":-356},{"name":"y2","type":"int","value":-356},{"name":"next","type":"int","value":130},{"name":"prev","type":"int","value":129}],"polyline":[{"x":0,"y":0},{"x":38,"y":0}]},{"id":443,"x":-45,"y":-356,"visible":true,"properties":[{"name":"layer","type":"int","value":4},{"name":"group","type":"int","value":15},{"name":"id","type":"int","value":121},{"name":"fh_layer","type":"int","value":4},{"name":"fh_group","type":"int","value":15},{"name":"fh_id","type":"int","value":121},{"name":"x1","type":"int","value":-45},{"name":"x2","type":"int","value":45},{"name":"y1","type":"int","value":-356},{"name":"y2","type":"int","value":-356},{"name":"next","type":"int","value":123},{"name":"prev","type":"int","value":130}],"polyline":[{"x":0,"y":0},{"x":90,"y":0}]},{"id":444,"x":135,"y":-356,"visible":true,"properties":[{"name":"layer","type":"int","value":4},{"name":"group","type":"int","value":15},{"name":"id","type":"int","value":122},{"name":"fh_layer","type":"int","value":4},{"name":"fh_group","type":"int","value":15},{"name":"fh_id","type":"int","value":122},{"name":"x1","type":"int","value":135},{"name":"x2","type":"int","value":225},{"name":"y1","type":"int","value":-356},{"name":"y2","type":"int","value":-356},{"name":"next","type":"int","value":124},{"name":"prev","type":"int","value":123}],"polyline":[{"x":0,"y":0},{"x":90,"y":0}]},{"id":445,"x":45,"y":-356,"visible":true,"properties":[{"name":"layer","type":"int","value":4},{"name":"group","type":"int","value":15},{"name":"id","type":"int","value":123},{"name":"fh_layer","type":"int","value":4},{"name":"fh_group","type":"int","value":15},{"name":"fh_id","type":"int","value":123},{"name":"x1","type":"int","value":45},{"name":"x2","type":"int","value":135},{"name":"y1","type":"int","value":-356},{"name":"y2","type":"int","value":-356},{"name":"next","type":"int","value":122},{"name":"prev","type":"int","value":121}],"polyline":[{"x":0,"y":0},{"x":90,"y":0}]},{"id":446,"x":225,"y":-356,"visible":true,"properties":[{"name":"layer","type":"int","value":4},{"name":"group","type":"int","value":15},{"name":"id","type":"int","value":124},{"name":"fh_layer","type":"int","value":4},{"name":"fh_group","type":"int","value":15},{"name":"fh_id","type":"int","value":124},{"name":"x1","type":"int","value":225},{"name":"x2","type":"int","value":315},{"name":"y1","type":"int","value":-356},{"name":"y2","type":"int","value":-356},{"name":"next","type":"int","value":125},{"name":"prev","type":"int","value":122}],"polyline":[{"x":0,"y":0},{"x":90,"y":0}]},{"id":447,"x":315,"y":-356,"visible":true,"properties":[{"name":"layer","type":"int","value":4},{"name":"group","type":"int","value":15},{"name":"id","type":"int","value":125},{"name":"fh_layer","type":"int","value":4},{"name":"fh_group","type":"int","value":15},{"name":"fh_id","type":"int","value":125},{"name":"x1","type":"int","value":315},{"name":"x2","type":"int","value":405},{"name":"y1","type":"int","value":-356},{"name":"y2","type":"int","value":-356},{"name":"next","type":"int","value":127},{"name":"prev","type":"int","value":124}],"polyline":[{"x":0,"y":0},{"x":90,"y":0}]},{"id":448,"x":495,"y":-356,"visible":true,"properties":[{"name":"layer","type":"int","value":4},{"name":"group","type":"int","value":15},{"name":"id","type":"int","value":126},{"name":"fh_layer","type":"int","value":4},{"name":"fh_group","type":"int","value":15},{"name":"fh_id","type":"int","value":126},{"name":"x1","type":"int","value":495},{"name":"x2","type":"int","value":547},{"name":"y1","type":"int","value":-356},{"name":"y2","type":"int","value":-356},{"name":"next","type":"int","value":131},{"name":"prev","type":"int","value":127}],"polyline":[{"x":0,"y":0},{"x":52,"y":0}]},{"id":449,"x":405,"y":-356,"visible":true,"properties":[{"name":"layer","type":"int","value":4},{"name":"group","type":"int","value":15},{"name":"id","type":"int","value":127},{"name":"fh_layer","type":"int","value":4},{"name":"fh_group","type":"int","value":15},{"name":"fh_id","type":"int","value":127},{"name":"x1","type":"int","value":405},{"name":"x2","type":"int","value":495},{"name":"y1","type":"int","value":-356},{"name":"y2","type":"int","value":-356},{"name":"next","type":"int","value":126},{"name":"prev","type":"int","value":125}],"polyline":[{"x":0,"y":0},{"x":90,"y":0}]},{"id":450,"x":-173,"y":-330,"visible":true,"properties":[{"name":"layer","type":"int","value":4},{"name":"group","type":"int","value":15},{"name":"id","type":"int","value":128},{"name":"fh_layer","type":"int","value":4},{"name":"fh_group","type":"int","value":15},{"name":"fh_id","type":"int","value":128},{"name":"x1","type":"int","value":-173},{"name":"x2","type":"int","value":-173},{"name":"y1","type":"int","value":-330},{"name":"y2","type":"int","value":-356},{"name":"next","type":"int","value":129},{"name":"prev","type":"int","value":0}],"polyline":[{"x":0,"y":0},{"x":0,"y":-26}]},{"id":451,"x":-173,"y":-356,"visible":true,"properties":[{"name":"layer","type":"int","value":4},{"name":"group","type":"int","value":15},{"name":"id","type":"int","value":129},{"name":"fh_layer","type":"int","value":4},{"name":"fh_group","type":"int","value":15},{"name":"fh_id","type":"int","value":129},{"name":"x1","type":"int","value":-173},{"name":"x2","type":"int","value":-135},{"name":"y1","type":"int","value":-356},{"name":"y2","type":"int","value":-356},{"name":"next","type":"int","value":120},{"name":"prev","type":"int","value":128}],"polyline":[{"x":0,"y":0},{"x":38,"y":0}]},{"id":452,"x":-97,"y":-356,"visible":true,"properties":[{"name":"layer","type":"int","value":4},{"name":"group","type":"int","value":15},{"name":"id","type":"int","value":130},{"name":"fh_layer","type":"int","value":4},{"name":"fh_group","type":"int","value":15},{"name":"fh_id","type":"int","value":130},{"name":"x1","type":"int","value":-97},{"name":"x2","type":"int","value":-45},{"name":"y1","type":"int","value":-356},{"name":"y2","type":"int","value":-356},{"name":"next","type":"int","value":121},{"name":"prev","type":"int","value":120}],"polyline":[{"x":0,"y":0},{"x":52,"y":0}]},{"id":453,"x":547,"y":-356,"visible":true,"properties":[{"name":"layer","type":"int","value":4},{"name":"group","type":"int","value":15},{"name":"id","type":"int","value":131},{"name":"fh_layer","type":"int","value":4},{"name":"fh_group","type":"int","value":15},{"name":"fh_id","type":"int","value":131},{"name":"x1","type":"int","value":547},{"name":"x2","type":"int","value":585},{"name":"y1","type":"int","value":-356},{"name":"y2","type":"int","value":-356},{"name":"next","type":"int","value":132},{"name":"prev","type":"int","value":126}],"polyline":[{"x":0,"y":0},{"x":38,"y":0}]},{"id":454,"x":585,"y":-356,"visible":true,"properties":[{"name":"layer","type":"int","value":4},{"name":"group","type":"int","value":15},{"name":"id","type":"int","value":132},{"name":"fh_layer","type":"int","value":4},{"name":"fh_group","type":"int","value":15},{"name":"fh_id","type":"int","value":132},{"name":"x1","type":"int","value":585},{"name":"x2","type":"int","value":623},{"name":"y1","type":"int","value":-356},{"name":"y2","type":"int","value":-356},{"name":"next","type":"int","value":133},{"name":"prev","type":"int","value":131}],"polyline":[{"x":0,"y":0},{"x":38,"y":0}]},{"id":455,"x":623,"y":-356,"visible":true,"properties":[{"name":"layer","type":"int","value":4},{"name":"group","type":"int","value":15},{"name":"id","type":"int","value":133},{"name":"fh_layer","type":"int","value":4},{"name":"fh_group","type":"int","value":15},{"name":"fh_id","type":"int","value":133},{"name":"x1","type":"int","value":623},{"name":"x2","type":"int","value":623},{"name":"y1","type":"int","value":-356},{"name":"y2","type":"int","value":-330},{"name":"next","type":"int","value":0},{"name":"prev","type":"int","value":132}],"polyline":[{"x":0,"y":0},{"x":0,"y":26}]},{"id":456,"x":367,"y":-390,"visible":true,"properties":[{"name":"layer","type":"int","value":4},{"name":"group","type":"int","value":16},{"name":"id","type":"int","value":111},{"name":"fh_layer","type":"int","value":4},{"name":"fh_group","type":"int","value":16},{"name":"fh_id","type":"int","value":111},{"name":"x1","type":"int","value":367},{"name":"x2","type":"int","value":367},{"name":"y1","type":"int","value":-390},{"name":"y2","type":"int","value":-416},{"name":"next","type":"int","value":112},{"name":"prev","type":"int","value":0}],"polyline":[{"x":0,"y":0},{"x":0,"y":-26}]},{"id":457,"x":367,"y":-416,"visible":true,"properties":[{"name":"layer","type":"int","value":4},{"name":"group","type":"int","value":16},{"name":"id","type":"int","value":112},{"name":"fh_layer","type":"int","value":4},{"name":"fh_group","type":"int","value":16},{"name":"fh_id","type":"int","value":112},{"name":"x1","type":"int","value":367},{"name":"x2","type":"int","value":443},{"name":"y1","type":"int","value":-416},{"name":"y2","type":"int","value":-416},{"name":"next","type":"int","value":113},{"name":"prev","type":"int","value":111}],"polyline":[{"x":0,"y":0},{"x":76,"y":0}]},{"id":458,"x":443,"y":-416,"visible":true,"properties":[{"name":"layer","type":"int","value":4},{"name":"group","type":"int","value":16},{"name":"id","type":"int","value":113},{"name":"fh_layer","type":"int","value":4},{"name":"fh_group","type":"int","value":16},{"name":"fh_id","type":"int","value":113},{"name":"x1","type":"int","value":443},{"name":"x2","type":"int","value":443},{"name":"y1","type":"int","value":-416},{"name":"y2","type":"int","value":-390},{"name":"next","type":"int","value":0},{"name":"prev","type":"int","value":112}],"polyline":[{"x":0,"y":0},{"x":0,"y":26}]},{"id":459,"x":187,"y":-390,"visible":true,"properties":[{"name":"layer","type":"int","value":4},{"name":"group","type":"int","value":17},{"name":"id","type":"int","value":117},{"name":"fh_layer","type":"int","value":4},{"name":"fh_group","type":"int","value":17},{"name":"fh_id","type":"int","value":117},{"name":"x1","type":"int","value":187},{"name":"x2","type":"int","value":187},{"name":"y1","type":"int","value":-390},{"name":"y2","type":"int","value":-416},{"name":"next","type":"int","value":118},{"name":"prev","type":"int","value":0}],"polyline":[{"x":0,"y":0},{"x":0,"y":-26}]},{"id":460,"x":187,"y":-416,"visible":true,"properties":[{"name":"layer","type":"int","value":4},{"name":"group","type":"int","value":17},{"name":"id","type":"int","value":118},{"name":"fh_layer","type":"int","value":4},{"name":"fh_group","type":"int","value":17},{"name":"fh_id","type":"int","value":118},{"name":"x1","type":"int","value":187},{"name":"x2","type":"int","value":263},{"name":"y1","type":"int","value":-416},{"name":"y2","type":"int","value":-416},{"name":"next","type":"int","value":119},{"name":"prev","type":"int","value":117}],"polyline":[{"x":0,"y":0},{"x":76,"y":0}]},{"id":461,"x":263,"y":-416,"visible":true,"properties":[{"name":"layer","type":"int","value":4},{"name":"group","type":"int","value":17},{"name":"id","type":"int","value":119},{"name":"fh_layer","type":"int","value":4},{"name":"fh_group","type":"int","value":17},{"name":"fh_id","type":"int","value":119},{"name":"x1","type":"int","value":263},{"name":"x2","type":"int","value":263},{"name":"y1","type":"int","value":-416},{"name":"y2","type":"int","value":-390},{"name":"next","type":"int","value":0},{"name":"prev","type":"int","value":118}],"polyline":[{"x":0,"y":0},{"x":0,"y":26}]},{"id":462,"x":7,"y":-390,"visible":true,"properties":[{"name":"layer","type":"int","value":4},{"name":"group","type":"int","value":18},{"name":"id","type":"int","value":137},{"name":"fh_layer","type":"int","value":4},{"name":"fh_group","type":"int","value":18},{"name":"fh_id","type":"int","value":137},{"name":"x1","type":"int","value":7},{"name":"x2","type":"int","value":7},{"name":"y1","type":"int","value":-390},{"name":"y2","type":"int","value":-416},{"name":"next","type":"int","value":138},{"name":"prev","type":"int","value":0}],"polyline":[{"x":0,"y":0},{"x":0,"y":-26}]},{"id":463,"x":7,"y":-416,"visible":true,"properties":[{"name":"layer","type":"int","value":4},{"name":"group","type":"int","value":18},{"name":"id","type":"int","value":138},{"name":"fh_layer","type":"int","value":4},{"name":"fh_group","type":"int","value":18},{"name":"fh_id","type":"int","value":138},{"name":"x1","type":"int","value":7},{"name":"x2","type":"int","value":83},{"name":"y1","type":"int","value":-416},{"name":"y2","type":"int","value":-416},{"name":"next","type":"int","value":139},{"name":"prev","type":"int","value":137}],"polyline":[{"x":0,"y":0},{"x":76,"y":0}]},{"id":464,"x":83,"y":-416,"visible":true,"properties":[{"name":"layer","type":"int","value":4},{"name":"group","type":"int","value":18},{"name":"id","type":"int","value":139},{"name":"fh_layer","type":"int","value":4},{"name":"fh_group","type":"int","value":18},{"name":"fh_id","type":"int","value":139},{"name":"x1","type":"int","value":83},{"name":"x2","type":"int","value":83},{"name":"y1","type":"int","value":-416},{"name":"y2","type":"int","value":-390},{"name":"next","type":"int","value":0},{"name":"prev","type":"int","value":138}],"polyline":[{"x":0,"y":0},{"x":0,"y":26}]},{"id":465,"x":97,"y":-450,"visible":true,"properties":[{"name":"layer","type":"int","value":4},{"name":"group","type":"int","value":20},{"name":"id","type":"int","value":134},{"name":"fh_layer","type":"int","value":4},{"name":"fh_group","type":"int","value":20},{"name":"fh_id","type":"int","value":134},{"name":"x1","type":"int","value":97},{"name":"x2","type":"int","value":97},{"name":"y1","type":"int","value":-450},{"name":"y2","type":"int","value":-476},{"name":"next","type":"int","value":135},{"name":"prev","type":"int","value":0}],"polyline":[{"x":0,"y":0},{"x":0,"y":-26}]},{"id":466,"x":97,"y":-476,"visible":true,"properties":[{"name":"layer","type":"int","value":4},{"name":"group","type":"int","value":20},{"name":"id","type":"int","value":135},{"name":"fh_layer","type":"int","value":4},{"name":"fh_group","type":"int","value":20},{"name":"fh_id","type":"int","value":135},{"name":"x1","type":"int","value":97},{"name":"x2","type":"int","value":173},{"name":"y1","type":"int","value":-476},{"name":"y2","type":"int","value":-476},{"name":"next","type":"int","value":136},{"name":"prev","type":"int","value":134}],"polyline":[{"x":0,"y":0},{"x":76,"y":0}]},{"id":467,"x":173,"y":-476,"visible":true,"properties":[{"name":"layer","type":"int","value":4},{"name":"group","type":"int","value":20},{"name":"id","type":"int","value":136},{"name":"fh_layer","type":"int","value":4},{"name":"fh_group","type":"int","value":20},{"name":"fh_id","type":"int","value":136},{"name":"x1","type":"int","value":173},{"name":"x2","type":"int","value":173},{"name":"y1","type":"int","value":-476},{"name":"y2","type":"int","value":-450},{"name":"next","type":"int","value":0},{"name":"prev","type":"int","value":135}],"polyline":[{"x":0,"y":0},{"x":0,"y":26}]},{"id":468,"x":277,"y":-450,"visible":true,"properties":[{"name":"layer","type":"int","value":4},{"name":"group","type":"int","value":21},{"name":"id","type":"int","value":114},{"name":"fh_layer","type":"int","value":4},{"name":"fh_group","type":"int","value":21},{"name":"fh_id","type":"int","value":114},{"name":"x1","type":"int","value":277},{"name":"x2","type":"int","value":277},{"name":"y1","type":"int","value":-450},{"name":"y2","type":"int","value":-476},{"name":"next","type":"int","value":115},{"name":"prev","type":"int","value":0}],"polyline":[{"x":0,"y":0},{"x":0,"y":-26}]},{"id":469,"x":277,"y":-476,"visible":true,"properties":[{"name":"layer","type":"int","value":4},{"name":"group","type":"int","value":21},{"name":"id","type":"int","value":115},{"name":"fh_layer","type":"int","value":4},{"name":"fh_group","type":"int","value":21},{"name":"fh_id","type":"int","value":115},{"name":"x1","type":"int","value":277},{"name":"x2","type":"int","value":353},{"name":"y1","type":"int","value":-476},{"name":"y2","type":"int","value":-476},{"name":"next","type":"int","value":116},{"name":"prev","type":"int","value":114}],"polyline":[{"x":0,"y":0},{"x":76,"y":0}]},{"id":470,"x":353,"y":-476,"visible":true,"properties":[{"name":"layer","type":"int","value":4},{"name":"group","type":"int","value":21},{"name":"id","type":"int","value":116},{"name":"fh_layer","type":"int","value":4},{"name":"fh_group","type":"int","value":21},{"name":"fh_id","type":"int","value":116},{"name":"x1","type":"int","value":353},{"name":"x2","type":"int","value":353},{"name":"y1","type":"int","value":-476},{"name":"y2","type":"int","value":-450},{"name":"next","type":"int","value":0},{"name":"prev","type":"int","value":115}],"polyline":[{"x":0,"y":0},{"x":0,"y":26}]},{"id":471,"x":-308,"y":-180,"visible":true,"properties":[{"name":"layer","type":"int","value":5},{"name":"group","type":"int","value":9},{"name":"id","type":"int","value":152},{"name":"fh_layer","type":"int","value":5},{"name":"fh_group","type":"int","value":9},{"name":"fh_id","type":"int","value":152},{"name":"x1","type":"int","value":-308},{"name":"x2","type":"int","value":-308},{"name":"y1","type":"int","value":-180},{"name":"y2","type":"int","value":-206},{"name":"next","type":"int","value":153},{"name":"prev","type":"int","value":0}],"polyline":[{"x":0,"y":0},{"x":0,"y":-26}]},{"id":472,"x":-308,"y":-206,"visible":true,"properties":[{"name":"layer","type":"int","value":5},{"name":"group","type":"int","value":9},{"name":"id","type":"int","value":153},{"name":"fh_layer","type":"int","value":5},{"name":"fh_group","type":"int","value":9},{"name":"fh_id","type":"int","value":153},{"name":"x1","type":"int","value":-308},{"name":"x2","type":"int","value":-232},{"name":"y1","type":"int","value":-206},{"name":"y2","type":"int","value":-206},{"name":"next","type":"int","value":154},{"name":"prev","type":"int","value":152}],"polyline":[{"x":0,"y":0},{"x":76,"y":0}]},{"id":473,"x":-232,"y":-206,"visible":true,"properties":[{"name":"layer","type":"int","value":5},{"name":"group","type":"int","value":9},{"name":"id","type":"int","value":154},{"name":"fh_layer","type":"int","value":5},{"name":"fh_group","type":"int","value":9},{"name":"fh_id","type":"int","value":154},{"name":"x1","type":"int","value":-232},{"name":"x2","type":"int","value":-180},{"name":"y1","type":"int","value":-206},{"name":"y2","type":"int","value":-206},{"name":"next","type":"int","value":155},{"name":"prev","type":"int","value":153}],"polyline":[{"x":0,"y":0},{"x":52,"y":0}]},{"id":474,"x":-180,"y":-206,"visible":true,"properties":[{"name":"layer","type":"int","value":5},{"name":"group","type":"int","value":9},{"name":"id","type":"int","value":155},{"name":"fh_layer","type":"int","value":5},{"name":"fh_group","type":"int","value":9},{"name":"fh_id","type":"int","value":155},{"name":"x1","type":"int","value":-180},{"name":"x2","type":"int","value":-90},{"name":"y1","type":"int","value":-206},{"name":"y2","type":"int","value":-206},{"name":"next","type":"int","value":157},{"name":"prev","type":"int","value":154}],"polyline":[{"x":0,"y":0},{"x":90,"y":0}]},{"id":475,"x":0,"y":-206,"visible":true,"properties":[{"name":"layer","type":"int","value":5},{"name":"group","type":"int","value":9},{"name":"id","type":"int","value":156},{"name":"fh_layer","type":"int","value":5},{"name":"fh_group","type":"int","value":9},{"name":"fh_id","type":"int","value":156},{"name":"x1","type":"int","value":0},{"name":"x2","type":"int","value":90},{"name":"y1","type":"int","value":-206},{"name":"y2","type":"int","value":-206},{"name":"next","type":"int","value":164},{"name":"prev","type":"int","value":157}],"polyline":[{"x":0,"y":0},{"x":90,"y":0}]},{"id":476,"x":-90,"y":-206,"visible":true,"properties":[{"name":"layer","type":"int","value":5},{"name":"group","type":"int","value":9},{"name":"id","type":"int","value":157},{"name":"fh_layer","type":"int","value":5},{"name":"fh_group","type":"int","value":9},{"name":"fh_id","type":"int","value":157},{"name":"x1","type":"int","value":-90},{"name":"x2","type":"int","value":0},{"name":"y1","type":"int","value":-206},{"name":"y2","type":"int","value":-206},{"name":"next","type":"int","value":156},{"name":"prev","type":"int","value":155}],"polyline":[{"x":0,"y":0},{"x":90,"y":0}]},{"id":477,"x":360,"y":-206,"visible":true,"properties":[{"name":"layer","type":"int","value":5},{"name":"group","type":"int","value":9},{"name":"id","type":"int","value":158},{"name":"fh_layer","type":"int","value":5},{"name":"fh_group","type":"int","value":9},{"name":"fh_id","type":"int","value":158},{"name":"x1","type":"int","value":360},{"name":"x2","type":"int","value":450},{"name":"y1","type":"int","value":-206},{"name":"y2","type":"int","value":-206},{"name":"next","type":"int","value":162},{"name":"prev","type":"int","value":165}],"polyline":[{"x":0,"y":0},{"x":90,"y":0}]},{"id":478,"x":592,"y":-206,"visible":true,"properties":[{"name":"layer","type":"int","value":5},{"name":"group","type":"int","value":9},{"name":"id","type":"int","value":159},{"name":"fh_layer","type":"int","value":5},{"name":"fh_group","type":"int","value":9},{"name":"fh_id","type":"int","value":159},{"name":"x1","type":"int","value":592},{"name":"x2","type":"int","value":668},{"name":"y1","type":"int","value":-206},{"name":"y2","type":"int","value":-206},{"name":"next","type":"int","value":160},{"name":"prev","type":"int","value":163}],"polyline":[{"x":0,"y":0},{"x":76,"y":0}]},{"id":479,"x":668,"y":-206,"visible":true,"properties":[{"name":"layer","type":"int","value":5},{"name":"group","type":"int","value":9},{"name":"id","type":"int","value":160},{"name":"fh_layer","type":"int","value":5},{"name":"fh_group","type":"int","value":9},{"name":"fh_id","type":"int","value":160},{"name":"x1","type":"int","value":668},{"name":"x2","type":"int","value":668},{"name":"y1","type":"int","value":-206},{"name":"y2","type":"int","value":-180},{"name":"next","type":"int","value":0},{"name":"prev","type":"int","value":159}],"polyline":[{"x":0,"y":0},{"x":0,"y":26}]},{"id":480,"x":180,"y":-206,"visible":true,"properties":[{"name":"layer","type":"int","value":5},{"name":"group","type":"int","value":9},{"name":"id","type":"int","value":161},{"name":"fh_layer","type":"int","value":5},{"name":"fh_group","type":"int","value":9},{"name":"fh_id","type":"int","value":161},{"name":"x1","type":"int","value":180},{"name":"x2","type":"int","value":270},{"name":"y1","type":"int","value":-206},{"name":"y2","type":"int","value":-206},{"name":"next","type":"int","value":165},{"name":"prev","type":"int","value":164}],"polyline":[{"x":0,"y":0},{"x":90,"y":0}]},{"id":481,"x":450,"y":-206,"visible":true,"properties":[{"name":"layer","type":"int","value":5},{"name":"group","type":"int","value":9},{"name":"id","type":"int","value":162},{"name":"fh_layer","type":"int","value":5},{"name":"fh_group","type":"int","value":9},{"name":"fh_id","type":"int","value":162},{"name":"x1","type":"int","value":450},{"name":"x2","type":"int","value":540},{"name":"y1","type":"int","value":-206},{"name":"y2","type":"int","value":-206},{"name":"next","type":"int","value":163},{"name":"prev","type":"int","value":158}],"polyline":[{"x":0,"y":0},{"x":90,"y":0}]},{"id":482,"x":540,"y":-206,"visible":true,"properties":[{"name":"layer","type":"int","value":5},{"name":"group","type":"int","value":9},{"name":"id","type":"int","value":163},{"name":"fh_layer","type":"int","value":5},{"name":"fh_group","type":"int","value":9},{"name":"fh_id","type":"int","value":163},{"name":"x1","type":"int","value":540},{"name":"x2","type":"int","value":592},{"name":"y1","type":"int","value":-206},{"name":"y2","type":"int","value":-206},{"name":"next","type":"int","value":159},{"name":"prev","type":"int","value":162}],"polyline":[{"x":0,"y":0},{"x":52,"y":0}]},{"id":483,"x":90,"y":-206,"visible":true,"properties":[{"name":"layer","type":"int","value":5},{"name":"group","type":"int","value":9},{"name":"id","type":"int","value":164},{"name":"fh_layer","type":"int","value":5},{"name":"fh_group","type":"int","value":9},{"name":"fh_id","type":"int","value":164},{"name":"x1","type":"int","value":90},{"name":"x2","type":"int","value":180},{"name":"y1","type":"int","value":-206},{"name":"y2","type":"int","value":-206},{"name":"next","type":"int","value":161},{"name":"prev","type":"int","value":156}],"polyline":[{"x":0,"y":0},{"x":90,"y":0}]},{"id":484,"x":270,"y":-206,"visible":true,"properties":[{"name":"layer","type":"int","value":5},{"name":"group","type":"int","value":9},{"name":"id","type":"int","value":165},{"name":"fh_layer","type":"int","value":5},{"name":"fh_group","type":"int","value":9},{"name":"fh_id","type":"int","value":165},{"name":"x1","type":"int","value":270},{"name":"x2","type":"int","value":360},{"name":"y1","type":"int","value":-206},{"name":"y2","type":"int","value":-206},{"name":"next","type":"int","value":158},{"name":"prev","type":"int","value":161}],"polyline":[{"x":0,"y":0},{"x":90,"y":0}]},{"id":485,"x":412,"y":-240,"visible":true,"properties":[{"name":"layer","type":"int","value":5},{"name":"group","type":"int","value":11},{"name":"id","type":"int","value":175},{"name":"fh_layer","type":"int","value":5},{"name":"fh_group","type":"int","value":11},{"name":"fh_id","type":"int","value":175},{"name":"x1","type":"int","value":412},{"name":"x2","type":"int","value":412},{"name":"y1","type":"int","value":-240},{"name":"y2","type":"int","value":-266},{"name":"next","type":"int","value":176},{"name":"prev","type":"int","value":0}],"polyline":[{"x":0,"y":0},{"x":0,"y":-26}]},{"id":486,"x":412,"y":-266,"visible":true,"properties":[{"name":"layer","type":"int","value":5},{"name":"group","type":"int","value":11},{"name":"id","type":"int","value":176},{"name":"fh_layer","type":"int","value":5},{"name":"fh_group","type":"int","value":11},{"name":"fh_id","type":"int","value":176},{"name":"x1","type":"int","value":412},{"name":"x2","type":"int","value":488},{"name":"y1","type":"int","value":-266},{"name":"y2","type":"int","value":-266},{"name":"next","type":"int","value":177},{"name":"prev","type":"int","value":175}],"polyline":[{"x":0,"y":0},{"x":76,"y":0}]},{"id":487,"x":488,"y":-266,"visible":true,"properties":[{"name":"layer","type":"int","value":5},{"name":"group","type":"int","value":11},{"name":"id","type":"int","value":177},{"name":"fh_layer","type":"int","value":5},{"name":"fh_group","type":"int","value":11},{"name":"fh_id","type":"int","value":177},{"name":"x1","type":"int","value":488},{"name":"x2","type":"int","value":488},{"name":"y1","type":"int","value":-266},{"name":"y2","type":"int","value":-240},{"name":"next","type":"int","value":0},{"name":"prev","type":"int","value":176}],"polyline":[{"x":0,"y":0},{"x":0,"y":26}]},{"id":488,"x":-38,"y":-240,"visible":true,"properties":[{"name":"layer","type":"int","value":5},{"name":"group","type":"int","value":12},{"name":"id","type":"int","value":169},{"name":"fh_layer","type":"int","value":5},{"name":"fh_group","type":"int","value":12},{"name":"fh_id","type":"int","value":169},{"name":"x1","type":"int","value":-38},{"name":"x2","type":"int","value":-38},{"name":"y1","type":"int","value":-240},{"name":"y2","type":"int","value":-266},{"name":"next","type":"int","value":170},{"name":"prev","type":"int","value":0}],"polyline":[{"x":0,"y":0},{"x":0,"y":-26}]},{"id":489,"x":-38,"y":-266,"visible":true,"properties":[{"name":"layer","type":"int","value":5},{"name":"group","type":"int","value":12},{"name":"id","type":"int","value":170},{"name":"fh_layer","type":"int","value":5},{"name":"fh_group","type":"int","value":12},{"name":"fh_id","type":"int","value":170},{"name":"x1","type":"int","value":-38},{"name":"x2","type":"int","value":38},{"name":"y1","type":"int","value":-266},{"name":"y2","type":"int","value":-266},{"name":"next","type":"int","value":171},{"name":"prev","type":"int","value":169}],"polyline":[{"x":0,"y":0},{"x":76,"y":0}]},{"id":490,"x":38,"y":-266,"visible":true,"properties":[{"name":"layer","type":"int","value":5},{"name":"group","type":"int","value":12},{"name":"id","type":"int","value":171},{"name":"fh_layer","type":"int","value":5},{"name":"fh_group","type":"int","value":12},{"name":"fh_id","type":"int","value":171},{"name":"x1","type":"int","value":38},{"name":"x2","type":"int","value":38},{"name":"y1","type":"int","value":-266},{"name":"y2","type":"int","value":-240},{"name":"next","type":"int","value":0},{"name":"prev","type":"int","value":170}],"polyline":[{"x":0,"y":0},{"x":0,"y":26}]},{"id":491,"x":-128,"y":-300,"visible":true,"properties":[{"name":"layer","type":"int","value":5},{"name":"group","type":"int","value":13},{"name":"id","type":"int","value":172},{"name":"fh_layer","type":"int","value":5},{"name":"fh_group","type":"int","value":13},{"name":"fh_id","type":"int","value":172},{"name":"x1","type":"int","value":-128},{"name":"x2","type":"int","value":-128},{"name":"y1","type":"int","value":-300},{"name":"y2","type":"int","value":-326},{"name":"next","type":"int","value":173},{"name":"prev","type":"int","value":0}],"polyline":[{"x":0,"y":0},{"x":0,"y":-26}]},{"id":492,"x":-128,"y":-326,"visible":true,"properties":[{"name":"layer","type":"int","value":5},{"name":"group","type":"int","value":13},{"name":"id","type":"int","value":173},{"name":"fh_layer","type":"int","value":5},{"name":"fh_group","type":"int","value":13},{"name":"fh_id","type":"int","value":173},{"name":"x1","type":"int","value":-128},{"name":"x2","type":"int","value":-52},{"name":"y1","type":"int","value":-326},{"name":"y2","type":"int","value":-326},{"name":"next","type":"int","value":174},{"name":"prev","type":"int","value":172}],"polyline":[{"x":0,"y":0},{"x":76,"y":0}]},{"id":493,"x":-52,"y":-326,"visible":true,"properties":[{"name":"layer","type":"int","value":5},{"name":"group","type":"int","value":13},{"name":"id","type":"int","value":174},{"name":"fh_layer","type":"int","value":5},{"name":"fh_group","type":"int","value":13},{"name":"fh_id","type":"int","value":174},{"name":"x1","type":"int","value":-52},{"name":"x2","type":"int","value":-52},{"name":"y1","type":"int","value":-326},{"name":"y2","type":"int","value":-300},{"name":"next","type":"int","value":0},{"name":"prev","type":"int","value":173}],"polyline":[{"x":0,"y":0},{"x":0,"y":26}]},{"id":494,"x":502,"y":-300,"visible":true,"properties":[{"name":"layer","type":"int","value":5},{"name":"group","type":"int","value":14},{"name":"id","type":"int","value":166},{"name":"fh_layer","type":"int","value":5},{"name":"fh_group","type":"int","value":14},{"name":"fh_id","type":"int","value":166},{"name":"x1","type":"int","value":502},{"name":"x2","type":"int","value":502},{"name":"y1","type":"int","value":-300},{"name":"y2","type":"int","value":-326},{"name":"next","type":"int","value":167},{"name":"prev","type":"int","value":0}],"polyline":[{"x":0,"y":0},{"x":0,"y":-26}]},{"id":495,"x":502,"y":-326,"visible":true,"properties":[{"name":"layer","type":"int","value":5},{"name":"group","type":"int","value":14},{"name":"id","type":"int","value":167},{"name":"fh_layer","type":"int","value":5},{"name":"fh_group","type":"int","value":14},{"name":"fh_id","type":"int","value":167},{"name":"x1","type":"int","value":502},{"name":"x2","type":"int","value":578},{"name":"y1","type":"int","value":-326},{"name":"y2","type":"int","value":-326},{"name":"next","type":"int","value":168},{"name":"prev","type":"int","value":166}],"polyline":[{"x":0,"y":0},{"x":76,"y":0}]},{"id":496,"x":578,"y":-326,"visible":true,"properties":[{"name":"layer","type":"int","value":5},{"name":"group","type":"int","value":14},{"name":"id","type":"int","value":168},{"name":"fh_layer","type":"int","value":5},{"name":"fh_group","type":"int","value":14},{"name":"fh_id","type":"int","value":168},{"name":"x1","type":"int","value":578},{"name":"x2","type":"int","value":578},{"name":"y1","type":"int","value":-326},{"name":"y2","type":"int","value":-300},{"name":"next","type":"int","value":0},{"name":"prev","type":"int","value":167}],"polyline":[{"x":0,"y":0},{"x":0,"y":26}]},{"id":497,"x":-315,"y":4,"visible":true,"properties":[{"name":"layer","type":"int","value":6},{"name":"group","type":"int","value":0},{"name":"id","type":"int","value":178},{"name":"fh_layer","type":"int","value":6},{"name":"fh_group","type":"int","value":0},{"name":"fh_id","type":"int","value":178},{"name":"x1","type":"int","value":-315},{"name":"x2","type":"int","value":-225},{"name":"y1","type":"int","value":4},{"name":"y2","type":"int","value":4},{"name":"next","type":"int","value":182},{"name":"prev","type":"int","value":193}],"polyline":[{"x":0,"y":0},{"x":90,"y":0}]},{"id":498,"x":675,"y":4,"visible":true,"properties":[{"name":"layer","type":"int","value":6},{"name":"group","type":"int","value":0},{"name":"id","type":"int","value":179},{"name":"fh_layer","type":"int","value":6},{"name":"fh_group","type":"int","value":0},{"name":"fh_id","type":"int","value":179},{"name":"x1","type":"int","value":675},{"name":"x2","type":"int","value":765},{"name":"y1","type":"int","value":4},{"name":"y2","type":"int","value":4},{"name":"next","type":"int","value":190},{"name":"prev","type":"int","value":183}],"polyline":[{"x":0,"y":0},{"x":90,"y":0}]},{"id":499,"x":405,"y":4,"visible":true,"properties":[{"name":"layer","type":"int","value":6},{"name":"group","type":"int","value":0},{"name":"id","type":"int","value":180},{"name":"fh_layer","type":"int","value":6},{"name":"fh_group","type":"int","value":0},{"name":"fh_id","type":"int","value":180},{"name":"x1","type":"int","value":405},{"name":"x2","type":"int","value":495},{"name":"y1","type":"int","value":4},{"name":"y2","type":"int","value":4},{"name":"next","type":"int","value":184},{"name":"prev","type":"int","value":185}],"polyline":[{"x":0,"y":0},{"x":90,"y":0}]},{"id":500,"x":-135,"y":4,"visible":true,"properties":[{"name":"layer","type":"int","value":6},{"name":"group","type":"int","value":0},{"name":"id","type":"int","value":181},{"name":"fh_layer","type":"int","value":6},{"name":"fh_group","type":"int","value":0},{"name":"fh_id","type":"int","value":181},{"name":"x1","type":"int","value":-135},{"name":"x2","type":"int","value":-45},{"name":"y1","type":"int","value":4},{"name":"y2","type":"int","value":4},{"name":"next","type":"int","value":189},{"name":"prev","type":"int","value":182}],"polyline":[{"x":0,"y":0},{"x":90,"y":0}]},{"id":501,"x":-225,"y":4,"visible":true,"properties":[{"name":"layer","type":"int","value":6},{"name":"group","type":"int","value":0},{"name":"id","type":"int","value":182},{"name":"fh_layer","type":"int","value":6},{"name":"fh_group","type":"int","value":0},{"name":"fh_id","type":"int","value":182},{"name":"x1","type":"int","value":-225},{"name":"x2","type":"int","value":-135},{"name":"y1","type":"int","value":4},{"name":"y2","type":"int","value":4},{"name":"next","type":"int","value":181},{"name":"prev","type":"int","value":178}],"polyline":[{"x":0,"y":0},{"x":90,"y":0}]},{"id":502,"x":585,"y":4,"visible":true,"properties":[{"name":"layer","type":"int","value":6},{"name":"group","type":"int","value":0},{"name":"id","type":"int","value":183},{"name":"fh_layer","type":"int","value":6},{"name":"fh_group","type":"int","value":0},{"name":"fh_id","type":"int","value":183},{"name":"x1","type":"int","value":585},{"name":"x2","type":"int","value":675},{"name":"y1","type":"int","value":4},{"name":"y2","type":"int","value":4},{"name":"next","type":"int","value":179},{"name":"prev","type":"int","value":184}],"polyline":[{"x":0,"y":0},{"x":90,"y":0}]},{"id":503,"x":495,"y":4,"visible":true,"properties":[{"name":"layer","type":"int","value":6},{"name":"group","type":"int","value":0},{"name":"id","type":"int","value":184},{"name":"fh_layer","type":"int","value":6},{"name":"fh_group","type":"int","value":0},{"name":"fh_id","type":"int","value":184},{"name":"x1","type":"int","value":495},{"name":"x2","type":"int","value":585},{"name":"y1","type":"int","value":4},{"name":"y2","type":"int","value":4},{"name":"next","type":"int","value":183},{"name":"prev","type":"int","value":180}],"polyline":[{"x":0,"y":0},{"x":90,"y":0}]},{"id":504,"x":315,"y":4,"visible":true,"properties":[{"name":"layer","type":"int","value":6},{"name":"group","type":"int","value":0},{"name":"id","type":"int","value":185},{"name":"fh_layer","type":"int","value":6},{"name":"fh_group","type":"int","value":0},{"name":"fh_id","type":"int","value":185},{"name":"x1","type":"int","value":315},{"name":"x2","type":"int","value":405},{"name":"y1","type":"int","value":4},{"name":"y2","type":"int","value":4},{"name":"next","type":"int","value":180},{"name":"prev","type":"int","value":186}],"polyline":[{"x":0,"y":0},{"x":90,"y":0}]},{"id":505,"x":225,"y":4,"visible":true,"properties":[{"name":"layer","type":"int","value":6},{"name":"group","type":"int","value":0},{"name":"id","type":"int","value":186},{"name":"fh_layer","type":"int","value":6},{"name":"fh_group","type":"int","value":0},{"name":"fh_id","type":"int","value":186},{"name":"x1","type":"int","value":225},{"name":"x2","type":"int","value":315},{"name":"y1","type":"int","value":4},{"name":"y2","type":"int","value":4},{"name":"next","type":"int","value":185},{"name":"prev","type":"int","value":187}],"polyline":[{"x":0,"y":0},{"x":90,"y":0}]},{"id":506,"x":135,"y":4,"visible":true,"properties":[{"name":"layer","type":"int","value":6},{"name":"group","type":"int","value":0},{"name":"id","type":"int","value":187},{"name":"fh_layer","type":"int","value":6},{"name":"fh_group","type":"int","value":0},{"name":"fh_id","type":"int","value":187},{"name":"x1","type":"int","value":135},{"name":"x2","type":"int","value":225},{"name":"y1","type":"int","value":4},{"name":"y2","type":"int","value":4},{"name":"next","type":"int","value":186},{"name":"prev","type":"int","value":188}],"polyline":[{"x":0,"y":0},{"x":90,"y":0}]},{"id":507,"x":45,"y":4,"visible":true,"properties":[{"name":"layer","type":"int","value":6},{"name":"group","type":"int","value":0},{"name":"id","type":"int","value":188},{"name":"fh_layer","type":"int","value":6},{"name":"fh_group","type":"int","value":0},{"name":"fh_id","type":"int","value":188},{"name":"x1","type":"int","value":45},{"name":"x2","type":"int","value":135},{"name":"y1","type":"int","value":4},{"name":"y2","type":"int","value":4},{"name":"next","type":"int","value":187},{"name":"prev","type":"int","value":189}],"polyline":[{"x":0,"y":0},{"x":90,"y":0}]},{"id":508,"x":-45,"y":4,"visible":true,"properties":[{"name":"layer","type":"int","value":6},{"name":"group","type":"int","value":0},{"name":"id","type":"int","value":189},{"name":"fh_layer","type":"int","value":6},{"name":"fh_group","type":"int","value":0},{"name":"fh_id","type":"int","value":189},{"name":"x1","type":"int","value":-45},{"name":"x2","type":"int","value":45},{"name":"y1","type":"int","value":4},{"name":"y2","type":"int","value":4},{"name":"next","type":"int","value":188},{"name":"prev","type":"int","value":181}],"polyline":[{"x":0,"y":0},{"x":90,"y":0}]},{"id":509,"x":765,"y":4,"visible":true,"properties":[{"name":"layer","type":"int","value":6},{"name":"group","type":"int","value":0},{"name":"id","type":"int","value":190},{"name":"fh_layer","type":"int","value":6},{"name":"fh_group","type":"int","value":0},{"name":"fh_id","type":"int","value":190},{"name":"x1","type":"int","value":765},{"name":"x2","type":"int","value":855},{"name":"y1","type":"int","value":4},{"name":"y2","type":"int","value":4},{"name":"next","type":"int","value":195},{"name":"prev","type":"int","value":179}],"polyline":[{"x":0,"y":0},{"x":90,"y":0}]},{"id":510,"x":1163,"y":210,"visible":true,"properties":[{"name":"layer","type":"int","value":6},{"name":"group","type":"int","value":0},{"name":"id","type":"int","value":191},{"name":"fh_layer","type":"int","value":6},{"name":"fh_group","type":"int","value":0},{"name":"fh_id","type":"int","value":191},{"name":"x1","type":"int","value":1163},{"name":"x2","type":"int","value":1163},{"name":"y1","type":"int","value":210},{"name":"y2","type":"int","value":270},{"name":"next","type":"int","value":0},{"name":"prev","type":"int","value":202}],"polyline":[{"x":0,"y":0},{"x":0,"y":60}]},{"id":511,"x":-533,"y":90,"visible":true,"properties":[{"name":"layer","type":"int","value":6},{"name":"group","type":"int","value":0},{"name":"id","type":"int","value":192},{"name":"fh_layer","type":"int","value":6},{"name":"fh_group","type":"int","value":0},{"name":"fh_id","type":"int","value":192},{"name":"x1","type":"int","value":-533},{"name":"x2","type":"int","value":-533},{"name":"y1","type":"int","value":90},{"name":"y2","type":"int","value":30},{"name":"next","type":"int","value":203},{"name":"prev","type":"int","value":206}],"polyline":[{"x":0,"y":0},{"x":0,"y":-60}]},{"id":512,"x":-405,"y":4,"visible":true,"properties":[{"name":"layer","type":"int","value":6},{"name":"group","type":"int","value":0},{"name":"id","type":"int","value":193},{"name":"fh_layer","type":"int","value":6},{"name":"fh_group","type":"int","value":0},{"name":"fh_id","type":"int","value":193},{"name":"x1","type":"int","value":-405},{"name":"x2","type":"int","value":-315},{"name":"y1","type":"int","value":4},{"name":"y2","type":"int","value":4},{"name":"next","type":"int","value":178},{"name":"prev","type":"int","value":205}],"polyline":[{"x":0,"y":0},{"x":90,"y":0}]},{"id":513,"x":945,"y":4,"visible":true,"properties":[{"name":"layer","type":"int","value":6},{"name":"group","type":"int","value":0},{"name":"id","type":"int","value":194},{"name":"fh_layer","type":"int","value":6},{"name":"fh_group","type":"int","value":0},{"name":"fh_id","type":"int","value":194},{"name":"x1","type":"int","value":945},{"name":"x2","type":"int","value":1035},{"name":"y1","type":"int","value":4},{"name":"y2","type":"int","value":4},{"name":"next","type":"int","value":197},{"name":"prev","type":"int","value":195}],"polyline":[{"x":0,"y":0},{"x":90,"y":0}]},{"id":514,"x":855,"y":4,"visible":true,"properties":[{"name":"layer","type":"int","value":6},{"name":"group","type":"int","value":0},{"name":"id","type":"int","value":195},{"name":"fh_layer","type":"int","value":6},{"name":"fh_group","type":"int","value":0},{"name":"fh_id","type":"int","value":195},{"name":"x1","type":"int","value":855},{"name":"x2","type":"int","value":945},{"name":"y1","type":"int","value":4},{"name":"y2","type":"int","value":4},{"name":"next","type":"int","value":194},{"name":"prev","type":"int","value":190}],"polyline":[{"x":0,"y":0},{"x":90,"y":0}]},{"id":515,"x":1163,"y":30,"visible":true,"properties":[{"name":"layer","type":"int","value":6},{"name":"group","type":"int","value":0},{"name":"id","type":"int","value":196},{"name":"fh_layer","type":"int","value":6},{"name":"fh_group","type":"int","value":0},{"name":"fh_id","type":"int","value":196},{"name":"x1","type":"int","value":1163},{"name":"x2","type":"int","value":1163},{"name":"y1","type":"int","value":30},{"name":"y2","type":"int","value":90},{"name":"next","type":"int","value":198},{"name":"prev","type":"int","value":201}],"polyline":[{"x":0,"y":0},{"x":0,"y":60}]},{"id":516,"x":1035,"y":4,"visible":true,"properties":[{"name":"layer","type":"int","value":6},{"name":"group","type":"int","value":0},{"name":"id","type":"int","value":197},{"name":"fh_layer","type":"int","value":6},{"name":"fh_group","type":"int","value":0},{"name":"fh_id","type":"int","value":197},{"name":"x1","type":"int","value":1035},{"name":"x2","type":"int","value":1087},{"name":"y1","type":"int","value":4},{"name":"y2","type":"int","value":4},{"name":"next","type":"int","value":199},{"name":"prev","type":"int","value":194}],"polyline":[{"x":0,"y":0},{"x":52,"y":0}]},{"id":517,"x":1163,"y":90,"visible":true,"properties":[{"name":"layer","type":"int","value":6},{"name":"group","type":"int","value":0},{"name":"id","type":"int","value":198},{"name":"fh_layer","type":"int","value":6},{"name":"fh_group","type":"int","value":0},{"name":"fh_id","type":"int","value":198},{"name":"x1","type":"int","value":1163},{"name":"x2","type":"int","value":1163},{"name":"y1","type":"int","value":90},{"name":"y2","type":"int","value":150},{"name":"next","type":"int","value":202},{"name":"prev","type":"int","value":196}],"polyline":[{"x":0,"y":0},{"x":0,"y":60}]},{"id":518,"x":1087,"y":4,"visible":true,"properties":[{"name":"layer","type":"int","value":6},{"name":"group","type":"int","value":0},{"name":"id","type":"int","value":199},{"name":"fh_layer","type":"int","value":6},{"name":"fh_group","type":"int","value":0},{"name":"fh_id","type":"int","value":199},{"name":"x1","type":"int","value":1087},{"name":"x2","type":"int","value":1125},{"name":"y1","type":"int","value":4},{"name":"y2","type":"int","value":4},{"name":"next","type":"int","value":200},{"name":"prev","type":"int","value":197}],"polyline":[{"x":0,"y":0},{"x":38,"y":0}]},{"id":519,"x":1125,"y":4,"visible":true,"properties":[{"name":"layer","type":"int","value":6},{"name":"group","type":"int","value":0},{"name":"id","type":"int","value":200},{"name":"fh_layer","type":"int","value":6},{"name":"fh_group","type":"int","value":0},{"name":"fh_id","type":"int","value":200},{"name":"x1","type":"int","value":1125},{"name":"x2","type":"int","value":1163},{"name":"y1","type":"int","value":4},{"name":"y2","type":"int","value":4},{"name":"next","type":"int","value":201},{"name":"prev","type":"int","value":199}],"polyline":[{"x":0,"y":0},{"x":38,"y":0}]},{"id":520,"x":1163,"y":4,"visible":true,"properties":[{"name":"layer","type":"int","value":6},{"name":"group","type":"int","value":0},{"name":"id","type":"int","value":201},{"name":"fh_layer","type":"int","value":6},{"name":"fh_group","type":"int","value":0},{"name":"fh_id","type":"int","value":201},{"name":"x1","type":"int","value":1163},{"name":"x2","type":"int","value":1163},{"name":"y1","type":"int","value":4},{"name":"y2","type":"int","value":30},{"name":"next","type":"int","value":196},{"name":"prev","type":"int","value":200}],"polyline":[{"x":0,"y":0},{"x":0,"y":26}]},{"id":521,"x":1163,"y":150,"visible":true,"properties":[{"name":"layer","type":"int","value":6},{"name":"group","type":"int","value":0},{"name":"id","type":"int","value":202},{"name":"fh_layer","type":"int","value":6},{"name":"fh_group","type":"int","value":0},{"name":"fh_id","type":"int","value":202},{"name":"x1","type":"int","value":1163},{"name":"x2","type":"int","value":1163},{"name":"y1","type":"int","value":150},{"name":"y2","type":"int","value":210},{"name":"next","type":"int","value":191},{"name":"prev","type":"int","value":198}],"polyline":[{"x":0,"y":0},{"x":0,"y":60}]},{"id":522,"x":-533,"y":30,"visible":true,"properties":[{"name":"layer","type":"int","value":6},{"name":"group","type":"int","value":0},{"name":"id","type":"int","value":203},{"name":"fh_layer","type":"int","value":6},{"name":"fh_group","type":"int","value":0},{"name":"fh_id","type":"int","value":203},{"name":"x1","type":"int","value":-533},{"name":"x2","type":"int","value":-533},{"name":"y1","type":"int","value":30},{"name":"y2","type":"int","value":4},{"name":"next","type":"int","value":204},{"name":"prev","type":"int","value":192}],"polyline":[{"x":0,"y":0},{"x":0,"y":-26}]},{"id":523,"x":-533,"y":4,"visible":true,"properties":[{"name":"layer","type":"int","value":6},{"name":"group","type":"int","value":0},{"name":"id","type":"int","value":204},{"name":"fh_layer","type":"int","value":6},{"name":"fh_group","type":"int","value":0},{"name":"fh_id","type":"int","value":204},{"name":"x1","type":"int","value":-533},{"name":"x2","type":"int","value":-457},{"name":"y1","type":"int","value":4},{"name":"y2","type":"int","value":4},{"name":"next","type":"int","value":205},{"name":"prev","type":"int","value":203}],"polyline":[{"x":0,"y":0},{"x":76,"y":0}]},{"id":524,"x":-457,"y":4,"visible":true,"properties":[{"name":"layer","type":"int","value":6},{"name":"group","type":"int","value":0},{"name":"id","type":"int","value":205},{"name":"fh_layer","type":"int","value":6},{"name":"fh_group","type":"int","value":0},{"name":"fh_id","type":"int","value":205},{"name":"x1","type":"int","value":-457},{"name":"x2","type":"int","value":-405},{"name":"y1","type":"int","value":4},{"name":"y2","type":"int","value":4},{"name":"next","type":"int","value":193},{"name":"prev","type":"int","value":204}],"polyline":[{"x":0,"y":0},{"x":52,"y":0}]},{"id":525,"x":-533,"y":150,"visible":true,"properties":[{"name":"layer","type":"int","value":6},{"name":"group","type":"int","value":0},{"name":"id","type":"int","value":206},{"name":"fh_layer","type":"int","value":6},{"name":"fh_group","type":"int","value":0},{"name":"fh_id","type":"int","value":206},{"name":"x1","type":"int","value":-533},{"name":"x2","type":"int","value":-533},{"name":"y1","type":"int","value":150},{"name":"y2","type":"int","value":90},{"name":"next","type":"int","value":192},{"name":"prev","type":"int","value":207}],"polyline":[{"x":0,"y":0},{"x":0,"y":-60}]},{"id":526,"x":-533,"y":210,"visible":true,"properties":[{"name":"layer","type":"int","value":6},{"name":"group","type":"int","value":0},{"name":"id","type":"int","value":207},{"name":"fh_layer","type":"int","value":6},{"name":"fh_group","type":"int","value":0},{"name":"fh_id","type":"int","value":207},{"name":"x1","type":"int","value":-533},{"name":"x2","type":"int","value":-533},{"name":"y1","type":"int","value":210},{"name":"y2","type":"int","value":150},{"name":"next","type":"int","value":206},{"name":"prev","type":"int","value":208}],"polyline":[{"x":0,"y":0},{"x":0,"y":-60}]},{"id":527,"x":-533,"y":270,"visible":true,"properties":[{"name":"layer","type":"int","value":6},{"name":"group","type":"int","value":0},{"name":"id","type":"int","value":208},{"name":"fh_layer","type":"int","value":6},{"name":"fh_group","type":"int","value":0},{"name":"fh_id","type":"int","value":208},{"name":"x1","type":"int","value":-533},{"name":"x2","type":"int","value":-533},{"name":"y1","type":"int","value":270},{"name":"y2","type":"int","value":210},{"name":"next","type":"int","value":207},{"name":"prev","type":"int","value":0}],"polyline":[{"x":0,"y":0},{"x":0,"y":-60}]}]},{"id":19,"name":"seat","type":"objectgroup","visible":true,"opacity":1,"objects":[{"id":528,"x":0,"y":0,"visible":true,"properties":[{"name":"x","type":"int","value":0},{"name":"y","type":"int","value":0}],"point":true}]},{"id":20,"name":"miniMap","type":"objectgroup","visible":true,"opacity":1,"objects":[{"id":529,"x":625,"y":1274,"visible":true,"properties":[{"name":"mag","type":"int","value":4},{"name":"centerX","type":"int","value":625},{"name":"centerY","type":"int","value":1274},{"name":"canvas_path","type":"string","value":"../../images/30862.png"},{"name":"canvas_width","type":"int","value":115},{"name":"canvas_height","type":"int","value":100},{"name":"canvas_origin_x","type":"int","value":0},{"name":"canvas_origin_y","type":"int","value":0}],"point":true}]}],"tilesets":[{"firstgid":1,"source":"../../tilesets/bg_grassySoil.tsj"},{"firstgid":8,"source":"../../tilesets/tile_woodMarble.tsj"},{"firstgid":33,"source":"../../tilesets/obj_acc1_darkWood_nature.tsj"},{"firstgid":64,"source":"../../tilesets/obj_houseGS_house12_basic.tsj"},{"firstgid":65,"source":"../../tilesets/obj_acc1_grassySoil_nature.tsj"},{"firstgid":93,"source":"../../tilesets/obj_event_grassySoil_awarding.tsj"}],"properties":[{"name":"bgm","type":"string","value":"Bgm00/FloralLife"},{"name":"swim","type":"int","value":0},{"name":"town","type":"int","value":0},{"name":"cloud","type":"int","value":0},{"name":"mapDesc","type":"string","value":""},{"name":"mapMark","type":"string","value":"Event"},{"name":"mobRate","type":"float","value":1},{"name":"version","type":"int","value":10},{"name":"fieldType","type":"int","value":3},{"name":"moveLimit","type":"int","value":0},{"name":"returnMap","type":"int","value":109050001},{"name":"fieldLimit","type":"int","value":467710},{"name":"hideMinimap","type":"int","value":0},{"name":"forcedReturn","type":"int","value":109050001}]}