{"type":"map","orientation":"orthogonal","renderorder":"right-down","infinite":false,"tilewidth":1,"tileheight":1,"width":988,"height":1160,"nextlayerid":26,"nextobjectid":94,"layers":[{"id":1,"name":"layer_2_obj","type":"objectgroup","visible":true,"opacity":1,"objects":[{"id":1,"x":-1,"y":85,"visible":true,"properties":[{"name":"layer","type":"int","value":2},{"name":"resource_index","type":"int","value":0},{"name":"oS","type":"string","value":"acc12"},{"name":"l0","type":"string","value":"rienFD"},{"name":"l1","type":"string","value":"nature1"},{"name":"l2","type":"string","value":"9"},{"name":"z","type":"int","value":9},{"name":"zM","type":"int","value":1},{"name":"f","type":"int","value":0}],"gid":47,"width":272,"height":512},{"id":2,"x":552,"y":85,"visible":true,"properties":[{"name":"layer","type":"int","value":2},{"name":"resource_index","type":"int","value":1},{"name":"oS","type":"string","value":"acc12"},{"name":"l0","type":"string","value":"rienFD"},{"name":"l1","type":"string","value":"nature1"},{"name":"l2","type":"string","value":"5"},{"name":"z","type":"int","value":8},{"name":"zM","type":"int","value":2},{"name":"f","type":"int","value":0}],"gid":52,"width":252,"height":514},{"id":3,"x":644,"y":85,"visible":true,"properties":[{"name":"layer","type":"int","value":2},{"name":"resource_index","type":"int","value":2},{"name":"oS","type":"string","value":"acc12"},{"name":"l0","type":"string","value":"rienFD"},{"name":"l1","type":"string","value":"nature1"},{"name":"l2","type":"string","value":"8"},{"name":"z","type":"int","value":9},{"name":"zM","type":"int","value":2},{"name":"f","type":"int","value":0}],"gid":43,"width":349,"height":531},{"id":4,"x":932,"y":87,"visible":true,"properties":[{"name":"layer","type":"int","value":2},{"name":"resource_index","type":"int","value":3},{"name":"oS","type":"string","value":"acc12"},{"name":"l0","type":"string","value":"rienFD"},{"name":"l1","type":"string","value":"nature1"},{"name":"l2","type":"string","value":"12"},{"name":"z","type":"int","value":9},{"name":"zM","type":"int","value":2},{"name":"f","type":"int","value":0}],"gid":61,"width":54,"height":85},{"id":5,"x":246,"y":91,"visible":true,"properties":[{"name":"layer","type":"int","value":2},{"name":"resource_index","type":"int","value":4},{"name":"oS","type":"string","value":"acc12"},{"name":"l0","type":"string","value":"rienFD"},{"name":"l1","type":"string","value":"nature1"},{"name":"l2","type":"string","value":"6"},{"name":"z","type":"int","value":9},{"name":"zM","type":"int","value":0},{"name":"f","type":"int","value":0}],"gid":45,"width":232,"height":393},{"id":6,"x":380,"y":84,"visible":true,"properties":[{"name":"layer","type":"int","value":2},{"name":"resource_index","type":"int","value":5},{"name":"oS","type":"string","value":"acc12"},{"name":"l0","type":"string","value":"rienFD"},{"name":"l1","type":"string","value":"nature1"},{"name":"l2","type":"string","value":"16"},{"name":"z","type":"int","value":9},{"name":"zM","type":"int","value":0},{"name":"f","type":"int","value":0}],"gid":60,"width":209,"height":87}]},{"id":2,"name":"layer_5_tile","type":"objectgroup","visible":true,"opacity":1,"objects":[{"id":7,"x":360,"y":300,"visible":true,"properties":[{"name":"layer","type":"int","value":5},{"name":"resource_index","type":"int","value":0},{"name":"u","type":"string","value":"bsc"},{"name":"no","type":"int","value":1},{"name":"zM","type":"int","value":0}],"gid":28,"width":90,"height":60},{"id":8,"x":90,"y":120,"visible":true,"properties":[{"name":"layer","type":"int","value":5},{"name":"resource_index","type":"int","value":1},{"name":"u","type":"string","value":"bsc"},{"name":"no","type":"int","value":4},{"name":"zM","type":"int","value":0}],"gid":25,"width":90,"height":60},{"id":9,"x":0,"y":-60,"visible":true,"properties":[{"name":"layer","type":"int","value":5},{"name":"resource_index","type":"int","value":2},{"name":"u","type":"string","value":"enH0"},{"name":"no","type":"int","value":2},{"name":"zM","type":"int","value":0}],"gid":27,"width":90,"height":39},{"id":10,"x":90,"y":180,"visible":true,"properties":[{"name":"layer","type":"int","value":5},{"name":"resource_index","type":"int","value":3},{"name":"u","type":"string","value":"bsc"},{"name":"no","type":"int","value":4},{"name":"zM","type":"int","value":0}],"gid":25,"width":90,"height":60},{"id":11,"x":180,"y":300,"visible":true,"properties":[{"name":"layer","type":"int","value":5},{"name":"resource_index","type":"int","value":4},{"name":"u","type":"string","value":"bsc"},{"name":"no","type":"int","value":0},{"name":"zM","type":"int","value":0}],"gid":31,"width":90,"height":60},{"id":12,"x":90,"y":337,"visible":true,"properties":[{"name":"layer","type":"int","value":5},{"name":"resource_index","type":"int","value":5},{"name":"u","type":"string","value":"enH1"},{"name":"no","type":"int","value":0},{"name":"zM","type":"int","value":0}],"gid":33,"width":90,"height":37},{"id":13,"x":0,"y":240,"visible":true,"properties":[{"name":"layer","type":"int","value":5},{"name":"resource_index","type":"int","value":6},{"name":"u","type":"string","value":"bsc"},{"name":"no","type":"int","value":3},{"name":"zM","type":"int","value":0}],"gid":24,"width":90,"height":60},{"id":14,"x":810,"y":300,"visible":true,"properties":[{"name":"layer","type":"int","value":5},{"name":"resource_index","type":"int","value":7},{"name":"u","type":"string","value":"bsc"},{"name":"no","type":"int","value":4},{"name":"zM","type":"int","value":0}],"gid":25,"width":90,"height":60},{"id":15,"x":0,"y":120,"visible":true,"properties":[{"name":"layer","type":"int","value":5},{"name":"resource_index","type":"int","value":8},{"name":"u","type":"string","value":"bsc"},{"name":"no","type":"int","value":3},{"name":"zM","type":"int","value":0}],"gid":24,"width":90,"height":60},{"id":16,"x":900,"y":240,"visible":true,"properties":[{"name":"layer","type":"int","value":5},{"name":"resource_index","type":"int","value":9},{"name":"u","type":"string","value":"bsc"},{"name":"no","type":"int","value":0},{"name":"zM","type":"int","value":0}],"gid":31,"width":90,"height":60},{"id":17,"x":900,"y":180,"visible":true,"properties":[{"name":"layer","type":"int","value":5},{"name":"resource_index","type":"int","value":10},{"name":"u","type":"string","value":"bsc"},{"name":"no","type":"int","value":3},{"name":"zM","type":"int","value":0}],"gid":24,"width":90,"height":60},{"id":18,"x":0,"y":0,"visible":true,"properties":[{"name":"layer","type":"int","value":5},{"name":"resource_index","type":"int","value":11},{"name":"u","type":"string","value":"bsc"},{"name":"no","type":"int","value":3},{"name":"zM","type":"int","value":0}],"gid":24,"width":90,"height":60},{"id":19,"x":900,"y":120,"visible":true,"properties":[{"name":"layer","type":"int","value":5},{"name":"resource_index","type":"int","value":12},{"name":"u","type":"string","value":"enH0"},{"name":"no","type":"int","value":0},{"name":"zM","type":"int","value":0}],"gid":32,"width":90,"height":39},{"id":20,"x":270,"y":120,"visible":true,"properties":[{"name":"layer","type":"int","value":5},{"name":"resource_index","type":"int","value":13},{"name":"u","type":"string","value":"enH0"},{"name":"no","type":"int","value":1},{"name":"zM","type":"int","value":0}],"gid":29,"width":90,"height":40},{"id":21,"x":270,"y":300,"visible":true,"properties":[{"name":"layer","type":"int","value":5},{"name":"resource_index","type":"int","value":14},{"name":"u","type":"string","value":"bsc"},{"name":"no","type":"int","value":4},{"name":"zM","type":"int","value":0}],"gid":25,"width":90,"height":60},{"id":22,"x":720,"y":120,"visible":true,"properties":[{"name":"layer","type":"int","value":5},{"name":"resource_index","type":"int","value":15},{"name":"u","type":"string","value":"enH0"},{"name":"no","type":"int","value":0},{"name":"zM","type":"int","value":0}],"gid":32,"width":90,"height":39},{"id":23,"x":450,"y":120,"visible":true,"properties":[{"name":"layer","type":"int","value":5},{"name":"resource_index","type":"int","value":16},{"name":"u","type":"string","value":"enH0"},{"name":"no","type":"int","value":0},{"name":"zM","type":"int","value":0}],"gid":32,"width":90,"height":39},{"id":24,"x":630,"y":337,"visible":true,"properties":[{"name":"layer","type":"int","value":5},{"name":"resource_index","type":"int","value":17},{"name":"u","type":"string","value":"enH1"},{"name":"no","type":"int","value":0},{"name":"zM","type":"int","value":0}],"gid":33,"width":90,"height":37},{"id":25,"x":90,"y":300,"visible":true,"properties":[{"name":"layer","type":"int","value":5},{"name":"resource_index","type":"int","value":18},{"name":"u","type":"string","value":"bsc"},{"name":"no","type":"int","value":1},{"name":"zM","type":"int","value":0}],"gid":28,"width":90,"height":60},{"id":26,"x":90,"y":-60,"visible":true,"properties":[{"name":"layer","type":"int","value":5},{"name":"resource_index","type":"int","value":19},{"name":"u","type":"string","value":"enH0"},{"name":"no","type":"int","value":2},{"name":"zM","type":"int","value":0}],"gid":27,"width":90,"height":39},{"id":27,"x":630,"y":300,"visible":true,"properties":[{"name":"layer","type":"int","value":5},{"name":"resource_index","type":"int","value":20},{"name":"u","type":"string","value":"bsc"},{"name":"no","type":"int","value":0},{"name":"zM","type":"int","value":0}],"gid":31,"width":90,"height":60},{"id":28,"x":810,"y":180,"visible":true,"properties":[{"name":"layer","type":"int","value":5},{"name":"resource_index","type":"int","value":21},{"name":"u","type":"string","value":"bsc"},{"name":"no","type":"int","value":2},{"name":"zM","type":"int","value":0}],"gid":30,"width":90,"height":60},{"id":29,"x":540,"y":334,"visible":true,"properties":[{"name":"layer","type":"int","value":5},{"name":"resource_index","type":"int","value":22},{"name":"u","type":"string","value":"enH1"},{"name":"no","type":"int","value":1},{"name":"zM","type":"int","value":0}],"gid":34,"width":90,"height":34},{"id":30,"x":720,"y":240,"visible":true,"properties":[{"name":"layer","type":"int","value":5},{"name":"resource_index","type":"int","value":23},{"name":"u","type":"string","value":"bsc"},{"name":"no","type":"int","value":4},{"name":"zM","type":"int","value":0}],"gid":25,"width":90,"height":60},{"id":31,"x":0,"y":300,"visible":true,"properties":[{"name":"layer","type":"int","value":5},{"name":"resource_index","type":"int","value":24},{"name":"u","type":"string","value":"bsc"},{"name":"no","type":"int","value":2},{"name":"zM","type":"int","value":0}],"gid":30,"width":90,"height":60},{"id":32,"x":720,"y":337,"visible":true,"properties":[{"name":"layer","type":"int","value":5},{"name":"resource_index","type":"int","value":25},{"name":"u","type":"string","value":"enH1"},{"name":"no","type":"int","value":2},{"name":"zM","type":"int","value":0}],"gid":35,"width":90,"height":37},{"id":33,"x":90,"y":0,"visible":true,"properties":[{"name":"layer","type":"int","value":5},{"name":"resource_index","type":"int","value":26},{"name":"u","type":"string","value":"bsc"},{"name":"no","type":"int","value":3},{"name":"zM","type":"int","value":0}],"gid":24,"width":90,"height":60},{"id":34,"x":0,"y":337,"visible":true,"properties":[{"name":"layer","type":"int","value":5},{"name":"resource_index","type":"int","value":27},{"name":"u","type":"string","value":"enH1"},{"name":"no","type":"int","value":2},{"name":"zM","type":"int","value":0}],"gid":35,"width":90,"height":37},{"id":35,"x":450,"y":240,"visible":true,"properties":[{"name":"layer","type":"int","value":5},{"name":"resource_index","type":"int","value":28},{"name":"u","type":"string","value":"bsc"},{"name":"no","type":"int","value":0},{"name":"zM","type":"int","value":0}],"gid":31,"width":90,"height":60},{"id":36,"x":270,"y":180,"visible":true,"properties":[{"name":"layer","type":"int","value":5},{"name":"resource_index","type":"int","value":29},{"name":"u","type":"string","value":"bsc"},{"name":"no","type":"int","value":1},{"name":"zM","type":"int","value":0}],"gid":28,"width":90,"height":60},{"id":37,"x":810,"y":120,"visible":true,"properties":[{"name":"layer","type":"int","value":5},{"name":"resource_index","type":"int","value":30},{"name":"u","type":"string","value":"enH0"},{"name":"no","type":"int","value":2},{"name":"zM","type":"int","value":0}],"gid":27,"width":90,"height":39},{"id":38,"x":180,"y":240,"visible":true,"properties":[{"name":"layer","type":"int","value":5},{"name":"resource_index","type":"int","value":31},{"name":"u","type":"string","value":"bsc"},{"name":"no","type":"int","value":2},{"name":"zM","type":"int","value":0}],"gid":30,"width":90,"height":60},{"id":39,"x":540,"y":120,"visible":true,"properties":[{"name":"layer","type":"int","value":5},{"name":"resource_index","type":"int","value":32},{"name":"u","type":"string","value":"enH0"},{"name":"no","type":"int","value":2},{"name":"zM","type":"int","value":0}],"gid":27,"width":90,"height":39},{"id":40,"x":270,"y":334,"visible":true,"properties":[{"name":"layer","type":"int","value":5},{"name":"resource_index","type":"int","value":33},{"name":"u","type":"string","value":"enH1"},{"name":"no","type":"int","value":1},{"name":"zM","type":"int","value":0}],"gid":34,"width":90,"height":34},{"id":41,"x":360,"y":120,"visible":true,"properties":[{"name":"layer","type":"int","value":5},{"name":"resource_index","type":"int","value":34},{"name":"u","type":"string","value":"enH0"},{"name":"no","type":"int","value":0},{"name":"zM","type":"int","value":0}],"gid":32,"width":90,"height":39},{"id":42,"x":0,"y":180,"visible":true,"properties":[{"name":"layer","type":"int","value":5},{"name":"resource_index","type":"int","value":35},{"name":"u","type":"string","value":"bsc"},{"name":"no","type":"int","value":0},{"name":"zM","type":"int","value":0}],"gid":31,"width":90,"height":60},{"id":43,"x":630,"y":180,"visible":true,"properties":[{"name":"layer","type":"int","value":5},{"name":"resource_index","type":"int","value":36},{"name":"u","type":"string","value":"bsc"},{"name":"no","type":"int","value":1},{"name":"zM","type":"int","value":0}],"gid":28,"width":90,"height":60},{"id":44,"x":720,"y":180,"visible":true,"properties":[{"name":"layer","type":"int","value":5},{"name":"resource_index","type":"int","value":37},{"name":"u","type":"string","value":"bsc"},{"name":"no","type":"int","value":1},{"name":"zM","type":"int","value":0}],"gid":28,"width":90,"height":60},{"id":45,"x":180,"y":180,"visible":true,"properties":[{"name":"layer","type":"int","value":5},{"name":"resource_index","type":"int","value":38},{"name":"u","type":"string","value":"bsc"},{"name":"no","type":"int","value":2},{"name":"zM","type":"int","value":0}],"gid":30,"width":90,"height":60},{"id":46,"x":450,"y":300,"visible":true,"properties":[{"name":"layer","type":"int","value":5},{"name":"resource_index","type":"int","value":39},{"name":"u","type":"string","value":"bsc"},{"name":"no","type":"int","value":4},{"name":"zM","type":"int","value":0}],"gid":25,"width":90,"height":60},{"id":47,"x":630,"y":240,"visible":true,"properties":[{"name":"layer","type":"int","value":5},{"name":"resource_index","type":"int","value":40},{"name":"u","type":"string","value":"bsc"},{"name":"no","type":"int","value":1},{"name":"zM","type":"int","value":0}],"gid":28,"width":90,"height":60},{"id":48,"x":540,"y":240,"visible":true,"properties":[{"name":"layer","type":"int","value":5},{"name":"resource_index","type":"int","value":41},{"name":"u","type":"string","value":"bsc"},{"name":"no","type":"int","value":4},{"name":"zM","type":"int","value":0}],"gid":25,"width":90,"height":60},{"id":49,"x":900,"y":334,"visible":true,"properties":[{"name":"layer","type":"int","value":5},{"name":"resource_index","type":"int","value":42},{"name":"u","type":"string","value":"enH1"},{"name":"no","type":"int","value":1},{"name":"zM","type":"int","value":0}],"gid":34,"width":90,"height":34},{"id":50,"x":360,"y":334,"visible":true,"properties":[{"name":"layer","type":"int","value":5},{"name":"resource_index","type":"int","value":43},{"name":"u","type":"string","value":"enH1"},{"name":"no","type":"int","value":1},{"name":"zM","type":"int","value":0}],"gid":34,"width":90,"height":34},{"id":51,"x":810,"y":240,"visible":true,"properties":[{"name":"layer","type":"int","value":5},{"name":"resource_index","type":"int","value":44},{"name":"u","type":"string","value":"bsc"},{"name":"no","type":"int","value":3},{"name":"zM","type":"int","value":0}],"gid":24,"width":90,"height":60},{"id":52,"x":360,"y":240,"visible":true,"properties":[{"name":"layer","type":"int","value":5},{"name":"resource_index","type":"int","value":45},{"name":"u","type":"string","value":"bsc"},{"name":"no","type":"int","value":3},{"name":"zM","type":"int","value":0}],"gid":24,"width":90,"height":60},{"id":53,"x":810,"y":337,"visible":true,"properties":[{"name":"layer","type":"int","value":5},{"name":"resource_index","type":"int","value":46},{"name":"u","type":"string","value":"enH1"},{"name":"no","type":"int","value":0},{"name":"zM","type":"int","value":0}],"gid":33,"width":90,"height":37},{"id":54,"x":630,"y":120,"visible":true,"properties":[{"name":"layer","type":"int","value":5},{"name":"resource_index","type":"int","value":47},{"name":"u","type":"string","value":"enH0"},{"name":"no","type":"int","value":1},{"name":"zM","type":"int","value":0}],"gid":29,"width":90,"height":40},{"id":55,"x":0,"y":60,"visible":true,"properties":[{"name":"layer","type":"int","value":5},{"name":"resource_index","type":"int","value":48},{"name":"u","type":"string","value":"bsc"},{"name":"no","type":"int","value":2},{"name":"zM","type":"int","value":0}],"gid":30,"width":90,"height":60},{"id":56,"x":360,"y":180,"visible":true,"properties":[{"name":"layer","type":"int","value":5},{"name":"resource_index","type":"int","value":49},{"name":"u","type":"string","value":"bsc"},{"name":"no","type":"int","value":2},{"name":"zM","type":"int","value":0}],"gid":30,"width":90,"height":60},{"id":57,"x":540,"y":300,"visible":true,"properties":[{"name":"layer","type":"int","value":5},{"name":"resource_index","type":"int","value":50},{"name":"u","type":"string","value":"bsc"},{"name":"no","type":"int","value":1},{"name":"zM","type":"int","value":0}],"gid":28,"width":90,"height":60},{"id":58,"x":90,"y":60,"visible":true,"properties":[{"name":"layer","type":"int","value":5},{"name":"resource_index","type":"int","value":51},{"name":"u","type":"string","value":"bsc"},{"name":"no","type":"int","value":2},{"name":"zM","type":"int","value":0}],"gid":30,"width":90,"height":60},{"id":59,"x":900,"y":300,"visible":true,"properties":[{"name":"layer","type":"int","value":5},{"name":"resource_index","type":"int","value":52},{"name":"u","type":"string","value":"bsc"},{"name":"no","type":"int","value":4},{"name":"zM","type":"int","value":0}],"gid":25,"width":90,"height":60},{"id":60,"x":90,"y":240,"visible":true,"properties":[{"name":"layer","type":"int","value":5},{"name":"resource_index","type":"int","value":53},{"name":"u","type":"string","value":"bsc"},{"name":"no","type":"int","value":2},{"name":"zM","type":"int","value":0}],"gid":30,"width":90,"height":60},{"id":61,"x":720,"y":300,"visible":true,"properties":[{"name":"layer","type":"int","value":5},{"name":"resource_index","type":"int","value":54},{"name":"u","type":"string","value":"bsc"},{"name":"no","type":"int","value":0},{"name":"zM","type":"int","value":0}],"gid":31,"width":90,"height":60},{"id":62,"x":180,"y":337,"visible":true,"properties":[{"name":"layer","type":"int","value":5},{"name":"resource_index","type":"int","value":55},{"name":"u","type":"string","value":"enH1"},{"name":"no","type":"int","value":2},{"name":"zM","type":"int","value":0}],"gid":35,"width":90,"height":37},{"id":63,"x":270,"y":240,"visible":true,"properties":[{"name":"layer","type":"int","value":5},{"name":"resource_index","type":"int","value":56},{"name":"u","type":"string","value":"bsc"},{"name":"no","type":"int","value":3},{"name":"zM","type":"int","value":0}],"gid":24,"width":90,"height":60},{"id":64,"x":540,"y":180,"visible":true,"properties":[{"name":"layer","type":"int","value":5},{"name":"resource_index","type":"int","value":57},{"name":"u","type":"string","value":"bsc"},{"name":"no","type":"int","value":3},{"name":"zM","type":"int","value":0}],"gid":24,"width":90,"height":60},{"id":65,"x":450,"y":334,"visible":true,"properties":[{"name":"layer","type":"int","value":5},{"name":"resource_index","type":"int","value":58},{"name":"u","type":"string","value":"enH1"},{"name":"no","type":"int","value":1},{"name":"zM","type":"int","value":0}],"gid":34,"width":90,"height":34},{"id":66,"x":450,"y":180,"visible":true,"properties":[{"name":"layer","type":"int","value":5},{"name":"resource_index","type":"int","value":59},{"name":"u","type":"string","value":"bsc"},{"name":"no","type":"int","value":3},{"name":"zM","type":"int","value":0}],"gid":24,"width":90,"height":60},{"id":67,"x":180,"y":27,"visible":true,"properties":[{"name":"layer","type":"int","value":5},{"name":"resource_index","type":"int","value":60},{"name":"u","type":"string","value":"slRD"},{"name":"no","type":"int","value":0},{"name":"zM","type":"int","value":0}],"gid":40,"width":90,"height":87},{"id":68,"x":180,"y":-60,"visible":true,"properties":[{"name":"layer","type":"int","value":5},{"name":"resource_index","type":"int","value":61},{"name":"u","type":"string","value":"enH0"},{"name":"no","type":"int","value":2},{"name":"zM","type":"int","value":0}],"gid":27,"width":90,"height":39},{"id":69,"x":180,"y":120,"visible":true,"properties":[{"name":"layer","type":"int","value":5},{"name":"resource_index","type":"int","value":62},{"name":"u","type":"string","value":"enH0"},{"name":"no","type":"int","value":2},{"name":"zM","type":"int","value":0}],"gid":27,"width":90,"height":39},{"id":70,"x":180,"y":60,"visible":true,"properties":[{"name":"layer","type":"int","value":5},{"name":"resource_index","type":"int","value":63},{"name":"u","type":"string","value":"enV1"},{"name":"no","type":"int","value":0},{"name":"zM","type":"int","value":0}],"gid":41,"width":30,"height":60},{"id":71,"x":180,"y":120,"visible":true,"properties":[{"name":"layer","type":"int","value":5},{"name":"resource_index","type":"int","value":64},{"name":"u","type":"string","value":"enV1"},{"name":"no","type":"int","value":1},{"name":"zM","type":"int","value":0}],"gid":42,"width":31,"height":60},{"id":72,"x":237,"y":-60,"visible":true,"properties":[{"name":"layer","type":"int","value":5},{"name":"resource_index","type":"int","value":65},{"name":"u","type":"string","value":"edU"},{"name":"no","type":"int","value":0},{"name":"zM","type":"int","value":0}],"gid":39,"width":65,"height":40},{"id":73,"x":250,"y":-33,"visible":true,"properties":[{"name":"layer","type":"int","value":5},{"name":"resource_index","type":"int","value":66},{"name":"u","type":"string","value":"edD"},{"name":"no","type":"int","value":1},{"name":"zM","type":"int","value":0}],"gid":37,"width":42,"height":27}]},{"id":3,"name":"background_back_0","type":"imagelayer","visible":true,"opacity":1,"image":"../../images/27305.png","imagewidth":30,"imageheight":30,"offsetx":-15,"offsety":-15,"repeatx":true,"repeaty":true,"parallaxx":1,"parallaxy":1,"properties":[{"name":"a","type":"int","value":255},{"name":"f","type":"int","value":0},{"name":"x","type":"int","value":0},{"name":"y","type":"int","value":0},{"name":"bS","type":"string","value":"Rien"},{"name":"cx","type":"int","value":0},{"name":"cy","type":"int","value":0},{"name":"no","type":"int","value":0},{"name":"rx","type":"int","value":0},{"name":"ry","type":"int","value":0},{"name":"ani","type":"int","value":0},{"name":"type","type":"int","value":3},{"name":"front","type":"int","value":0}]},{"id":4,"name":"background_back_1","type":"imagelayer","visible":true,"opacity":1,"image":"../../images/27306.png","imagewidth":10,"imageheight":818,"offsetx":-5,"offsety":-629,"repeatx":true,"repeaty":false,"parallaxx":1,"parallaxy":1,"properties":[{"name":"a","type":"int","value":255},{"name":"f","type":"int","value":0},{"name":"x","type":"int","value":0},{"name":"y","type":"int","value":-220},{"name":"bS","type":"string","value":"Rien"},{"name":"cx","type":"int","value":0},{"name":"cy","type":"int","value":0},{"name":"no","type":"int","value":1},{"name":"rx","type":"int","value":0},{"name":"ry","type":"int","value":-70},{"name":"ani","type":"int","value":0},{"name":"type","type":"int","value":1},{"name":"front","type":"int","value":0}]},{"id":5,"name":"background_back_2","type":"imagelayer","visible":true,"opacity":1,"image":"../../images/27307.png","imagewidth":800,"imageheight":366,"offsetx":-768,"offsety":-629,"repeatx":true,"repeaty":false,"parallaxx":1,"parallaxy":1,"properties":[{"name":"a","type":"int","value":255},{"name":"f","type":"int","value":0},{"name":"x","type":"int","value":-368},{"name":"y","type":"int","value":-446},{"name":"bS","type":"string","value":"Rien"},{"name":"cx","type":"int","value":1600},{"name":"cy","type":"int","value":0},{"name":"no","type":"int","value":2},{"name":"rx","type":"int","value":-7},{"name":"ry","type":"int","value":-50},{"name":"ani","type":"int","value":0},{"name":"type","type":"int","value":1},{"name":"front","type":"int","value":0}]},{"id":6,"name":"background_back_3","type":"imagelayer","visible":true,"opacity":1,"image":"../../images/27308.png","imagewidth":800,"imageheight":206,"offsetx":32,"offsety":-469,"repeatx":true,"repeaty":false,"parallaxx":1,"parallaxy":1,"properties":[{"name":"a","type":"int","value":255},{"name":"f","type":"int","value":0},{"name":"x","type":"int","value":432},{"name":"y","type":"int","value":-366},{"name":"bS","type":"string","value":"Rien"},{"name":"cx","type":"int","value":1600},{"name":"cy","type":"int","value":0},{"name":"no","type":"int","value":3},{"name":"rx","type":"int","value":-7},{"name":"ry","type":"int","value":-50},{"name":"ani","type":"int","value":0},{"name":"type","type":"int","value":1},{"name":"front","type":"int","value":0}]},{"id":7,"name":"background_back_4","type":"imagelayer","visible":true,"opacity":1,"image":"../../images/27309.png","imagewidth":800,"imageheight":134,"offsetx":-1200,"offsety":-293,"repeatx":true,"repeaty":false,"parallaxx":1,"parallaxy":1,"properties":[{"name":"a","type":"int","value":255},{"name":"f","type":"int","value":0},{"name":"x","type":"int","value":-800},{"name":"y","type":"int","value":-226},{"name":"bS","type":"string","value":"Rien"},{"name":"cx","type":"int","value":2400},{"name":"cy","type":"int","value":0},{"name":"no","type":"int","value":4},{"name":"rx","type":"int","value":-20},{"name":"ry","type":"int","value":-60},{"name":"ani","type":"int","value":0},{"name":"type","type":"int","value":1},{"name":"front","type":"int","value":0}]},{"id":8,"name":"background_back_5","type":"imagelayer","visible":true,"opacity":1,"image":"../../images/27310.png","imagewidth":800,"imageheight":161,"offsetx":-400,"offsety":-320,"repeatx":true,"repeaty":false,"parallaxx":1,"parallaxy":1,"properties":[{"name":"a","type":"int","value":255},{"name":"f","type":"int","value":0},{"name":"x","type":"int","value":0},{"name":"y","type":"int","value":-240},{"name":"bS","type":"string","value":"Rien"},{"name":"cx","type":"int","value":2400},{"name":"cy","type":"int","value":0},{"name":"no","type":"int","value":5},{"name":"rx","type":"int","value":-20},{"name":"ry","type":"int","value":-60},{"name":"ani","type":"int","value":0},{"name":"type","type":"int","value":1},{"name":"front","type":"int","value":0}]},{"id":9,"name":"background_back_6","type":"imagelayer","visible":true,"opacity":1,"image":"../../images/27311.png","imagewidth":800,"imageheight":116,"offsetx":400,"offsety":-275,"repeatx":true,"repeaty":false,"parallaxx":1,"parallaxy":1,"properties":[{"name":"a","type":"int","value":255},{"name":"f","type":"int","value":0},{"name":"x","type":"int","value":800},{"name":"y","type":"int","value":-217},{"name":"bS","type":"string","value":"Rien"},{"name":"cx","type":"int","value":2400},{"name":"cy","type":"int","value":0},{"name":"no","type":"int","value":6},{"name":"rx","type":"int","value":-20},{"name":"ry","type":"int","value":-60},{"name":"ani","type":"int","value":0},{"name":"type","type":"int","value":1},{"name":"front","type":"int","value":0}]},{"id":10,"name":"background_back_7","type":"imagelayer","visible":true,"opacity":1,"image":"../../images/27312.png","imagewidth":800,"imageheight":240,"offsetx":-400,"offsety":-14,"repeatx":true,"repeaty":false,"parallaxx":1,"parallaxy":1,"properties":[{"name":"a","type":"int","value":255},{"name":"f","type":"int","value":0},{"name":"x","type":"int","value":0},{"name":"y","type":"int","value":106},{"name":"bS","type":"string","value":"Rien"},{"name":"cx","type":"int","value":0},{"name":"cy","type":"int","value":0},{"name":"no","type":"int","value":7},{"name":"rx","type":"int","value":0},{"name":"ry","type":"int","value":-100},{"name":"ani","type":"int","value":0},{"name":"type","type":"int","value":1},{"name":"front","type":"int","value":0}]},{"id":11,"name":"background_back_8","type":"imagelayer","visible":true,"opacity":1,"image":"../../images/27313.png","imagewidth":800,"imageheight":267,"offsetx":-400,"offsety":-166,"repeatx":true,"repeaty":false,"parallaxx":1,"parallaxy":1,"properties":[{"name":"a","type":"int","value":255},{"name":"f","type":"int","value":0},{"name":"x","type":"int","value":0},{"name":"y","type":"int","value":-33},{"name":"bS","type":"string","value":"Rien"},{"name":"cx","type":"int","value":0},{"name":"cy","type":"int","value":0},{"name":"no","type":"int","value":8},{"name":"rx","type":"int","value":-30},{"name":"ry","type":"int","value":-60},{"name":"ani","type":"int","value":0},{"name":"type","type":"int","value":1},{"name":"front","type":"int","value":0}]},{"id":12,"name":"background_back_9","type":"imagelayer","visible":true,"opacity":1,"image":"../../images/27314.png","imagewidth":800,"imageheight":249,"offsetx":-1200,"offsety":-210,"repeatx":true,"repeaty":false,"parallaxx":1,"parallaxy":1,"properties":[{"name":"a","type":"int","value":255},{"name":"f","type":"int","value":0},{"name":"x","type":"int","value":-800},{"name":"y","type":"int","value":-86},{"name":"bS","type":"string","value":"Rien"},{"name":"cx","type":"int","value":2400},{"name":"cy","type":"int","value":0},{"name":"no","type":"int","value":9},{"name":"rx","type":"int","value":-30},{"name":"ry","type":"int","value":-70},{"name":"ani","type":"int","value":0},{"name":"type","type":"int","value":1},{"name":"front","type":"int","value":0}]},{"id":13,"name":"background_back_10","type":"imagelayer","visible":true,"opacity":1,"image":"../../images/27315.png","imagewidth":800,"imageheight":367,"offsetx":-400,"offsety":-326,"repeatx":true,"repeaty":false,"parallaxx":1,"parallaxy":1,"properties":[{"name":"a","type":"int","value":255},{"name":"f","type":"int","value":0},{"name":"x","type":"int","value":0},{"name":"y","type":"int","value":-143},{"name":"bS","type":"string","value":"Rien"},{"name":"cx","type":"int","value":2400},{"name":"cy","type":"int","value":0},{"name":"no","type":"int","value":10},{"name":"rx","type":"int","value":-30},{"name":"ry","type":"int","value":-70},{"name":"ani","type":"int","value":0},{"name":"type","type":"int","value":1},{"name":"front","type":"int","value":0}]},{"id":14,"name":"background_back_11","type":"imagelayer","visible":true,"opacity":1,"image":"../../images/27316.png","imagewidth":800,"imageheight":322,"offsetx":400,"offsety":-282,"repeatx":true,"repeaty":false,"parallaxx":1,"parallaxy":1,"properties":[{"name":"a","type":"int","value":255},{"name":"f","type":"int","value":0},{"name":"x","type":"int","value":800},{"name":"y","type":"int","value":-121},{"name":"bS","type":"string","value":"Rien"},{"name":"cx","type":"int","value":2400},{"name":"cy","type":"int","value":0},{"name":"no","type":"int","value":11},{"name":"rx","type":"int","value":-30},{"name":"ry","type":"int","value":-70},{"name":"ani","type":"int","value":0},{"name":"type","type":"int","value":1},{"name":"front","type":"int","value":0}]},{"id":15,"name":"background_back_12","type":"imagelayer","visible":true,"opacity":1,"image":"../../images/27317.png","imagewidth":800,"imageheight":395,"offsetx":-1200,"offsety":-284,"repeatx":true,"repeaty":false,"parallaxx":1,"parallaxy":1,"properties":[{"name":"a","type":"int","value":255},{"name":"f","type":"int","value":0},{"name":"x","type":"int","value":-800},{"name":"y","type":"int","value":-87},{"name":"bS","type":"string","value":"Rien"},{"name":"cx","type":"int","value":2400},{"name":"cy","type":"int","value":0},{"name":"no","type":"int","value":12},{"name":"rx","type":"int","value":-60},{"name":"ry","type":"int","value":-100},{"name":"ani","type":"int","value":0},{"name":"type","type":"int","value":1},{"name":"front","type":"int","value":0}]},{"id":16,"name":"background_back_13","type":"imagelayer","visible":true,"opacity":1,"image":"../../images/27318.png","imagewidth":800,"imageheight":333,"offsetx":-400,"offsety":-237,"repeatx":true,"repeaty":false,"parallaxx":1,"parallaxy":1,"properties":[{"name":"a","type":"int","value":255},{"name":"f","type":"int","value":0},{"name":"x","type":"int","value":0},{"name":"y","type":"int","value":-71},{"name":"bS","type":"string","value":"Rien"},{"name":"cx","type":"int","value":2400},{"name":"cy","type":"int","value":0},{"name":"no","type":"int","value":13},{"name":"rx","type":"int","value":-60},{"name":"ry","type":"int","value":-100},{"name":"ani","type":"int","value":0},{"name":"type","type":"int","value":1},{"name":"front","type":"int","value":0}]},{"id":17,"name":"background_back_14","type":"imagelayer","visible":true,"opacity":1,"image":"../../images/27319.png","imagewidth":800,"imageheight":358,"offsetx":400,"offsety":-255,"repeatx":true,"repeaty":false,"parallaxx":1,"parallaxy":1,"properties":[{"name":"a","type":"int","value":255},{"name":"f","type":"int","value":0},{"name":"x","type":"int","value":800},{"name":"y","type":"int","value":-76},{"name":"bS","type":"string","value":"Rien"},{"name":"cx","type":"int","value":2400},{"name":"cy","type":"int","value":0},{"name":"no","type":"int","value":14},{"name":"rx","type":"int","value":-60},{"name":"ry","type":"int","value":-100},{"name":"ani","type":"int","value":0},{"name":"type","type":"int","value":1},{"name":"front","type":"int","value":0}]},{"id":18,"name":"background_back_15","type":"imagelayer","visible":true,"opacity":1,"image":"../../images/27335.png","imagewidth":516,"imageheight":723,"offsetx":-758,"offsety":-528,"repeatx":true,"repeaty":false,"parallaxx":1,"parallaxy":1,"properties":[{"name":"a","type":"int","value":255},{"name":"f","type":"int","value":0},{"name":"x","type":"int","value":-500},{"name":"y","type":"int","value":-167},{"name":"bS","type":"string","value":"Rien"},{"name":"cx","type":"int","value":3000},{"name":"cy","type":"int","value":0},{"name":"no","type":"int","value":0},{"name":"rx","type":"int","value":-70},{"name":"ry","type":"int","value":-20},{"name":"ani","type":"int","value":1},{"name":"type","type":"int","value":1},{"name":"front","type":"int","value":0}]},{"id":19,"name":"background_back_16","type":"imagelayer","visible":true,"opacity":1,"image":"../../images/27337.png","imagewidth":529,"imageheight":659,"offsetx":-564,"offsety":-528,"repeatx":true,"repeaty":false,"parallaxx":1,"parallaxy":1,"properties":[{"name":"a","type":"int","value":255},{"name":"f","type":"int","value":0},{"name":"x","type":"int","value":-300},{"name":"y","type":"int","value":-199},{"name":"bS","type":"string","value":"Rien"},{"name":"cx","type":"int","value":3200},{"name":"cy","type":"int","value":0},{"name":"no","type":"int","value":1},{"name":"rx","type":"int","value":-70},{"name":"ry","type":"int","value":-20},{"name":"ani","type":"int","value":1},{"name":"type","type":"int","value":1},{"name":"front","type":"int","value":0}]},{"id":20,"name":"background_back_17","type":"imagelayer","visible":true,"opacity":1,"image":"../../images/27339.png","imagewidth":376,"imageheight":443,"offsetx":-1588,"offsety":-530,"repeatx":true,"repeaty":false,"parallaxx":1,"parallaxy":1,"properties":[{"name":"a","type":"int","value":255},{"name":"f","type":"int","value":0},{"name":"x","type":"int","value":-1400},{"name":"y","type":"int","value":-309},{"name":"bS","type":"string","value":"Rien"},{"name":"cx","type":"int","value":3400},{"name":"cy","type":"int","value":0},{"name":"no","type":"int","value":2},{"name":"rx","type":"int","value":-70},{"name":"ry","type":"int","value":-20},{"name":"ani","type":"int","value":1},{"name":"type","type":"int","value":1},{"name":"front","type":"int","value":0}]},{"id":21,"name":"background_back_18","type":"imagelayer","visible":true,"opacity":1,"image":"../../images/27341.png","imagewidth":554,"imageheight":619,"offsetx":523,"offsety":-527,"repeatx":true,"repeaty":false,"parallaxx":1,"parallaxy":1,"properties":[{"name":"a","type":"int","value":255},{"name":"f","type":"int","value":0},{"name":"x","type":"int","value":800},{"name":"y","type":"int","value":-218},{"name":"bS","type":"string","value":"Rien"},{"name":"cx","type":"int","value":3600},{"name":"cy","type":"int","value":0},{"name":"no","type":"int","value":3},{"name":"rx","type":"int","value":-70},{"name":"ry","type":"int","value":-20},{"name":"ani","type":"int","value":1},{"name":"type","type":"int","value":1},{"name":"front","type":"int","value":0}]},{"id":22,"name":"background_back_19","type":"imagelayer","visible":true,"opacity":1,"image":"../../images/27343.png","imagewidth":424,"imageheight":506,"offsetx":-2113,"offsety":-528,"repeatx":true,"repeaty":false,"parallaxx":1,"parallaxy":1,"properties":[{"name":"a","type":"int","value":255},{"name":"f","type":"int","value":0},{"name":"x","type":"int","value":-1901},{"name":"y","type":"int","value":-275},{"name":"bS","type":"string","value":"Rien"},{"name":"cx","type":"int","value":3800},{"name":"cy","type":"int","value":0},{"name":"no","type":"int","value":4},{"name":"rx","type":"int","value":-70},{"name":"ry","type":"int","value":-20},{"name":"ani","type":"int","value":1},{"name":"type","type":"int","value":1},{"name":"front","type":"int","value":0}]},{"id":23,"name":"portal","type":"objectgroup","visible":true,"opacity":1,"objects":[{"id":74,"x":727,"y":-53,"visible":true,"properties":[{"name":"x","type":"int","value":727},{"name":"y","type":"int","value":-53},{"name":"pn","type":"string","value":"sp"},{"name":"pt","type":"int","value":0},{"name":"tm","type":"int","value":999999999},{"name":"tn","type":"string","value":""},{"name":"horizontalImpact","type":"int","value":0}],"point":true},{"id":75,"x":849,"y":84,"visible":true,"properties":[{"name":"x","type":"int","value":849},{"name":"y","type":"int","value":84},{"name":"pn","type":"string","value":"out00"},{"name":"pt","type":"int","value":2},{"name":"tm","type":"int","value":140010200},{"name":"tn","type":"string","value":"st00"},{"name":"horizontalImpact","type":"int","value":0}],"point":true}]},{"id":24,"name":"life","type":"objectgroup","visible":true,"opacity":1,"objects":[{"id":76,"x":213,"y":-105,"visible":true,"properties":[{"name":"f","type":"int","value":1},{"name":"x","type":"int","value":213},{"name":"y","type":"int","value":-105},{"name":"cy","type":"int","value":-94},{"name":"fh","type":"int","value":11},{"name":"id","type":"int","value":1202008},{"name":"rx0","type":"int","value":163},{"name":"rx1","type":"int","value":263},{"name":"hide","type":"int","value":0},{"name":"type","type":"string","value":"n"},{"name":"mobTime","type":"int","value":0}],"point":true}]},{"id":25,"name":"foothold","type":"objectgroup","visible":true,"opacity":1,"objects":[{"id":77,"x":0,"y":-94,"visible":true,"properties":[{"name":"layer","type":"int","value":5},{"name":"group","type":"int","value":0},{"name":"id","type":"int","value":1},{"name":"fh_layer","type":"int","value":5},{"name":"fh_group","type":"int","value":0},{"name":"fh_id","type":"int","value":1},{"name":"x1","type":"int","value":0},{"name":"x2","type":"int","value":90},{"name":"y1","type":"int","value":-94},{"name":"y2","type":"int","value":-94},{"name":"next","type":"int","value":6},{"name":"prev","type":"int","value":0}],"polyline":[{"x":0,"y":0},{"x":90,"y":0}]},{"id":78,"x":900,"y":86,"visible":true,"properties":[{"name":"layer","type":"int","value":5},{"name":"group","type":"int","value":0},{"name":"id","type":"int","value":2},{"name":"fh_layer","type":"int","value":5},{"name":"fh_group","type":"int","value":0},{"name":"fh_id","type":"int","value":2},{"name":"x1","type":"int","value":900},{"name":"x2","type":"int","value":990},{"name":"y1","type":"int","value":86},{"name":"y2","type":"int","value":86},{"name":"next","type":"int","value":0},{"name":"prev","type":"int","value":7}],"polyline":[{"x":0,"y":0},{"x":90,"y":0}]},{"id":79,"x":270,"y":86,"visible":true,"properties":[{"name":"layer","type":"int","value":5},{"name":"group","type":"int","value":0},{"name":"id","type":"int","value":3},{"name":"fh_layer","type":"int","value":5},{"name":"fh_group","type":"int","value":0},{"name":"fh_id","type":"int","value":3},{"name":"x1","type":"int","value":270},{"name":"x2","type":"int","value":360},{"name":"y1","type":"int","value":86},{"name":"y2","type":"int","value":86},{"name":"next","type":"int","value":9},{"name":"prev","type":"int","value":14}],"polyline":[{"x":0,"y":0},{"x":90,"y":0}]},{"id":80,"x":720,"y":86,"visible":true,"properties":[{"name":"layer","type":"int","value":5},{"name":"group","type":"int","value":0},{"name":"id","type":"int","value":4},{"name":"fh_layer","type":"int","value":5},{"name":"fh_group","type":"int","value":0},{"name":"fh_id","type":"int","value":4},{"name":"x1","type":"int","value":720},{"name":"x2","type":"int","value":810},{"name":"y1","type":"int","value":86},{"name":"y2","type":"int","value":86},{"name":"next","type":"int","value":7},{"name":"prev","type":"int","value":10}],"polyline":[{"x":0,"y":0},{"x":90,"y":0}]},{"id":81,"x":450,"y":86,"visible":true,"properties":[{"name":"layer","type":"int","value":5},{"name":"group","type":"int","value":0},{"name":"id","type":"int","value":5},{"name":"fh_layer","type":"int","value":5},{"name":"fh_group","type":"int","value":0},{"name":"fh_id","type":"int","value":5},{"name":"x1","type":"int","value":450},{"name":"x2","type":"int","value":540},{"name":"y1","type":"int","value":86},{"name":"y2","type":"int","value":86},{"name":"next","type":"int","value":8},{"name":"prev","type":"int","value":9}],"polyline":[{"x":0,"y":0},{"x":90,"y":0}]},{"id":82,"x":90,"y":-94,"visible":true,"properties":[{"name":"layer","type":"int","value":5},{"name":"group","type":"int","value":0},{"name":"id","type":"int","value":6},{"name":"fh_layer","type":"int","value":5},{"name":"fh_group","type":"int","value":0},{"name":"fh_id","type":"int","value":6},{"name":"x1","type":"int","value":90},{"name":"x2","type":"int","value":180},{"name":"y1","type":"int","value":-94},{"name":"y2","type":"int","value":-94},{"name":"next","type":"int","value":11},{"name":"prev","type":"int","value":1}],"polyline":[{"x":0,"y":0},{"x":90,"y":0}]},{"id":83,"x":810,"y":86,"visible":true,"properties":[{"name":"layer","type":"int","value":5},{"name":"group","type":"int","value":0},{"name":"id","type":"int","value":7},{"name":"fh_layer","type":"int","value":5},{"name":"fh_group","type":"int","value":0},{"name":"fh_id","type":"int","value":7},{"name":"x1","type":"int","value":810},{"name":"x2","type":"int","value":900},{"name":"y1","type":"int","value":86},{"name":"y2","type":"int","value":86},{"name":"next","type":"int","value":2},{"name":"prev","type":"int","value":4}],"polyline":[{"x":0,"y":0},{"x":90,"y":0}]},{"id":84,"x":540,"y":86,"visible":true,"properties":[{"name":"layer","type":"int","value":5},{"name":"group","type":"int","value":0},{"name":"id","type":"int","value":8},{"name":"fh_layer","type":"int","value":5},{"name":"fh_group","type":"int","value":0},{"name":"fh_id","type":"int","value":8},{"name":"x1","type":"int","value":540},{"name":"x2","type":"int","value":630},{"name":"y1","type":"int","value":86},{"name":"y2","type":"int","value":86},{"name":"next","type":"int","value":10},{"name":"prev","type":"int","value":5}],"polyline":[{"x":0,"y":0},{"x":90,"y":0}]},{"id":85,"x":360,"y":86,"visible":true,"properties":[{"name":"layer","type":"int","value":5},{"name":"group","type":"int","value":0},{"name":"id","type":"int","value":9},{"name":"fh_layer","type":"int","value":5},{"name":"fh_group","type":"int","value":0},{"name":"fh_id","type":"int","value":9},{"name":"x1","type":"int","value":360},{"name":"x2","type":"int","value":450},{"name":"y1","type":"int","value":86},{"name":"y2","type":"int","value":86},{"name":"next","type":"int","value":5},{"name":"prev","type":"int","value":3}],"polyline":[{"x":0,"y":0},{"x":90,"y":0}]},{"id":86,"x":630,"y":86,"visible":true,"properties":[{"name":"layer","type":"int","value":5},{"name":"group","type":"int","value":0},{"name":"id","type":"int","value":10},{"name":"fh_layer","type":"int","value":5},{"name":"fh_group","type":"int","value":0},{"name":"fh_id","type":"int","value":10},{"name":"x1","type":"int","value":630},{"name":"x2","type":"int","value":720},{"name":"y1","type":"int","value":86},{"name":"y2","type":"int","value":86},{"name":"next","type":"int","value":4},{"name":"prev","type":"int","value":8}],"polyline":[{"x":0,"y":0},{"x":90,"y":0}]},{"id":87,"x":180,"y":-94,"visible":true,"properties":[{"name":"layer","type":"int","value":5},{"name":"group","type":"int","value":0},{"name":"id","type":"int","value":11},{"name":"fh_layer","type":"int","value":5},{"name":"fh_group","type":"int","value":0},{"name":"fh_id","type":"int","value":11},{"name":"x1","type":"int","value":180},{"name":"x2","type":"int","value":238},{"name":"y1","type":"int","value":-94},{"name":"y2","type":"int","value":-94},{"name":"next","type":"int","value":15},{"name":"prev","type":"int","value":6}],"polyline":[{"x":0,"y":0},{"x":58,"y":0}]},{"id":88,"x":212,"y":0,"visible":true,"properties":[{"name":"layer","type":"int","value":5},{"name":"group","type":"int","value":0},{"name":"id","type":"int","value":12},{"name":"fh_layer","type":"int","value":5},{"name":"fh_group","type":"int","value":0},{"name":"fh_id","type":"int","value":12},{"name":"x1","type":"int","value":212},{"name":"x2","type":"int","value":212},{"name":"y1","type":"int","value":0},{"name":"y2","type":"int","value":60},{"name":"next","type":"int","value":13},{"name":"prev","type":"int","value":0}],"polyline":[{"x":0,"y":0},{"x":0,"y":60}]},{"id":89,"x":212,"y":60,"visible":true,"properties":[{"name":"layer","type":"int","value":5},{"name":"group","type":"int","value":0},{"name":"id","type":"int","value":13},{"name":"fh_layer","type":"int","value":5},{"name":"fh_group","type":"int","value":0},{"name":"fh_id","type":"int","value":13},{"name":"x1","type":"int","value":212},{"name":"x2","type":"int","value":212},{"name":"y1","type":"int","value":60},{"name":"y2","type":"int","value":86},{"name":"next","type":"int","value":14},{"name":"prev","type":"int","value":12}],"polyline":[{"x":0,"y":0},{"x":0,"y":26}]},{"id":90,"x":212,"y":86,"visible":true,"properties":[{"name":"layer","type":"int","value":5},{"name":"group","type":"int","value":0},{"name":"id","type":"int","value":14},{"name":"fh_layer","type":"int","value":5},{"name":"fh_group","type":"int","value":0},{"name":"fh_id","type":"int","value":14},{"name":"x1","type":"int","value":212},{"name":"x2","type":"int","value":270},{"name":"y1","type":"int","value":86},{"name":"y2","type":"int","value":86},{"name":"next","type":"int","value":3},{"name":"prev","type":"int","value":13}],"polyline":[{"x":0,"y":0},{"x":58,"y":0}]},{"id":91,"x":238,"y":-94,"visible":true,"properties":[{"name":"layer","type":"int","value":5},{"name":"group","type":"int","value":0},{"name":"id","type":"int","value":15},{"name":"fh_layer","type":"int","value":5},{"name":"fh_group","type":"int","value":0},{"name":"fh_id","type":"int","value":15},{"name":"x1","type":"int","value":238},{"name":"x2","type":"int","value":270},{"name":"y1","type":"int","value":-94},{"name":"y2","type":"int","value":-94},{"name":"next","type":"int","value":16},{"name":"prev","type":"int","value":11}],"polyline":[{"x":0,"y":0},{"x":32,"y":0}]},{"id":92,"x":270,"y":-94,"visible":true,"properties":[{"name":"layer","type":"int","value":5},{"name":"group","type":"int","value":0},{"name":"id","type":"int","value":16},{"name":"fh_layer","type":"int","value":5},{"name":"fh_group","type":"int","value":0},{"name":"fh_id","type":"int","value":16},{"name":"x1","type":"int","value":270},{"name":"x2","type":"int","value":302},{"name":"y1","type":"int","value":-94},{"name":"y2","type":"int","value":-94},{"name":"next","type":"int","value":17},{"name":"prev","type":"int","value":15}],"polyline":[{"x":0,"y":0},{"x":32,"y":0}]},{"id":93,"x":302,"y":-94,"visible":true,"properties":[{"name":"layer","type":"int","value":5},{"name":"group","type":"int","value":0},{"name":"id","type":"int","value":17},{"name":"fh_layer","type":"int","value":5},{"name":"fh_group","type":"int","value":0},{"name":"fh_id","type":"int","value":17},{"name":"x1","type":"int","value":302},{"name":"x2","type":"int","value":302},{"name":"y1","type":"int","value":-94},{"name":"y2","type":"int","value":-60},{"name":"next","type":"int","value":0},{"name":"prev","type":"int","value":16}],"polyline":[{"x":0,"y":0},{"x":0,"y":34}]}]}],"tilesets":[{"firstgid":1,"source":"../../tilesets/bg_Rien.tsj"},{"firstgid":24,"source":"../../tilesets/tile_snowyRord.tsj"},{"firstgid":43,"source":"../../tilesets/obj_acc12_rienFD_nature1.tsj"}],"properties":[{"name":"bgm","type":"string","value":"Bgm19/SnowDrop"},{"name":"fly","type":"int","value":0},{"name":"swim","type":"int","value":0},{"name":"town","type":"int","value":0},{"name":"VRTop","type":"int","value":-900},{"name":"cloud","type":"int","value":0},{"name":"VRLeft","type":"int","value":1},{"name":"VRRight","type":"int","value":989},{"name":"mapMark","type":"string","value":"Rien"},{"name":"mobRate","type":"float","value":1},{"name":"version","type":"int","value":10},{"name":"VRBottom","type":"int","value":260},{"name":"noMapCmd","type":"int","value":0},{"name":"returnMap","type":"int","value":140010200},{"name":"fieldLimit","type":"int","value":0},{"name":"hideMinimap","type":"int","value":0},{"name":"onUserEnter","type":"string","value":""},{"name":"forcedReturn","type":"int","value":140010200},{"name":"onFirstUserEnter","type":"string","value":""}]}